<?xml version="1.0" encoding="UTF-8"?>
<map version="1.10" tiledversion="1.11.2" orientation="orthogonal" renderorder="right-down" width="50" height="58" tilewidth="8" tileheight="8" infinite="0" backgroundcolor="#000000" nextlayerid="24" nextobjectid="112">
 <tileset firstgid="1" source="../../__gm_import.tsx"/>
 <tileset firstgid="1504" source="../../tile_sets/__META/tile_collision_info.tsx"/>
 <tileset firstgid="1511" source="../../tile_sets/tile_footsteps.tsx"/>
 <tileset firstgid="1655" source="../../tile_sets/_GENERIC/tile_main_interiors.tsx"/>
 <tileset firstgid="5751" source="../../tile_sets/_GENERIC/tile_main_interiors_shadows.tsx"/>
 <tileset firstgid="6007" source="../../tile_sets/__META/tile_pathfinding.tsx"/>
 <tileset firstgid="6013" source="../../tile_sets/__META/tile_rules.tsx"/>
 <group id="1" name="Level_0">
  <layer id="2" name="Level_0_Floor_A" width="50" height="58">
   <properties>
    <property name="maybe_animation_id" value="75ea443e6634d96"/>
    <property name="maybe_tileset_id" value="d8b504e9a8480fbe"/>
    <property name="tile_size" type="int" value="16"/>
   </properties>
   <data encoding="csv">
1655,0,1655,0,1655,0,1655,0,1655,0,1655,0,1655,0,1655,0,1655,0,1655,0,1655,0,1655,0,1655,0,1655,0,1655,0,1655,0,1655,0,0,0,0,0,0,0,0,0,0,0,0,0,0,0,0,0,
0,0,0,0,0,0,0,0,0,0,0,0,0,0,0,0,0,0,0,0,0,0,0,0,0,0,0,0,0,0,0,0,0,0,0,0,0,0,0,0,0,0,0,0,0,0,0,0,0,0,
1655,0,1655,0,1655,0,1655,0,1655,0,1655,0,1655,0,1655,0,1655,0,1655,0,1655,0,1655,0,1655,0,1655,0,1655,0,1655,0,1655,0,0,0,0,0,0,0,0,0,0,0,0,0,0,0,0,0,
0,0,0,0,0,0,0,0,0,0,0,0,0,0,0,0,0,0,0,0,0,0,0,0,0,0,0,0,0,0,0,0,0,0,0,0,0,0,0,0,0,0,0,0,0,0,0,0,0,0,
1655,0,1655,0,1655,0,1655,0,1655,0,1655,0,1655,0,1655,0,1655,0,1655,0,1655,0,1655,0,1655,0,1655,0,1655,0,1655,0,1655,0,0,0,0,0,0,0,0,0,0,0,0,0,0,0,0,0,
0,0,0,0,0,0,0,0,0,0,0,0,0,0,0,0,0,0,0,0,0,0,0,0,0,0,0,0,0,0,0,0,0,0,0,0,0,0,0,0,0,0,0,0,0,0,0,0,0,0,
1655,0,1655,0,1655,0,1655,0,1655,0,1655,0,1655,0,1655,0,1655,0,1655,0,1655,0,1655,0,1655,0,1655,0,1655,0,1655,0,1655,0,0,0,0,0,0,0,0,0,0,0,0,0,0,0,0,0,
0,0,0,0,0,0,0,0,0,0,0,0,0,0,0,0,0,0,0,0,0,0,0,0,0,0,0,0,0,0,0,0,0,0,0,0,0,0,0,0,0,0,0,0,0,0,0,0,0,0,
1655,0,1655,0,1655,0,1655,0,1655,0,1655,0,1655,0,1655,0,1655,0,1655,0,1655,0,1655,0,1655,0,1655,0,1655,0,1655,0,1655,0,0,0,0,0,0,0,0,0,0,0,0,0,0,0,0,0,
0,0,0,0,0,0,0,0,0,0,0,0,0,0,0,0,0,0,0,0,0,0,0,0,0,0,0,0,0,0,0,0,0,0,0,0,0,0,0,0,0,0,0,0,0,0,0,0,0,0,
1655,0,1655,0,1655,0,1655,0,1655,0,1655,0,1655,0,1655,0,1655,0,1655,0,1655,0,1655,0,1655,0,1655,0,1655,0,1655,0,1655,0,0,0,0,0,0,0,0,0,0,0,0,0,0,0,0,0,
0,0,0,0,0,0,0,0,0,0,0,0,0,0,0,0,0,0,0,0,0,0,0,0,0,0,0,0,0,0,0,0,0,0,0,0,0,0,0,0,0,0,0,0,0,0,0,0,0,0,
1655,0,1655,0,1655,0,1655,0,1655,0,1655,0,1655,0,1655,0,1655,0,1655,0,1655,0,1655,0,1655,0,1655,0,1655,0,1655,0,1655,0,1655,0,1655,0,0,0,0,0,0,0,0,0,0,0,0,0,
0,0,0,0,0,0,0,0,0,0,0,0,0,0,0,0,0,0,0,0,0,0,0,0,0,0,0,0,0,0,0,0,0,0,0,0,0,0,0,0,0,0,0,0,0,0,0,0,0,0,
1655,0,1655,0,1655,0,1655,0,1655,0,1655,0,1655,0,1655,0,1655,0,1655,0,1655,0,1655,0,1655,0,1655,0,1655,0,1655,0,1655,0,1655,0,1655,0,0,0,0,0,0,0,0,0,0,0,0,0,
0,0,0,0,0,0,0,0,0,0,0,0,0,0,0,0,0,0,0,0,0,0,0,0,0,0,0,0,0,0,0,0,0,0,0,0,0,0,0,0,0,0,0,0,0,0,0,0,0,0,
1655,0,1655,0,1655,0,1655,0,1655,0,1655,0,1655,0,1655,0,1655,0,1655,0,1655,0,1655,0,1655,0,1655,0,1655,0,1655,0,1655,0,1655,0,1655,0,0,0,0,0,0,0,0,0,0,0,0,0,
0,0,0,0,0,0,0,0,0,0,0,0,0,0,0,0,0,0,0,0,0,0,0,0,0,0,0,0,0,0,0,0,0,0,0,0,0,0,0,0,0,0,0,0,0,0,0,0,0,0,
1655,0,1655,0,1655,0,1655,0,1655,0,1655,0,1655,0,1655,0,1655,0,1655,0,1655,0,1655,0,1655,0,1655,0,1655,0,1655,0,1655,0,1655,0,1655,0,0,0,0,0,0,0,0,0,0,0,0,0,
0,0,0,0,0,0,0,0,0,0,0,0,0,0,0,0,0,0,0,0,0,0,0,0,0,0,0,0,0,0,0,0,0,0,0,0,0,0,0,0,0,0,0,0,0,0,0,0,0,0,
1655,0,1655,0,1655,0,1655,0,1655,0,1655,0,1655,0,1655,0,1655,0,1655,0,1655,0,1655,0,1655,0,1655,0,1655,0,1655,0,1655,0,1655,0,1655,0,0,0,0,0,0,0,0,0,0,0,0,0,
0,0,0,0,0,0,0,0,0,0,0,0,0,0,0,0,0,0,0,0,0,0,0,0,0,0,0,0,0,0,0,0,0,0,0,0,0,0,0,0,0,0,0,0,0,0,0,0,0,0,
1655,0,1655,0,1655,0,1655,0,1655,0,1655,0,1655,0,1655,0,1655,0,1655,0,1655,0,1655,0,1655,0,1655,0,1655,0,1655,0,1655,0,1655,0,1655,0,0,0,0,0,0,0,0,0,0,0,0,0,
0,0,0,0,0,0,0,0,0,0,0,0,0,0,0,0,0,0,0,0,0,0,0,0,0,0,0,0,0,0,0,0,0,0,0,0,0,0,0,0,0,0,0,0,0,0,0,0,0,0,
1655,0,1655,0,1655,0,1655,0,1655,0,1655,0,1655,0,1655,0,1655,0,1655,0,1655,0,1655,0,1655,0,1655,0,1655,0,1655,0,1655,0,1655,0,1655,0,0,0,0,0,0,0,0,0,0,0,0,0,
0,0,0,0,0,0,0,0,0,0,0,0,0,0,0,0,0,0,0,0,0,0,0,0,0,0,0,0,0,0,0,0,0,0,0,0,0,0,0,0,0,0,0,0,0,0,0,0,0,0,
1655,0,1655,0,1655,0,1655,0,1655,0,1655,0,1655,0,1655,0,1655,0,1655,0,1655,0,1655,0,1655,0,1655,0,1655,0,1655,0,1655,0,1655,0,1655,0,0,0,0,0,0,0,0,0,0,0,0,0,
0,0,0,0,0,0,0,0,0,0,0,0,0,0,0,0,0,0,0,0,0,0,0,0,0,0,0,0,0,0,0,0,0,0,0,0,0,0,0,0,0,0,0,0,0,0,0,0,0,0,
1655,0,1655,0,1655,0,1655,0,1655,0,1655,0,1655,0,1655,0,1655,0,1655,0,1655,0,1655,0,1655,0,1655,0,1655,0,1655,0,1655,0,1655,0,1655,0,0,0,0,0,0,0,1655,0,1655,0,0,0,
0,0,0,0,0,0,0,0,0,0,0,0,0,0,0,0,0,0,0,0,0,0,0,0,0,0,0,0,0,0,0,0,0,0,0,0,0,0,0,0,0,0,0,0,0,0,0,0,0,0,
1655,0,1655,0,1655,0,4350,0,4351,0,4352,0,4353,0,4350,0,4351,0,4352,0,4353,0,4350,0,4351,0,4352,0,4353,0,4350,0,4351,0,4352,0,4353,0,4350,0,4351,0,4352,0,1655,0,1655,0,0,0,
0,0,0,0,0,0,0,0,0,0,0,0,0,0,0,0,0,0,0,0,0,0,0,0,0,0,0,0,0,0,0,0,0,0,0,0,0,0,0,0,0,0,0,0,0,0,0,0,0,0,
1655,0,1655,0,1655,0,4414,0,4415,0,4416,0,4417,0,4414,0,4415,0,4416,0,4417,0,4414,0,4415,0,4416,0,4417,0,4414,0,4415,0,4416,0,4417,0,4414,0,4415,0,4416,0,1655,0,1655,0,0,0,
0,0,0,0,0,0,0,0,0,0,0,0,0,0,0,0,0,0,0,0,0,0,0,0,0,0,0,0,0,0,0,0,0,0,0,0,0,0,0,0,0,0,0,0,0,0,0,0,0,0,
1655,0,1655,0,1655,0,4478,0,4479,0,4480,0,4481,0,4478,0,4479,0,4480,0,4481,0,4478,0,4479,0,4480,0,4481,0,4478,0,4479,0,4480,0,4481,0,4478,0,4479,0,4480,0,1655,0,1655,0,0,0,
0,0,0,0,0,0,0,0,0,0,0,0,0,0,0,0,0,0,0,0,0,0,0,0,0,0,0,0,0,0,0,0,0,0,0,0,0,0,0,0,0,0,0,0,0,0,0,0,0,0,
1655,0,1655,0,1655,0,4542,0,4543,0,4544,0,4545,0,4542,0,4543,0,4544,0,4545,0,4542,0,4543,0,4544,0,4545,0,4542,0,4543,0,4544,0,4545,0,4542,0,4543,0,4544,0,1655,0,1655,0,0,0,
0,0,0,0,0,0,0,0,0,0,0,0,0,0,0,0,0,0,0,0,0,0,0,0,0,0,0,0,0,0,0,0,0,0,0,0,0,0,0,0,0,0,0,0,0,0,0,0,0,0,
1655,0,1655,0,1655,0,4350,0,4351,0,4352,0,4353,0,4350,0,4351,0,4352,0,4353,0,4350,0,4351,0,4352,0,4353,0,4350,0,4351,0,4352,0,4353,0,4350,0,4351,0,4352,0,1655,0,1655,0,0,0,
0,0,0,0,0,0,0,0,0,0,0,0,0,0,0,0,0,0,0,0,0,0,0,0,0,0,0,0,0,0,0,0,0,0,0,0,0,0,0,0,0,0,0,0,0,0,0,0,0,0,
1655,0,1655,0,1655,0,4414,0,4415,0,4416,0,4417,0,4414,0,4415,0,4416,0,4417,0,4414,0,4415,0,4416,0,4417,0,4414,0,4415,0,4416,0,4417,0,4414,0,4415,0,4416,0,1655,0,1655,0,0,0,
0,0,0,0,0,0,0,0,0,0,0,0,0,0,0,0,0,0,0,0,0,0,0,0,0,0,0,0,0,0,0,0,0,0,0,0,0,0,0,0,0,0,0,0,0,0,0,0,0,0,
1655,0,1655,0,1655,0,4478,0,4479,0,4480,0,4481,0,4478,0,4479,0,4480,0,4481,0,4478,0,4479,0,4480,0,4481,0,4478,0,4479,0,4480,0,4481,0,4478,0,4479,0,4480,0,1655,0,1655,0,0,0,
0,0,0,0,0,0,0,0,0,0,0,0,0,0,0,0,0,0,0,0,0,0,0,0,0,0,0,0,0,0,0,0,0,0,0,0,0,0,0,0,0,0,0,0,0,0,0,0,0,0,
1655,0,0,0,0,0,4542,0,4543,0,4544,0,4545,0,4542,0,4543,0,4544,0,4545,0,4542,0,4543,0,4544,0,4545,0,4542,0,4543,0,4544,0,4545,0,4542,0,4543,0,4544,0,1655,0,1655,0,0,0,
0,0,0,0,0,0,0,0,0,0,0,0,0,0,0,0,0,0,0,0,0,0,0,0,0,0,0,0,0,0,0,0,0,0,0,0,0,0,0,0,0,0,0,0,0,0,0,0,0,0,
0,0,0,0,0,0,0,0,0,0,0,0,0,0,0,0,0,0,0,0,0,0,0,0,0,0,0,0,0,0,0,0,0,0,0,0,0,0,0,0,0,0,0,0,1655,0,1655,0,0,0,
0,0,0,0,0,0,0,0,0,0,0,0,0,0,0,0,0,0,0,0,0,0,0,0,0,0,0,0,0,0,0,0,0,0,0,0,0,0,0,0,0,0,0,0,0,0,0,0,0,0,
0,0,0,0,0,0,0,0,0,0,0,0,0,0,0,0,0,0,0,0,0,0,0,0,0,0,0,0,0,0,0,0,0,0,0,0,0,0,0,0,0,0,0,0,1655,0,1655,0,0,0,
0,0,0,0,0,0,0,0,0,0,0,0,0,0,0,0,0,0,0,0,0,0,0,0,0,0,0,0,0,0,0,0,0,0,0,0,0,0,0,0,0,0,0,0,0,0,0,0,0,0,
0,0,0,0,0,0,0,0,0,0,0,0,0,0,0,0,0,0,0,0,0,0,0,0,0,0,0,0,0,0,0,0,0,0,0,0,0,0,0,0,0,0,0,0,0,0,0,0,0,0,
0,0,0,0,0,0,0,0,0,0,0,0,0,0,0,0,0,0,0,0,0,0,0,0,0,0,0,0,0,0,0,0,0,0,0,0,0,0,0,0,0,0,0,0,0,0,0,0,0,0,
0,0,0,0,0,0,0,0,0,0,0,0,0,0,0,0,0,0,0,0,0,0,0,0,0,0,0,0,0,0,0,0,0,0,0,0,0,0,0,0,0,0,0,0,0,0,0,0,0,0,
0,0,0,0,0,0,0,0,0,0,0,0,0,0,0,0,0,0,0,0,0,0,0,0,0,0,0,0,0,0,0,0,0,0,0,0,0,0,0,0,0,0,0,0,0,0,0,0,0,0,
0,0,0,0,0,0,0,0,0,0,0,0,0,0,0,0,0,0,0,0,0,0,0,0,0,0,0,0,0,0,0,0,0,0,0,0,0,0,0,0,0,0,0,0,0,0,0,0,0,0,
0,0,0,0,0,0,0,0,0,0,0,0,0,0,0,0,0,0,0,0,0,0,0,0,0,0,0,0,0,0,0,0,0,0,0,0,0,0,0,0,0,0,0,0,0,0,0,0,0,0,
0,0,0,0,0,0,0,0,0,0,0,0,0,0,0,0,0,0,0,0,0,0,0,0,0,0,0,0,0,0,0,0,0,0,0,0,0,0,0,0,0,0,0,0,0,0,0,0,0,0,
0,0,0,0,0,0,0,0,0,0,0,0,0,0,0,0,0,0,0,0,0,0,0,0,0,0,0,0,0,0,0,0,0,0,0,0,0,0,0,0,0,0,0,0,0,0,0,0,0,0
</data>
  </layer>
  <layer id="3" name="Level_0_Floor_B" width="50" height="58">
   <properties>
    <property name="maybe_animation_id" value="75ea443e6634d96"/>
    <property name="maybe_tileset_id" value="d8b504e9a8480fbe"/>
    <property name="tile_size" type="int" value="16"/>
   </properties>
   <data encoding="csv">
1655,0,1655,0,1655,0,1655,0,1655,0,1655,0,1655,0,1655,0,1655,0,1655,0,1655,0,1655,0,1655,0,1655,0,1655,0,1655,0,1655,0,0,0,0,0,0,0,0,0,0,0,0,0,0,0,0,0,
0,0,0,0,0,0,0,0,0,0,0,0,0,0,0,0,0,0,0,0,0,0,0,0,0,0,0,0,0,0,0,0,0,0,0,0,0,0,0,0,0,0,0,0,0,0,0,0,0,0,
1655,0,1655,0,1655,0,1655,0,1655,0,1655,0,1655,0,1655,0,1655,0,1655,0,1655,0,1655,0,1655,0,1655,0,1655,0,1655,0,1655,0,0,0,0,0,0,0,0,0,0,0,0,0,0,0,0,0,
0,0,0,0,0,0,0,0,0,0,0,0,0,0,0,0,0,0,0,0,0,0,0,0,0,0,0,0,0,0,0,0,0,0,0,0,0,0,0,0,0,0,0,0,0,0,0,0,0,0,
1655,0,1655,0,1655,0,1655,0,1655,0,1655,0,1655,0,1655,0,1655,0,1655,0,1655,0,1655,0,1655,0,1655,0,1655,0,1655,0,1655,0,0,0,0,0,0,0,0,0,0,0,0,0,0,0,0,0,
0,0,0,0,0,0,0,0,0,0,0,0,0,0,0,0,0,0,0,0,0,0,0,0,0,0,0,0,0,0,0,0,0,0,0,0,0,0,0,0,0,0,0,0,0,0,0,0,0,0,
1655,0,1655,0,1655,0,1655,0,1655,0,1655,0,1655,0,1655,0,1655,0,1655,0,1655,0,1655,0,1655,0,1655,0,1655,0,1655,0,1655,0,0,0,0,0,0,0,0,0,0,0,0,0,0,0,0,0,
0,0,0,0,0,0,0,0,0,0,0,0,0,0,0,0,0,0,0,0,0,0,0,0,0,0,0,0,0,0,0,0,0,0,0,0,0,0,0,0,0,0,0,0,0,0,0,0,0,0,
1655,0,1655,0,1655,0,1655,0,1655,0,1655,0,1655,0,1655,0,1655,0,1655,0,1655,0,1655,0,1655,0,1655,0,1655,0,1655,0,1655,0,0,0,0,0,0,0,0,0,0,0,0,0,0,0,0,0,
0,0,0,0,0,0,0,0,0,0,0,0,0,0,0,0,0,0,0,0,0,0,0,0,0,0,0,0,0,0,0,0,0,0,0,0,0,0,0,0,0,0,0,0,0,0,0,0,0,0,
1655,0,1655,0,1655,0,1655,0,1655,0,1655,0,1655,0,1655,0,1655,0,1655,0,1655,0,1655,0,1655,0,1655,0,1655,0,1655,0,1655,0,0,0,0,0,0,0,0,0,0,0,0,0,0,0,0,0,
0,0,0,0,0,0,0,0,0,0,0,0,0,0,0,0,0,0,0,0,0,0,0,0,0,0,0,0,0,0,0,0,0,0,0,0,0,0,0,0,0,0,0,0,0,0,0,0,0,0,
1655,0,1655,0,1655,0,1655,0,1655,0,1655,0,1655,0,1655,0,1655,0,1655,0,1655,0,1655,0,1655,0,1655,0,1655,0,1655,0,1655,0,1655,0,1655,0,0,0,0,0,0,0,0,0,0,0,0,0,
0,0,0,0,0,0,0,0,0,0,0,0,0,0,0,0,0,0,0,0,0,0,0,0,0,0,0,0,0,0,0,0,0,0,0,0,0,0,0,0,0,0,0,0,0,0,0,0,0,0,
1655,0,1655,0,1655,0,1655,0,1655,0,1655,0,1655,0,1655,0,1655,0,1655,0,1655,0,1655,0,1655,0,1655,0,1655,0,1655,0,1655,0,1655,0,1655,0,0,0,0,0,0,0,0,0,0,0,0,0,
0,0,0,0,0,0,0,0,0,0,0,0,0,0,0,0,0,0,0,0,0,0,0,0,0,0,0,0,0,0,0,0,0,0,0,0,0,0,0,0,0,0,0,0,0,0,0,0,0,0,
1655,0,1655,0,1655,0,1655,0,1655,0,1655,0,1655,0,1655,0,1655,0,1655,0,1655,0,1655,0,1655,0,1655,0,1655,0,1655,0,1655,0,1655,0,1655,0,0,0,0,0,0,0,0,0,0,0,0,0,
0,0,0,0,0,0,0,0,0,0,0,0,0,0,0,0,0,0,0,0,0,0,0,0,0,0,0,0,0,0,0,0,0,0,0,0,0,0,0,0,0,0,0,0,0,0,0,0,0,0,
1655,0,1655,0,1655,0,1655,0,1655,0,1655,0,1655,0,1655,0,1655,0,1655,0,1655,0,1655,0,1655,0,1655,0,1655,0,1655,0,1655,0,1655,0,1655,0,0,0,0,0,0,0,0,0,0,0,0,0,
0,0,0,0,0,0,0,0,0,0,0,0,0,0,0,0,0,0,0,0,0,0,0,0,0,0,0,0,0,0,0,0,0,0,0,0,0,0,0,0,0,0,0,0,0,0,0,0,0,0,
1655,0,1655,0,1655,0,4349,0,4349,0,4349,0,4349,0,4349,0,4349,0,4349,0,4349,0,4349,0,4349,0,4349,0,4349,0,4349,0,4349,0,4349,0,4349,0,4349,0,4349,0,4349,0,0,0,0,0,0,0,
0,0,0,0,0,0,0,0,0,0,0,0,0,0,0,0,0,0,0,0,0,0,0,0,0,0,0,0,0,0,0,0,0,0,0,0,0,0,0,0,0,0,0,0,0,0,0,0,0,0,
1655,0,1655,0,1655,0,4349,0,4349,0,4349,0,4349,0,2684358973,0,4349,0,4349,0,4349,0,4349,0,4349,0,4349,0,4413,0,4349,0,4349,0,4477,0,4349,0,3221229949,0,4349,0,4349,0,0,0,0,0,0,0,
0,0,0,0,0,0,0,0,0,0,0,0,0,0,0,0,0,0,0,0,0,0,0,0,0,0,0,0,0,0,0,0,0,0,0,0,0,0,0,0,0,0,0,0,0,0,0,0,0,0,
1655,0,1655,0,1655,0,4349,0,1610617149,0,4349,0,4349,0,4349,0,4349,0,4349,0,4477,0,4349,0,4349,0,4349,0,4349,0,4349,0,4349,0,4349,0,4349,0,4349,0,4349,0,4349,0,0,0,0,0,0,0,
0,0,0,0,0,0,0,0,0,0,0,0,0,0,0,0,0,0,0,0,0,0,0,0,0,0,0,0,0,0,0,0,0,0,0,0,0,0,0,0,0,0,0,0,0,0,0,0,0,0,
1655,0,1655,0,1655,0,4349,0,4349,0,2684359037,0,4349,0,4349,0,4349,0,2684358973,0,4349,0,4349,0,4349,0,4349,0,4349,0,2684359037,0,4349,0,4349,0,4349,0,2684358973,0,4349,0,4349,0,1655,0,1655,0,1655,0,
0,0,0,0,0,0,0,0,0,0,0,0,0,0,0,0,0,0,0,0,0,0,0,0,0,0,0,0,0,0,0,0,0,0,0,0,0,0,0,0,0,0,0,0,0,0,0,0,0,0,
1655,0,1655,0,1655,0,4349,0,4349,0,4349,0,4349,0,4349,0,4349,0,4349,0,4349,0,4349,0,4349,0,4349,0,4349,0,4349,0,3221229885,0,4349,0,4349,0,4349,0,4349,0,4349,0,1655,0,1655,0,1655,0,
0,0,0,0,0,0,0,0,0,0,0,0,0,0,0,0,0,0,0,0,0,0,0,0,0,0,0,0,0,0,0,0,0,0,0,0,0,0,0,0,0,0,0,0,0,0,0,0,0,0,
1655,0,1655,0,1655,0,4349,0,4413,0,4349,0,4477,0,4349,0,4349,0,4349,0,1655,0,1655,0,1655,0,1655,0,1655,0,4349,0,4349,0,4349,0,4477,0,4349,0,1610617213,0,4349,0,1655,0,1655,0,1655,0,
0,0,0,0,0,0,0,0,0,0,0,0,0,0,0,0,0,0,0,0,0,0,0,0,0,0,0,0,0,0,0,0,0,0,0,0,0,0,0,0,0,0,0,0,0,0,0,0,0,0,
1655,0,1655,0,1655,0,4349,0,4349,0,1655,0,1655,0,1655,0,1655,0,1655,0,1655,0,1655,0,1655,0,1655,0,1655,0,1655,0,1655,0,1655,0,1655,0,1655,0,4349,0,4349,0,1655,0,1655,0,1655,0,
0,0,0,0,0,0,0,0,0,0,0,0,0,0,0,0,0,0,0,0,0,0,0,0,0,0,0,0,0,0,0,0,0,0,0,0,0,0,0,0,0,0,0,0,0,0,0,0,0,0,
1655,0,1655,0,1655,0,1655,0,1655,0,1655,0,1655,0,1655,0,1655,0,1655,0,1655,0,1655,0,1655,0,1655,0,1655,0,1655,0,1655,0,1655,0,1655,0,1655,0,1655,0,1655,0,1655,0,1655,0,1655,0,
0,0,0,0,0,0,0,0,0,0,0,0,0,0,0,0,0,0,0,0,0,0,0,0,0,0,0,0,0,0,0,0,0,0,0,0,0,0,0,0,0,0,0,0,0,0,0,0,0,0,
1655,0,1655,0,1655,0,1655,0,1655,0,1655,0,1655,0,1655,0,1655,0,1655,0,1655,0,1655,0,1655,0,1655,0,1655,0,1655,0,1655,0,1655,0,1655,0,1655,0,1655,0,1655,0,1655,0,1655,0,1655,0,
0,0,0,0,0,0,0,0,0,0,0,0,0,0,0,0,0,0,0,0,0,0,0,0,0,0,0,0,0,0,0,0,0,0,0,0,0,0,0,0,0,0,0,0,0,0,0,0,0,0,
1655,0,1655,0,1655,0,1655,0,1655,0,1655,0,1655,0,1655,0,1655,0,1655,0,1655,0,1655,0,1655,0,1655,0,1655,0,1655,0,1655,0,1655,0,1655,0,1655,0,1655,0,1655,0,1655,0,1655,0,1655,0,
0,0,0,0,0,0,0,0,0,0,0,0,0,0,0,0,0,0,0,0,0,0,0,0,0,0,0,0,0,0,0,0,0,0,0,0,0,0,0,0,0,0,0,0,0,0,0,0,0,0,
1655,0,1655,0,1655,0,1655,0,1655,0,1655,0,1655,0,1655,0,1655,0,1655,0,1655,0,1655,0,1655,0,1655,0,1655,0,1655,0,1655,0,1655,0,1655,0,1655,0,1655,0,1655,0,1655,0,1655,0,1655,0,
0,0,0,0,0,0,0,0,0,0,0,0,0,0,0,0,0,0,0,0,0,0,0,0,0,0,0,0,0,0,0,0,0,0,0,0,0,0,0,0,0,0,0,0,0,0,0,0,0,0,
1655,0,1655,0,1655,0,1655,0,1655,0,1655,0,1655,0,1655,0,1655,0,1655,0,1655,0,1655,0,1655,0,1655,0,1655,0,1655,0,1655,0,1655,0,1655,0,1655,0,1655,0,1655,0,1655,0,1655,0,1655,0,
0,0,0,0,0,0,0,0,0,0,0,0,0,0,0,0,0,0,0,0,0,0,0,0,0,0,0,0,0,0,0,0,0,0,0,0,0,0,0,0,0,0,0,0,0,0,0,0,0,0,
1655,0,1655,0,1655,0,1655,0,1655,0,1655,0,4348,0,4348,0,4348,0,4348,0,4348,0,4348,0,4348,0,4348,0,4348,0,4348,0,4348,0,4348,0,4348,0,1655,0,1655,0,1655,0,1655,0,1655,0,1655,0,
0,0,0,0,0,0,0,0,0,0,0,0,0,0,0,0,0,0,0,0,0,0,0,0,0,0,0,0,0,0,0,0,0,0,0,0,0,0,0,0,0,0,0,0,0,0,0,0,0,0,
0,0,1655,0,1655,0,1655,0,1655,0,1655,0,4412,0,4412,0,4412,0,4412,0,4412,0,4412,0,4412,0,4412,0,4412,0,4412,0,4412,0,4412,0,4412,0,1655,0,1655,0,1655,0,1655,0,1655,0,1655,0,
0,0,0,0,0,0,0,0,0,0,0,0,0,0,0,0,0,0,0,0,0,0,0,0,0,0,0,0,0,0,0,0,0,0,0,0,0,0,0,0,0,0,0,0,0,0,0,0,0,0,
0,0,1655,0,1655,0,1655,0,1655,0,1655,0,4349,0,4413,0,4477,0,4349,0,4349,0,4349,0,4349,0,4349,0,4349,0,4349,0,2684359037,0,2684358973,0,4349,0,1655,0,1655,0,1655,0,1655,0,1655,0,1655,0,
0,0,0,0,0,0,0,0,0,0,0,0,0,0,0,0,0,0,0,0,0,0,0,0,0,0,0,0,0,0,0,0,0,0,0,0,0,0,0,0,0,0,0,0,0,0,0,0,0,0,
0,0,1655,0,1655,0,1655,0,1655,0,1655,0,4349,0,4349,0,4349,0,4349,0,4349,0,4349,0,4349,0,4349,0,4349,0,4349,0,4349,0,4349,0,4349,0,1655,0,1655,0,1655,0,1655,0,1655,0,1655,0,
0,0,0,0,0,0,0,0,0,0,0,0,0,0,0,0,0,0,0,0,0,0,0,0,0,0,0,0,0,0,0,0,0,0,0,0,0,0,0,0,0,0,0,0,0,0,0,0,0,0,
0,0,1655,0,1655,0,1655,0,1655,0,1655,0,1655,0,1655,0,1655,0,1655,0,1655,0,1655,0,1655,0,1655,0,1655,0,1655,0,1655,0,1655,0,1655,0,1655,0,1655,0,1655,0,1655,0,1655,0,1655,0,
0,0,0,0,0,0,0,0,0,0,0,0,0,0,0,0,0,0,0,0,0,0,0,0,0,0,0,0,0,0,0,0,0,0,0,0,0,0,0,0,0,0,0,0,0,0,0,0,0,0,
0,0,0,0,0,0,0,0,0,0,0,0,0,0,0,0,0,0,0,0,0,0,0,0,0,0,0,0,0,0,0,0,0,0,0,0,0,0,0,0,0,0,0,0,0,0,0,0,0,0,
0,0,0,0,0,0,0,0,0,0,0,0,0,0,0,0,0,0,0,0,0,0,0,0,0,0,0,0,0,0,0,0,0,0,0,0,0,0,0,0,0,0,0,0,0,0,0,0,0,0,
0,0,0,0,0,0,0,0,0,0,0,0,0,0,0,0,0,0,0,0,0,0,0,0,0,0,0,0,0,0,0,0,0,0,0,0,0,0,0,0,0,0,0,0,0,0,0,0,0,0,
0,0,0,0,0,0,0,0,0,0,0,0,0,0,0,0,0,0,0,0,0,0,0,0,0,0,0,0,0,0,0,0,0,0,0,0,0,0,0,0,0,0,0,0,0,0,0,0,0,0
</data>
  </layer>
  <objectgroup draworder="index" id="4" name="Level_0_FloorSprites">
   <object id="1" type="asset" gid="736" x="172" y="398" width="56" height="24"/>
   <object id="2" type="asset" gid="1482" x="292" y="340" width="40" height="24"/>
   <object id="3" type="asset" gid="1466" x="160" y="356" width="80" height="80"/>
   <object id="4" type="asset" gid="388" x="48" y="288" width="304" height="128"/>
  </objectgroup>
  <layer id="5" name="Level_0_Shadows" width="50" height="58">
   <properties>
    <property name="maybe_animation_id" value="babd09ade2b55c05"/>
    <property name="maybe_tileset_id" value="339411f6ba88c8f0"/>
    <property name="tile_size" type="int" value="16"/>
   </properties>
   <data encoding="csv">
5751,0,5751,0,5751,0,5751,0,5751,0,5751,0,5751,0,5751,0,5751,0,5751,0,5751,0,5751,0,5751,0,5751,0,5751,0,5751,0,5751,0,0,0,0,0,0,0,0,0,0,0,0,0,0,0,0,0,
0,0,0,0,0,0,0,0,0,0,0,0,0,0,0,0,0,0,0,0,0,0,0,0,0,0,0,0,0,0,0,0,0,0,0,0,0,0,0,0,0,0,0,0,0,0,0,0,0,0,
5751,0,5751,0,5751,0,5751,0,5751,0,5751,0,5751,0,5751,0,5751,0,5751,0,5751,0,5751,0,5751,0,5751,0,5751,0,5751,0,5751,0,0,0,0,0,0,0,0,0,0,0,0,0,0,0,0,0,
0,0,0,0,0,0,0,0,0,0,0,0,0,0,0,0,0,0,0,0,0,0,0,0,0,0,0,0,0,0,0,0,0,0,0,0,0,0,0,0,0,0,0,0,0,0,0,0,0,0,
5751,0,5751,0,5751,0,5751,0,5751,0,5751,0,5751,0,5751,0,5751,0,5751,0,5751,0,5751,0,5751,0,5751,0,5751,0,5751,0,5751,0,0,0,0,0,0,0,0,0,0,0,0,0,0,0,0,0,
0,0,0,0,0,0,0,0,0,0,0,0,0,0,0,0,0,0,0,0,0,0,0,0,0,0,0,0,0,0,0,0,0,0,0,0,0,0,0,0,0,0,0,0,0,0,0,0,0,0,
5751,0,5751,0,5751,0,5751,0,5751,0,5751,0,5751,0,5751,0,5751,0,5751,0,5751,0,5751,0,5751,0,5751,0,5751,0,5751,0,5751,0,0,0,0,0,0,0,0,0,0,0,0,0,0,0,0,0,
0,0,0,0,0,0,0,0,0,0,0,0,0,0,0,0,0,0,0,0,0,0,0,0,0,0,0,0,0,0,0,0,0,0,0,0,0,0,0,0,0,0,0,0,0,0,0,0,0,0,
5751,0,5751,0,5751,0,5751,0,5751,0,5751,0,5751,0,5751,0,5751,0,5751,0,5751,0,5751,0,5751,0,5751,0,5751,0,5751,0,5751,0,0,0,0,0,0,0,0,0,0,0,0,0,0,0,0,0,
0,0,0,0,0,0,0,0,0,0,0,0,0,0,0,0,0,0,0,0,0,0,0,0,0,0,0,0,0,0,0,0,0,0,0,0,0,0,0,0,0,0,0,0,0,0,0,0,0,0,
5751,0,5751,0,5751,0,5751,0,5751,0,5751,0,5751,0,5751,0,5751,0,5751,0,5751,0,5751,0,5751,0,5751,0,5751,0,5751,0,5751,0,0,0,0,0,0,0,0,0,0,0,0,0,0,0,0,0,
0,0,0,0,0,0,0,0,0,0,0,0,0,0,0,0,0,0,0,0,0,0,0,0,0,0,0,0,0,0,0,0,0,0,0,0,0,0,0,0,0,0,0,0,0,0,0,0,0,0,
5751,0,5751,0,5751,0,5751,0,5751,0,5751,0,5751,0,5751,0,5751,0,5751,0,5751,0,5751,0,5751,0,5751,0,5751,0,5751,0,5751,0,0,0,0,0,0,0,0,0,0,0,0,0,0,0,0,0,
0,0,0,0,0,0,0,0,0,0,0,0,0,0,0,0,0,0,0,0,0,0,0,0,0,0,0,0,0,0,0,0,0,0,0,0,0,0,0,0,0,0,0,0,0,0,0,0,0,0,
5751,0,5751,0,5751,0,5751,0,5751,0,5751,0,5751,0,5751,0,5751,0,5751,0,5751,0,5751,0,5751,0,5751,0,5751,0,5751,0,5751,0,0,0,0,0,0,0,0,0,0,0,0,0,0,0,0,0,
0,0,0,0,0,0,0,0,0,0,0,0,0,0,0,0,0,0,0,0,0,0,0,0,0,0,0,0,0,0,0,0,0,0,0,0,0,0,0,0,0,0,0,0,0,0,0,0,0,0,
5751,0,5751,0,5751,0,5751,0,5751,0,5751,0,5751,0,5751,0,5751,0,5751,0,5751,0,5751,0,5751,0,5751,0,5751,0,5751,0,5751,0,5751,0,5751,0,0,0,0,0,0,0,0,0,0,0,0,0,
0,0,0,0,0,0,0,0,0,0,0,0,0,0,0,0,0,0,0,0,0,0,0,0,0,0,0,0,0,0,0,0,0,0,0,0,0,0,0,0,0,0,0,0,0,0,0,0,0,0,
5751,0,5751,0,5751,0,5752,0,5752,0,5752,0,5752,0,5752,0,5752,0,5752,0,5752,0,5752,0,5752,0,5752,0,5752,0,5752,0,5752,0,5752,0,5752,0,5752,0,5752,0,5752,0,0,0,0,0,0,0,
0,0,0,0,0,0,0,0,0,0,0,0,0,0,0,0,0,0,0,0,0,0,0,0,0,0,0,0,0,0,0,0,0,0,0,0,0,0,0,0,0,0,0,0,0,0,0,0,0,0,
5751,0,5751,0,5751,0,5752,0,5752,0,5752,0,5752,0,5752,0,5752,0,5752,0,5779,0,5753,0,5753,0,5753,0,5780,0,5752,0,5752,0,5752,0,5752,0,5752,0,5752,0,5752,0,0,0,0,0,0,0,
0,0,0,0,0,0,0,0,0,0,0,0,0,0,0,0,0,0,0,0,0,0,0,0,0,0,0,0,0,0,0,0,0,0,0,0,0,0,0,0,0,0,0,0,0,0,0,0,0,0,
5751,0,5751,0,5751,0,5752,0,5752,0,5779,0,5753,0,5753,0,5753,0,5778,0,5751,0,5751,0,5751,0,5751,0,5751,0,5777,0,5753,0,5753,0,5753,0,5753,0,5753,0,5753,0,0,0,0,0,0,0,
0,0,0,0,0,0,0,0,0,0,0,0,0,0,0,0,0,0,0,0,0,0,0,0,0,0,0,0,0,0,0,0,0,0,0,0,0,0,0,0,0,0,0,0,0,0,0,0,0,0,
5751,0,5751,0,5751,0,5752,0,5752,0,5751,0,5751,0,5751,0,5751,0,5751,0,5751,0,5751,0,5751,0,5751,0,5751,0,5751,0,5751,0,5751,0,5751,0,0,0,0,0,0,0,0,0,0,0,0,0,
0,0,0,0,0,0,0,0,0,0,0,0,0,0,0,0,0,0,0,0,0,0,0,0,0,0,0,0,0,0,0,0,0,0,0,0,0,0,0,0,0,0,0,0,0,0,0,0,0,0,
5751,0,5751,0,5751,0,5752,0,5752,0,5751,0,5751,0,5751,0,5751,0,5751,0,5751,0,5751,0,5751,0,5751,0,5751,0,5751,0,5751,0,5751,0,5751,0,0,0,0,0,0,0,0,0,0,0,0,0,
0,0,0,0,0,0,0,0,0,0,0,0,0,0,0,0,0,0,0,0,0,0,0,0,0,0,0,0,0,0,0,0,0,0,0,0,0,0,0,0,0,0,0,0,0,0,0,0,0,0,
5751,0,5751,0,5751,0,5752,0,5752,0,5751,0,5751,0,5751,0,5751,0,5751,0,5751,0,5751,0,5751,0,5751,0,5751,0,5751,0,5751,0,5751,0,5751,0,0,0,0,0,0,0,0,0,0,0,0,0,
0,0,0,0,0,0,0,0,0,0,0,0,0,0,0,0,0,0,0,0,0,0,0,0,0,0,0,0,0,0,0,0,0,0,0,0,0,0,0,0,0,0,0,0,0,0,0,0,0,0,
5751,0,5751,0,5751,0,5752,0,5752,0,5751,0,5751,0,5751,0,5751,0,5751,0,5751,0,5751,0,5751,0,5751,0,5751,0,5751,0,5751,0,5751,0,5751,0,0,0,0,0,0,0,0,0,0,0,0,0,
0,0,0,0,0,0,0,0,0,0,0,0,0,0,0,0,0,0,0,0,0,0,0,0,0,0,0,0,0,0,0,0,0,0,0,0,0,0,0,0,0,0,0,0,0,0,0,0,0,0,
5751,0,5751,0,5751,0,5752,0,5752,0,5751,0,5751,0,5751,0,5751,0,5751,0,5751,0,5751,0,5751,0,5751,0,5751,0,5751,0,5751,0,5751,0,5751,0,0,0,0,0,0,0,0,0,0,0,0,0,
0,0,0,0,0,0,0,0,0,0,0,0,0,0,0,0,0,0,0,0,0,0,0,0,0,0,0,0,0,0,0,0,0,0,0,0,0,0,0,0,0,0,0,0,0,0,0,0,0,0,
0,0,5751,0,5751,0,5752,0,5752,0,5751,0,5751,0,5751,0,5751,0,5751,0,5751,0,5751,0,5751,0,5751,0,5751,0,5751,0,5751,0,5751,0,5751,0,0,0,0,0,0,0,0,0,0,0,0,0,
0,0,0,0,0,0,0,0,0,0,0,0,0,0,0,0,0,0,0,0,0,0,0,0,0,0,0,0,0,0,0,0,0,0,0,0,0,0,0,0,0,0,0,0,0,0,0,0,0,0,
0,0,5751,0,5751,0,5752,0,5752,0,5751,0,5751,0,5751,0,5751,0,5751,0,5751,0,5751,0,5751,0,5751,0,5751,0,5751,0,5751,0,5751,0,5751,0,0,0,0,0,0,0,0,0,0,0,0,0,
0,0,0,0,0,0,0,0,0,0,0,0,0,0,0,0,0,0,0,0,0,0,0,0,0,0,0,0,0,0,0,0,0,0,0,0,0,0,0,0,0,0,0,0,0,0,0,0,0,0,
0,0,5751,0,5751,0,5752,0,5752,0,5751,0,5751,0,5751,0,5751,0,5751,0,5751,0,5751,0,5751,0,5751,0,5751,0,5751,0,5751,0,5751,0,5751,0,0,0,0,0,0,0,0,0,0,0,0,0,
0,0,0,0,0,0,0,0,0,0,0,0,0,0,0,0,0,0,0,0,0,0,0,0,0,0,0,0,0,0,0,0,0,0,0,0,0,0,0,0,0,0,0,0,0,0,0,0,0,0,
0,0,5751,0,5751,0,5752,0,5752,0,5751,0,5751,0,5751,0,5751,0,5751,0,5751,0,5751,0,5751,0,5751,0,5751,0,5751,0,5751,0,5751,0,5751,0,0,0,0,0,0,0,0,0,0,0,0,0,
0,0,0,0,0,0,0,0,0,0,0,0,0,0,0,0,0,0,0,0,0,0,0,0,0,0,0,0,0,0,0,0,0,0,0,0,0,0,0,0,0,0,0,0,0,0,0,0,0,0,
0,0,5751,0,5751,0,5752,0,5752,0,5751,0,5751,0,5751,0,5751,0,5751,0,5751,0,5751,0,5751,0,5751,0,5751,0,5751,0,5751,0,5751,0,5751,0,0,0,0,0,0,0,0,0,0,0,0,0,
0,0,0,0,0,0,0,0,0,0,0,0,0,0,0,0,0,0,0,0,0,0,0,0,0,0,0,0,0,0,0,0,0,0,0,0,0,0,0,0,0,0,0,0,0,0,0,0,0,0,
0,0,0,0,0,0,5752,0,5752,0,0,0,0,0,0,0,0,0,0,0,0,0,0,0,0,0,0,0,0,0,0,0,0,0,0,0,0,0,0,0,0,0,0,0,0,0,0,0,0,0,
0,0,0,0,0,0,0,0,0,0,0,0,0,0,0,0,0,0,0,0,0,0,0,0,0,0,0,0,0,0,0,0,0,0,0,0,0,0,0,0,0,0,0,0,0,0,0,0,0,0,
0,0,0,0,0,0,0,0,0,0,0,0,0,0,0,0,0,0,0,0,0,0,0,0,0,0,0,0,0,0,0,0,0,0,0,0,0,0,0,0,0,0,0,0,0,0,0,0,0,0,
0,0,0,0,0,0,0,0,0,0,0,0,0,0,0,0,0,0,0,0,0,0,0,0,0,0,0,0,0,0,0,0,0,0,0,0,0,0,0,0,0,0,0,0,0,0,0,0,0,0,
0,0,0,0,0,0,0,0,0,0,0,0,5752,0,1610618494,0,0,0,0,0,0,0,0,0,0,0,0,0,0,0,0,0,0,0,0,0,0,0,0,0,0,0,0,0,0,0,0,0,0,0,
0,0,0,0,0,0,0,0,0,0,0,0,0,0,0,0,0,0,0,0,0,0,0,0,0,0,0,0,0,0,0,0,0,0,0,0,0,0,0,0,0,0,0,0,0,0,0,0,0,0,
0,0,0,0,0,0,0,0,0,0,0,0,5752,0,5752,0,0,0,0,0,0,0,0,0,0,0,0,0,0,0,0,0,0,0,0,0,0,0,0,0,0,0,0,0,0,0,0,0,0,0,
0,0,0,0,0,0,0,0,0,0,0,0,0,0,0,0,0,0,0,0,0,0,0,0,0,0,0,0,0,0,0,0,0,0,0,0,0,0,0,0,0,0,0,0,0,0,0,0,0,0,
0,0,0,0,0,0,0,0,0,0,0,0,0,0,0,0,0,0,0,0,0,0,0,0,0,0,0,0,0,0,0,0,0,0,0,0,0,0,0,0,0,0,0,0,0,0,0,0,0,0,
0,0,0,0,0,0,0,0,0,0,0,0,0,0,0,0,0,0,0,0,0,0,0,0,0,0,0,0,0,0,0,0,0,0,0,0,0,0,0,0,0,0,0,0,0,0,0,0,0,0,
0,0,0,0,0,0,0,0,0,0,0,0,0,0,0,0,0,0,0,0,0,0,0,0,0,0,0,0,0,0,0,0,0,0,0,0,0,0,0,0,0,0,0,0,0,0,0,0,0,0,
0,0,0,0,0,0,0,0,0,0,0,0,0,0,0,0,0,0,0,0,0,0,0,0,0,0,0,0,0,0,0,0,0,0,0,0,0,0,0,0,0,0,0,0,0,0,0,0,0,0,
0,0,0,0,0,0,0,0,0,0,0,0,0,0,0,0,0,0,0,0,0,0,0,0,0,0,0,0,0,0,0,0,0,0,0,0,0,0,0,0,0,0,0,0,0,0,0,0,0,0,
0,0,0,0,0,0,0,0,0,0,0,0,0,0,0,0,0,0,0,0,0,0,0,0,0,0,0,0,0,0,0,0,0,0,0,0,0,0,0,0,0,0,0,0,0,0,0,0,0,0
</data>
  </layer>
  <layer id="6" name="Level_0_Walls" width="50" height="58">
   <properties>
    <property name="maybe_animation_id" value="75ea443e6634d96"/>
    <property name="maybe_tileset_id" value="d8b504e9a8480fbe"/>
    <property name="tile_size" type="int" value="16"/>
   </properties>
   <data encoding="csv">
1655,0,1655,0,1655,0,1655,0,1655,0,1655,0,1655,0,1655,0,1655,0,1655,0,1655,0,1655,0,1655,0,1655,0,1655,0,1655,0,1655,0,0,0,0,0,0,0,0,0,0,0,0,0,0,0,0,0,
0,0,0,0,0,0,0,0,0,0,0,0,0,0,0,0,0,0,0,0,0,0,0,0,0,0,0,0,0,0,0,0,0,0,0,0,0,0,0,0,0,0,0,0,0,0,0,0,0,0,
1655,0,1655,0,1655,0,1655,0,1655,0,1655,0,1655,0,1655,0,1655,0,1655,0,1655,0,1655,0,1655,0,1655,0,1655,0,1655,0,1655,0,1655,0,1655,0,1655,0,0,0,0,0,0,0,0,0,0,0,
0,0,0,0,0,0,0,0,0,0,0,0,0,0,0,0,0,0,0,0,0,0,0,0,0,0,0,0,0,0,0,0,0,0,0,0,0,0,0,0,0,0,0,0,0,0,0,0,0,0,
1655,0,1655,0,1655,0,1655,0,1655,0,1655,0,1655,0,1655,0,1655,0,1655,0,1655,0,1655,0,1655,0,1655,0,1655,0,1655,0,1655,0,1655,0,1655,0,1655,0,0,0,0,0,0,0,0,0,0,0,
0,0,0,0,0,0,0,0,0,0,0,0,0,0,0,0,0,0,0,0,0,0,0,0,0,0,0,0,0,0,0,0,0,0,0,0,0,0,0,0,0,0,0,0,0,0,0,0,0,0,
1655,0,1655,0,1655,0,1655,0,1655,0,1655,0,1655,0,1655,0,1655,0,1655,0,1655,0,1655,0,1655,0,1655,0,1655,0,1655,0,1655,0,1655,0,1655,0,1655,0,0,0,0,0,0,0,0,0,0,0,
0,0,0,0,0,0,0,0,0,0,0,0,0,0,0,0,0,0,0,0,0,0,0,0,0,0,0,0,0,0,0,0,0,0,0,0,0,0,0,0,0,0,0,0,0,0,0,0,0,0,
1655,0,1655,0,1655,0,1655,0,1655,0,1655,0,1655,0,1655,0,1655,0,1655,0,1655,0,1655,0,1655,0,1655,0,1655,0,1655,0,1655,0,1655,0,1655,0,1655,0,0,0,0,0,0,0,0,0,0,0,
0,0,0,0,0,0,0,0,0,0,0,0,0,0,0,0,0,0,0,0,0,0,0,0,0,0,0,0,0,0,0,0,0,0,0,0,0,0,0,0,0,0,0,0,0,0,0,0,0,0,
1655,0,1655,0,1655,0,1655,0,1655,0,1655,0,4347,0,4347,0,4347,0,1655,0,1655,0,1655,0,1655,0,1655,0,1655,0,1655,0,4347,0,4347,0,4347,0,1655,0,0,0,0,0,0,0,0,0,0,0,
0,0,0,0,0,0,0,0,0,0,0,0,0,0,0,0,0,0,0,0,0,0,0,0,0,0,0,0,0,0,0,0,0,0,0,0,0,0,0,0,0,0,0,0,0,0,0,0,0,0,
1655,0,1655,0,1655,0,1655,0,4347,0,4347,0,4347,0,4347,0,4347,0,1655,0,1655,0,1655,0,1655,0,1655,0,1655,0,1655,0,4347,0,4347,0,4347,0,4347,0,4347,0,0,0,0,0,0,0,0,0,
0,0,0,0,0,0,0,0,0,0,0,0,0,0,0,0,0,0,0,0,0,0,0,0,0,0,0,0,0,0,0,0,0,0,0,0,0,0,0,0,0,0,0,0,0,0,0,0,0,0,
1655,0,1655,0,1655,0,1655,0,4347,0,4347,0,4347,0,4347,0,4347,0,1655,0,1655,0,1655,0,1655,0,1655,0,1655,0,1655,0,4347,0,4347,0,4347,0,4347,0,4347,0,0,0,0,0,0,0,0,0,
0,0,0,0,0,0,0,0,0,0,0,0,0,0,0,0,0,0,0,0,0,0,0,0,0,0,0,0,0,0,0,0,0,0,0,0,0,0,0,0,0,0,0,0,0,0,0,0,0,0,
1655,0,1655,0,1655,0,1655,0,4347,0,4347,0,4347,0,4347,0,4347,0,1655,0,1655,0,1655,0,1655,0,1655,0,1655,0,1655,0,4347,0,4347,0,4347,0,4347,0,4347,0,0,0,0,0,0,0,0,0,
0,0,0,0,0,0,0,0,0,0,0,0,0,0,0,0,0,0,0,0,0,0,0,0,0,0,0,0,0,0,0,0,0,0,0,0,0,0,0,0,0,0,0,0,0,0,0,0,0,0,
1655,0,1655,0,1655,0,1655,0,4347,0,4347,0,4347,0,4347,0,4347,0,1655,0,1655,0,1655,0,1655,0,1655,0,1655,0,1655,0,4347,0,4347,0,4347,0,4347,0,4347,0,0,0,0,0,0,0,0,0,
0,0,0,0,0,0,0,0,0,0,0,0,0,0,0,0,0,0,0,0,0,0,0,0,0,0,0,0,0,0,0,0,0,0,0,0,0,0,0,0,0,0,0,0,0,0,0,0,0,0,
1655,0,1655,0,1655,0,1655,0,4411,0,4411,0,4411,0,4411,0,4411,0,1655,0,1655,0,1655,0,1655,0,1655,0,1655,0,1655,0,4411,0,4411,0,4411,0,4411,0,4411,0,0,0,0,0,0,0,0,0,
0,0,0,0,0,0,0,0,0,0,0,0,0,0,0,0,0,0,0,0,0,0,0,0,0,0,0,0,0,0,0,0,0,0,0,0,0,0,0,0,0,0,0,0,0,0,0,0,0,0,
1655,0,1655,0,1655,0,1655,0,1655,0,1655,0,1655,0,1655,0,1655,0,1655,0,1655,0,1655,0,1655,0,1655,0,1655,0,1655,0,1655,0,1655,0,1655,0,1655,0,0,0,0,0,0,0,0,0,0,0,
0,0,0,0,0,0,0,0,0,0,0,0,0,0,0,0,0,0,0,0,0,0,0,0,0,0,0,0,0,0,0,0,0,0,0,0,0,0,0,0,0,0,0,0,0,0,0,0,0,0,
1655,0,1655,0,1655,0,1655,0,1655,0,1655,0,1655,0,1655,0,1655,0,1655,0,1655,0,1655,0,1655,0,1655,0,1655,0,1655,0,1655,0,1655,0,1655,0,1655,0,0,0,0,0,0,0,0,0,0,0,
0,0,0,0,0,0,0,0,0,0,0,0,0,0,0,0,0,0,0,0,0,0,0,0,0,0,0,0,0,0,0,0,0,0,0,0,0,0,0,0,0,0,0,0,0,0,0,0,0,0,
1655,0,1655,0,1655,0,1655,0,1655,0,1655,0,1655,0,1655,0,1655,0,1655,0,1655,0,1655,0,1655,0,1655,0,1655,0,1655,0,1655,0,1655,0,1655,0,1655,0,0,0,0,0,0,0,0,0,0,0,
0,0,0,0,0,0,0,0,0,0,0,0,0,0,0,0,0,0,0,0,0,0,0,0,0,0,0,0,0,0,0,0,0,0,0,0,0,0,0,0,0,0,0,0,0,0,0,0,0,0,
1655,0,1655,0,1655,0,1655,0,1655,0,1655,0,1655,0,1655,0,1655,0,1655,0,1655,0,1655,0,1655,0,1655,0,1655,0,1655,0,1655,0,0,0,0,0,0,0,0,0,0,0,0,0,0,0,0,0,
0,0,0,0,0,0,0,0,0,0,0,0,0,0,0,0,0,0,0,0,0,0,0,0,0,0,0,0,0,0,0,0,0,0,0,0,0,0,0,0,0,0,0,0,0,0,0,0,0,0,
1655,0,1655,0,1655,0,1655,0,1655,0,1655,0,1655,0,1655,0,1655,0,1655,0,1655,0,1655,0,1655,0,1655,0,1655,0,1655,0,1655,0,0,0,0,0,0,0,0,0,0,0,0,0,0,0,0,0,
0,0,0,0,0,0,0,0,0,0,0,0,0,0,0,0,0,0,0,0,0,0,0,0,0,0,0,0,0,0,0,0,0,0,0,0,0,0,0,0,0,0,0,0,0,0,0,0,0,0,
1655,0,1655,0,1655,0,1655,0,1655,0,1655,0,1655,0,1655,0,1655,0,1655,0,1655,0,1655,0,1655,0,1655,0,1655,0,1655,0,1655,0,0,0,0,0,0,0,0,0,0,0,0,0,0,0,0,0,
0,0,0,0,0,0,0,0,0,0,0,0,0,0,0,0,0,0,0,0,0,0,0,0,0,0,0,0,0,0,0,0,0,0,0,0,0,0,0,0,0,0,0,0,0,0,0,0,0,0,
0,0,0,0,0,0,0,0,0,0,0,0,0,0,0,0,0,0,0,0,0,0,0,0,0,0,0,0,0,0,0,0,0,0,0,0,0,0,0,0,0,0,0,0,0,0,0,0,0,0,
0,0,0,0,0,0,0,0,0,0,0,0,0,0,0,0,0,0,0,0,0,0,0,0,0,0,0,0,0,0,0,0,0,0,0,0,0,0,0,0,0,0,0,0,0,0,0,0,0,0,
0,0,0,0,0,0,0,0,0,0,0,0,0,0,0,0,0,0,0,0,0,0,0,0,0,0,0,0,0,0,0,0,0,0,0,0,0,0,0,0,0,0,0,0,0,0,0,0,0,0,
0,0,0,0,0,0,0,0,0,0,0,0,0,0,0,0,0,0,0,0,0,0,0,0,0,0,0,0,0,0,0,0,0,0,0,0,0,0,0,0,0,0,0,0,0,0,0,0,0,0,
0,0,0,0,0,0,0,0,0,0,0,0,0,0,0,0,0,0,0,0,0,0,0,0,0,0,0,0,0,0,0,0,0,0,0,0,0,0,0,0,0,0,0,0,0,0,0,0,0,0,
0,0,0,0,0,0,0,0,0,0,0,0,0,0,0,0,0,0,0,0,0,0,0,0,0,0,0,0,0,0,0,0,0,0,0,0,0,0,0,0,0,0,0,0,0,0,0,0,0,0,
0,0,0,0,0,0,0,0,0,0,0,0,0,0,0,0,0,0,0,0,0,0,0,0,0,0,0,0,0,0,0,0,0,0,0,0,0,0,0,0,0,0,0,0,0,0,0,0,0,0,
0,0,0,0,0,0,0,0,0,0,0,0,0,0,0,0,0,0,0,0,0,0,0,0,0,0,0,0,0,0,0,0,0,0,0,0,0,0,0,0,0,0,0,0,0,0,0,0,0,0,
0,0,0,0,0,0,0,0,0,0,0,0,0,0,0,0,0,0,0,0,0,0,0,0,0,0,0,0,0,0,0,0,0,0,0,0,0,0,0,0,0,0,0,0,0,0,0,0,0,0,
0,0,0,0,0,0,0,0,0,0,0,0,0,0,0,0,0,0,0,0,0,0,0,0,0,0,0,0,0,0,0,0,0,0,0,0,0,0,0,0,0,0,0,0,0,0,0,0,0,0,
0,0,0,0,0,0,0,0,0,0,0,0,0,0,0,0,0,0,0,0,0,0,0,0,0,0,0,0,0,0,0,0,0,0,0,0,0,0,0,0,0,0,0,0,0,0,0,0,0,0,
0,0,0,0,0,0,0,0,0,0,0,0,0,0,0,0,0,0,0,0,0,0,0,0,0,0,0,0,0,0,0,0,0,0,0,0,0,0,0,0,0,0,0,0,0,0,0,0,0,0,
0,0,0,0,0,0,0,0,0,0,0,0,0,0,0,0,0,0,0,0,0,0,0,0,0,0,0,0,0,0,0,0,0,0,0,0,0,0,0,0,0,0,0,0,0,0,0,0,0,0,
0,0,0,0,0,0,0,0,0,0,0,0,0,0,0,0,0,0,0,0,0,0,0,0,0,0,0,0,0,0,0,0,0,0,0,0,0,0,0,0,0,0,0,0,0,0,0,0,0,0,
0,0,0,0,0,0,0,0,0,0,0,0,0,0,0,0,0,0,0,0,0,0,0,0,0,0,0,0,0,0,0,0,0,0,0,0,0,0,0,0,0,0,0,0,0,0,0,0,0,0,
0,0,0,0,0,0,0,0,0,0,0,0,0,0,0,0,0,0,0,0,0,0,0,0,0,0,0,0,0,0,0,0,0,0,0,0,0,0,0,0,0,0,0,0,0,0,0,0,0,0,
0,0,0,0,0,0,0,0,0,0,0,0,0,0,0,0,0,0,0,0,0,0,0,0,0,0,0,0,0,0,0,0,0,0,0,0,0,0,0,0,0,0,0,0,0,0,0,0,0,0,
0,0,0,0,0,0,0,0,0,0,0,0,0,0,0,0,0,0,0,0,0,0,0,0,0,0,0,0,0,0,0,0,0,0,0,0,0,0,0,0,0,0,0,0,0,0,0,0,0,0,
0,0,0,0,0,0,0,0,0,0,0,0,0,0,0,0,0,0,0,0,0,0,0,0,0,0,0,0,0,0,0,0,0,0,0,0,0,0,0,0,0,0,0,0,0,0,0,0,0,0,
0,0,0,0,0,0,0,0,0,0,0,0,0,0,0,0,0,0,0,0,0,0,0,0,0,0,0,0,0,0,0,0,0,0,0,0,0,0,0,0,0,0,0,0,0,0,0,0,0,0,
0,0,0,0,0,0,0,0,0,0,0,0,0,0,0,0,0,0,0,0,0,0,0,0,0,0,0,0,0,0,0,0,0,0,0,0,0,0,0,0,0,0,0,0,0,0,0,0,0,0,
0,0,0,0,0,0,0,0,0,0,0,0,0,0,0,0,0,0,0,0,0,0,0,0,0,0,0,0,0,0,0,0,0,0,0,0,0,0,0,0,0,0,0,0,0,0,0,0,0,0,
0,0,0,0,0,0,0,0,0,0,0,0,0,0,0,0,0,0,0,0,0,0,0,0,0,0,0,0,0,0,0,0,0,0,0,0,0,0,0,0,0,0,0,0,0,0,0,0,0,0,
0,0,0,0,0,0,0,0,0,0,0,0,0,0,0,0,0,0,0,0,0,0,0,0,0,0,0,0,0,0,0,0,0,0,0,0,0,0,0,0,0,0,0,0,0,0,0,0,0,0
</data>
  </layer>
  <objectgroup draworder="index" id="7" name="Level_0_Windows">
   <object id="5" template="../../templates/meta/obj_windowshader_interior.tx" type="obj_windowshader_interior" x="160" y="112" width="80" height="48"/>
  </objectgroup>
  <objectgroup draworder="index" id="8" name="Level_0_Assets">
   <object id="6" type="asset" gid="705" x="64" y="192" width="272" height="128"/>
   <object id="7" type="asset" gid="231" x="160" y="280" width="80" height="48"/>
   <object id="8" type="asset" gid="530" x="312" y="200" width="24" height="32"/>
   <object id="9" type="asset" gid="1370" x="144" y="328" width="32" height="32"/>
   <object id="10" type="asset" gid="1370" x="224" y="328" width="32" height="32"/>
   <object id="11" type="asset" gid="1131" x="120" y="392" width="56" height="48"/>
   <object id="12" type="asset" gid="1131" x="224" y="392" width="56" height="48"/>
   <object id="13" type="asset" gid="674" x="152" y="185" width="96" height="80"/>
   <object id="14" type="asset" gid="1120" x="184" y="324" width="32" height="32"/>
   <object id="15" type="asset" gid="136" x="72" y="303" width="40" height="48"/>
   <object id="16" type="asset" gid="823" x="56" y="328" width="72" height="48"/>
   <object id="17" type="asset" gid="195" x="56" y="248" width="32" height="144"/>
   <object id="18" type="asset" gid="195" x="321" y="248" width="32" height="144"/>
   <object id="19" type="asset" gid="804" x="140" y="200" width="32" height="144"/>
   <object id="20" type="asset" gid="1100" x="237" y="200" width="32" height="144"/>
   <object id="21" type="asset" gid="390" x="321" y="308" width="16" height="24"/>
   <object id="22" type="asset" gid="277" x="168" y="229" width="64" height="80"/>
   <object id="23" type="asset" gid="999" x="168" y="229" width="64" height="80">
    <properties>
     <property name="depth_offset" type="int" value="-32"/>
    </properties>
   </object>
   <object id="24" type="asset" gid="1026" x="287" y="307" width="16" height="24"/>
   <object id="25" type="asset" gid="918" x="280" y="176" width="16" height="24"/>
   <object id="26" type="asset" gid="26" x="280" y="328" width="72" height="64"/>
  </objectgroup>
 </group>
 <objectgroup draworder="index" id="9" name="Instances">
  <object id="27" template="../../templates/objects/obj_star_brooch.tx" type="obj_star_brooch" x="224" y="170">
   <properties>
    <property name="npc_name" value="caldarus"/>
    <property name="z" type="float" value="-7"/>
   </properties>
  </object>
  <object id="28" template="../../templates/obj_caldarus_house_statue.tx" type="obj_caldarus_house_statue" x="296" y="320"/>
 </objectgroup>
 <group id="10" name="Level_1">
  <layer id="11" name="Level_1_BlackArea" width="50" height="58">
   <properties>
    <property name="maybe_animation_id" value="75ea443e6634d96"/>
    <property name="maybe_tileset_id" value="d8b504e9a8480fbe"/>
    <property name="tile_size" type="int" value="16"/>
   </properties>
   <data encoding="csv">
1793,0,1793,0,1793,0,1793,0,1793,0,1793,0,1793,0,1793,0,1793,0,1793,0,1793,0,1793,0,1793,0,1793,0,1793,0,1793,0,1793,0,1793,0,1793,0,1793,0,1793,0,1793,0,1793,0,1793,0,1793,0,
0,0,0,0,0,0,0,0,0,0,0,0,0,0,0,0,0,0,0,0,0,0,0,0,0,0,0,0,0,0,0,0,0,0,0,0,0,0,0,0,0,0,0,0,0,0,0,0,0,0,
1793,0,1793,0,1793,0,1793,0,1793,0,1793,0,1793,0,1793,0,1793,0,1793,0,1793,0,1793,0,1793,0,1793,0,1793,0,1793,0,1793,0,1793,0,1793,0,1793,0,1793,0,1793,0,1793,0,1793,0,1793,0,
0,0,0,0,0,0,0,0,0,0,0,0,0,0,0,0,0,0,0,0,0,0,0,0,0,0,0,0,0,0,0,0,0,0,0,0,0,0,0,0,0,0,0,0,0,0,0,0,0,0,
1793,0,1793,0,1793,0,1793,0,1793,0,1793,0,1793,0,1793,0,1793,0,1793,0,1793,0,1793,0,1793,0,1793,0,1793,0,1793,0,1793,0,1793,0,1793,0,1793,0,1793,0,1793,0,1793,0,1793,0,1793,0,
0,0,0,0,0,0,0,0,0,0,0,0,0,0,0,0,0,0,0,0,0,0,0,0,0,0,0,0,0,0,0,0,0,0,0,0,0,0,0,0,0,0,0,0,0,0,0,0,0,0,
1793,0,1793,0,1793,0,1793,0,1793,0,1793,0,1793,0,1793,0,1655,0,0,0,0,0,0,0,0,0,0,0,0,0,0,0,0,0,1793,0,1793,0,1793,0,1793,0,1793,0,1793,0,1793,0,1793,0,
0,0,0,0,0,0,0,0,0,0,0,0,0,0,0,0,0,0,0,0,0,0,0,0,0,0,0,0,0,0,0,0,0,0,0,0,0,0,0,0,0,0,0,0,0,0,0,0,0,0,
1793,0,1793,0,1793,0,1793,0,1793,0,1793,0,1655,0,0,0,0,0,0,0,0,0,0,0,0,0,0,0,0,0,0,0,0,0,0,0,0,0,1793,0,1793,0,1793,0,1793,0,1793,0,1793,0,
0,0,0,0,0,0,0,0,0,0,0,0,0,0,0,0,0,0,0,0,0,0,0,0,0,0,0,0,0,0,0,0,0,0,0,0,0,0,0,0,0,0,0,0,0,0,0,0,0,0,
1793,0,1793,0,1793,0,1793,0,0,0,0,0,0,0,0,0,0,0,0,0,0,0,0,0,0,0,0,0,0,0,0,0,0,0,0,0,0,0,0,0,0,0,1793,0,1793,0,1793,0,1793,0,
0,0,0,0,0,0,0,0,0,0,0,0,0,0,0,0,0,0,0,0,0,0,0,0,0,0,0,0,0,0,0,0,0,0,0,0,0,0,0,0,0,0,0,0,0,0,0,0,0,0,
1793,0,1793,0,1793,0,0,0,0,0,0,0,0,0,0,0,0,0,0,0,0,0,0,0,0,0,0,0,0,0,0,0,0,0,0,0,0,0,0,0,0,0,0,0,1793,0,1793,0,1793,0,
0,0,0,0,0,0,0,0,0,0,0,0,0,0,0,0,0,0,0,0,0,0,0,0,0,0,0,0,0,0,0,0,0,0,0,0,0,0,0,0,0,0,0,0,0,0,0,0,0,0,
1793,0,1793,0,1793,0,0,0,0,0,0,0,0,0,0,0,0,0,0,0,0,0,0,0,0,0,0,0,0,0,0,0,0,0,0,0,0,0,0,0,0,0,0,0,1793,0,1793,0,1793,0,
0,0,0,0,0,0,0,0,0,0,0,0,0,0,0,0,0,0,0,0,0,0,0,0,0,0,0,0,0,0,0,0,0,0,0,0,0,0,0,0,0,0,0,0,0,0,0,0,0,0,
1793,0,1793,0,1793,0,0,0,0,0,0,0,0,0,0,0,0,0,0,0,0,0,0,0,0,0,0,0,0,0,0,0,0,0,0,0,0,0,0,0,0,0,0,0,1793,0,1793,0,1793,0,
0,0,0,0,0,0,0,0,0,0,0,0,0,0,0,0,0,0,0,0,0,0,0,0,0,0,0,0,0,0,0,0,0,0,0,0,0,0,0,0,0,0,0,0,0,0,0,0,0,0,
1793,0,1793,0,1793,0,0,0,0,0,0,0,0,0,0,0,0,0,0,0,0,0,0,0,0,0,0,0,0,0,0,0,0,0,0,0,0,0,0,0,0,0,0,0,1793,0,1793,0,1793,0,
0,0,0,0,0,0,0,0,0,0,0,0,0,0,0,0,0,0,0,0,0,0,0,0,0,0,0,0,0,0,0,0,0,0,0,0,0,0,0,0,0,0,0,0,0,0,0,0,0,0,
1793,0,1793,0,1793,0,0,0,0,0,0,0,0,0,0,0,0,0,0,0,0,0,0,0,0,0,0,0,0,0,0,0,0,0,0,0,0,0,0,0,0,0,0,0,1793,0,1793,0,1793,0,
0,0,0,0,0,0,0,0,0,0,0,0,0,0,0,0,0,0,0,0,0,0,0,0,0,0,0,0,0,0,0,0,0,0,0,0,0,0,0,0,0,0,0,0,0,0,0,0,0,0,
1793,0,1793,0,1793,0,0,0,0,0,0,0,0,0,0,0,0,0,0,0,0,0,0,0,0,0,0,0,0,0,0,0,0,0,0,0,0,0,0,0,0,0,0,0,1793,0,1793,0,1793,0,
0,0,0,0,0,0,0,0,0,0,0,0,0,0,0,0,0,0,0,0,0,0,0,0,0,0,0,0,0,0,0,0,0,0,0,0,0,0,0,0,0,0,0,0,0,0,0,0,0,0,
1793,0,1793,0,1793,0,0,0,0,0,0,0,0,0,0,0,0,0,0,0,0,0,0,0,0,0,0,0,0,0,0,0,0,0,0,0,0,0,0,0,0,0,0,0,1793,0,1793,0,1793,0,
0,0,0,0,0,0,0,0,0,0,0,0,0,0,0,0,0,0,0,0,0,0,0,0,0,0,0,0,0,0,0,0,0,0,0,0,0,0,0,0,0,0,0,0,0,0,0,0,0,0,
1793,0,1793,0,1793,0,0,0,0,0,0,0,0,0,0,0,0,0,0,0,0,0,0,0,0,0,0,0,0,0,0,0,0,0,0,0,0,0,0,0,0,0,0,0,1793,0,1793,0,1793,0,
0,0,0,0,0,0,0,0,0,0,0,0,0,0,0,0,0,0,0,0,0,0,0,0,0,0,0,0,0,0,0,0,0,0,0,0,0,0,0,0,0,0,0,0,0,0,0,0,0,0,
1793,0,1793,0,1793,0,0,0,0,0,0,0,0,0,0,0,0,0,0,0,0,0,0,0,0,0,0,0,0,0,0,0,0,0,0,0,0,0,0,0,0,0,0,0,1793,0,1793,0,1793,0,
0,0,0,0,0,0,0,0,0,0,0,0,0,0,0,0,0,0,0,0,0,0,0,0,0,0,0,0,0,0,0,0,0,0,0,0,0,0,0,0,0,0,0,0,0,0,0,0,0,0,
1793,0,1793,0,1793,0,0,0,0,0,0,0,0,0,0,0,0,0,0,0,0,0,0,0,0,0,0,0,0,0,0,0,0,0,0,0,0,0,0,0,0,0,0,0,1793,0,1793,0,1793,0,
0,0,0,0,0,0,0,0,0,0,0,0,0,0,0,0,0,0,0,0,0,0,0,0,0,0,0,0,0,0,0,0,0,0,0,0,0,0,0,0,0,0,0,0,0,0,0,0,0,0,
1793,0,1793,0,1793,0,0,0,0,0,0,0,0,0,0,0,0,0,0,0,0,0,0,0,0,0,0,0,0,0,0,0,0,0,0,0,0,0,0,0,0,0,0,0,1793,0,1793,0,1793,0,
0,0,0,0,0,0,0,0,0,0,0,0,0,0,0,0,0,0,0,0,0,0,0,0,0,0,0,0,0,0,0,0,0,0,0,0,0,0,0,0,0,0,0,0,0,0,0,0,0,0,
1793,0,1793,0,1793,0,0,0,0,0,0,0,0,0,0,0,0,0,0,0,0,0,0,0,0,0,0,0,0,0,0,0,0,0,0,0,0,0,0,0,0,0,0,0,1793,0,1793,0,1793,0,
0,0,0,0,0,0,0,0,0,0,0,0,0,0,0,0,0,0,0,0,0,0,0,0,0,0,0,0,0,0,0,0,0,0,0,0,0,0,0,0,0,0,0,0,0,0,0,0,0,0,
1793,0,1793,0,1793,0,0,0,0,0,0,0,0,0,0,0,0,0,0,0,0,0,0,0,0,0,0,0,0,0,0,0,0,0,0,0,0,0,0,0,0,0,0,0,1793,0,1793,0,1793,0,
0,0,0,0,0,0,0,0,0,0,0,0,0,0,0,0,0,0,0,0,0,0,0,0,0,0,0,0,0,0,0,0,0,0,0,0,0,0,0,0,0,0,0,0,0,0,0,0,0,0,
1793,0,1793,0,1793,0,0,0,0,0,0,0,0,0,0,0,0,0,0,0,0,0,0,0,0,0,0,0,0,0,0,0,0,0,0,0,0,0,0,0,0,0,0,0,1793,0,1793,0,1793,0,
0,0,0,0,0,0,0,0,0,0,0,0,0,0,0,0,0,0,0,0,0,0,0,0,0,0,0,0,0,0,0,0,0,0,0,0,0,0,0,0,0,0,0,0,0,0,0,0,0,0,
1793,0,1793,0,1793,0,0,0,0,0,0,0,0,0,0,0,0,0,0,0,0,0,0,0,0,0,0,0,0,0,0,0,0,0,0,0,0,0,0,0,0,0,0,0,1793,0,1793,0,1793,0,
0,0,0,0,0,0,0,0,0,0,0,0,0,0,0,0,0,0,0,0,0,0,0,0,0,0,0,0,0,0,0,0,0,0,0,0,0,0,0,0,0,0,0,0,0,0,0,0,0,0,
1793,0,1793,0,1793,0,0,0,0,0,0,0,0,0,0,0,0,0,0,0,0,0,0,0,0,0,0,0,0,0,0,0,0,0,0,0,0,0,0,0,0,0,0,0,1793,0,1793,0,1793,0,
0,0,0,0,0,0,0,0,0,0,0,0,0,0,0,0,0,0,0,0,0,0,0,0,0,0,0,0,0,0,0,0,0,0,0,0,0,0,0,0,0,0,0,0,0,0,0,0,0,0,
1793,0,1793,0,1793,0,0,0,0,0,0,0,0,0,0,0,0,0,0,0,0,0,0,0,0,0,0,0,0,0,0,0,0,0,0,0,0,0,0,0,0,0,0,0,1793,0,1793,0,1793,0,
0,0,0,0,0,0,0,0,0,0,0,0,0,0,0,0,0,0,0,0,0,0,0,0,0,0,0,0,0,0,0,0,0,0,0,0,0,0,0,0,0,0,0,0,0,0,0,0,0,0,
1793,0,1793,0,1793,0,1793,0,1793,0,1793,0,0,0,0,0,0,0,0,0,0,0,0,0,0,0,0,0,0,0,0,0,0,0,0,0,0,0,1793,0,1793,0,1793,0,1793,0,1793,0,1793,0,
0,0,0,0,0,0,0,0,0,0,0,0,0,0,0,0,0,0,0,0,0,0,0,0,0,0,0,0,0,0,0,0,0,0,0,0,0,0,0,0,0,0,0,0,0,0,0,0,0,0,
1793,0,1793,0,1793,0,1793,0,1793,0,1793,0,0,0,0,0,0,0,0,0,0,0,0,0,0,0,0,0,0,0,0,0,0,0,0,0,0,0,1793,0,1793,0,1793,0,1793,0,1793,0,1793,0,
0,0,0,0,0,0,0,0,0,0,0,0,0,0,0,0,0,0,0,0,0,0,0,0,0,0,0,0,0,0,0,0,0,0,0,0,0,0,0,0,0,0,0,0,0,0,0,0,0,0,
1793,0,1793,0,1793,0,1793,0,1793,0,1793,0,0,0,0,0,0,0,0,0,0,0,0,0,0,0,0,0,0,0,0,0,0,0,0,0,0,0,1793,0,1793,0,1793,0,1793,0,1793,0,1793,0,
0,0,0,0,0,0,0,0,0,0,0,0,0,0,0,0,0,0,0,0,0,0,0,0,0,0,0,0,0,0,0,0,0,0,0,0,0,0,0,0,0,0,0,0,0,0,0,0,0,0,
1793,0,1793,0,1793,0,1793,0,1793,0,1793,0,1793,0,1793,0,1793,0,1793,0,1793,0,1793,0,1793,0,1793,0,1793,0,1793,0,1793,0,1793,0,1793,0,1793,0,1793,0,1793,0,1793,0,1793,0,1793,0,
0,0,0,0,0,0,0,0,0,0,0,0,0,0,0,0,0,0,0,0,0,0,0,0,0,0,0,0,0,0,0,0,0,0,0,0,0,0,0,0,0,0,0,0,0,0,0,0,0,0,
1793,0,1793,0,1793,0,1793,0,1793,0,1793,0,1793,0,1793,0,1793,0,1793,0,1793,0,1793,0,1793,0,1793,0,1793,0,1793,0,1793,0,1793,0,1793,0,1793,0,1793,0,1793,0,1793,0,1793,0,1793,0,
0,0,0,0,0,0,0,0,0,0,0,0,0,0,0,0,0,0,0,0,0,0,0,0,0,0,0,0,0,0,0,0,0,0,0,0,0,0,0,0,0,0,0,0,0,0,0,0,0,0,
1793,0,1793,0,1793,0,1793,0,1793,0,1793,0,1793,0,1793,0,1793,0,1793,0,1793,0,1793,0,1793,0,1793,0,1793,0,1793,0,1793,0,1793,0,1793,0,1793,0,1793,0,1793,0,1793,0,1793,0,1793,0,
0,0,0,0,0,0,0,0,0,0,0,0,0,0,0,0,0,0,0,0,0,0,0,0,0,0,0,0,0,0,0,0,0,0,0,0,0,0,0,0,0,0,0,0,0,0,0,0,0,0
</data>
  </layer>
  <layer id="12" name="Level_1_Ceiling" width="50" height="58">
   <properties>
    <property name="maybe_animation_id" value="75ea443e6634d96"/>
    <property name="maybe_tileset_id" value="d8b504e9a8480fbe"/>
    <property name="tile_size" type="int" value="16"/>
   </properties>
   <data encoding="csv">
1655,0,1655,0,1655,0,1655,0,1655,0,1655,0,1655,0,1655,0,1655,0,1655,0,1655,0,1655,0,1655,0,1655,0,1655,0,1655,0,1655,0,1655,0,1655,0,1655,0,1655,0,1655,0,1655,0,0,0,0,0,
0,0,0,0,0,0,0,0,0,0,0,0,0,0,0,0,0,0,0,0,0,0,0,0,0,0,0,0,0,0,0,0,0,0,0,0,0,0,0,0,0,0,0,0,0,0,0,0,0,0,
1655,0,1655,0,1655,0,1655,0,1655,0,1655,0,1655,0,1655,0,1655,0,1655,0,1655,0,1655,0,1655,0,1655,0,1655,0,1655,0,1655,0,1655,0,1655,0,1655,0,1655,0,1655,0,1655,0,0,0,0,0,
0,0,0,0,0,0,0,0,0,0,0,0,0,0,0,0,0,0,0,0,0,0,0,0,0,0,0,0,0,0,0,0,0,0,0,0,0,0,0,0,0,0,0,0,0,0,0,0,0,0,
1655,0,1655,0,1655,0,1655,0,1655,0,1655,0,1655,0,2147488058,0,2147488057,0,2147488056,0,4407,0,4407,0,4407,0,4407,0,4407,0,4408,0,4409,0,4410,0,1655,0,1655,0,1655,0,1655,0,1655,0,0,0,0,0,
0,0,0,0,0,0,0,0,0,0,0,0,0,0,0,0,0,0,0,0,0,0,0,0,0,0,0,0,0,0,0,0,0,0,0,0,0,0,0,0,0,0,0,0,0,0,0,0,0,0,
1655,0,1655,0,1655,0,1655,0,1655,0,2147488058,0,2147488123,0,2147488122,0,2147488121,0,2147488120,0,4471,0,4471,0,4471,0,4471,0,4471,0,4472,0,4473,0,4474,0,4475,0,4410,0,1655,0,1655,0,1655,0,0,0,0,0,
0,0,0,0,0,0,0,0,0,0,0,0,0,0,0,0,0,0,0,0,0,0,0,0,0,0,0,0,0,0,0,0,0,0,0,0,0,0,0,0,0,0,0,0,0,0,0,0,0,0,
1655,0,1655,0,1655,0,2147488189,0,2147488188,0,2147488122,0,2147488187,0,2147488186,0,2147488185,0,2147488184,0,2147488183,0,1655,0,1655,0,1655,0,1655,0,4536,0,4537,0,4538,0,4539,0,4474,0,4540,0,4541,0,1655,0,0,0,0,0,
0,0,0,0,0,0,0,0,0,0,0,0,0,0,0,0,0,0,0,0,0,0,0,0,0,0,0,0,0,0,0,0,0,0,0,0,0,0,0,0,0,0,0,0,0,0,0,0,0,0,
1655,0,1655,0,2147488254,0,2147488253,0,2147488252,0,2147488186,0,2147488251,0,2147488250,0,1655,0,1655,0,1655,0,1655,0,1655,0,1655,0,1655,0,1655,0,1655,0,4602,0,4603,0,4538,0,4604,0,4605,0,4606,0,0,0,0,0,
0,0,0,0,0,0,0,0,0,0,0,0,0,0,0,0,0,0,0,0,0,0,0,0,0,0,0,0,0,0,0,0,0,0,0,0,0,0,0,0,0,0,0,0,0,0,0,0,0,0,
1655,0,1655,0,2147488318,0,2147488317,0,2147488316,0,2147488250,0,1655,0,1655,0,1655,0,1655,0,1655,0,1655,0,1655,0,1655,0,1655,0,1655,0,1655,0,1655,0,1655,0,4602,0,4668,0,4669,0,4670,0,0,0,0,0,
0,0,0,0,0,0,0,0,0,0,0,0,0,0,0,0,0,0,0,0,0,0,0,0,0,0,0,0,0,0,0,0,0,0,0,0,0,0,0,0,0,0,0,0,0,0,0,0,0,0,
1655,0,1655,0,2147488382,0,2147488381,0,2147488380,0,1655,0,1655,0,1655,0,1655,0,1655,0,1655,0,1655,0,1655,0,1655,0,1655,0,1655,0,1655,0,1655,0,1655,0,1655,0,4732,0,4733,0,4734,0,0,0,0,0,
0,0,0,0,0,0,0,0,0,0,0,0,0,0,0,0,0,0,0,0,0,0,0,0,0,0,0,0,0,0,0,0,0,0,0,0,0,0,0,0,0,0,0,0,0,0,0,0,0,0,
1655,0,1655,0,2147488446,0,2147488445,0,1655,0,1655,0,1655,0,1655,0,1655,0,1655,0,1655,0,1655,0,1655,0,1655,0,1655,0,1655,0,1655,0,1655,0,1655,0,1655,0,1655,0,4797,0,4798,0,0,0,0,0,
0,0,0,0,0,0,0,0,0,0,0,0,0,0,0,0,0,0,0,0,0,0,0,0,0,0,0,0,0,0,0,0,0,0,0,0,0,0,0,0,0,0,0,0,0,0,0,0,0,0,
1655,0,1655,0,2147488446,0,2147488445,0,1655,0,1655,0,1655,0,1655,0,1655,0,1655,0,1655,0,1655,0,1655,0,1655,0,1655,0,1655,0,1655,0,1655,0,1655,0,1655,0,1655,0,4797,0,4798,0,0,0,0,0,
0,0,0,0,0,0,0,0,0,0,0,0,0,0,0,0,0,0,0,0,0,0,0,0,0,0,0,0,0,0,0,0,0,0,0,0,0,0,0,0,0,0,0,0,0,0,0,0,0,0,
1655,0,1655,0,2147488446,0,2147488445,0,1655,0,1655,0,1655,0,1655,0,1655,0,1655,0,1655,0,1655,0,1655,0,1655,0,1655,0,1655,0,1655,0,1655,0,1655,0,1655,0,1655,0,4797,0,4798,0,0,0,0,0,
0,0,0,0,0,0,0,0,0,0,0,0,0,0,0,0,0,0,0,0,0,0,0,0,0,0,0,0,0,0,0,0,0,0,0,0,0,0,0,0,0,0,0,0,0,0,0,0,0,0,
1655,0,1655,0,2147488446,0,2147488445,0,1655,0,1655,0,1655,0,1655,0,1655,0,1655,0,1655,0,1655,0,1655,0,1655,0,1655,0,1655,0,1655,0,1655,0,1655,0,1655,0,1655,0,4797,0,4798,0,0,0,0,0,
0,0,0,0,0,0,0,0,0,0,0,0,0,0,0,0,0,0,0,0,0,0,0,0,0,0,0,0,0,0,0,0,0,0,0,0,0,0,0,0,0,0,0,0,0,0,0,0,0,0,
1655,0,1655,0,2147488446,0,2147488445,0,1655,0,1655,0,1655,0,1655,0,1655,0,1655,0,1655,0,1655,0,1655,0,1655,0,1655,0,1655,0,1655,0,1655,0,1655,0,1655,0,1655,0,4797,0,4798,0,0,0,0,0,
0,0,0,0,0,0,0,0,0,0,0,0,0,0,0,0,0,0,0,0,0,0,0,0,0,0,0,0,0,0,0,0,0,0,0,0,0,0,0,0,0,0,0,0,0,0,0,0,0,0,
1655,0,1655,0,2147488446,0,2147488445,0,1655,0,1655,0,1655,0,1655,0,1655,0,1655,0,1655,0,1655,0,1655,0,1655,0,1655,0,1655,0,1655,0,1655,0,1655,0,1655,0,1655,0,4797,0,4798,0,0,0,0,0,
0,0,0,0,0,0,0,0,0,0,0,0,0,0,0,0,0,0,0,0,0,0,0,0,0,0,0,0,0,0,0,0,0,0,0,0,0,0,0,0,0,0,0,0,0,0,0,0,0,0,
1655,0,1655,0,2147488446,0,2147488445,0,1655,0,1655,0,1655,0,1655,0,1655,0,1655,0,1655,0,1655,0,1655,0,1655,0,1655,0,1655,0,1655,0,1655,0,1655,0,1655,0,1655,0,4797,0,4798,0,0,0,0,0,
0,0,0,0,0,0,0,0,0,0,0,0,0,0,0,0,0,0,0,0,0,0,0,0,0,0,0,0,0,0,0,0,0,0,0,0,0,0,0,0,0,0,0,0,0,0,0,0,0,0,
1655,0,1655,0,2147488446,0,2147488445,0,1655,0,1655,0,1655,0,1655,0,1655,0,1655,0,1655,0,1655,0,1655,0,1655,0,1655,0,1655,0,1655,0,1655,0,1655,0,1655,0,1655,0,4797,0,4798,0,0,0,0,0,
0,0,0,0,0,0,0,0,0,0,0,0,0,0,0,0,0,0,0,0,0,0,0,0,0,0,0,0,0,0,0,0,0,0,0,0,0,0,0,0,0,0,0,0,0,0,0,0,0,0,
1655,0,1655,0,2147488446,0,2147488445,0,1655,0,1655,0,1655,0,1655,0,1655,0,1655,0,1655,0,1655,0,1655,0,1655,0,1655,0,1655,0,1655,0,1655,0,1655,0,1655,0,1655,0,4797,0,4798,0,0,0,0,0,
0,0,0,0,0,0,0,0,0,0,0,0,0,0,0,0,0,0,0,0,0,0,0,0,0,0,0,0,0,0,0,0,0,0,0,0,0,0,0,0,0,0,0,0,0,0,0,0,0,0,
1655,0,1655,0,2147488446,0,2147488445,0,1655,0,1655,0,1655,0,1655,0,1655,0,1655,0,1655,0,1655,0,1655,0,1655,0,1655,0,1655,0,1655,0,1655,0,1655,0,1655,0,1655,0,4797,0,4798,0,0,0,0,0,
0,0,0,0,0,0,0,0,0,0,0,0,0,0,0,0,0,0,0,0,0,0,0,0,0,0,0,0,0,0,0,0,0,0,0,0,0,0,0,0,0,0,0,0,0,0,0,0,0,0,
1655,0,1655,0,2147488446,0,2147488445,0,1655,0,1655,0,1655,0,1655,0,1655,0,1655,0,1655,0,1655,0,1655,0,1655,0,1655,0,1655,0,1655,0,1655,0,1655,0,1655,0,1655,0,4797,0,4798,0,0,0,0,0,
0,0,0,0,0,0,0,0,0,0,0,0,0,0,0,0,0,0,0,0,0,0,0,0,0,0,0,0,0,0,0,0,0,0,0,0,0,0,0,0,0,0,0,0,0,0,0,0,0,0,
1655,0,1655,0,2147488446,0,2147488445,0,1655,0,1655,0,1655,0,1655,0,1655,0,1655,0,1655,0,1655,0,1655,0,1655,0,1655,0,1655,0,1655,0,1655,0,1655,0,1655,0,1655,0,4797,0,4798,0,0,0,0,0,
0,0,0,0,0,0,0,0,0,0,0,0,0,0,0,0,0,0,0,0,0,0,0,0,0,0,0,0,0,0,0,0,0,0,0,0,0,0,0,0,0,0,0,0,0,0,0,0,0,0,
1655,0,1655,0,2147488446,0,2147488445,0,1655,0,1655,0,1655,0,1655,0,1655,0,1655,0,1655,0,1655,0,1655,0,1655,0,1655,0,1655,0,1655,0,1655,0,1655,0,1655,0,1655,0,4797,0,4798,0,0,0,0,0,
0,0,0,0,0,0,0,0,0,0,0,0,0,0,0,0,0,0,0,0,0,0,0,0,0,0,0,0,0,0,0,0,0,0,0,0,0,0,0,0,0,0,0,0,0,0,0,0,0,0,
1655,0,1655,0,2147488446,0,2147488445,0,1655,0,1655,0,1655,0,1655,0,1655,0,1655,0,1655,0,1655,0,1655,0,1655,0,1655,0,1655,0,1655,0,1655,0,1655,0,1655,0,1655,0,4797,0,4798,0,0,0,0,0,
0,0,0,0,0,0,0,0,0,0,0,0,0,0,0,0,0,0,0,0,0,0,0,0,0,0,0,0,0,0,0,0,0,0,0,0,0,0,0,0,0,0,0,0,0,0,0,0,0,0,
1655,0,1655,0,4791,0,4792,0,4796,0,4599,0,4600,0,1655,0,1655,0,1655,0,1655,0,1655,0,1655,0,1655,0,1655,0,1655,0,1655,0,1655,0,2147488248,0,2147488247,0,4796,0,2147488440,0,2147488439,0,0,0,0,0,
0,0,0,0,0,0,0,0,0,0,0,0,0,0,0,0,0,0,0,0,0,0,0,0,0,0,0,0,0,0,0,0,0,0,0,0,0,0,0,0,0,0,0,0,0,0,0,0,0,0,
1655,0,1655,0,4855,0,4856,0,4860,0,4663,0,4664,0,1655,0,1655,0,1655,0,1655,0,1655,0,1655,0,1655,0,1655,0,1655,0,1655,0,1655,0,2147488312,0,2147488311,0,4860,0,2147488504,0,2147488503,0,0,0,0,0,
0,0,0,0,0,0,0,0,0,0,0,0,0,0,0,0,0,0,0,0,0,0,0,0,0,0,0,0,0,0,0,0,0,0,0,0,0,0,0,0,0,0,0,0,0,0,0,0,0,0,
1655,0,1655,0,1655,0,1655,0,1655,0,4727,0,4728,0,1655,0,1655,0,1655,0,1655,0,4729,0,4730,0,4731,0,1655,0,1655,0,1655,0,1655,0,2147488376,0,2147488375,0,1655,0,1655,0,1655,0,0,0,0,0,
0,0,0,0,0,0,0,0,0,0,0,0,0,0,0,0,0,0,0,0,0,0,0,0,0,0,0,0,0,0,0,0,0,0,0,0,0,0,0,0,0,0,0,0,0,0,0,0,0,0,
1655,0,1655,0,1655,0,1655,0,1655,0,4791,0,4792,0,4796,0,4796,0,4796,0,4796,0,4793,0,4794,0,4795,0,4796,0,4796,0,4796,0,4796,0,2147488440,0,2147488439,0,1655,0,1655,0,1655,0,0,0,0,0,
0,0,0,0,0,0,0,0,0,0,0,0,0,0,0,0,0,0,0,0,0,0,0,0,0,0,0,0,0,0,0,0,0,0,0,0,0,0,0,0,0,0,0,0,0,0,0,0,0,0,
1655,0,1655,0,1655,0,1655,0,1655,0,4855,0,4856,0,4860,0,4860,0,4860,0,4860,0,4857,0,4858,0,4859,0,4860,0,4860,0,4860,0,4860,0,2147488504,0,2147488503,0,1655,0,1655,0,1655,0,0,0,0,0,
0,0,0,0,0,0,0,0,0,0,0,0,0,0,0,0,0,0,0,0,0,0,0,0,0,0,0,0,0,0,0,0,0,0,0,0,0,0,0,0,0,0,0,0,0,0,0,0,0,0,
0,0,0,0,0,0,0,0,0,0,0,0,0,0,0,0,0,0,0,0,0,0,4921,0,4922,0,4923,0,0,0,0,0,0,0,0,0,0,0,0,0,0,0,0,0,0,0,0,0,0,0,
0,0,0,0,0,0,0,0,0,0,0,0,0,0,0,0,0,0,0,0,0,0,0,0,0,0,0,0,0,0,0,0,0,0,0,0,0,0,0,0,0,0,0,0,0,0,0,0,0,0,
0,0,0,0,0,0,0,0,0,0,0,0,0,0,0,0,0,0,0,0,0,0,0,0,0,0,0,0,0,0,0,0,0,0,0,0,0,0,0,0,0,0,0,0,0,0,0,0,0,0,
0,0,0,0,0,0,0,0,0,0,0,0,0,0,0,0,0,0,0,0,0,0,0,0,0,0,0,0,0,0,0,0,0,0,0,0,0,0,0,0,0,0,0,0,0,0,0,0,0,0
</data>
  </layer>
 </group>
 <layer id="13" name="FootstepTiles" width="50" height="58" visible="0">
  <properties>
   <property name="maybe_animation_id" value="9b6388374855b54b"/>
   <property name="maybe_tileset_id" value="5fc72aa2902dea7"/>
   <property name="tile_size" type="int" value="16"/>
  </properties>
  <data encoding="csv">
0,0,0,0,0,0,0,0,0,0,0,0,0,0,0,0,0,0,0,0,0,0,0,0,0,0,0,0,0,0,0,0,0,0,0,0,0,0,0,0,0,0,0,0,0,0,0,0,0,0,
0,0,0,0,0,0,0,0,0,0,0,0,0,0,0,0,0,0,0,0,0,0,0,0,0,0,0,0,0,0,0,0,0,0,0,0,0,0,0,0,0,0,0,0,0,0,0,0,0,0,
0,0,0,0,0,0,0,0,0,0,0,0,0,0,0,0,0,0,0,0,0,0,0,0,0,0,0,0,0,0,0,0,0,0,0,0,0,0,0,0,0,0,0,0,0,0,0,0,0,0,
0,0,0,0,0,0,0,0,0,0,0,0,0,0,0,0,0,0,0,0,0,0,0,0,0,0,0,0,0,0,0,0,0,0,0,0,0,0,0,0,0,0,0,0,0,0,0,0,0,0,
0,0,0,0,0,0,0,0,0,0,0,0,0,0,0,0,0,0,0,0,0,0,0,0,0,0,0,0,0,0,0,0,0,0,0,0,0,0,0,0,0,0,0,0,0,0,0,0,0,0,
0,0,0,0,0,0,0,0,0,0,0,0,0,0,0,0,0,0,0,0,0,0,0,0,0,0,0,0,0,0,0,0,0,0,0,0,0,0,0,0,0,0,0,0,0,0,0,0,0,0,
0,0,0,0,0,0,0,0,0,0,0,0,0,0,0,0,0,0,0,0,0,0,0,0,0,0,0,0,0,0,0,0,0,0,0,0,0,0,0,0,0,0,0,0,0,0,0,0,0,0,
0,0,0,0,0,0,0,0,0,0,0,0,0,0,0,0,0,0,0,0,0,0,0,0,0,0,0,0,0,0,0,0,0,0,0,0,0,0,0,0,0,0,0,0,0,0,0,0,0,0,
0,0,0,0,0,0,0,0,0,0,0,0,0,0,0,0,0,0,0,0,0,0,0,0,0,0,0,0,0,0,0,0,0,0,0,0,0,0,0,0,0,0,0,0,0,0,0,0,0,0,
0,0,0,0,0,0,0,0,0,0,0,0,0,0,0,0,0,0,0,0,0,0,0,0,0,0,0,0,0,0,0,0,0,0,0,0,0,0,0,0,0,0,0,0,0,0,0,0,0,0,
0,0,0,0,0,0,0,0,0,0,0,0,0,0,0,0,0,0,0,0,0,0,0,0,0,0,0,0,0,0,0,0,0,0,0,0,0,0,0,0,0,0,0,0,0,0,0,0,0,0,
0,0,0,0,0,0,0,0,0,0,0,0,0,0,0,0,0,0,0,0,0,0,0,0,0,0,0,0,0,0,0,0,0,0,0,0,0,0,0,0,0,0,0,0,0,0,0,0,0,0,
0,0,0,0,0,0,1513,0,1513,0,1513,0,1513,0,1513,0,1513,0,1513,0,1513,0,1513,0,1513,0,1513,0,1513,0,1513,0,1513,0,1513,0,1513,0,1513,0,1513,0,1513,0,0,0,0,0,0,0,
0,0,0,0,0,0,0,0,0,0,0,0,0,0,0,0,0,0,0,0,0,0,0,0,0,0,0,0,0,0,0,0,0,0,0,0,0,0,0,0,0,0,0,0,0,0,0,0,0,0,
0,0,0,0,0,0,1513,0,1513,0,1513,0,1513,0,1513,0,1513,0,1513,0,1513,0,1513,0,1513,0,1513,0,1513,0,1513,0,1513,0,1513,0,1513,0,1513,0,1513,0,1513,0,0,0,0,0,0,0,
0,0,0,0,0,0,0,0,0,0,0,0,0,0,0,0,0,0,0,0,0,0,0,0,0,0,0,0,0,0,0,0,0,0,0,0,0,0,0,0,0,0,0,0,0,0,0,0,0,0,
0,0,1511,0,1511,0,1513,0,1513,0,1513,0,1513,0,1513,0,1513,0,1513,0,1513,0,1513,0,1513,0,1513,0,1513,0,1513,0,1513,0,1513,0,1513,0,1513,0,1513,0,1513,0,0,0,0,0,0,0,
0,0,0,0,0,0,0,0,0,0,0,0,0,0,0,0,0,0,0,0,0,0,0,0,0,0,0,0,0,0,0,0,0,0,0,0,0,0,0,0,0,0,0,0,0,0,0,0,0,0,
0,0,1511,0,1511,0,1513,0,1513,0,1513,0,1513,0,1513,0,1513,0,1513,0,1513,0,1513,0,1513,0,1513,0,1513,0,1513,0,1513,0,1513,0,1513,0,1513,0,1513,0,1513,0,1511,0,1511,0,1511,0,
0,0,0,0,0,0,0,0,0,0,0,0,0,0,0,0,0,0,0,0,0,0,0,0,0,0,0,0,0,0,0,0,0,0,0,0,0,0,0,0,0,0,0,0,0,0,0,0,0,0,
0,0,1511,0,1511,0,1513,0,1513,0,1513,0,1513,0,1513,0,1513,0,1513,0,1513,0,1513,0,1513,0,1513,0,1513,0,1513,0,1513,0,1513,0,1513,0,1513,0,1513,0,1513,0,1511,0,1511,0,1511,0,
0,0,0,0,0,0,0,0,0,0,0,0,0,0,0,0,0,0,0,0,0,0,0,0,0,0,0,0,0,0,0,0,0,0,0,0,0,0,0,0,0,0,0,0,0,0,0,0,0,0,
0,0,1511,0,1511,0,1513,0,1513,0,1513,0,1513,0,1513,0,1513,0,1513,0,1513,0,1513,0,1513,0,1513,0,1513,0,1513,0,1513,0,1513,0,1513,0,1513,0,1513,0,1513,0,1511,0,1511,0,1511,0,
0,0,0,0,0,0,0,0,0,0,0,0,0,0,0,0,0,0,0,0,0,0,0,0,0,0,0,0,0,0,0,0,0,0,0,0,0,0,0,0,0,0,0,0,0,0,0,0,0,0,
0,0,1511,0,1511,0,1513,0,1513,0,1513,0,1514,0,1514,0,1514,0,1514,0,1514,0,1514,0,1514,0,1514,0,1514,0,1514,0,1514,0,1514,0,1514,0,1513,0,1513,0,1513,0,1511,0,1511,0,1511,0,
0,0,0,0,0,0,0,0,0,0,0,0,0,0,0,0,0,0,0,0,0,0,0,0,0,0,0,0,0,0,0,0,0,0,0,0,0,0,0,0,0,0,0,0,0,0,0,0,0,0,
0,0,1511,0,1511,0,1513,0,1513,0,1513,0,1514,0,1514,0,1514,0,1514,0,1514,0,1514,0,1514,0,1514,0,1514,0,1514,0,1514,0,1514,0,1514,0,1513,0,1513,0,1513,0,1511,0,1511,0,1511,0,
0,0,0,0,0,0,0,0,0,0,0,0,0,0,0,0,0,0,0,0,0,0,0,0,0,0,0,0,0,0,0,0,0,0,0,0,0,0,0,0,0,0,0,0,0,0,0,0,0,0,
0,0,1511,0,1511,0,1513,0,1513,0,1513,0,1514,0,1514,0,1514,0,1514,0,1514,0,1514,0,1514,0,1514,0,1514,0,1514,0,1514,0,1514,0,1514,0,1513,0,1513,0,1513,0,1511,0,1511,0,1511,0,
0,0,0,0,0,0,0,0,0,0,0,0,0,0,0,0,0,0,0,0,0,0,0,0,0,0,0,0,0,0,0,0,0,0,0,0,0,0,0,0,0,0,0,0,0,0,0,0,0,0,
0,0,1511,0,1511,0,1513,0,1513,0,1513,0,1513,0,1513,0,1513,0,1513,0,1512,0,1512,0,1512,0,1512,0,1512,0,1514,0,1514,0,1513,0,1513,0,1513,0,1513,0,1513,0,1511,0,1511,0,1511,0,
0,0,0,0,0,0,0,0,0,0,0,0,0,0,0,0,0,0,0,0,0,0,0,0,0,0,0,0,0,0,0,0,0,0,0,0,0,0,0,0,0,0,0,0,0,0,0,0,0,0,
0,0,1511,0,1511,0,1513,0,1513,0,1513,0,1512,0,1512,0,1512,0,1512,0,1512,0,1512,0,1512,0,1512,0,1512,0,1512,0,1512,0,1512,0,1512,0,1513,0,1513,0,1513,0,1511,0,1511,0,1511,0,
0,0,0,0,0,0,0,0,0,0,0,0,0,0,0,0,0,0,0,0,0,0,0,0,0,0,0,0,0,0,0,0,0,0,0,0,0,0,0,0,0,0,0,0,0,0,0,0,0,0,
0,0,1511,0,1511,0,1513,0,1512,0,1512,0,1512,0,1512,0,1512,0,1512,0,1513,0,1513,0,1513,0,1513,0,1513,0,1512,0,1512,0,1512,0,1512,0,1512,0,1512,0,1513,0,1511,0,1511,0,1511,0,
0,0,0,0,0,0,0,0,0,0,0,0,0,0,0,0,0,0,0,0,0,0,0,0,0,0,0,0,0,0,0,0,0,0,0,0,0,0,0,0,0,0,0,0,0,0,0,0,0,0,
0,0,1511,0,1511,0,1512,0,1512,0,1512,0,1512,0,1512,0,1512,0,1512,0,1513,0,1513,0,1513,0,1513,0,1513,0,1512,0,1512,0,1512,0,1512,0,1512,0,1512,0,1512,0,1511,0,1511,0,1511,0,
0,0,0,0,0,0,0,0,0,0,0,0,0,0,0,0,0,0,0,0,0,0,0,0,0,0,0,0,0,0,0,0,0,0,0,0,0,0,0,0,0,0,0,0,0,0,0,0,0,0,
0,0,1511,0,1511,0,1512,0,1512,0,1512,0,1512,0,1512,0,1512,0,1512,0,1513,0,1513,0,1513,0,1513,0,1513,0,1512,0,1512,0,1512,0,1512,0,1512,0,1512,0,1512,0,0,0,0,0,0,0,
0,0,0,0,0,0,0,0,0,0,0,0,0,0,0,0,0,0,0,0,0,0,0,0,0,0,0,0,0,0,0,0,0,0,0,0,0,0,0,0,0,0,0,0,0,0,0,0,0,0,
0,0,1511,0,1511,0,1512,0,1512,0,1512,0,1512,0,1512,0,1512,0,1512,0,1513,0,1513,0,1513,0,1513,0,1513,0,1512,0,1512,0,1512,0,1514,0,1514,0,1514,0,1512,0,0,0,0,0,0,0,
0,0,0,0,0,0,0,0,0,0,0,0,0,0,0,0,0,0,0,0,0,0,0,0,0,0,0,0,0,0,0,0,0,0,0,0,0,0,0,0,0,0,0,0,0,0,0,0,0,0,
0,0,1511,0,1511,0,1512,0,1512,0,1512,0,1512,0,1512,0,1512,0,1512,0,1512,0,1512,0,1512,0,1512,0,1512,0,1512,0,1512,0,1512,0,1512,0,1512,0,1512,0,1512,0,0,0,0,0,0,0,
0,0,0,0,0,0,0,0,0,0,0,0,0,0,0,0,0,0,0,0,0,0,0,0,0,0,0,0,0,0,0,0,0,0,0,0,0,0,0,0,0,0,0,0,0,0,0,0,0,0,
0,0,1511,0,1511,0,1512,0,1512,0,1512,0,1512,0,1512,0,1512,0,1512,0,1512,0,1512,0,1512,0,1512,0,1512,0,1512,0,1512,0,1512,0,1512,0,1512,0,1512,0,1512,0,0,0,0,0,0,0,
0,0,0,0,0,0,0,0,0,0,0,0,0,0,0,0,0,0,0,0,0,0,0,0,0,0,0,0,0,0,0,0,0,0,0,0,0,0,0,0,0,0,0,0,0,0,0,0,0,0,
0,0,1511,0,1511,0,1511,0,1511,0,1511,0,1513,0,1513,0,1513,0,1513,0,1513,0,1513,0,1513,0,1513,0,1513,0,1513,0,1513,0,1513,0,1513,0,1511,0,0,0,0,0,0,0,0,0,0,0,
0,0,0,0,0,0,0,0,0,0,0,0,0,0,0,0,0,0,0,0,0,0,0,0,0,0,0,0,0,0,0,0,0,0,0,0,0,0,0,0,0,0,0,0,0,0,0,0,0,0,
0,0,1511,0,1511,0,1511,0,1511,0,1511,0,1513,0,1513,0,1513,0,1513,0,1513,0,1514,0,1514,0,1514,0,1513,0,1513,0,1513,0,1513,0,1513,0,1511,0,0,0,0,0,0,0,0,0,0,0,
0,0,0,0,0,0,0,0,0,0,0,0,0,0,0,0,0,0,0,0,0,0,0,0,0,0,0,0,0,0,0,0,0,0,0,0,0,0,0,0,0,0,0,0,0,0,0,0,0,0,
0,0,0,0,0,0,0,0,0,0,0,0,1513,0,1513,0,1513,0,1513,0,1513,0,1513,0,1513,0,1513,0,1513,0,1513,0,1513,0,1513,0,1513,0,0,0,0,0,0,0,0,0,0,0,0,0,
0,0,0,0,0,0,0,0,0,0,0,0,0,0,0,0,0,0,0,0,0,0,0,0,0,0,0,0,0,0,0,0,0,0,0,0,0,0,0,0,0,0,0,0,0,0,0,0,0,0,
0,0,0,0,0,0,0,0,0,0,0,0,1513,0,1513,0,1513,0,1513,0,1513,0,1513,0,1513,0,1513,0,1513,0,1513,0,1513,0,1513,0,1513,0,0,0,0,0,0,0,0,0,0,0,0,0,
0,0,0,0,0,0,0,0,0,0,0,0,0,0,0,0,0,0,0,0,0,0,0,0,0,0,0,0,0,0,0,0,0,0,0,0,0,0,0,0,0,0,0,0,0,0,0,0,0,0,
0,0,0,0,0,0,0,0,0,0,0,0,0,0,0,0,0,0,0,0,0,0,1513,0,1513,0,1513,0,0,0,0,0,0,0,0,0,0,0,0,0,0,0,0,0,0,0,0,0,0,0,
0,0,0,0,0,0,0,0,0,0,0,0,0,0,0,0,0,0,0,0,0,0,0,0,0,0,0,0,0,0,0,0,0,0,0,0,0,0,0,0,0,0,0,0,0,0,0,0,0,0,
0,0,0,0,0,0,0,0,0,0,0,0,0,0,0,0,0,0,0,0,0,0,1513,0,1513,0,1513,0,0,0,0,0,0,0,0,0,0,0,0,0,0,0,0,0,0,0,0,0,0,0,
0,0,0,0,0,0,0,0,0,0,0,0,0,0,0,0,0,0,0,0,0,0,0,0,0,0,0,0,0,0,0,0,0,0,0,0,0,0,0,0,0,0,0,0,0,0,0,0,0,0
</data>
 </layer>
 <layer id="14" name="Tiles_Collision" width="50" height="58" visible="0">
  <properties>
   <property name="maybe_animation_id" value="d5b5e9552171fe70"/>
   <property name="maybe_tileset_id" value="b29026a2ad0be741"/>
   <property name="tile_size" type="int" value="8"/>
  </properties>
  <data encoding="csv">
1507,1507,1507,1507,1507,1507,1507,1507,1507,1507,1507,1507,1507,1507,1507,1507,1507,1507,1507,1507,1507,1507,1507,1507,1507,1507,1507,1507,1507,1507,1507,1507,1507,1507,1507,1507,1507,1507,1507,1507,1507,1507,1507,1507,1507,1507,1507,1507,1507,1507,
1507,1507,1507,1507,1507,1507,1507,1507,1507,1507,1507,1507,1507,1507,1507,1507,1507,1507,1507,1507,1507,1507,1507,1507,1507,1507,1507,1507,1507,1507,1507,1507,1507,1507,1507,1507,1507,1507,1507,1507,1507,1507,1507,1507,1507,1507,1507,1507,1507,1507,
1507,1507,1507,1507,1507,1507,1507,1507,1507,1507,1507,1507,1507,1507,1507,1507,1507,1507,1507,1507,1507,1507,1507,1507,1507,1507,1507,1507,1507,1507,1507,1507,1507,1507,1507,1507,1507,1507,1507,1507,1507,1507,1507,1507,1507,1507,1507,1507,1507,1507,
1507,1507,1507,1507,1507,1507,1507,1507,1507,1507,1507,1507,1507,1507,1507,1507,1507,1507,1507,1507,1507,1507,1507,1507,1507,1507,1507,1507,1507,1507,1507,1507,1507,1507,1507,1507,1507,1507,1507,1507,1507,1507,1507,1507,1507,1507,1507,1507,1507,1507,
1507,1507,1507,1507,1507,1507,1507,1507,1507,1507,1507,1507,1507,1507,1507,1507,1507,1507,1507,1507,1507,1507,1507,1507,1507,1507,1507,1507,1507,1507,1507,1507,1507,1507,1507,1507,1507,1507,1507,1507,1507,1507,1507,1507,1507,1507,1507,1507,1507,1507,
1507,1507,1507,1507,1507,1507,1507,1507,1507,1507,1507,1507,1507,1507,1507,1507,1507,1507,1507,1507,1507,1507,1507,1507,1507,1507,1507,1507,1507,1507,1507,1507,1507,1507,1507,1507,1507,1507,1507,1507,1507,1507,1507,1507,1507,1507,1507,1507,1507,1507,
1507,1507,1507,1507,1507,1507,1507,1507,1507,1507,1507,1507,1507,1507,1507,1507,1507,1507,1507,1507,1507,1507,1507,1507,1507,1507,1507,1507,1507,1507,1507,1507,1507,1507,1507,1507,1507,1507,1507,1507,1507,1507,1507,1507,1507,1507,1507,1507,1507,1507,
1507,1507,1507,1507,1507,1507,1507,1507,1507,1507,1507,1507,1507,1507,1507,1507,1507,1507,1507,1507,1507,1507,1507,1507,1507,1507,1507,1507,1507,1507,1507,1507,1507,1507,1507,1507,1507,1507,1507,1507,1507,1507,1507,1507,1507,1507,1507,1507,1507,1507,
1507,1507,1507,1507,1507,1507,1507,1507,1507,1507,1507,1507,1507,1507,1507,1507,1507,1507,1507,1507,1507,1507,1507,1507,1507,1507,1507,1507,1507,1507,1507,1507,1507,1507,1507,1507,1507,1507,1507,1507,1507,1507,1507,1507,1507,1507,1507,1507,1507,1507,
1507,1507,1507,1507,1507,1507,1507,1507,1507,1507,1507,1507,1507,1507,1507,1507,1507,1507,1507,1507,1507,1507,1507,1507,1507,1507,1507,1507,1507,1507,1507,1507,1507,1507,1507,1507,1507,1507,1507,1507,1507,1507,1507,1507,1507,1507,1507,1507,1507,1507,
1507,1507,1507,1507,1507,1507,1507,1507,1507,1507,1507,1507,1507,1507,1507,1507,1507,1507,1507,1507,1507,1507,1507,1507,1507,1507,1507,1507,1507,1507,1507,1507,1507,1507,1507,1507,1507,1507,1507,1507,1507,1507,1507,1507,1507,1507,1507,1507,1507,1507,
1507,1507,1507,1507,1507,1507,1507,1507,1507,1507,1507,1507,1507,1507,1507,1507,1507,1507,1507,1507,1507,1507,1507,1507,1507,1507,1507,1507,1507,1507,1507,1507,1507,1507,1507,1507,1507,1507,1507,1507,1507,1507,1507,1507,1507,1507,1507,1507,1507,1507,
1507,1507,1507,1507,1507,1507,1507,1507,1507,1507,1507,1507,1507,1507,1507,1507,1507,1507,1507,1507,1507,1507,1507,1507,1507,1507,1507,1507,1507,1507,1507,1507,1507,1507,1507,1507,1507,1507,1507,1507,1507,1507,1507,1507,1507,1507,1507,1507,1507,1507,
1507,1507,1507,1507,1507,1507,1507,1507,1507,1507,1507,1507,1507,1507,1507,1507,1507,1507,1507,1507,1507,1507,1507,1507,1507,1507,1507,1507,1507,1507,1507,1507,1507,1507,1507,1507,1507,1507,1507,1507,1507,1507,1507,1507,1507,1507,1507,1507,1507,1507,
1507,1507,1507,1507,1507,1507,1507,1507,1507,1507,1507,1507,1507,1507,1507,1507,1507,1507,1507,1507,1507,1507,1507,1507,1507,1507,1507,1507,1507,1507,1507,1507,1507,1507,1507,1507,1507,1507,1507,1507,1507,1507,1507,1507,1507,1507,1507,1507,1507,1507,
1507,1507,1507,1507,1507,1507,1507,1507,1507,1507,1507,1507,1507,1507,1507,1507,1507,1507,1507,1507,1507,1507,1507,1507,1507,1507,1507,1507,1507,1507,1507,1507,1507,1507,1507,1507,1507,1507,1507,1507,1507,1507,1507,1507,1507,1507,1507,1507,1507,1507,
1507,1507,1507,1507,1507,1507,1507,1507,1507,1507,1507,1507,1507,1507,1507,1507,1507,1507,1507,1507,1507,1507,1507,1507,1507,1507,1507,1507,1507,1507,1507,1507,1507,1507,1507,1507,1507,1507,1507,1507,1507,1507,1507,1507,1507,1507,1507,1507,1507,1507,
1507,1507,1507,1507,1507,1507,1507,1507,1507,1507,1507,1507,1507,1507,1507,1507,1507,1507,1507,1507,1507,1507,1507,1507,1507,1507,1507,1507,1507,1507,1507,1507,1507,1507,1507,1507,1507,1507,1507,1507,1507,1507,1507,1507,1507,1507,1507,1507,1507,1507,
1507,1507,1507,1507,1507,1507,1507,1507,1507,1507,1507,1507,1507,1507,1507,1507,1507,1507,1507,1507,1507,1507,1507,1507,1507,1507,1507,1507,1507,1507,1507,1507,1507,1507,1507,1507,1507,1507,1507,1507,1507,1507,1507,1507,1507,1507,1507,1507,1507,1507,
1507,1507,1507,1507,1507,1507,1507,1507,1507,1507,1507,1507,1507,1507,1507,1507,1507,1507,1507,1507,1507,1507,1507,1507,1507,1507,1507,1507,1507,1507,1507,1507,1507,1507,1507,1507,1507,1507,1507,1507,1507,1507,1507,1507,1507,1507,1507,1507,1507,1507,
1507,1507,1507,1507,1507,1507,1507,1507,1507,1507,1507,1507,1507,1507,1507,1507,1507,1507,1507,1507,1507,1507,1507,1507,1507,1507,1507,1507,1507,1507,1507,1507,1507,1507,1507,1507,1507,1507,1507,1507,1507,1507,1507,1507,1507,1507,1507,1507,1507,1507,
1507,1507,1507,1507,1507,1507,1507,1507,1507,1507,1507,1507,1507,1507,1507,1507,1507,1507,1507,1507,1507,1507,1507,1507,1507,1507,1507,1507,1507,1507,1507,1507,1507,1507,1507,1507,1507,1507,1507,1507,1507,1507,1507,1507,1507,1507,1507,1507,1507,1507,
1507,1507,1507,1507,1507,1507,1507,1507,1507,1507,1507,1507,1507,1507,1507,1507,1507,1507,1507,1507,1507,1507,1507,1507,1507,1507,1507,1507,1507,1507,1507,1507,1507,1507,1507,1507,1507,1507,1507,1507,1507,1507,1507,1507,1507,1507,1507,1507,1507,1507,
1507,1507,1507,1507,1507,1507,1507,1507,1507,1504,1504,1504,1504,1504,1504,1504,1504,1507,1507,1507,1507,1504,1507,1507,1507,1507,1507,1507,1504,1507,1507,1507,1507,1504,1504,1504,1504,1504,1504,1507,1507,1507,1507,1507,1507,1507,1507,1507,1507,1507,
1507,1507,1507,1507,1507,1507,1507,1507,1507,1504,1504,1504,1504,1504,1504,1504,1504,1504,1504,1504,1504,1504,1504,1504,1504,1504,1504,1504,1504,1504,1504,1504,1504,1504,1504,1504,1504,1504,1504,1504,1507,1507,1507,1507,1507,1507,1507,1507,1507,1507,
1507,1507,1507,1507,1507,1507,1507,1507,1507,1504,1504,1504,1504,1504,1504,1504,1504,1504,1504,1504,1504,1504,1506,1506,1506,1506,1506,1506,1504,1504,1504,1504,1504,1504,1504,1504,1504,1504,1504,1504,1504,1507,1507,1507,1507,1507,1507,1507,1507,1507,
1507,1507,1507,1507,1507,1507,1507,1507,1507,1504,1504,1504,1504,1504,1504,1504,1504,1504,1504,1504,1504,1504,1506,1506,1506,1506,1506,1506,1504,1504,1504,1504,1504,1504,1504,1504,1504,1504,1504,1504,1504,1507,1507,1507,1507,1507,1507,1507,1507,1507,
1507,1507,1507,1507,1507,1507,1507,1507,1507,1504,1504,1504,1504,1504,1504,1504,1504,1504,1504,1504,1504,1504,1506,1506,1506,1506,1506,1506,1504,1504,1504,1504,1504,1504,1504,1504,1504,1504,1504,1504,1504,1507,1507,1507,1507,1507,1507,1507,1507,1507,
1507,1507,1507,1507,1507,1507,1507,1507,1507,1507,1504,1504,1504,1504,1504,1504,1504,1504,1504,1504,1504,1504,1504,1504,1504,1504,1504,1504,1504,1504,1504,1504,1504,1504,1504,1504,1504,1504,1504,1504,1507,1507,1507,1507,1507,1507,1507,1507,1507,1507,
1507,1507,1507,1507,1507,1507,1507,1507,1507,1507,1504,1504,1504,1504,1504,1504,1504,1504,1504,1504,1504,1504,1504,1504,1504,1504,1504,1504,1504,1504,1504,1504,1504,1504,1504,1504,1504,1504,1504,1504,1507,1507,1507,1507,1507,1507,1507,1507,1507,1507,
1507,1507,1507,1507,1507,1507,1507,1507,1504,1504,1504,1504,1504,1504,1504,1504,1504,1504,1504,1504,1504,1504,1504,1504,1504,1504,1504,1504,1504,1504,1504,1504,1504,1504,1504,1504,1504,1504,1504,1504,1504,1504,1507,1507,1507,1507,1507,1507,1507,1507,
1507,1507,1507,1507,1507,1507,1507,1507,1504,1504,1504,1504,1504,1504,1504,1504,1504,1504,1504,1504,1504,1506,1506,1506,1506,1506,1506,1506,1506,1504,1504,1504,1504,1504,1504,1504,1504,1504,1504,1504,1504,1504,1507,1507,1507,1507,1507,1507,1507,1507,
1507,1507,1507,1507,1507,1507,1507,1507,1504,1504,1504,1504,1504,1504,1504,1504,1504,1504,1504,1504,1506,1506,1506,1506,1506,1506,1506,1506,1506,1504,1504,1504,1504,1504,1504,1504,1504,1504,1504,1504,1504,1504,1507,1507,1507,1507,1507,1507,1507,1507,
1507,1507,1507,1507,1507,1507,1507,1507,1504,1504,1504,1504,1504,1504,1504,1504,1504,1504,1504,1504,1506,1506,1506,1506,1506,1506,1506,1506,1506,1504,1504,1504,1504,1504,1504,1504,1504,1504,1504,1504,1504,1504,1507,1507,1507,1507,1507,1507,1507,1507,
1507,1507,1507,1507,1507,1507,1507,1507,1504,1504,1504,1504,1504,1504,1504,1504,1504,1504,1504,1504,1504,1504,1504,1504,1504,1504,1504,1504,1504,1504,1504,1504,1504,1504,1504,1504,1504,1504,1504,1504,1504,1504,1507,1507,1507,1507,1507,1507,1507,1507,
1507,1507,1507,1507,1507,1507,1507,1507,1504,1506,1506,1506,1506,1504,1504,1504,1504,1504,1504,1504,1504,1504,1504,1504,1504,1504,1504,1504,1504,1504,1504,1504,1504,1504,1504,1504,1504,1504,1504,1504,1504,1504,1507,1507,1507,1507,1507,1507,1507,1507,
1507,1507,1507,1507,1507,1507,1507,1507,1504,1506,1506,1506,1506,1504,1504,1504,1504,1504,1504,1504,1504,1504,1504,1504,1504,1504,1504,1504,1504,1504,1504,1504,1504,1504,1504,1504,1504,1504,1504,1504,1504,1504,1507,1507,1507,1507,1507,1507,1507,1507,
1507,1507,1507,1507,1507,1507,1507,1507,1506,1506,1506,1506,1506,1506,1506,1504,1504,1504,1504,1504,1504,1504,1504,1507,1507,1507,1507,1504,1504,1504,1504,1504,1504,1504,1504,1507,1507,1507,1507,1507,1507,1507,1507,1507,1507,1507,1507,1507,1507,1507,
1507,1507,1507,1507,1507,1507,1507,1507,1506,1506,1506,1506,1506,1506,1506,1504,1504,1504,1504,1506,1506,1504,1504,1507,1507,1507,1507,1504,1504,1506,1506,1504,1504,1504,1504,1507,1507,1507,1507,1507,1507,1507,1507,1507,1507,1507,1507,1507,1507,1507,
1507,1507,1507,1507,1507,1507,1507,1507,1506,1506,1506,1506,1506,1506,1506,1504,1504,1504,1504,1506,1506,1504,1504,1507,1507,1507,1507,1504,1504,1506,1506,1504,1504,1504,1504,1507,1507,1507,1507,1507,1507,1507,1507,1507,1507,1507,1507,1507,1507,1507,
1507,1507,1507,1507,1507,1507,1507,1507,1504,1504,1504,1504,1504,1504,1504,1504,1504,1504,1504,1504,1504,1504,1504,1507,1507,1507,1507,1504,1504,1504,1504,1504,1504,1504,1504,1504,1504,1504,1504,1504,1504,1504,1507,1507,1507,1507,1507,1507,1507,1507,
1507,1507,1507,1507,1507,1507,1507,1507,1504,1504,1504,1504,1504,1504,1504,1504,1504,1504,1504,1504,1504,1504,1504,1504,1504,1504,1504,1504,1504,1504,1504,1504,1504,1504,1504,1504,1504,1504,1504,1504,1504,1504,1507,1507,1507,1507,1507,1507,1507,1507,
1507,1507,1507,1507,1507,1507,1507,1507,1504,1504,1504,1504,1504,1504,1504,1504,1504,1504,1504,1504,1504,1504,1504,1504,1504,1504,1504,1504,1504,1504,1504,1504,1504,1504,1504,1504,1504,1504,1504,1504,1504,1504,1507,1507,1507,1507,1507,1507,1507,1507,
1507,1507,1507,1507,1507,1507,1507,1507,1504,1504,1504,1504,1504,1504,1504,1504,1504,1504,1504,1504,1504,1504,1504,1504,1504,1504,1504,1504,1504,1504,1504,1504,1504,1504,1504,1504,1504,1504,1504,1504,1504,1504,1507,1507,1507,1507,1507,1507,1507,1507,
1507,1507,1507,1507,1507,1507,1507,1507,1507,1507,1507,1507,1507,1507,1504,1504,1504,1504,1504,1504,1504,1504,1504,1504,1504,1504,1504,1504,1504,1504,1504,1504,1504,1504,1504,1504,1507,1507,1507,1507,1507,1507,1507,1507,1507,1507,1507,1507,1507,1507,
1507,1507,1507,1507,1507,1507,1507,1507,1507,1507,1507,1507,1507,1507,1504,1504,1504,1504,1504,1504,1504,1504,1504,1504,1504,1504,1504,1504,1504,1504,1504,1504,1504,1504,1504,1504,1507,1507,1507,1507,1507,1507,1507,1507,1507,1507,1507,1507,1507,1507,
1507,1507,1507,1507,1507,1507,1507,1507,1507,1507,1507,1507,1507,1507,1504,1504,1504,1504,1504,1504,1504,1504,1504,1504,1504,1504,1504,1504,1504,1504,1504,1504,1504,1504,1504,1504,1507,1507,1507,1507,1507,1507,1507,1507,1507,1507,1507,1507,1507,1507,
1507,1507,1507,1507,1507,1507,1507,1507,1507,1507,1507,1507,1507,1507,1504,1504,1507,1507,1507,1507,1507,1504,1504,1504,1504,1504,1504,1504,1504,1507,1507,1507,1507,1507,1504,1504,1507,1507,1507,1507,1507,1507,1507,1507,1507,1507,1507,1507,1507,1507,
1507,1507,1507,1507,1507,1507,1507,1507,1507,1507,1507,1507,1507,1507,1504,1504,1507,1507,1507,1507,1507,1504,1504,1504,1504,1504,1504,1504,1504,1507,1507,1507,1507,1507,1504,1504,1507,1507,1507,1507,1507,1507,1507,1507,1507,1507,1507,1507,1507,1507,
1507,1507,1507,1507,1507,1507,1507,1507,1507,1507,1507,1507,1507,1507,1504,1504,1504,1504,1504,1504,1504,1504,1504,1504,1504,1504,1504,1504,1504,1504,1504,1504,1504,1504,1504,1504,1507,1507,1507,1507,1507,1507,1507,1507,1507,1507,1507,1507,1507,1507,
1507,1507,1507,1507,1507,1507,1507,1507,1507,1507,1507,1507,1507,1507,1507,1507,1507,1507,1507,1507,1507,1507,1507,1507,0,0,1507,1507,1507,1507,1507,1507,1507,1507,1507,1507,1507,1507,1507,1507,1507,1507,1507,1507,1507,1507,1507,1507,1507,1507,
1507,1507,1507,1507,1507,1507,1507,1507,1507,1507,1507,1507,1507,1507,1507,1507,1507,1507,1507,1507,1507,1507,1507,1507,0,0,1507,1507,1507,1507,1507,1507,1507,1507,1507,1507,1507,1507,1507,1507,1507,1507,1507,1507,1507,1507,1507,1507,1507,1507,
1507,1507,1507,1507,1507,1507,1507,1507,1507,1507,1507,1507,1507,1507,1507,1507,1507,1507,1507,1507,1507,1507,1507,1507,0,0,1507,1507,1507,1507,1507,1507,1507,1507,1507,1507,1507,1507,1507,1507,1507,1507,1507,1507,1507,1507,1507,1507,1507,1507,
1507,1507,1507,1507,1507,1507,1507,1507,1507,1507,1507,1507,1507,1507,1507,1507,1507,1507,1507,1507,1507,1507,1507,1507,1504,1504,1507,1507,1507,1507,1507,1507,1507,1507,1507,1507,1507,1507,1507,1507,1507,1507,1507,1507,1507,1507,1507,1507,1507,1507,
1507,1507,1507,1507,1507,1507,1507,1507,1507,1507,1507,1507,1507,1507,1507,1507,1507,1507,1507,1507,1507,1507,1507,1507,1504,1504,1507,1507,1507,1507,1507,1507,1507,1507,1507,1507,1507,1507,1507,1507,1507,1507,1507,1507,1507,1507,1507,1507,1507,1507,
1507,1507,1507,1507,1507,1507,1507,1507,1507,1507,1507,1507,1507,1507,1507,1507,1507,1507,1507,1507,1507,1507,1507,1507,1504,1504,1507,1507,1507,1507,1507,1507,1507,1507,1507,1507,1507,1507,1507,1507,1507,1507,1507,1507,1507,1507,1507,1507,1507,1507,
1507,1507,1507,1507,1507,1507,1507,1507,1507,1507,1507,1507,1507,1507,1507,1507,1507,1507,1507,1507,1507,1507,1507,1507,1507,1507,1507,1507,1507,1507,1507,1507,1507,1507,1507,1507,1507,1507,1507,1507,1507,1507,1507,1507,1507,1507,1507,1507,1507,1507,
1507,1507,1507,1507,1507,1507,1507,1507,1507,1507,1507,1507,1507,1507,1507,1507,1507,1507,1507,1507,1507,1507,1507,1507,1507,1507,1507,1507,1507,1507,1507,1507,1507,1507,1507,1507,1507,1507,1507,1507,1507,1507,1507,1507,1507,1507,1507,1507,1507,1507
</data>
 </layer>
 <layer id="15" name="Tiles_Rules" width="50" height="58" visible="0">
  <properties>
   <property name="maybe_animation_id" value="f525790c1101b1a1"/>
   <property name="maybe_tileset_id" value="a3b6ca91b299d4f5"/>
   <property name="tile_size" type="int" value="8"/>
  </properties>
  <data encoding="csv">
0,0,0,0,0,0,0,0,0,0,0,0,0,0,0,0,0,0,0,0,0,0,0,0,0,0,0,0,0,0,0,0,0,0,0,0,0,0,0,0,0,0,0,0,0,0,0,0,0,0,
0,0,0,0,0,0,0,0,0,0,0,0,0,0,0,0,0,0,0,0,0,0,0,0,0,0,0,0,0,0,0,0,0,0,0,0,0,0,0,0,0,0,0,0,0,0,0,0,0,0,
0,0,0,0,0,0,0,0,0,0,0,0,0,0,0,0,0,0,0,0,0,0,0,0,0,0,0,0,0,0,0,0,0,0,0,0,0,0,0,0,0,0,0,0,0,0,0,0,0,0,
0,0,0,0,0,0,0,0,0,0,0,0,0,0,0,0,0,0,0,0,0,0,0,0,0,0,0,0,0,0,0,0,0,0,0,0,0,0,0,0,0,0,0,0,0,0,0,0,0,0,
0,0,0,0,0,0,0,0,0,0,0,0,0,0,0,0,0,0,0,0,0,0,0,0,0,0,0,0,0,0,0,0,0,0,0,0,0,0,0,0,0,0,0,0,0,0,0,0,0,0,
0,0,0,0,0,0,0,0,0,0,0,0,0,0,0,0,0,0,0,0,0,0,0,0,0,0,0,0,0,0,0,0,0,0,0,0,0,0,0,0,0,0,0,0,0,0,0,0,0,0,
0,0,0,0,0,0,0,0,0,0,0,0,0,0,0,0,0,0,0,0,0,0,0,0,0,0,0,0,0,0,0,0,0,0,0,0,0,0,0,0,0,0,0,0,0,0,0,0,0,0,
0,0,0,0,0,0,0,0,0,0,0,0,0,0,0,0,0,0,0,0,0,0,0,0,0,0,0,0,0,0,0,0,0,0,0,0,0,0,0,0,0,0,0,0,0,0,0,0,0,0,
0,0,0,0,0,0,0,0,0,0,0,0,0,0,0,0,0,0,0,0,0,0,0,0,0,0,0,0,0,0,0,0,0,0,0,0,0,0,0,0,0,0,0,0,0,0,0,0,0,0,
0,0,0,0,0,0,0,0,0,0,0,0,0,0,0,0,0,0,0,0,0,0,0,0,0,0,0,0,0,0,0,0,0,0,0,0,0,0,0,0,0,0,0,0,0,0,0,0,0,0,
0,0,0,0,0,0,0,0,0,0,0,0,0,0,0,0,0,0,0,0,0,0,0,0,0,0,0,0,0,0,0,0,0,0,0,0,0,0,0,0,0,0,0,0,0,0,0,0,0,0,
0,0,0,0,0,0,0,0,0,0,0,0,0,0,0,0,0,0,0,0,0,0,0,0,0,0,0,0,0,0,0,0,0,0,0,0,0,0,0,0,0,0,0,0,0,0,0,0,0,0,
0,0,0,0,0,0,0,0,0,0,0,0,0,0,0,0,0,0,0,0,0,0,0,0,0,0,0,0,0,0,0,0,0,0,0,0,0,0,0,0,0,0,0,0,0,0,0,0,0,0,
0,0,0,0,0,0,0,0,0,0,0,0,0,0,0,0,0,0,0,0,0,0,0,0,0,0,0,0,0,0,0,0,0,0,0,0,0,0,0,0,0,0,0,0,0,0,0,0,0,0,
0,0,0,0,0,0,0,0,0,0,0,0,0,0,0,0,0,0,0,0,0,0,0,0,0,0,0,0,0,0,0,0,0,0,0,0,0,0,0,0,0,0,0,0,0,0,0,0,0,0,
0,0,0,0,0,0,0,0,0,0,0,0,0,0,0,0,0,0,0,0,0,0,0,0,0,0,0,0,0,0,0,0,0,0,0,0,0,0,0,0,0,0,0,0,0,0,0,0,0,0,
0,0,0,0,0,0,0,0,0,0,0,0,0,0,0,0,0,0,0,0,0,0,0,0,0,0,0,0,0,0,0,0,0,0,0,0,0,0,0,0,0,0,0,0,0,0,0,0,0,0,
0,0,0,0,0,0,0,0,0,0,0,0,0,0,0,0,0,0,0,0,0,0,0,0,0,0,0,0,0,0,0,0,0,0,0,0,0,0,0,0,0,0,0,0,0,0,0,0,0,0,
0,0,0,0,0,0,0,0,0,0,0,0,0,0,0,0,0,0,0,0,0,0,0,0,0,0,0,0,0,0,0,0,0,0,0,0,0,0,0,0,0,0,0,0,0,0,0,0,0,0,
0,0,0,0,0,0,0,0,0,0,0,0,0,0,0,0,0,0,0,0,0,0,0,0,0,0,0,0,0,0,0,0,0,0,0,0,0,0,0,0,0,0,0,0,0,0,0,0,0,0,
0,0,0,0,0,0,0,0,0,0,0,0,0,0,0,0,0,0,0,0,0,0,0,0,0,0,0,0,0,0,0,0,0,0,0,0,0,0,0,0,0,0,0,0,0,0,0,0,0,0,
0,0,0,0,0,0,0,0,0,0,0,0,0,0,0,0,0,0,0,0,0,0,0,0,0,0,0,0,0,0,0,0,0,0,0,0,0,0,0,0,0,0,0,0,0,0,0,0,0,0,
0,0,0,0,0,0,0,0,0,0,0,0,0,0,0,0,0,0,0,0,0,0,0,0,0,0,0,0,0,0,0,0,0,0,0,0,0,0,0,0,0,0,0,0,0,0,0,0,0,0,
0,0,0,0,0,0,0,0,0,0,0,0,0,0,0,0,0,0,0,0,0,0,0,0,0,0,0,0,0,0,0,0,0,0,0,0,0,0,0,0,0,0,0,0,0,0,0,0,0,0,
0,0,0,0,0,0,0,0,0,0,0,0,0,0,0,0,0,0,0,0,0,0,0,0,0,0,0,0,0,0,0,0,0,0,0,0,0,0,0,0,0,0,0,0,0,0,0,0,0,0,
0,0,0,0,0,0,0,0,0,0,0,0,0,0,0,0,0,0,0,0,0,0,0,0,0,0,0,0,0,0,0,0,0,0,0,0,0,0,0,0,0,0,0,0,0,0,0,0,0,0,
0,0,0,0,0,0,0,0,0,0,0,0,0,0,0,0,0,0,0,0,0,0,0,0,0,0,0,0,0,0,0,0,0,0,0,0,0,0,0,0,0,0,0,0,0,0,0,0,0,0,
0,0,0,0,0,0,0,0,0,0,0,0,0,0,0,0,0,0,0,0,0,0,0,0,0,0,0,0,0,0,0,0,0,0,0,0,0,0,0,0,0,0,0,0,0,0,0,0,0,0,
0,0,0,0,0,0,0,0,0,0,0,0,0,0,0,0,0,0,0,0,0,0,0,0,0,0,0,0,0,0,0,0,0,0,0,0,0,0,0,0,0,0,0,0,0,0,0,0,0,0,
0,0,0,0,0,0,0,0,0,0,0,0,0,0,0,0,0,0,0,0,0,0,0,0,0,0,0,0,0,0,0,0,0,0,0,0,0,0,0,0,0,0,0,0,0,0,0,0,0,0,
0,0,0,0,0,0,0,0,0,0,0,0,0,0,0,0,0,0,0,0,0,0,0,0,0,0,0,0,0,0,0,0,0,0,0,0,0,0,0,0,0,0,0,0,0,0,0,0,0,0,
0,0,0,0,0,0,0,0,0,0,0,0,0,0,0,0,0,0,0,0,0,0,0,0,0,0,0,0,0,0,0,0,0,0,0,0,0,0,0,0,0,0,0,0,0,0,0,0,0,0,
0,0,0,0,0,0,0,0,0,0,0,0,0,0,0,0,0,0,0,0,0,0,0,0,0,0,0,0,0,0,0,0,0,0,0,0,0,0,0,0,0,0,0,0,0,0,0,0,0,0,
0,0,0,0,0,0,0,0,0,0,0,0,0,0,0,0,0,0,0,0,0,0,0,0,0,0,0,0,0,0,0,0,0,0,0,0,0,0,0,0,0,0,0,0,0,0,0,0,0,0,
0,0,0,0,0,0,0,0,0,0,0,0,0,0,0,0,0,0,0,0,0,0,0,0,0,0,0,0,0,0,0,0,0,0,0,0,0,0,0,0,0,0,0,0,0,0,0,0,0,0,
0,0,0,0,0,0,0,0,0,0,0,0,0,0,0,0,0,0,0,0,0,0,0,0,0,0,0,0,0,0,0,0,0,0,0,0,0,0,0,0,0,0,0,0,0,0,0,0,0,0,
0,0,0,0,0,0,0,0,0,0,0,0,0,0,0,0,0,0,0,0,0,0,0,0,0,0,0,0,0,0,0,0,0,0,0,0,0,0,0,0,0,0,0,0,0,0,0,0,0,0,
0,0,0,0,0,0,0,0,0,0,0,0,0,0,0,0,0,0,0,0,0,0,0,0,0,0,0,0,0,0,0,0,0,0,0,0,0,0,0,0,0,0,0,0,0,0,0,0,0,0,
0,0,0,0,0,0,0,0,0,0,0,0,0,0,0,0,0,0,0,0,0,0,0,0,0,0,0,0,0,0,0,0,0,0,0,0,0,0,0,0,0,0,0,0,0,0,0,0,0,0,
0,0,0,0,0,0,0,0,0,0,0,0,0,0,0,0,0,0,0,0,0,0,0,0,0,0,0,0,0,0,0,0,0,0,0,0,0,0,0,0,0,0,0,0,0,0,0,0,0,0,
0,0,0,0,0,0,0,0,0,0,0,0,0,0,0,0,0,0,0,0,0,0,0,0,0,0,0,0,0,0,0,0,0,0,0,0,0,0,0,0,0,0,0,0,0,0,0,0,0,0,
0,0,0,0,0,0,0,0,0,0,0,0,0,0,0,0,0,0,0,0,0,0,0,0,0,0,0,0,0,0,0,0,0,0,0,0,0,0,0,0,0,0,0,0,0,0,0,0,0,0,
0,0,0,0,0,0,0,0,0,0,0,0,0,0,0,0,0,0,0,0,0,0,0,0,0,0,0,0,0,0,0,0,0,0,0,0,0,0,0,0,0,0,0,0,0,0,0,0,0,0,
0,0,0,0,0,0,0,0,0,0,0,0,0,0,0,0,0,0,0,0,0,0,0,0,0,0,0,0,0,0,0,0,0,0,0,0,0,0,0,0,0,0,0,0,0,0,0,0,0,0,
0,0,0,0,0,0,0,0,0,0,0,0,0,0,0,0,0,0,0,0,0,0,0,0,0,0,0,0,0,0,0,0,0,0,0,0,0,0,0,0,0,0,0,0,0,0,0,0,0,0,
0,0,0,0,0,0,0,0,0,0,0,0,0,0,0,0,0,0,0,0,0,0,0,0,0,0,0,0,0,0,0,0,0,0,0,0,0,0,0,0,0,0,0,0,0,0,0,0,0,0,
0,0,0,0,0,0,0,0,0,0,0,0,0,0,0,0,0,0,0,0,0,0,0,0,0,0,0,0,0,0,0,0,0,0,0,0,0,0,0,0,0,0,0,0,0,0,0,0,0,0,
0,0,0,0,0,0,0,0,0,0,0,0,0,0,0,0,0,0,0,0,0,0,0,0,0,0,0,0,0,0,0,0,0,0,0,0,0,0,0,0,0,0,0,0,0,0,0,0,0,0,
0,0,0,0,0,0,0,0,0,0,0,0,0,0,0,0,0,0,0,0,0,0,0,0,0,0,0,0,0,0,0,0,0,0,0,0,0,0,0,0,0,0,0,0,0,0,0,0,0,0,
0,0,0,0,0,0,0,0,0,0,0,0,0,0,0,0,0,0,0,0,0,0,0,0,0,0,0,0,0,0,0,0,0,0,0,0,0,0,0,0,0,0,0,0,0,0,0,0,0,0,
0,0,0,0,0,0,0,0,0,0,0,0,0,0,0,0,0,0,0,0,0,0,0,0,0,0,0,0,0,0,0,0,0,0,0,0,0,0,0,0,0,0,0,0,0,0,0,0,0,0,
0,0,0,0,0,0,0,0,0,0,0,0,0,0,0,0,0,0,0,0,0,0,0,0,0,0,0,0,0,0,0,0,0,0,0,0,0,0,0,0,0,0,0,0,0,0,0,0,0,0,
0,0,0,0,0,0,0,0,0,0,0,0,0,0,0,0,0,0,0,0,0,0,0,0,0,0,0,0,0,0,0,0,0,0,0,0,0,0,0,0,0,0,0,0,0,0,0,0,0,0,
0,0,0,0,0,0,0,0,0,0,0,0,0,0,0,0,0,0,0,0,0,0,0,0,0,0,0,0,0,0,0,0,0,0,0,0,0,0,0,0,0,0,0,0,0,0,0,0,0,0,
0,0,0,0,0,0,0,0,0,0,0,0,0,0,0,0,0,0,0,0,0,0,0,0,0,0,0,0,0,0,0,0,0,0,0,0,0,0,0,0,0,0,0,0,0,0,0,0,0,0,
0,0,0,0,0,0,0,0,0,0,0,0,0,0,0,0,0,0,0,0,0,0,0,0,0,0,0,0,0,0,0,0,0,0,0,0,0,0,0,0,0,0,0,0,0,0,0,0,0,0,
0,0,0,0,0,0,0,0,0,0,0,0,0,0,0,0,0,0,0,0,0,0,0,0,0,0,0,0,0,0,0,0,0,0,0,0,0,0,0,0,0,0,0,0,0,0,0,0,0,0,
0,0,0,0,0,0,0,0,0,0,0,0,0,0,0,0,0,0,0,0,0,0,0,0,0,0,0,0,0,0,0,0,0,0,0,0,0,0,0,0,0,0,0,0,0,0,0,0,0,0
</data>
 </layer>
 <layer id="16" name="Pathfinding" width="50" height="58" visible="0">
  <properties>
   <property name="maybe_animation_id" value="6d2460f008fb99d4"/>
   <property name="maybe_tileset_id" value="264fe6c9523400a1"/>
   <property name="tile_size" type="int" value="8"/>
  </properties>
  <data encoding="csv">
0,0,0,0,0,0,0,0,0,0,0,0,0,0,0,0,0,0,0,0,0,0,0,0,0,0,0,0,0,0,0,0,0,0,0,0,0,0,0,0,0,0,0,0,0,0,0,0,0,0,
0,0,0,0,0,0,0,0,0,0,0,0,0,0,0,0,0,0,0,0,0,0,0,0,0,0,0,0,0,0,0,0,0,0,0,0,0,0,0,0,0,0,0,0,0,0,0,0,0,0,
0,0,0,0,0,0,0,0,0,0,0,0,0,0,0,0,0,0,0,0,0,0,0,0,0,0,0,0,0,0,0,0,0,0,0,0,0,0,0,0,0,0,0,0,0,0,0,0,0,0,
0,0,0,0,0,0,0,0,0,0,0,0,0,0,0,0,0,0,0,0,0,0,0,0,0,0,0,0,0,0,0,0,0,0,0,0,0,0,0,0,0,0,0,0,0,0,0,0,0,0,
0,0,0,0,0,0,0,0,0,0,0,0,0,0,0,0,0,0,0,0,0,0,0,0,0,0,0,0,0,0,0,0,0,0,0,0,0,0,0,0,0,0,0,0,0,0,0,0,0,0,
0,0,0,0,0,0,0,0,0,0,0,0,0,0,0,0,0,0,0,0,0,0,0,0,0,0,0,0,0,0,0,0,0,0,0,0,0,0,0,0,0,0,0,0,0,0,0,0,0,0,
0,0,0,0,0,0,0,0,0,0,0,0,0,0,0,0,0,0,0,0,0,0,0,0,0,0,0,0,0,0,0,0,0,0,0,0,0,0,0,0,0,0,0,0,0,0,0,0,0,0,
0,0,0,0,0,0,0,0,0,0,0,0,0,0,0,0,0,0,0,0,0,0,0,0,0,0,0,0,0,0,0,0,0,0,0,0,0,0,0,0,0,0,0,0,0,0,0,0,0,0,
0,0,0,0,0,0,0,0,0,0,0,0,0,0,0,0,0,0,0,0,0,0,0,0,0,0,0,0,0,0,0,0,0,0,0,0,0,0,0,0,0,0,0,0,0,0,0,0,0,0,
0,0,0,0,0,0,0,0,0,0,0,0,0,0,0,0,0,0,0,0,0,0,0,0,0,0,0,0,0,0,0,0,0,0,0,0,0,0,0,0,0,0,0,0,0,0,0,0,0,0,
0,0,0,0,0,0,0,0,0,0,0,0,0,0,0,0,0,0,0,0,0,0,0,0,0,0,0,0,0,0,0,0,0,0,0,0,0,0,0,0,0,0,0,0,0,0,0,0,0,0,
0,0,0,0,0,0,0,0,0,0,0,0,0,0,0,0,0,0,0,0,0,0,0,0,0,0,0,0,0,0,0,0,0,0,0,0,0,0,0,0,0,0,0,0,0,0,0,0,0,0,
0,0,0,0,0,0,0,0,0,0,0,0,0,0,0,0,0,0,0,0,0,0,0,0,0,0,0,0,0,0,0,0,0,0,0,0,0,0,0,0,0,0,0,0,0,0,0,0,0,0,
0,0,0,0,0,0,0,0,0,0,0,0,0,0,0,0,0,0,0,0,0,0,0,0,0,0,0,0,0,0,0,0,0,0,0,0,0,0,0,0,0,0,0,0,0,0,0,0,0,0,
0,0,0,0,0,0,0,0,0,0,0,0,0,0,0,0,0,0,0,0,0,0,0,0,0,0,0,0,0,0,0,0,0,0,0,0,0,0,0,0,0,0,0,0,0,0,0,0,0,0,
0,0,0,0,0,0,0,0,0,0,0,0,0,0,0,0,0,0,0,0,0,0,0,0,0,0,0,0,0,0,0,0,0,0,0,0,0,0,0,0,0,0,0,0,0,0,0,0,0,0,
0,0,0,0,0,0,0,0,0,0,0,0,0,0,0,0,0,0,0,0,0,0,0,0,0,0,0,0,0,0,0,0,0,0,0,0,0,0,0,0,0,0,0,0,0,0,0,0,0,0,
0,0,0,0,0,0,0,0,0,0,0,0,0,0,0,0,0,0,0,0,0,0,0,0,0,0,0,0,0,0,0,0,0,0,0,0,0,0,0,0,0,0,0,0,0,0,0,0,0,0,
0,0,0,0,0,0,0,0,0,0,0,0,0,0,0,0,0,0,0,0,0,0,0,0,0,0,0,0,0,0,0,0,0,0,0,0,0,0,0,0,0,0,0,0,0,0,0,0,0,0,
0,0,0,0,0,0,0,0,0,6007,0,0,0,0,0,0,0,0,0,0,0,0,0,0,0,0,0,0,0,0,0,0,0,0,0,0,0,0,0,0,0,0,0,0,0,0,0,0,0,0,
0,0,0,0,0,0,6007,6007,6007,6007,6007,6007,6007,6007,0,0,0,0,0,0,0,0,0,0,0,0,0,0,0,0,0,0,0,0,0,0,0,0,0,0,0,0,0,0,0,0,0,0,0,0,
0,0,0,0,0,0,6007,6007,6007,6007,6007,6007,6007,6007,0,0,0,0,0,0,0,0,0,0,0,0,0,0,0,0,0,0,0,0,0,0,0,0,0,0,0,0,0,0,0,0,0,0,0,0,
0,0,0,0,0,0,6007,6007,6007,6007,6007,6007,6007,6007,0,0,0,0,0,0,0,0,0,0,0,0,0,0,0,0,0,0,0,0,0,0,0,0,0,0,0,0,0,0,0,0,0,0,0,0,
0,0,0,0,0,0,6007,6007,6007,6007,6007,6009,6008,6008,6008,6008,6009,0,0,0,0,0,0,0,0,0,0,0,0,0,0,0,0,6009,6008,6008,6008,6008,6009,0,0,0,0,0,0,0,0,0,0,0,
0,0,0,0,0,0,6007,6007,6007,6007,6007,6009,6008,6008,6008,6008,6009,0,0,0,0,0,0,0,0,0,0,0,0,0,0,0,0,6009,6008,6008,6008,6008,6009,0,0,0,0,0,0,0,0,0,0,0,
0,0,0,0,0,0,6007,6007,6007,6007,6007,6009,6008,6008,6008,6008,6009,0,0,0,0,0,0,0,0,0,0,0,0,0,0,0,0,6009,6008,6008,6008,6008,6009,0,0,0,0,0,0,0,0,0,0,0,
0,0,0,0,0,0,6007,6007,6007,6007,6007,6009,6008,6008,6008,6008,6009,0,0,0,0,0,0,0,0,0,0,0,0,0,0,0,0,6009,6008,6008,6008,6008,6009,0,0,0,0,0,0,0,0,0,0,0,
0,0,0,0,0,0,6007,6007,6007,6007,6007,6009,6008,6008,6008,6008,6009,0,0,0,0,0,0,0,0,0,6007,0,6007,6007,0,0,0,6009,6008,6008,6008,6008,6009,0,0,0,0,0,0,0,0,0,0,0,
0,0,0,0,0,0,6007,6007,6007,6007,6007,6009,6008,6008,6008,6008,6009,6009,6009,6009,6009,6009,6009,6009,6009,6009,6009,6009,6009,6009,6009,6009,6009,6009,6008,6008,6008,6008,6009,0,0,0,0,0,0,0,0,0,0,0,
0,0,0,0,0,0,6007,6007,6007,6007,6007,6009,6008,6008,6008,6008,6008,6008,6008,6008,6008,6008,6008,6008,6008,6008,6008,6008,6008,6008,6008,6008,6008,6008,6008,6008,6008,6008,6009,0,0,0,0,0,0,0,0,0,0,0,
0,0,0,0,0,0,6007,6007,6007,6007,6007,6009,6008,6008,6008,6008,6008,6008,6008,6008,6008,6008,6008,6008,6008,6008,6008,6008,6008,6008,6008,6008,6008,6008,6008,6008,6008,6008,6009,0,0,0,0,0,0,0,0,0,0,0,
0,0,0,0,0,0,6007,6007,6007,6007,6007,6009,6008,6008,6008,6008,6008,6008,6009,6009,6009,0,0,0,0,0,0,0,0,6009,6009,6008,6008,6008,6008,6008,6008,6008,6009,0,0,0,0,0,0,0,0,0,0,0,
0,0,0,0,0,0,6007,6007,6007,6007,6007,6009,6009,6008,6008,6008,6008,6008,6009,0,0,0,0,0,0,0,0,0,0,0,6009,6008,6008,6008,6008,6008,6008,6008,6009,0,0,0,0,0,0,0,0,0,0,0,
0,0,0,0,0,0,6007,6007,6007,6007,6007,6007,6009,6008,6008,6008,6008,6008,6009,6009,0,0,0,0,0,0,0,0,0,6009,6009,6008,6008,6008,6008,6008,6008,6008,6009,6009,6009,6009,0,0,0,0,0,0,0,0,
0,0,0,0,0,0,6007,6007,6007,6007,6007,6007,6009,6008,6008,6008,6008,6008,6008,6008,6008,6008,6008,6008,6008,6008,6008,6008,6008,6008,6008,6008,6008,6008,6008,6008,6008,6008,6008,6008,6008,6008,0,0,0,0,0,0,0,0,
0,0,0,0,0,0,0,0,6007,6007,6007,6007,6007,6008,6008,6008,6008,6008,6008,6008,6008,6009,6009,6009,6009,6009,6009,6009,6009,6008,6008,6008,6008,6008,6008,6008,6008,6008,6008,6008,6008,6008,0,0,0,0,0,0,0,0,
0,0,0,0,0,0,0,0,6007,6012,6012,6012,6012,6009,6009,6008,6008,6008,6008,6008,6008,6009,6007,6007,6007,6007,6007,6007,6009,6008,6008,6008,6008,6008,6008,6008,6008,6008,6008,6008,6008,6008,0,0,0,0,0,0,0,0,
0,0,0,0,0,0,0,0,0,0,0,0,0,0,0,6008,6008,6008,6008,6008,6008,6009,0,0,0,0,0,0,6009,6008,6008,6008,6008,6009,6009,0,0,0,0,0,0,0,0,0,0,0,0,0,0,0,
0,0,0,0,0,0,0,0,0,0,0,0,0,0,0,6008,6008,6008,6008,6012,6012,6009,6009,0,0,0,0,6009,6009,6012,6012,6008,6008,6009,0,0,0,0,0,0,0,0,0,0,0,0,0,0,0,0,
0,0,0,0,0,0,0,0,0,0,0,0,0,0,0,6008,6008,6008,6008,6012,6012,6009,6009,0,0,0,0,6009,6009,6012,6012,6008,6008,6009,0,0,0,0,0,0,0,0,0,0,0,0,0,0,0,0,
0,0,0,0,0,0,0,0,0,0,0,0,0,0,6009,6009,6009,6008,6008,6008,6008,6009,0,0,0,0,0,0,6009,6008,6008,6008,6008,6009,0,0,0,0,0,0,0,0,0,0,0,0,0,0,0,0,
0,0,0,0,0,0,0,0,0,0,0,0,0,0,0,0,6009,6008,6008,6008,6008,6009,0,0,0,0,0,0,6009,6008,6008,6008,6008,6009,0,0,0,0,0,0,0,0,0,0,0,0,0,0,0,0,
0,0,0,0,0,0,0,0,0,0,0,0,0,0,0,0,6009,6008,6008,6008,6008,6009,6009,6009,6009,6009,6009,6009,6009,6008,6008,6008,6008,6009,0,0,0,0,0,0,0,0,0,0,0,0,0,0,0,0,
0,0,0,0,0,0,0,0,0,0,0,0,0,0,0,0,6009,6008,6008,6008,6008,6008,6008,6008,6008,6008,6008,6008,6008,6008,6008,6008,6008,6009,0,0,0,0,0,0,0,0,0,0,0,0,0,0,0,0,
0,0,0,0,0,0,0,0,0,0,0,0,0,0,0,0,6009,6008,6008,6008,6009,6009,6009,6009,6008,6008,6009,6009,6009,6009,6008,6008,6008,6009,0,0,0,0,0,0,0,0,0,0,0,0,0,0,0,0,
0,0,0,0,0,0,0,0,0,0,0,0,0,0,0,0,6009,6008,6008,6008,6009,0,0,6009,6008,6008,6009,0,0,6009,6008,6008,6008,6009,0,0,0,0,0,0,0,0,0,0,0,0,0,0,0,0,
0,0,0,0,0,0,0,0,0,0,0,0,0,0,0,0,6009,6008,6008,6008,6009,0,0,6009,6008,6008,6009,0,0,6009,6008,6008,6008,6009,0,0,0,0,0,0,0,0,0,0,0,0,0,0,0,0,
0,0,0,0,0,0,0,0,0,0,0,0,0,0,0,0,0,0,0,0,0,0,0,6009,6008,6008,6009,0,0,0,0,0,0,0,0,0,0,0,0,0,0,0,0,0,0,0,0,0,0,0,
0,0,0,0,0,0,0,0,0,0,0,0,0,0,0,0,0,0,0,0,0,0,0,6009,6008,6008,6009,0,0,0,0,0,0,0,0,0,0,0,0,0,0,0,0,0,0,0,0,0,0,0,
0,0,0,0,0,0,0,0,0,0,0,0,0,0,0,0,0,0,0,0,0,0,0,6009,6008,6008,6009,0,0,0,0,0,0,0,0,0,0,0,0,0,0,0,0,0,0,0,0,0,0,0,
0,0,0,0,0,0,0,0,0,0,0,0,0,0,0,0,0,0,0,0,0,0,0,0,0,0,0,0,0,0,0,0,0,0,0,0,0,0,0,0,0,0,0,0,0,0,0,0,0,0,
0,0,0,0,0,0,0,0,0,0,0,0,0,0,0,0,0,0,0,0,0,0,0,0,0,0,0,0,0,0,0,0,0,0,0,0,0,0,0,0,0,0,0,0,0,0,0,0,0,0,
0,0,0,0,0,0,0,0,0,0,0,0,0,0,0,0,0,0,0,0,0,0,0,0,0,0,0,0,0,0,0,0,0,0,0,0,0,0,0,0,0,0,0,0,0,0,0,0,0,0,
0,0,0,0,0,0,0,0,0,0,0,0,0,0,0,0,0,0,0,0,0,0,0,0,0,0,0,0,0,0,0,0,0,0,0,0,0,0,0,0,0,0,0,0,0,0,0,0,0,0,
0,0,0,0,0,0,0,0,0,0,0,0,0,0,0,0,0,0,0,0,0,0,0,0,0,0,0,0,0,0,0,0,0,0,0,0,0,0,0,0,0,0,0,0,0,0,0,0,0,0,
0,0,0,0,0,0,0,0,0,0,0,0,0,0,0,0,0,0,0,0,0,0,0,0,0,0,0,0,0,0,0,0,0,0,0,0,0,0,0,0,0,0,0,0,0,0,0,0,0,0,
0,0,0,0,0,0,0,0,0,0,0,0,0,0,0,0,0,0,0,0,0,0,0,0,0,0,0,0,0,0,0,0,0,0,0,0,0,0,0,0,0,0,0,0,0,0,0,0,0,0,
0,0,0,0,0,0,0,0,0,0,0,0,0,0,0,0,0,0,0,0,0,0,0,0,0,0,0,0,0,0,0,0,0,0,0,0,0,0,0,0,0,0,0,0,0,0,0,0,0,0
</data>
 </layer>
 <objectgroup draworder="index" id="17" name="Lighting" visible="0">
  <object id="29" template="../../templates/system/lighting/lights/obj_light_tiny.tx" type="obj_light_tiny" x="317" y="307"/>
  <object id="30" template="../../templates/system/lighting/lights/obj_light_tiny.tx" type="obj_light_tiny" x="282" y="307"/>
  <object id="31" template="../../templates/system/lighting/lights/obj_light_small.tx" type="obj_light_small" x="160" y="348"/>
  <object id="32" template="../../templates/system/lighting/lights/obj_light_caldarus_garland.tx" type="obj_light_caldarus_garland" x="152" y="185"/>
 </objectgroup>
 <objectgroup draworder="index" id="18" name="TrellisPoints" visible="0">
  <object id="33" template="../../templates/meta/obj_trellis_point_transition.tx" name="Exit to Deep Woods" type="obj_trellis_point_transition" x="188" y="405">
   <properties>
    <property name="direction" type="int" propertytype="Cardinal" value="3"/>
   </properties>
  </object>
  <object id="34" template="../../templates/meta/obj_trellis_point_default.tx" name="Caldarus Wake Point" type="obj_trellis_point_default" x="188" y="212"/>
  <object id="35" template="../../templates/meta/obj_trellis_point_seat.tx" name="Caldarus Pouf Left" type="obj_trellis_point_seat" x="148" y="329">
   <properties>
    <property name="direction" type="int" propertytype="Cardinal" value="0"/>
   </properties>
  </object>
  <object id="36" template="../../templates/meta/obj_trellis_point_seat.tx" name="Caldarus Pouf Right" type="obj_trellis_point_seat" x="226" y="329">
   <properties>
    <property name="direction" type="int" propertytype="Cardinal" value="2"/>
   </properties>
  </object>
  <object id="37" template="../../templates/meta/obj_trellis_point_seat.tx" name="Caldarus Desk Chair" type="obj_trellis_point_seat" x="76" y="301"/>
  <object id="38" template="../../templates/meta/obj_trellis_point_default.tx" name="reading_1" type="obj_trellis_point_default" x="100" y="229"/>
  <object id="39" template="../../templates/meta/obj_trellis_point_default.tx" name="reading_2" type="obj_trellis_point_default" x="274" y="229"/>
  <object id="40" template="../../templates/meta/obj_trellis_point_default.tx" name="scroll_1" type="obj_trellis_point_default" x="88" y="199">
   <properties>
    <property name="direction" type="int" propertytype="Cardinal" value="1"/>
   </properties>
  </object>
  <object id="41" template="../../templates/meta/obj_trellis_point_default.tx" name="scroll_2" type="obj_trellis_point_default" x="110" y="199">
   <properties>
    <property name="direction" type="int" propertytype="Cardinal" value="1"/>
   </properties>
  </object>
  <object id="42" template="../../templates/meta/obj_trellis_point_default.tx" name="scroll_3" type="obj_trellis_point_default" x="264" y="199">
   <properties>
    <property name="direction" type="int" propertytype="Cardinal" value="1"/>
   </properties>
  </object>
  <object id="43" template="../../templates/meta/obj_trellis_point_default.tx" name="scroll_4" type="obj_trellis_point_default" x="284" y="199">
   <properties>
    <property name="direction" type="int" propertytype="Cardinal" value="1"/>
   </properties>
  </object>
  <object id="44" template="../../templates/meta/obj_trellis_point_default.tx" name="tea_1" type="obj_trellis_point_default" x="166" y="329">
   <properties>
    <property name="direction" type="int" propertytype="Cardinal" value="0"/>
   </properties>
  </object>
  <object id="45" template="../../templates/meta/obj_trellis_point_default.tx" name="tea_2" type="obj_trellis_point_default" x="210" y="329">
   <properties>
    <property name="direction" type="int" propertytype="Cardinal" value="2"/>
   </properties>
  </object>
  <object id="46" template="../../templates/meta/obj_trellis_point_default.tx" name="tea_3" type="obj_trellis_point_default" x="170" y="287">
   <properties>
    <property name="direction" type="int" propertytype="Cardinal" value="1"/>
   </properties>
  </object>
  <object id="47" template="../../templates/meta/obj_trellis_point_default.tx" name="tea_4" type="obj_trellis_point_default" x="200" y="287">
   <properties>
    <property name="direction" type="int" propertytype="Cardinal" value="1"/>
   </properties>
  </object>
  <object id="48" template="../../templates/meta/obj_trellis_point_default.tx" name="lute_1" type="obj_trellis_point_default" x="106" y="269"/>
  <object id="49" template="../../templates/meta/obj_trellis_point_default.tx" name="lute_2" type="obj_trellis_point_default" x="266" y="269"/>
  <object id="50" template="../../templates/meta/obj_trellis_point_default.tx" name="dragon_cleaning_1" type="obj_trellis_point_default" x="290" y="303"/>
  <object id="51" template="../../templates/meta/obj_trellis_point_default.tx" name="dragon_cleaning_2" type="obj_trellis_point_default" x="312" y="303"/>
  <object id="52" template="../../templates/meta/obj_trellis_point_default.tx" name="tree_1" type="obj_trellis_point_default" x="128" y="385"/>
  <object id="53" template="../../templates/meta/obj_trellis_point_default.tx" name="tree_4" type="obj_trellis_point_default" x="250" y="385"/>
  <object id="54" template="../../templates/meta/obj_trellis_point_default.tx" name="tree_2" type="obj_trellis_point_default" x="148" y="385"/>
  <object id="55" template="../../templates/meta/obj_trellis_point_default.tx" name="tree_3" type="obj_trellis_point_default" x="230" y="385"/>
  <object id="56" template="../../templates/meta/obj_trellis_point_default.tx" name="routine_entrance" type="obj_trellis_point_default" x="188" y="401">
   <properties>
    <property name="direction" type="int" propertytype="Cardinal" value="1"/>
   </properties>
  </object>
  <object id="57" template="../../templates/meta/obj_trellis_point_default.tx" name="south_east_routine" type="obj_trellis_point_default" x="246" y="351"/>
  <object id="58" template="../../templates/meta/obj_trellis_point_default.tx" name="teleport_target" type="obj_trellis_point_default" x="300" y="341"/>
 </objectgroup>
 <objectgroup draworder="index" id="19" name="TrellisPoints_Caldarus_Recovery" visible="0">
  <object id="59" template="../../templates/meta/obj_trellis_point_default.tx" name="cr_ari_entrance" type="obj_trellis_point_default" x="188" y="439"/>
  <object id="60" template="../../templates/meta/obj_trellis_point_default.tx" name="cr_ari_start" type="obj_trellis_point_default" x="188" y="361"/>
  <object id="61" template="../../templates/meta/obj_trellis_point_default.tx" name="cr_ari_bedside" type="obj_trellis_point_default" x="218" y="211"/>
  <object id="62" template="../../templates/meta/obj_trellis_point_camera.tx" name="cr_camera_1" type="obj_trellis_point_camera" x="188" y="447"/>
  <object id="63" template="../../templates/meta/obj_trellis_point_camera.tx" name="cr_camera_2" type="obj_trellis_point_camera" x="188" y="335"/>
  <object id="64" template="../../templates/meta/obj_trellis_point_camera.tx" name="cr_camera_3" type="obj_trellis_point_camera" x="188" y="295"/>
  <object id="65" template="../../templates/meta/obj_trellis_point_camera.tx" name="cr_camera_4" type="obj_trellis_point_camera" x="188" y="211"/>
  <object id="66" template="../../templates/meta/obj_trellis_point_default.tx" name="cr_ari_run_1" type="obj_trellis_point_default" x="242" y="361"/>
  <object id="67" template="../../templates/meta/obj_trellis_point_default.tx" name="cr_ari_run_2" type="obj_trellis_point_default" x="242" y="291"/>
  <object id="68" template="../../templates/meta/obj_trellis_point_default.tx" name="cr_ari_run_3" type="obj_trellis_point_default" x="242" y="253"/>
 </objectgroup>
 <objectgroup draworder="index" id="20" name="TrellisPoints_Caldarus_8h" visible="0">
  <object id="69" template="../../templates/meta/obj_trellis_point_default.tx" name="c8h_ari_entrance_teleport" type="obj_trellis_point_default" x="300" y="341"/>
  <object id="70" template="../../templates/meta/obj_trellis_point_default.tx" name="c8h_ari_entrance_door" type="obj_trellis_point_default" x="188" y="443"/>
  <object id="71" template="../../templates/meta/obj_trellis_point_default.tx" name="c8h_ari_start" type="obj_trellis_point_default" x="188" y="397"/>
  <object id="72" template="../../templates/meta/obj_trellis_point_default.tx" name="c8h_ari_stand" type="obj_trellis_point_default" x="216" y="325"/>
  <object id="73" template="../../templates/meta/obj_trellis_point_default.tx" name="c8h_caldarus_entrance" type="obj_trellis_point_default" x="166" y="325"/>
  <object id="74" template="../../templates/meta/obj_trellis_point_default.tx" name="c8h_caldarus_stand" type="obj_trellis_point_default" x="158" y="325"/>
  <object id="75" template="../../templates/meta/obj_trellis_point_default.tx" name="c8h_caldarus_start" type="obj_trellis_point_default" x="194" y="287"/>
  <object id="76" template="../../templates/meta/obj_trellis_point_default.tx" name="c8h_caldarus_serve_ari" type="obj_trellis_point_default" x="210" y="341"/>
  <object id="77" template="../../templates/meta/obj_trellis_point_default.tx" name="c8h_caldarus_serve_caldarus" type="obj_trellis_point_default" x="166" y="341"/>
  <object id="78" template="../../templates/meta/obj_trellis_point_prop.tx" name="c8h_onion_soup_ari" type="obj_trellis_point_prop" x="211" y="323">
   <properties>
    <property name="prop_name" value="c8h_onion_soup"/>
   </properties>
  </object>
  <object id="79" template="../../templates/meta/obj_trellis_point_prop.tx" name="c8h_onion_soup_ari_empty" type="obj_trellis_point_prop" x="211" y="323">
   <properties>
    <property name="prop_name" value="c8h_onion_soup_empty"/>
   </properties>
  </object>
  <object id="80" template="../../templates/meta/obj_trellis_point_prop.tx" name="c8h_mushroom_rice_ari" type="obj_trellis_point_prop" x="211" y="323">
   <properties>
    <property name="prop_name" value="c8h_mushroom_rice"/>
   </properties>
  </object>
  <object id="81" template="../../templates/meta/obj_trellis_point_prop.tx" name="c8h_mushroom_rice_ari_empty" type="obj_trellis_point_prop" x="211" y="323">
   <properties>
    <property name="prop_name" value="c8h_mushroom_rice_empty"/>
   </properties>
  </object>
  <object id="82" template="../../templates/meta/obj_trellis_point_prop.tx" name="c8h_onion_soup_caldarus" type="obj_trellis_point_prop" x="165" y="323">
   <properties>
    <property name="prop_name" value="c8h_onion_soup"/>
   </properties>
  </object>
  <object id="83" template="../../templates/meta/obj_trellis_point_prop.tx" name="c8h_onion_soup_caldarus_empty" type="obj_trellis_point_prop" x="165" y="323">
   <properties>
    <property name="prop_name" value="c8h_onion_soup_empty"/>
   </properties>
  </object>
  <object id="84" template="../../templates/meta/obj_trellis_point_prop.tx" name="c8h_mushroom_rice_caldarus" type="obj_trellis_point_prop" x="165" y="323">
   <properties>
    <property name="prop_name" value="c8h_mushroom_rice"/>
   </properties>
  </object>
  <object id="85" template="../../templates/meta/obj_trellis_point_prop.tx" name="c8h_mushroom_rice_caldarus_empty" type="obj_trellis_point_prop" x="165" y="323">
   <properties>
    <property name="prop_name" value="c8h_mushroom_rice_empty"/>
   </properties>
  </object>
  <object id="86" template="../../templates/meta/obj_trellis_point_camera.tx" name="c8h_camera_1_door" type="obj_trellis_point_camera" x="188" y="433"/>
  <object id="87" template="../../templates/meta/obj_trellis_point_camera.tx" name="c8h_camera_1_teleport" type="obj_trellis_point_camera" x="300" y="357"/>
  <object id="88" template="../../templates/meta/obj_trellis_point_camera.tx" name="c8h_camera_2_teleport" type="obj_trellis_point_camera" x="204" y="357"/>
  <object id="89" template="../../templates/meta/obj_trellis_point_camera.tx" name="c8h_camera_2_door" type="obj_trellis_point_camera" x="188" y="378"/>
  <object id="90" template="../../templates/meta/obj_trellis_point_camera.tx" name="c8h_camera_3" type="obj_trellis_point_camera" x="183" y="356"/>
  <object id="91" template="../../templates/meta/obj_trellis_point_camera.tx" name="c8h_camera_4" type="obj_trellis_point_camera" x="211" y="357"/>
  <object id="92" template="../../templates/meta/obj_trellis_point_camera.tx" name="c8h_camera_5" type="obj_trellis_point_camera" x="153" y="356"/>
  <object id="93" template="../../templates/meta/obj_trellis_point_default.tx" name="c8h_exit" type="obj_trellis_point_default" x="188" y="433"/>
  <object id="94" template="../../templates/meta/obj_trellis_point_camera.tx" name="c8h_camera_cooking" type="obj_trellis_point_camera" x="187" y="325"/>
  <object id="95" template="../../templates/meta/obj_trellis_point_default.tx" name="c8h_ari_stand_south" type="obj_trellis_point_default" x="226" y="335"/>
  <object id="96" template="../../templates/meta/obj_trellis_point_default.tx" name="c8h_caldarus_stand_south" type="obj_trellis_point_default" x="148" y="335"/>
 </objectgroup>
 <objectgroup draworder="index" id="21" name="TrellisPoints_Dates">
  <object id="97" template="../../templates/meta/obj_trellis_point_default.tx" name="idc_partner_stand" type="obj_trellis_point_default" x="148" y="335"/>
  <object id="98" template="../../templates/meta/obj_trellis_point_default.tx" name="idc_ari_stand" type="obj_trellis_point_default" x="228" y="335"/>
  <object id="99" template="../../templates/meta/obj_trellis_point_camera.tx" name="idc_camera_1" type="obj_trellis_point_camera" x="188" y="323"/>
  <object id="100" template="../../templates/meta/obj_trellis_point_default.tx" name="idc_ari_kiss" type="obj_trellis_point_default" x="196" y="363"/>
  <object id="101" template="../../templates/meta/obj_trellis_point_default.tx" name="idc_partner_kiss" type="obj_trellis_point_default" x="180" y="363"/>
  <object id="102" template="../../templates/meta/obj_trellis_point_camera.tx" name="idc_camera_2" type="obj_trellis_point_camera" x="188" y="357"/>
  <object id="103" template="../../templates/meta/obj_trellis_point_default.tx" name="idc_ari_exit" type="obj_trellis_point_default" x="188" y="437"/>
  <object id="104" template="../../templates/meta/obj_trellis_point_camera.tx" name="idc_camera_3" type="obj_trellis_point_camera" x="188" y="437"/>
  <object id="105" template="../../templates/meta/obj_trellis_point_default.tx" name="idc_partner_exit" type="obj_trellis_point_default" x="188" y="363"/>
  <object id="106" template="../../templates/meta/obj_trellis_point_prop.tx" name="idc_partner_bowl_empty" type="obj_trellis_point_prop" x="165" y="323">
   <properties>
    <property name="prop_name" value="inn_date_empty_plate"/>
   </properties>
  </object>
  <object id="107" template="../../templates/meta/obj_trellis_point_prop.tx" name="idc_ari_bowl" type="obj_trellis_point_prop" x="211" y="323">
   <properties>
    <property name="prop_name" value="inn_date_plate"/>
   </properties>
  </object>
  <object id="108" template="../../templates/meta/obj_trellis_point_prop.tx" name="idc_partner_bowl" type="obj_trellis_point_prop" x="165" y="323">
   <properties>
    <property name="prop_name" value="inn_date_plate"/>
   </properties>
  </object>
  <object id="109" template="../../templates/meta/obj_trellis_point_prop.tx" name="idc_ari_bowl_empty" type="obj_trellis_point_prop" x="211" y="323">
   <properties>
    <property name="prop_name" value="inn_date_empty_plate"/>
   </properties>
  </object>
 </objectgroup>
 <objectgroup draworder="index" id="22" name="Meta" visible="0">
  <object id="110" template="../../templates/obj_roomtransition.tx" type="obj_roomtransition" x="192" y="424">
   <properties>
    <property name="destination_id" propertytype="LocationId" value="deep_woods"/>
    <property name="player_direction" type="int" value="270"/>
   </properties>
  </object>
  <object id="111" template="../../templates/meta/obj_sound_emitter.tx" type="obj_sound_emitter" x="184" y="328">
   <properties>
    <property name="sound_asset" value="SoundEffects/Environment/FirePlace"/>
   </properties>
  </object>
 </objectgroup>
</map>
