<?xml version="1.0" encoding="UTF-8"?>
<map version="1.10" tiledversion="1.12.1" orientation="orthogonal" renderorder="right-down" width="44" height="44" tilewidth="8" tileheight="8" infinite="0" backgroundcolor="#000000" nextlayerid="28" nextobjectid="132">
 <tileset firstgid="1" source="../../../__gm_import.tsx"/>
 <tileset firstgid="1505" source="../../../tile_sets/__META/tile_collision_info.tsx"/>
 <tileset firstgid="1512" source="../../../tile_sets/tile_footsteps.tsx"/>
 <tileset firstgid="1656" source="../../../tile_sets/_GENERIC/tile_main_interiors.tsx"/>
 <tileset firstgid="5752" source="../../../tile_sets/_GENERIC/tile_main_interiors_shadows.tsx"/>
 <tileset firstgid="6008" source="../../../tile_sets/__META/tile_pathfinding.tsx"/>
 <tileset firstgid="6014" source="../../../tile_sets/__META/tile_rules.tsx"/>
 <group id="1" name="Level_0">
  <layer id="2" name="Level_0_Floor" width="44" height="44">
   <properties>
    <property name="maybe_animation_id" value="75ea443e6634d96"/>
    <property name="maybe_tileset_id" value="d8b504e9a8480fbe"/>
    <property name="tile_size" type="int" value="16"/>
   </properties>
   <data encoding="csv">
1656,0,1656,0,1656,0,1656,0,1656,0,1656,0,1656,0,1656,0,1656,0,1656,0,1656,0,1656,0,1656,0,1656,0,1656,0,1656,0,1656,0,0,0,0,0,0,0,0,0,0,0,
0,0,0,0,0,0,0,0,0,0,0,0,0,0,0,0,0,0,0,0,0,0,0,0,0,0,0,0,0,0,0,0,0,0,0,0,0,0,0,0,0,0,0,0,
1656,0,1656,0,1656,0,1656,0,1656,0,1656,0,1656,0,1656,0,1656,0,1656,0,1656,0,1656,0,1656,0,1656,0,1656,0,1656,0,1656,0,0,0,0,0,0,0,0,0,0,0,
0,0,0,0,0,0,0,0,0,0,0,0,0,0,0,0,0,0,0,0,0,0,0,0,0,0,0,0,0,0,0,0,0,0,0,0,0,0,0,0,0,0,0,0,
1656,0,1656,0,1656,0,1656,0,1656,0,1656,0,1656,0,1656,0,1656,0,1656,0,1656,0,1656,0,1656,0,1656,0,1656,0,1656,0,1656,0,0,0,0,0,0,0,0,0,0,0,
0,0,0,0,0,0,0,0,0,0,0,0,0,0,0,0,0,0,0,0,0,0,0,0,0,0,0,0,0,0,0,0,0,0,0,0,0,0,0,0,0,0,0,0,
1656,0,1656,0,1656,0,1656,0,1656,0,1656,0,1656,0,1656,0,1656,0,1656,0,1656,0,1656,0,1656,0,1656,0,1656,0,1656,0,1656,0,0,0,0,0,0,0,0,0,0,0,
0,0,0,0,0,0,0,0,0,0,0,0,0,0,0,0,0,0,0,0,0,0,0,0,0,0,0,0,0,0,0,0,0,0,0,0,0,0,0,0,0,0,0,0,
1656,0,1656,0,1656,0,1656,0,1656,0,1656,0,1656,0,1656,0,1656,0,1656,0,1656,0,1656,0,1656,0,1656,0,1656,0,1656,0,1656,0,1656,0,1656,0,1656,0,1656,0,0,0,
0,0,0,0,0,0,0,0,0,0,0,0,0,0,0,0,0,0,0,0,0,0,0,0,0,0,0,0,0,0,0,0,0,0,0,0,0,0,0,0,0,0,0,0,
1656,0,1656,0,1656,0,1656,0,1656,0,1656,0,1656,0,1656,0,1656,0,1656,0,1656,0,1656,0,1656,0,1656,0,1656,0,1656,0,1656,0,1656,0,1656,0,1656,0,1656,0,0,0,
0,0,0,0,0,0,0,0,0,0,0,0,0,0,0,0,0,0,0,0,0,0,0,0,0,0,0,0,0,0,0,0,0,0,0,0,0,0,0,0,0,0,0,0,
1656,0,1656,0,4344,0,4280,0,4344,0,4280,0,4344,0,4280,0,4344,0,4280,0,4344,0,4280,0,4344,0,4280,0,4344,0,4280,0,4344,0,4280,0,4344,0,4280,0,1656,0,1656,0,
0,0,0,0,0,0,0,0,0,0,0,0,0,0,0,0,0,0,0,0,0,0,0,0,0,0,0,0,0,0,0,0,0,0,0,0,0,0,0,0,0,0,0,0,
1656,0,1656,0,4280,0,4344,0,4281,0,4344,0,4280,0,4344,0,4280,0,4344,0,4280,0,4344,0,4280,0,4344,0,4280,0,4344,0,4280,0,4344,0,4280,0,4344,0,1656,0,1656,0,
0,0,0,0,0,0,0,0,0,0,0,0,0,0,0,0,0,0,0,0,0,0,0,0,0,0,0,0,0,0,0,0,0,0,0,0,0,0,0,0,0,0,0,0,
1656,0,1656,0,4344,0,4280,0,4344,0,4280,0,4344,0,4280,0,4344,0,4280,0,4344,0,4280,0,4344,0,4280,0,4344,0,4280,0,4344,0,4280,0,4344,0,4280,0,1656,0,1656,0,
0,0,0,0,0,0,0,0,0,0,0,0,0,0,0,0,0,0,0,0,0,0,0,0,0,0,0,0,0,0,0,0,0,0,0,0,0,0,0,0,0,0,0,0,
1656,0,1656,0,4280,0,4344,0,4280,0,4344,0,4280,0,4344,0,4280,0,4344,0,4280,0,4344,0,4280,0,4344,0,4280,0,4344,0,4280,0,4344,0,4280,0,4344,0,1656,0,1656,0,
0,0,0,0,0,0,0,0,0,0,0,0,0,0,0,0,0,0,0,0,0,0,0,0,0,0,0,0,0,0,0,0,0,0,0,0,0,0,0,0,0,0,0,0,
1656,0,1656,0,4344,0,4280,0,4344,0,4280,0,4344,0,4280,0,4344,0,4280,0,4344,0,4280,0,4344,0,4280,0,4344,0,4280,0,4344,0,4280,0,4344,0,4280,0,1656,0,1656,0,
0,0,0,0,0,0,0,0,0,0,0,0,0,0,0,0,0,0,0,0,0,0,0,0,0,0,0,0,0,0,0,0,0,0,0,0,0,0,0,0,0,0,0,0,
1656,0,1656,0,4280,0,4344,0,4280,0,4344,0,4280,0,4344,0,4280,0,4344,0,4280,0,4344,0,4280,0,4344,0,4280,0,4344,0,4280,0,4344,0,4280,0,4344,0,1656,0,1656,0,
0,0,0,0,0,0,0,0,0,0,0,0,0,0,0,0,0,0,0,0,0,0,0,0,0,0,0,0,0,0,0,0,0,0,0,0,0,0,0,0,0,0,0,0,
1656,0,1656,0,4344,0,4280,0,4344,0,4280,0,4344,0,4280,0,4344,0,4280,0,4344,0,4280,0,4344,0,4280,0,4344,0,4280,0,4344,0,4280,0,4344,0,4280,0,1656,0,1656,0,
0,0,0,0,0,0,0,0,0,0,0,0,0,0,0,0,0,0,0,0,0,0,0,0,0,0,0,0,0,0,0,0,0,0,0,0,0,0,0,0,0,0,0,0,
1656,0,1656,0,4280,0,4344,0,4280,0,4344,0,4280,0,4344,0,4280,0,4344,0,4280,0,4344,0,4280,0,4344,0,4280,0,4344,0,4280,0,4344,0,4280,0,4344,0,1656,0,1656,0,
0,0,0,0,0,0,0,0,0,0,0,0,0,0,0,0,0,0,0,0,0,0,0,0,0,0,0,0,0,0,0,0,0,0,0,0,0,0,0,0,0,0,0,0,
1656,0,1656,0,4344,0,4280,0,4344,0,4280,0,4344,0,4280,0,4344,0,4280,0,4344,0,4280,0,4344,0,4280,0,4344,0,4280,0,4344,0,4280,0,4344,0,4280,0,1656,0,1656,0,
0,0,0,0,0,0,0,0,0,0,0,0,0,0,0,0,0,0,0,0,0,0,0,0,0,0,0,0,0,0,0,0,0,0,0,0,0,0,0,0,0,0,0,0,
1656,0,1656,0,4280,0,4344,0,4280,0,4344,0,4280,0,4344,0,4280,0,4344,0,4280,0,4344,0,4280,0,4344,0,4280,0,4344,0,4280,0,4344,0,4280,0,4344,0,1656,0,1656,0,
0,0,0,0,0,0,0,0,0,0,0,0,0,0,0,0,0,0,0,0,0,0,0,0,0,0,0,0,0,0,0,0,0,0,0,0,0,0,0,0,0,0,0,0,
1656,0,1656,0,4344,0,4280,0,4344,0,4280,0,4344,0,4280,0,4344,0,4280,0,4344,0,4280,0,4344,0,4280,0,4344,0,4280,0,4344,0,4280,0,4344,0,4280,0,1656,0,1656,0,
0,0,0,0,0,0,0,0,0,0,0,0,0,0,0,0,0,0,0,0,0,0,0,0,0,0,0,0,0,0,0,0,0,0,0,0,0,0,0,0,0,0,0,0,
0,0,0,0,4280,0,4344,0,4280,0,4344,0,4280,0,4344,0,4280,0,4344,0,4280,0,4344,0,4280,0,4344,0,4280,0,4344,0,4280,0,4344,0,4280,0,4344,0,1656,0,1656,0,
0,0,0,0,0,0,0,0,0,0,0,0,0,0,0,0,0,0,0,0,0,0,0,0,0,0,0,0,0,0,0,0,0,0,0,0,0,0,0,0,0,0,0,0,
0,0,0,0,4344,0,4280,0,4344,0,4280,0,4344,0,4280,0,4344,0,4280,0,4344,0,4280,0,4344,0,4280,0,4344,0,4280,0,4344,0,4280,0,4344,0,4280,0,0,0,0,0,
0,0,0,0,0,0,0,0,0,0,0,0,0,0,0,0,0,0,0,0,0,0,0,0,0,0,0,0,0,0,0,0,0,0,0,0,0,0,0,0,0,0,0,0,
0,0,0,0,4280,0,4344,0,4280,0,4344,0,4280,0,4344,0,4280,0,4344,0,4280,0,4344,0,4280,0,4344,0,4280,0,4344,0,4280,0,4344,0,4280,0,4344,0,0,0,0,0,
0,0,0,0,0,0,0,0,0,0,0,0,0,0,0,0,0,0,0,0,0,0,0,0,0,0,0,0,0,0,0,0,0,0,0,0,0,0,0,0,0,0,0,0,
0,0,0,0,1656,0,1656,0,1656,0,1656,0,1656,0,1656,0,1656,0,1656,0,1656,0,1656,0,0,0,0,0,0,0,0,0,0,0,0,0,0,0,0,0,0,0,0,0,
0,0,0,0,0,0,0,0,0,0,0,0,0,0,0,0,0,0,0,0,0,0,0,0,0,0,0,0,0,0,0,0,0,0,0,0,0,0,0,0,0,0,0,0,
0,0,0,0,1656,0,1656,0,1656,0,1656,0,1656,0,1656,0,1656,0,1656,0,1656,0,1656,0,0,0,0,0,0,0,0,0,0,0,0,0,0,0,0,0,0,0,0,0,
0,0,0,0,0,0,0,0,0,0,0,0,0,0,0,0,0,0,0,0,0,0,0,0,0,0,0,0,0,0,0,0,0,0,0,0,0,0,0,0,0,0,0,0
</data>
  </layer>
  <objectgroup draworder="index" id="3" name="Level_0_FloorSprites">
   <object id="1" type="asset" gid="875" x="99" y="302" width="26" height="18"/>
   <object id="2" type="asset" gid="335" x="130" y="129" width="17" height="27"/>
   <object id="3" type="asset" gid="1245" x="75" y="217" width="70" height="23"/>
   <object id="4" type="asset" gid="1300" x="193" y="286" width="106" height="106"/>
  </objectgroup>
  <layer id="4" name="Level_0_Shadows" width="44" height="44">
   <properties>
    <property name="maybe_animation_id" value="babd09ade2b55c05"/>
    <property name="maybe_tileset_id" value="339411f6ba88c8f0"/>
    <property name="tile_size" type="int" value="16"/>
   </properties>
   <data encoding="csv">
0,0,0,0,0,0,0,0,0,0,0,0,0,0,0,0,0,0,0,0,0,0,0,0,0,0,0,0,0,0,0,0,0,0,0,0,0,0,0,0,0,0,0,0,
0,0,0,0,0,0,0,0,0,0,0,0,0,0,0,0,0,0,0,0,0,0,0,0,0,0,0,0,0,0,0,0,0,0,0,0,0,0,0,0,0,0,0,0,
0,0,0,0,0,0,0,0,0,0,0,0,0,0,0,0,0,0,0,0,0,0,0,0,0,0,0,0,0,0,0,0,0,0,0,0,0,0,0,0,0,0,0,0,
0,0,0,0,0,0,0,0,0,0,0,0,0,0,0,0,0,0,0,0,0,0,0,0,0,0,0,0,0,0,0,0,0,0,0,0,0,0,0,0,0,0,0,0,
0,0,0,0,0,0,0,0,0,0,0,0,0,0,0,0,0,0,0,0,0,0,0,0,0,0,0,0,0,0,0,0,0,0,0,0,0,0,0,0,0,0,0,0,
0,0,0,0,0,0,0,0,0,0,0,0,0,0,0,0,0,0,0,0,0,0,0,0,0,0,0,0,0,0,0,0,0,0,0,0,0,0,0,0,0,0,0,0,
0,0,0,0,0,0,0,0,0,0,0,0,0,0,0,0,0,0,0,0,0,0,0,0,0,0,0,0,0,0,0,0,0,0,0,0,0,0,0,0,0,0,0,0,
0,0,0,0,0,0,0,0,0,0,0,0,0,0,0,0,0,0,0,0,0,0,0,0,0,0,0,0,0,0,0,0,0,0,0,0,0,0,0,0,0,0,0,0,
0,0,0,0,0,0,0,0,0,0,0,0,0,0,0,0,0,0,0,0,0,0,0,0,0,0,0,0,0,0,0,0,0,0,0,0,0,0,0,0,0,0,0,0,
0,0,0,0,0,0,0,0,0,0,0,0,0,0,0,0,0,0,0,0,0,0,0,0,0,0,0,0,0,0,0,0,0,0,0,0,0,0,0,0,0,0,0,0,
0,0,0,0,0,0,0,0,0,0,0,0,0,0,0,0,0,0,0,0,0,0,0,0,0,0,0,0,0,0,0,0,0,0,0,0,0,0,0,0,0,0,0,0,
0,0,0,0,0,0,0,0,0,0,0,0,0,0,0,0,0,0,0,0,0,0,0,0,0,0,0,0,0,0,0,0,0,0,0,0,0,0,0,0,0,0,0,0,
0,0,0,0,5753,0,5753,0,5780,0,5754,0,5754,0,5754,0,5754,0,5754,0,5754,0,5754,0,5754,0,5754,0,5754,0,5754,0,5754,0,5754,0,5754,0,5754,0,5752,0,0,0,
0,0,0,0,0,0,0,0,0,0,0,0,0,0,0,0,0,0,0,0,0,0,0,0,0,0,0,0,0,0,0,0,0,0,0,0,0,0,0,0,0,0,0,0,
0,0,0,0,5753,0,5753,0,0,0,0,0,0,0,0,0,5752,0,5752,0,5752,0,5752,0,5752,0,5752,0,5752,0,5752,0,5752,0,5752,0,5752,0,5752,0,5752,0,0,0,
0,0,0,0,0,0,0,0,0,0,0,0,0,0,0,0,0,0,0,0,0,0,0,0,0,0,0,0,0,0,0,0,0,0,0,0,0,0,0,0,0,0,0,0,
0,0,0,0,5753,0,5753,0,0,0,0,0,0,0,0,0,5752,0,5752,0,5752,0,5752,0,5752,0,5752,0,5752,0,5752,0,5752,0,5752,0,5752,0,5752,0,5752,0,0,0,
0,0,0,0,0,0,0,0,0,0,0,0,0,0,0,0,0,0,0,0,0,0,0,0,0,0,0,0,0,0,0,0,0,0,0,0,0,0,0,0,0,0,0,0,
0,0,0,0,5753,0,5753,0,0,0,0,0,0,0,0,0,5752,0,5752,0,5752,0,0,0,0,0,0,0,0,0,0,0,5752,0,5752,0,0,0,0,0,0,0,0,0,
0,0,0,0,0,0,0,0,0,0,0,0,0,0,0,0,0,0,0,0,0,0,0,0,0,0,0,0,0,0,0,0,0,0,0,0,0,0,0,0,0,0,0,0,
0,0,0,0,5753,0,5753,0,0,0,0,0,0,0,0,0,0,0,0,0,0,0,0,0,0,0,0,0,0,0,0,0,0,0,0,0,0,0,0,0,0,0,0,0,
0,0,0,0,0,0,0,0,0,0,0,0,0,0,0,0,0,0,0,0,0,0,0,0,0,0,0,0,0,0,0,0,0,0,0,0,0,0,0,0,0,0,0,0,
0,0,0,0,5753,0,5753,0,0,0,0,0,0,0,0,0,0,0,0,0,0,0,0,0,0,0,0,0,0,0,0,0,0,0,0,0,0,0,0,0,0,0,0,0,
0,0,0,0,0,0,0,0,0,0,0,0,0,0,0,0,0,0,0,0,0,0,0,0,0,0,0,0,0,0,0,0,0,0,0,0,0,0,0,0,0,0,0,0,
0,0,0,0,5753,0,5753,0,0,0,0,0,0,0,0,0,0,0,0,0,0,0,0,0,0,0,0,0,0,0,0,0,0,0,0,0,0,0,0,0,0,0,0,0,
0,0,0,0,0,0,0,0,0,0,0,0,0,0,0,0,0,0,0,0,0,0,0,0,0,0,0,0,0,0,0,0,0,0,0,0,0,0,0,0,0,0,0,0,
0,0,0,0,5753,0,5753,0,0,0,0,0,0,0,0,0,0,0,0,0,0,0,0,0,0,0,0,0,0,0,0,0,0,0,0,0,0,0,0,0,0,0,0,0,
0,0,0,0,0,0,0,0,0,0,0,0,0,0,0,0,0,0,0,0,0,0,0,0,0,0,0,0,0,0,0,0,0,0,0,0,0,0,0,0,0,0,0,0,
0,0,0,0,5753,0,5753,0,0,0,0,0,0,0,0,0,0,0,0,0,0,0,0,0,0,0,0,0,0,0,0,0,0,0,0,0,0,0,0,0,0,0,0,0,
0,0,0,0,0,0,0,0,0,0,0,0,0,0,0,0,0,0,0,0,0,0,0,0,0,0,0,0,0,0,0,0,0,0,0,0,0,0,0,0,0,0,0,0,
0,0,0,0,5753,0,5753,0,0,0,0,0,0,0,0,0,0,0,0,0,0,0,0,0,0,0,0,0,0,0,0,0,0,0,0,0,0,0,0,0,0,0,0,0,
0,0,0,0,0,0,0,0,0,0,0,0,0,0,0,0,0,0,0,0,0,0,0,0,0,0,0,0,0,0,0,0,0,0,0,0,0,0,0,0,0,0,0,0,
0,0,0,0,5753,0,5753,0,0,0,0,0,0,0,0,0,0,0,0,0,0,0,0,0,0,0,0,0,0,0,0,0,0,0,0,0,0,0,0,0,0,0,0,0,
0,0,0,0,0,0,0,0,0,0,0,0,0,0,0,0,0,0,0,0,0,0,0,0,0,0,0,0,0,0,0,0,0,0,0,0,0,0,0,0,0,0,0,0,
0,0,0,0,5753,0,5753,0,0,0,0,0,0,0,0,0,0,0,0,0,0,0,0,0,0,0,0,0,0,0,0,0,0,0,0,0,0,0,0,0,0,0,0,0,
0,0,0,0,0,0,0,0,0,0,0,0,0,0,0,0,0,0,0,0,0,0,0,0,0,0,0,0,0,0,0,0,0,0,0,0,0,0,0,0,0,0,0,0,
0,0,0,0,5753,0,5753,0,0,0,0,0,0,0,0,0,0,0,0,0,0,0,0,0,0,0,0,0,0,0,0,0,0,0,0,0,0,0,0,0,0,0,0,0,
0,0,0,0,0,0,0,0,0,0,0,0,0,0,0,0,0,0,0,0,0,0,0,0,0,0,0,0,0,0,0,0,0,0,0,0,0,0,0,0,0,0,0,0,
0,0,0,0,5753,0,5753,0,0,0,0,0,0,0,0,0,0,0,0,0,0,0,0,0,0,0,0,0,0,0,0,0,0,0,0,0,0,0,0,0,0,0,0,0,
0,0,0,0,0,0,0,0,0,0,0,0,0,0,0,0,0,0,0,0,0,0,0,0,0,0,0,0,0,0,0,0,0,0,0,0,0,0,0,0,0,0,0,0,
0,0,0,0,0,0,0,0,0,0,0,0,0,0,0,0,0,0,0,0,0,0,0,0,0,0,0,0,0,0,0,0,0,0,0,0,0,0,0,0,0,0,0,0,
0,0,0,0,0,0,0,0,0,0,0,0,0,0,0,0,0,0,0,0,0,0,0,0,0,0,0,0,0,0,0,0,0,0,0,0,0,0,0,0,0,0,0,0,
0,0,0,0,0,0,0,0,0,0,0,0,0,0,0,0,0,0,0,0,0,0,0,0,0,0,0,0,0,0,0,0,0,0,0,0,0,0,0,0,0,0,0,0,
0,0,0,0,0,0,0,0,0,0,0,0,0,0,0,0,0,0,0,0,0,0,0,0,0,0,0,0,0,0,0,0,0,0,0,0,0,0,0,0,0,0,0,0
</data>
  </layer>
  <layer id="5" name="Level_0_Walls" width="44" height="44">
   <properties>
    <property name="maybe_animation_id" value="75ea443e6634d96"/>
    <property name="maybe_tileset_id" value="d8b504e9a8480fbe"/>
    <property name="tile_size" type="int" value="16"/>
   </properties>
   <data encoding="csv">
1656,0,1656,0,1656,0,1656,0,1656,0,1656,0,1656,0,1656,0,1656,0,1656,0,1656,0,1656,0,1656,0,1656,0,1656,0,1656,0,1656,0,1656,0,1656,0,1656,0,1656,0,1656,0,
0,0,0,0,0,0,0,0,0,0,0,0,0,0,0,0,0,0,0,0,0,0,0,0,0,0,0,0,0,0,0,0,0,0,0,0,0,0,0,0,0,0,0,0,
1656,0,1656,0,1656,0,1656,0,1656,0,1656,0,1656,0,1656,0,1656,0,1656,0,1656,0,1656,0,1656,0,1656,0,1656,0,1656,0,1656,0,1656,0,1656,0,1656,0,1656,0,1656,0,
0,0,0,0,0,0,0,0,0,0,0,0,0,0,0,0,0,0,0,0,0,0,0,0,0,0,0,0,0,0,0,0,0,0,0,0,0,0,0,0,0,0,0,0,
1656,0,1656,0,3960,0,3960,0,3960,0,3960,0,3960,0,3960,0,3960,0,3960,0,3960,0,3960,0,3960,0,3961,0,3961,0,3961,0,3961,0,3961,0,3961,0,3961,0,1656,0,1656,0,
0,0,0,0,0,0,0,0,0,0,0,0,0,0,0,0,0,0,0,0,0,0,0,0,0,0,0,0,0,0,0,0,0,0,0,0,0,0,0,0,0,0,0,0,
1656,0,1656,0,4024,0,4024,0,4024,0,4024,0,4024,0,4024,0,4024,0,4024,0,4024,0,4024,0,4024,0,4025,0,4025,0,4025,0,4025,0,4025,0,4025,0,4025,0,1656,0,1656,0,
0,0,0,0,0,0,0,0,0,0,0,0,0,0,0,0,0,0,0,0,0,0,0,0,0,0,0,0,0,0,0,0,0,0,0,0,0,0,0,0,0,0,0,0,
1656,0,1656,0,4088,0,4088,0,4088,0,4088,0,4088,0,4088,0,4088,0,4088,0,4088,0,4088,0,4088,0,4089,0,4089,0,4089,0,4089,0,4089,0,4089,0,4089,0,1656,0,1656,0,
0,0,0,0,0,0,0,0,0,0,0,0,0,0,0,0,0,0,0,0,0,0,0,0,0,0,0,0,0,0,0,0,0,0,0,0,0,0,0,0,0,0,0,0,
1656,0,1656,0,4152,0,4152,0,4152,0,4152,0,4152,0,4152,0,4152,0,4152,0,4152,0,4152,0,4152,0,4153,0,4153,0,4153,0,4153,0,4153,0,4153,0,4089,0,1656,0,1656,0,
0,0,0,0,0,0,0,0,0,0,0,0,0,0,0,0,0,0,0,0,0,0,0,0,0,0,0,0,0,0,0,0,0,0,0,0,0,0,0,0,0,0,0,0,
1656,0,1656,0,4216,0,4216,0,4216,0,4216,0,4216,0,4216,0,4216,0,4216,0,4216,0,4216,0,4216,0,4217,0,4217,0,4217,0,4217,0,4217,0,4217,0,1656,0,1656,0,1656,0,
0,0,0,0,0,0,0,0,0,0,0,0,0,0,0,0,0,0,0,0,0,0,0,0,0,0,0,0,0,0,0,0,0,0,0,0,0,0,0,0,0,0,0,0,
1656,0,1656,0,1656,0,1656,0,1656,0,1656,0,1656,0,1656,0,1656,0,1656,0,1656,0,1656,0,1656,0,1656,0,1656,0,1656,0,1656,0,1656,0,1656,0,1656,0,1656,0,1656,0,
0,0,0,0,0,0,0,0,0,0,0,0,0,0,0,0,0,0,0,0,0,0,0,0,0,0,0,0,0,0,0,0,0,0,0,0,0,0,0,0,0,0,0,0,
1656,0,1656,0,1656,0,1656,0,1656,0,1656,0,1656,0,1656,0,1656,0,1656,0,1656,0,1656,0,1656,0,1656,0,1656,0,1656,0,1656,0,1656,0,1656,0,1656,0,1656,0,1656,0,
0,0,0,0,0,0,0,0,0,0,0,0,0,0,0,0,0,0,0,0,0,0,0,0,0,0,0,0,0,0,0,0,0,0,0,0,0,0,0,0,0,0,0,0,
1656,0,1656,0,1656,0,1656,0,1656,0,1656,0,1656,0,1656,0,1656,0,1656,0,1656,0,1656,0,1656,0,1656,0,1656,0,1656,0,1656,0,1656,0,1656,0,1656,0,1656,0,1656,0,
0,0,0,0,0,0,0,0,0,0,0,0,0,0,0,0,0,0,0,0,0,0,0,0,0,0,0,0,0,0,0,0,0,0,0,0,0,0,0,0,0,0,0,0,
1656,0,1656,0,1656,0,1656,0,1656,0,1656,0,1656,0,1656,0,1656,0,1656,0,1656,0,1656,0,1656,0,1656,0,1656,0,1656,0,1656,0,1656,0,1656,0,1656,0,1656,0,1656,0,
0,0,0,0,0,0,0,0,0,0,0,0,0,0,0,0,0,0,0,0,0,0,0,0,0,0,0,0,0,0,0,0,0,0,0,0,0,0,0,0,0,0,0,0,
1656,0,1656,0,1656,0,1656,0,1656,0,1656,0,1656,0,1656,0,1656,0,1656,0,1656,0,1656,0,1656,0,1656,0,1656,0,1656,0,1656,0,1656,0,1656,0,1656,0,1656,0,1656,0,
0,0,0,0,0,0,0,0,0,0,0,0,0,0,0,0,0,0,0,0,0,0,0,0,0,0,0,0,0,0,0,0,0,0,0,0,0,0,0,0,0,0,0,0,
1656,0,1656,0,1656,0,1656,0,1656,0,1656,0,1656,0,1656,0,1656,0,1656,0,1656,0,1656,0,1656,0,1656,0,1656,0,1656,0,1656,0,1656,0,1656,0,1656,0,1656,0,1656,0,
0,0,0,0,0,0,0,0,0,0,0,0,0,0,0,0,0,0,0,0,0,0,0,0,0,0,0,0,0,0,0,0,0,0,0,0,0,0,0,0,0,0,0,0,
1656,0,1656,0,1656,0,1656,0,1656,0,1656,0,1656,0,1656,0,1656,0,1656,0,1656,0,1656,0,1656,0,1656,0,1656,0,1656,0,1656,0,1656,0,1656,0,1656,0,1656,0,1656,0,
0,0,0,0,0,0,0,0,0,0,0,0,0,0,0,0,0,0,0,0,0,0,0,0,0,0,0,0,0,0,0,0,0,0,0,0,0,0,0,0,0,0,0,0,
1656,0,1656,0,1656,0,1656,0,1656,0,1656,0,1656,0,1656,0,1656,0,1656,0,1656,0,1656,0,1656,0,1656,0,1656,0,1656,0,1656,0,1656,0,1656,0,1656,0,1656,0,1656,0,
0,0,0,0,0,0,0,0,0,0,0,0,0,0,0,0,0,0,0,0,0,0,0,0,0,0,0,0,0,0,0,0,0,0,0,0,0,0,0,0,0,0,0,0,
1656,0,1656,0,1656,0,1656,0,1656,0,1656,0,1656,0,1656,0,1656,0,1656,0,1656,0,1656,0,1656,0,1656,0,1656,0,1656,0,1656,0,1656,0,1656,0,1656,0,1656,0,1656,0,
0,0,0,0,0,0,0,0,0,0,0,0,0,0,0,0,0,0,0,0,0,0,0,0,0,0,0,0,0,0,0,0,0,0,0,0,0,0,0,0,0,0,0,0,
1656,0,1656,0,1656,0,1656,0,1656,0,1656,0,1656,0,1656,0,1656,0,1656,0,1656,0,1656,0,1656,0,1656,0,1656,0,1656,0,1656,0,1656,0,1656,0,1656,0,1656,0,1656,0,
0,0,0,0,0,0,0,0,0,0,0,0,0,0,0,0,0,0,0,0,0,0,0,0,0,0,0,0,0,0,0,0,0,0,0,0,0,0,0,0,0,0,0,0,
1656,0,1656,0,1656,0,1656,0,1656,0,1656,0,1656,0,1656,0,1656,0,1656,0,1656,0,1656,0,1656,0,1656,0,1656,0,1656,0,1656,0,1656,0,1656,0,1656,0,1656,0,1656,0,
0,0,0,0,0,0,0,0,0,0,0,0,0,0,0,0,0,0,0,0,0,0,0,0,0,0,0,0,0,0,0,0,0,0,0,0,0,0,0,0,0,0,0,0,
1656,0,1656,0,1656,0,1656,0,1656,0,1656,0,1656,0,1656,0,1656,0,1656,0,1656,0,1656,0,1656,0,1656,0,1656,0,1656,0,1656,0,1656,0,1656,0,1656,0,1656,0,1656,0,
0,0,0,0,0,0,0,0,0,0,0,0,0,0,0,0,0,0,0,0,0,0,0,0,0,0,0,0,0,0,0,0,0,0,0,0,0,0,0,0,0,0,0,0,
1656,0,1656,0,1656,0,1656,0,1656,0,1656,0,1656,0,1656,0,1656,0,1656,0,1656,0,1656,0,1656,0,1656,0,1656,0,1656,0,1656,0,1656,0,1656,0,1656,0,1656,0,1656,0,
0,0,0,0,0,0,0,0,0,0,0,0,0,0,0,0,0,0,0,0,0,0,0,0,0,0,0,0,0,0,0,0,0,0,0,0,0,0,0,0,0,0,0,0,
1656,0,1656,0,1656,0,1656,0,1656,0,1656,0,1656,0,1656,0,1656,0,1656,0,1656,0,1656,0,1656,0,1656,0,1656,0,1656,0,1656,0,1656,0,1656,0,1656,0,1656,0,1656,0,
0,0,0,0,0,0,0,0,0,0,0,0,0,0,0,0,0,0,0,0,0,0,0,0,0,0,0,0,0,0,0,0,0,0,0,0,0,0,0,0,0,0,0,0,
1656,0,1656,0,1656,0,1656,0,1656,0,1656,0,1656,0,1656,0,1656,0,1656,0,1656,0,1656,0,1656,0,1656,0,1656,0,1656,0,1656,0,1656,0,1656,0,1656,0,1656,0,1656,0,
0,0,0,0,0,0,0,0,0,0,0,0,0,0,0,0,0,0,0,0,0,0,0,0,0,0,0,0,0,0,0,0,0,0,0,0,0,0,0,0,0,0,0,0
</data>
  </layer>
  <objectgroup draworder="index" id="6" name="Level_0_Windows">
   <object id="5" template="../../../templates/meta/obj_windowshader_interior.tx" type="obj_windowshader_interior" x="96" y="88" width="16" height="24"/>
  </objectgroup>
  <objectgroup draworder="index" id="7" name="Level_0_Assets">
   <object id="6" type="asset" gid="1037" x="204" y="187" width="96" height="40"/>
   <object id="7" type="asset" gid="13" x="248" y="224" width="40" height="48"/>
   <object id="8" type="asset" gid="1098" x="248" y="224" width="40" height="48"/>
   <object id="9" type="asset" gid="1037" x="204" y="243" width="96" height="40"/>
   <object id="10" type="asset" gid="13" x="248" y="280" width="40" height="48"/>
   <object id="11" type="asset" gid="1098" x="248" y="280" width="40" height="48"/>
   <object id="12" type="asset" gid="1230" x="49" y="225" width="24" height="24"/>
   <object id="13" type="asset" gid="1230" x="49" y="249" width="24" height="24"/>
   <object id="14" type="asset" gid="1230" x="49" y="273" width="24" height="24"/>
   <object id="15" type="asset" gid="937" x="49" y="308" width="24" height="40"/>
   <object id="16" type="asset" gid="1033" x="55" y="88" width="24" height="32"/>
   <object id="17" type="asset" gid="942" x="42" y="192" width="32" height="56"/>
   <object id="18" type="asset" gid="657" x="152" y="193" width="24" height="48"/>
   <object id="19" type="asset" gid="138" x="128" y="92" width="24" height="40"/>
   <object id="20" type="asset" gid="218" x="80" y="96" width="48" height="40"/>
   <object id="21" type="asset" gid="50" x="148" y="144" width="168" height="104"/>
   <object id="22" type="asset" gid="640" x="147" y="144" width="168" height="104"/>
   <object id="23" type="asset" gid="1211" x="232" y="145" width="16" height="24"/>
   <object id="24" type="asset" gid="93" x="65" y="192" width="88" height="48"/>
   <object id="25" type="asset" gid="69" x="168" y="136" width="16" height="40">
    <properties>
     <property name="depth_offset" type="int" value="-1"/>
    </properties>
   </object>
   <object id="26" type="asset" gid="909" x="296" y="217" width="16" height="40"/>
   <object id="27" type="asset" gid="909" x="296" y="273" width="16" height="40"/>
   <object id="28" type="asset" gid="893" x="56" y="136" width="32" height="48"/>
  </objectgroup>
 </group>
 <objectgroup draworder="index" id="8" name="Instances"/>
 <group id="9" name="Level_1">
  <layer id="10" name="Level_1_BlackArea" width="44" height="44">
   <properties>
    <property name="maybe_animation_id" value="75ea443e6634d96"/>
    <property name="maybe_tileset_id" value="d8b504e9a8480fbe"/>
    <property name="tile_size" type="int" value="16"/>
   </properties>
   <data encoding="csv">
4092,0,4092,0,4092,0,4092,0,4092,0,4092,0,4092,0,4092,0,4092,0,4092,0,4092,0,4092,0,4092,0,4092,0,4092,0,4092,0,4092,0,4092,0,4092,0,4092,0,4092,0,4092,0,
0,0,0,0,0,0,0,0,0,0,0,0,0,0,0,0,0,0,0,0,0,0,0,0,0,0,0,0,0,0,0,0,0,0,0,0,0,0,0,0,0,0,0,0,
4092,0,4092,0,4092,0,4092,0,4092,0,4092,0,4092,0,4092,0,4092,0,4092,0,4092,0,4092,0,4092,0,4092,0,4092,0,4092,0,4092,0,4092,0,4092,0,4092,0,4092,0,4092,0,
0,0,0,0,0,0,0,0,0,0,0,0,0,0,0,0,0,0,0,0,0,0,0,0,0,0,0,0,0,0,0,0,0,0,0,0,0,0,0,0,0,0,0,0,
4092,0,4092,0,1656,0,1656,0,1656,0,1656,0,1656,0,1656,0,1656,0,1656,0,1656,0,1656,0,1656,0,4092,0,4092,0,4092,0,4092,0,4092,0,4092,0,4092,0,4092,0,4092,0,
0,0,0,0,0,0,0,0,0,0,0,0,0,0,0,0,0,0,0,0,0,0,0,0,0,0,0,0,0,0,0,0,0,0,0,0,0,0,0,0,0,0,0,0,
4092,0,4092,0,1656,0,1656,0,1656,0,1656,0,1656,0,1656,0,1656,0,1656,0,1656,0,1656,0,1656,0,4092,0,4092,0,4092,0,4092,0,4092,0,4092,0,4092,0,4092,0,4092,0,
0,0,0,0,0,0,0,0,0,0,0,0,0,0,0,0,0,0,0,0,0,0,0,0,0,0,0,0,0,0,0,0,0,0,0,0,0,0,0,0,0,0,0,0,
4092,0,4092,0,1656,0,1656,0,1656,0,1656,0,1656,0,1656,0,1656,0,1656,0,1656,0,1656,0,1656,0,1656,0,1656,0,1656,0,1656,0,1656,0,1656,0,1656,0,4092,0,4092,0,
0,0,0,0,0,0,0,0,0,0,0,0,0,0,0,0,0,0,0,0,0,0,0,0,0,0,0,0,0,0,0,0,0,0,0,0,0,0,0,0,0,0,0,0,
4092,0,4092,0,1656,0,1656,0,1656,0,1656,0,1656,0,1656,0,1656,0,1656,0,1656,0,1656,0,1656,0,1656,0,1656,0,1656,0,1656,0,1656,0,1656,0,1656,0,4092,0,4092,0,
0,0,0,0,0,0,0,0,0,0,0,0,0,0,0,0,0,0,0,0,0,0,0,0,0,0,0,0,0,0,0,0,0,0,0,0,0,0,0,0,0,0,0,0,
4092,0,4092,0,1656,0,1656,0,1656,0,1656,0,1656,0,1656,0,1656,0,1656,0,1656,0,1656,0,1656,0,1656,0,1656,0,1656,0,1656,0,1656,0,1656,0,1656,0,4092,0,4092,0,
0,0,0,0,0,0,0,0,0,0,0,0,0,0,0,0,0,0,0,0,0,0,0,0,0,0,0,0,0,0,0,0,0,0,0,0,0,0,0,0,0,0,0,0,
4092,0,4092,0,1656,0,1656,0,1656,0,1656,0,1656,0,1656,0,1656,0,1656,0,1656,0,1656,0,1656,0,1656,0,1656,0,1656,0,1656,0,1656,0,1656,0,1656,0,4092,0,4092,0,
0,0,0,0,0,0,0,0,0,0,0,0,0,0,0,0,0,0,0,0,0,0,0,0,0,0,0,0,0,0,0,0,0,0,0,0,0,0,0,0,0,0,0,0,
4092,0,4092,0,1656,0,1656,0,1656,0,1656,0,1656,0,1656,0,1656,0,1656,0,1656,0,1656,0,1656,0,1656,0,1656,0,1656,0,1656,0,1656,0,1656,0,1656,0,4092,0,4092,0,
0,0,0,0,0,0,0,0,0,0,0,0,0,0,0,0,0,0,0,0,0,0,0,0,0,0,0,0,0,0,0,0,0,0,0,0,0,0,0,0,0,0,0,0,
4092,0,4092,0,1656,0,1656,0,1656,0,1656,0,1656,0,1656,0,1656,0,1656,0,1656,0,1656,0,1656,0,1656,0,1656,0,1656,0,1656,0,1656,0,1656,0,1656,0,4092,0,4092,0,
0,0,0,0,0,0,0,0,0,0,0,0,0,0,0,0,0,0,0,0,0,0,0,0,0,0,0,0,0,0,0,0,0,0,0,0,0,0,0,0,0,0,0,0,
4092,0,4092,0,1656,0,1656,0,1656,0,1656,0,1656,0,1656,0,1656,0,1656,0,1656,0,1656,0,1656,0,1656,0,1656,0,1656,0,1656,0,1656,0,1656,0,1656,0,4092,0,4092,0,
0,0,0,0,0,0,0,0,0,0,0,0,0,0,0,0,0,0,0,0,0,0,0,0,0,0,0,0,0,0,0,0,0,0,0,0,0,0,0,0,0,0,0,0,
4092,0,4092,0,1656,0,1656,0,1656,0,1656,0,1656,0,1656,0,1656,0,1656,0,1656,0,1656,0,1656,0,1656,0,1656,0,1656,0,1656,0,1656,0,1656,0,1656,0,4092,0,4092,0,
0,0,0,0,0,0,0,0,0,0,0,0,0,0,0,0,0,0,0,0,0,0,0,0,0,0,0,0,0,0,0,0,0,0,0,0,0,0,0,0,0,0,0,0,
4092,0,4092,0,1656,0,1656,0,1656,0,1656,0,1656,0,1656,0,1656,0,1656,0,1656,0,1656,0,1656,0,1656,0,1656,0,1656,0,1656,0,1656,0,1656,0,1656,0,4092,0,4092,0,
0,0,0,0,0,0,0,0,0,0,0,0,0,0,0,0,0,0,0,0,0,0,0,0,0,0,0,0,0,0,0,0,0,0,0,0,0,0,0,0,0,0,0,0,
4092,0,4092,0,1656,0,1656,0,1656,0,1656,0,1656,0,1656,0,1656,0,1656,0,1656,0,1656,0,1656,0,1656,0,1656,0,1656,0,1656,0,1656,0,1656,0,1656,0,4092,0,4092,0,
0,0,0,0,0,0,0,0,0,0,0,0,0,0,0,0,0,0,0,0,0,0,0,0,0,0,0,0,0,0,0,0,0,0,0,0,0,0,0,0,0,0,0,0,
4092,0,4092,0,1656,0,1656,0,1656,0,1656,0,1656,0,1656,0,1656,0,1656,0,1656,0,1656,0,1656,0,1656,0,1656,0,1656,0,1656,0,1656,0,1656,0,1656,0,4092,0,4092,0,
0,0,0,0,0,0,0,0,0,0,0,0,0,0,0,0,0,0,0,0,0,0,0,0,0,0,0,0,0,0,0,0,0,0,0,0,0,0,0,0,0,0,0,0,
4092,0,4092,0,1656,0,1656,0,1656,0,1656,0,1656,0,1656,0,1656,0,1656,0,1656,0,1656,0,1656,0,1656,0,1656,0,1656,0,1656,0,1656,0,1656,0,1656,0,4092,0,4092,0,
0,0,0,0,0,0,0,0,0,0,0,0,0,0,0,0,0,0,0,0,0,0,0,0,0,0,0,0,0,0,0,0,0,0,0,0,0,0,0,0,0,0,0,0,
4092,0,4092,0,1656,0,1656,0,1656,0,1656,0,1656,0,1656,0,1656,0,1656,0,1656,0,1656,0,1656,0,1656,0,1656,0,1656,0,1656,0,1656,0,1656,0,1656,0,4092,0,4092,0,
0,0,0,0,0,0,0,0,0,0,0,0,0,0,0,0,0,0,0,0,0,0,0,0,0,0,0,0,0,0,0,0,0,0,0,0,0,0,0,0,0,0,0,0,
4092,0,4092,0,1656,0,1656,0,1656,0,1656,0,1656,0,1656,0,1656,0,1656,0,1656,0,1656,0,1656,0,1656,0,1656,0,1656,0,1656,0,1656,0,1656,0,1656,0,4092,0,4092,0,
0,0,0,0,0,0,0,0,0,0,0,0,0,0,0,0,0,0,0,0,0,0,0,0,0,0,0,0,0,0,0,0,0,0,0,0,0,0,0,0,0,0,0,0,
4092,0,4092,0,1656,0,1656,0,1656,0,1656,0,1656,0,1656,0,1656,0,1656,0,1656,0,1656,0,1656,0,1656,0,1656,0,1656,0,1656,0,1656,0,1656,0,1656,0,4092,0,4092,0,
0,0,0,0,0,0,0,0,0,0,0,0,0,0,0,0,0,0,0,0,0,0,0,0,0,0,0,0,0,0,0,0,0,0,0,0,0,0,0,0,0,0,0,0,
4092,0,4092,0,1656,0,1656,0,1656,0,1656,0,1656,0,1656,0,1656,0,1656,0,1656,0,1656,0,1656,0,1656,0,1656,0,1656,0,1656,0,1656,0,1656,0,1656,0,4092,0,4092,0,
0,0,0,0,0,0,0,0,0,0,0,0,0,0,0,0,0,0,0,0,0,0,0,0,0,0,0,0,0,0,0,0,0,0,0,0,0,0,0,0,0,0,0,0,
4092,0,4092,0,4092,0,4092,0,4092,0,4092,0,4092,0,4092,0,4092,0,4092,0,4092,0,4092,0,4092,0,4092,0,4092,0,4092,0,4092,0,4092,0,4092,0,4092,0,4092,0,4092,0,
0,0,0,0,0,0,0,0,0,0,0,0,0,0,0,0,0,0,0,0,0,0,0,0,0,0,0,0,0,0,0,0,0,0,0,0,0,0,0,0,0,0,0,0,
4092,0,4092,0,4092,0,4092,0,4092,0,4092,0,4092,0,4092,0,4092,0,4092,0,4092,0,4092,0,4092,0,4092,0,4092,0,4092,0,4092,0,4092,0,4092,0,4092,0,4092,0,4092,0,
0,0,0,0,0,0,0,0,0,0,0,0,0,0,0,0,0,0,0,0,0,0,0,0,0,0,0,0,0,0,0,0,0,0,0,0,0,0,0,0,0,0,0,0
</data>
  </layer>
  <layer id="11" name="Level_1_Ceiling" width="44" height="44">
   <properties>
    <property name="maybe_animation_id" value="75ea443e6634d96"/>
    <property name="maybe_tileset_id" value="d8b504e9a8480fbe"/>
    <property name="tile_size" type="int" value="16"/>
   </properties>
   <data encoding="csv">
1656,0,1656,0,1656,0,1656,0,1656,0,1656,0,1656,0,1656,0,1656,0,1656,0,1656,0,1656,0,1656,0,1656,0,1656,0,1656,0,1656,0,1656,0,1656,0,1656,0,1656,0,1656,0,
0,0,0,0,0,0,0,0,0,0,0,0,0,0,0,0,0,0,0,0,0,0,0,0,0,0,0,0,0,0,0,0,0,0,0,0,0,0,0,0,0,0,0,0,
1656,0,3962,0,3963,0,3964,0,3964,0,3964,0,3964,0,3964,0,3964,0,3964,0,3964,0,3964,0,3964,0,3964,0,3964,0,3964,0,3964,0,3964,0,3964,0,3972,0,3973,0,1656,0,
0,0,0,0,0,0,0,0,0,0,0,0,0,0,0,0,0,0,0,0,0,0,0,0,0,0,0,0,0,0,0,0,0,0,0,0,0,0,0,0,0,0,0,0,
1656,0,4026,0,4027,0,4028,0,3967,0,4028,0,4028,0,4028,0,4028,0,4028,0,3967,0,4028,0,4034,0,4035,0,4035,0,4035,0,4035,0,4035,0,4035,0,4036,0,4037,0,1656,0,
0,0,0,0,0,0,0,0,0,0,0,0,0,0,0,0,0,0,0,0,0,0,0,0,0,0,0,0,0,0,0,0,0,0,0,0,0,0,0,0,0,0,0,0,
1656,0,4090,0,4091,0,1656,0,1656,0,1656,0,1656,0,1656,0,1656,0,1656,0,1656,0,1656,0,4098,0,4099,0,4099,0,4099,0,4099,0,4099,0,4100,0,4101,0,4094,0,1656,0,
0,0,0,0,0,0,0,0,0,0,0,0,0,0,0,0,0,0,0,0,0,0,0,0,0,0,0,0,0,0,0,0,0,0,0,0,0,0,0,0,0,0,0,0,
1656,0,4090,0,4091,0,1656,0,1656,0,1656,0,1656,0,1656,0,1656,0,1656,0,1656,0,1656,0,4162,0,4163,0,4163,0,4163,0,4163,0,4163,0,4164,0,4165,0,4094,0,1656,0,
0,0,0,0,0,0,0,0,0,0,0,0,0,0,0,0,0,0,0,0,0,0,0,0,0,0,0,0,0,0,0,0,0,0,0,0,0,0,0,0,0,0,0,0,
1656,0,4090,0,4091,0,1656,0,1656,0,1656,0,1656,0,1656,0,1656,0,1656,0,1656,0,1656,0,1656,0,1656,0,1656,0,1656,0,1656,0,1656,0,1656,0,4093,0,4094,0,1656,0,
0,0,0,0,0,0,0,0,0,0,0,0,0,0,0,0,0,0,0,0,0,0,0,0,0,0,0,0,0,0,0,0,0,0,0,0,0,0,0,0,0,0,0,0,
1656,0,4090,0,4091,0,1656,0,1656,0,1656,0,1656,0,1656,0,1656,0,1656,0,1656,0,1656,0,1656,0,1656,0,1656,0,1656,0,1656,0,1656,0,1656,0,4093,0,4094,0,1656,0,
0,0,0,0,0,0,0,0,0,0,0,0,0,0,0,0,0,0,0,0,0,0,0,0,0,0,0,0,0,0,0,0,0,0,0,0,0,0,0,0,0,0,0,0,
1656,0,4090,0,4091,0,1656,0,1656,0,1656,0,1656,0,1656,0,1656,0,1656,0,1656,0,1656,0,1656,0,1656,0,1656,0,1656,0,1656,0,1656,0,1656,0,4093,0,4094,0,1656,0,
0,0,0,0,0,0,0,0,0,0,0,0,0,0,0,0,0,0,0,0,0,0,0,0,0,0,0,0,0,0,0,0,0,0,0,0,0,0,0,0,0,0,0,0,
1656,0,4090,0,4091,0,1656,0,1656,0,1656,0,1656,0,1656,0,1656,0,1656,0,1656,0,1656,0,1656,0,1656,0,1656,0,1656,0,1656,0,1656,0,1656,0,4159,0,4094,0,1656,0,
0,0,0,0,0,0,0,0,0,0,0,0,0,0,0,0,0,0,0,0,0,0,0,0,0,0,0,0,0,0,0,0,0,0,0,0,0,0,0,0,0,0,0,0,
1656,0,4090,0,4095,0,1656,0,1656,0,1656,0,1656,0,1656,0,1656,0,1656,0,1656,0,1656,0,1656,0,1656,0,1656,0,1656,0,1656,0,1656,0,1656,0,4093,0,4094,0,1656,0,
0,0,0,0,0,0,0,0,0,0,0,0,0,0,0,0,0,0,0,0,0,0,0,0,0,0,0,0,0,0,0,0,0,0,0,0,0,0,0,0,0,0,0,0,
1656,0,4090,0,4091,0,1656,0,1656,0,1656,0,1656,0,1656,0,1656,0,1656,0,1656,0,1656,0,1656,0,1656,0,1656,0,1656,0,1656,0,1656,0,1656,0,4093,0,4094,0,1656,0,
0,0,0,0,0,0,0,0,0,0,0,0,0,0,0,0,0,0,0,0,0,0,0,0,0,0,0,0,0,0,0,0,0,0,0,0,0,0,0,0,0,0,0,0,
1656,0,4090,0,4091,0,1656,0,1656,0,1656,0,1656,0,1656,0,1656,0,1656,0,1656,0,1656,0,1656,0,1656,0,1656,0,1656,0,1656,0,1656,0,1656,0,4093,0,4094,0,1656,0,
0,0,0,0,0,0,0,0,0,0,0,0,0,0,0,0,0,0,0,0,0,0,0,0,0,0,0,0,0,0,0,0,0,0,0,0,0,0,0,0,0,0,0,0,
1656,0,4090,0,4091,0,1656,0,1656,0,1656,0,1656,0,1656,0,1656,0,1656,0,1656,0,1656,0,1656,0,1656,0,1656,0,1656,0,1656,0,1656,0,1656,0,4093,0,4094,0,1656,0,
0,0,0,0,0,0,0,0,0,0,0,0,0,0,0,0,0,0,0,0,0,0,0,0,0,0,0,0,0,0,0,0,0,0,0,0,0,0,0,0,0,0,0,0,
1656,0,4090,0,4091,0,1656,0,1656,0,1656,0,1656,0,1656,0,1656,0,1656,0,1656,0,1656,0,1656,0,1656,0,1656,0,1656,0,1656,0,1656,0,1656,0,4093,0,4094,0,1656,0,
0,0,0,0,0,0,0,0,0,0,0,0,0,0,0,0,0,0,0,0,0,0,0,0,0,0,0,0,0,0,0,0,0,0,0,0,0,0,0,0,0,0,0,0,
1656,0,4090,0,4095,0,1656,0,1656,0,1656,0,1656,0,1656,0,1656,0,1656,0,1656,0,1656,0,1656,0,1656,0,1656,0,1656,0,1656,0,1656,0,1656,0,4159,0,4094,0,1656,0,
0,0,0,0,0,0,0,0,0,0,0,0,0,0,0,0,0,0,0,0,0,0,0,0,0,0,0,0,0,0,0,0,0,0,0,0,0,0,0,0,0,0,0,0,
1656,0,4090,0,4091,0,1656,0,1656,0,1656,0,1656,0,1656,0,1656,0,1656,0,1656,0,1656,0,1656,0,1656,0,1656,0,1656,0,1656,0,1656,0,1656,0,4093,0,4094,0,1656,0,
0,0,0,0,0,0,0,0,0,0,0,0,0,0,0,0,0,0,0,0,0,0,0,0,0,0,0,0,0,0,0,0,0,0,0,0,0,0,0,0,0,0,0,0,
1656,0,4090,0,4091,0,1656,0,1656,0,1656,0,1656,0,1656,0,1656,0,1656,0,1656,0,1656,0,1656,0,1656,0,1656,0,1656,0,1656,0,1656,0,1656,0,4093,0,4094,0,1656,0,
0,0,0,0,0,0,0,0,0,0,0,0,0,0,0,0,0,0,0,0,0,0,0,0,0,0,0,0,0,0,0,0,0,0,0,0,0,0,0,0,0,0,0,0,
1656,0,4090,0,4091,0,1656,0,1656,0,1656,0,1656,0,1656,0,1656,0,1656,0,1656,0,1656,0,1656,0,1656,0,1656,0,1656,0,1656,0,1656,0,1656,0,4093,0,4094,0,1656,0,
0,0,0,0,0,0,0,0,0,0,0,0,0,0,0,0,0,0,0,0,0,0,0,0,0,0,0,0,0,0,0,0,0,0,0,0,0,0,0,0,0,0,0,0,
1656,0,4090,0,4091,0,1656,0,1656,0,1656,0,1656,0,1656,0,1656,0,1656,0,1656,0,1656,0,1656,0,1656,0,1656,0,1656,0,1656,0,1656,0,1656,0,4093,0,4094,0,1656,0,
0,0,0,0,0,0,0,0,0,0,0,0,0,0,0,0,0,0,0,0,0,0,0,0,0,0,0,0,0,0,0,0,0,0,0,0,0,0,0,0,0,0,0,0,
1656,0,4154,0,4155,0,4156,0,4031,0,4156,0,4096,0,4097,0,4156,0,4156,0,4031,0,4156,0,4156,0,4156,0,4156,0,4156,0,4031,0,4156,0,4156,0,4157,0,4158,0,1656,0,
0,0,0,0,0,0,0,0,0,0,0,0,0,0,0,0,0,0,0,0,0,0,0,0,0,0,0,0,0,0,0,0,0,0,0,0,0,0,0,0,0,0,0,0,
1656,0,4218,0,4219,0,4220,0,4220,0,4220,0,4160,0,4161,0,4220,0,4220,0,4220,0,4220,0,4220,0,4220,0,4220,0,4220,0,4220,0,4220,0,4220,0,4221,0,4222,0,1656,0,
0,0,0,0,0,0,0,0,0,0,0,0,0,0,0,0,0,0,0,0,0,0,0,0,0,0,0,0,0,0,0,0,0,0,0,0,0,0,0,0,0,0,0,0,
1656,0,1656,0,1656,0,1656,0,1656,0,1656,0,1656,0,1656,0,1656,0,1656,0,1656,0,1656,0,1656,0,1656,0,1656,0,1656,0,1656,0,1656,0,1656,0,1656,0,1656,0,1656,0,
0,0,0,0,0,0,0,0,0,0,0,0,0,0,0,0,0,0,0,0,0,0,0,0,0,0,0,0,0,0,0,0,0,0,0,0,0,0,0,0,0,0,0,0
</data>
  </layer>
 </group>
 <objectgroup draworder="index" id="12" name="Lighting" visible="0">
  <object id="29" template="../../../templates/system/lighting/lights/obj_light_med.tx" type="obj_light_med" x="256" y="242"/>
  <object id="30" template="../../../templates/system/lighting/lights/obj_light_med.tx" type="obj_light_med" x="256" y="298"/>
  <object id="31" template="../../../templates/system/lighting/lights/obj_light_med.tx" type="obj_light_med" x="128" y="161"/>
 </objectgroup>
 <layer id="13" name="FootstepTiles" width="44" height="44" visible="0">
  <properties>
   <property name="maybe_animation_id" value="9b6388374855b54b"/>
   <property name="maybe_tileset_id" value="5fc72aa2902dea7"/>
   <property name="tile_size" type="int" value="16"/>
  </properties>
  <data encoding="csv">
0,0,0,0,0,0,0,0,0,0,0,0,0,0,0,0,0,0,0,0,0,0,0,0,0,0,0,0,0,0,0,0,0,0,0,0,0,0,0,0,0,0,0,0,
0,0,0,0,0,0,0,0,0,0,0,0,0,0,0,0,0,0,0,0,0,0,0,0,0,0,0,0,0,0,0,0,0,0,0,0,0,0,0,0,0,0,0,0,
0,0,0,0,0,0,0,0,0,0,0,0,0,0,0,0,0,0,0,0,0,0,0,0,0,0,0,0,0,0,0,0,0,0,0,0,0,0,0,0,0,0,0,0,
0,0,0,0,0,0,0,0,0,0,0,0,0,0,0,0,0,0,0,0,0,0,0,0,0,0,0,0,0,0,0,0,0,0,0,0,0,0,0,0,0,0,0,0,
0,0,0,0,0,0,0,0,0,0,0,0,0,0,0,0,0,0,0,0,0,0,0,0,0,0,0,0,0,0,0,0,0,0,0,0,0,0,0,0,0,0,0,0,
0,0,0,0,0,0,0,0,0,0,0,0,0,0,0,0,0,0,0,0,0,0,0,0,0,0,0,0,0,0,0,0,0,0,0,0,0,0,0,0,0,0,0,0,
0,0,0,0,0,0,0,0,0,0,0,0,0,0,0,0,0,0,0,0,0,0,0,0,0,0,0,0,0,0,0,0,0,0,0,0,0,0,0,0,0,0,0,0,
0,0,0,0,0,0,0,0,0,0,0,0,0,0,0,0,0,0,0,0,0,0,0,0,0,0,0,0,0,0,0,0,0,0,0,0,0,0,0,0,0,0,0,0,
0,0,0,0,0,0,0,0,0,0,0,0,0,0,0,0,0,0,0,0,0,0,0,0,0,0,0,0,0,0,0,0,0,0,0,0,0,0,0,0,0,0,0,0,
0,0,0,0,0,0,0,0,0,0,0,0,0,0,0,0,0,0,0,0,0,0,0,0,0,0,0,0,0,0,0,0,0,0,0,0,0,0,0,0,0,0,0,0,
0,0,0,0,0,0,0,0,0,0,0,0,0,0,0,0,0,0,0,0,0,0,0,0,0,0,0,0,0,0,0,0,0,0,0,0,0,0,0,0,0,0,0,0,
0,0,0,0,0,0,0,0,0,0,0,0,0,0,0,0,0,0,0,0,0,0,0,0,0,0,0,0,0,0,0,0,0,0,0,0,0,0,0,0,0,0,0,0,
0,0,0,0,1514,0,1514,0,1514,0,1514,0,1514,0,1514,0,1515,0,1515,0,0,0,0,0,0,0,0,0,0,0,0,0,0,0,0,0,0,0,0,0,0,0,0,0,
0,0,0,0,0,0,0,0,0,0,0,0,0,0,0,0,0,0,0,0,0,0,0,0,0,0,0,0,0,0,0,0,0,0,0,0,0,0,0,0,0,0,0,0,
0,0,0,0,1514,0,1514,0,1513,0,1514,0,1514,0,1514,0,1515,0,1515,0,0,0,0,0,0,0,0,0,0,0,0,0,0,0,0,0,0,0,0,0,0,0,0,0,
0,0,0,0,0,0,0,0,0,0,0,0,0,0,0,0,0,0,0,0,0,0,0,0,0,0,0,0,0,0,0,0,0,0,0,0,0,0,0,0,0,0,0,0,
0,0,0,0,1514,0,1514,0,1514,0,1514,0,1514,0,1514,0,1514,0,1514,0,1514,0,1514,0,1514,0,1514,0,1514,0,1514,0,1514,0,1514,0,1514,0,1514,0,0,0,0,0,
0,0,0,0,0,0,0,0,0,0,0,0,0,0,0,0,0,0,0,0,0,0,0,0,0,0,0,0,0,0,0,0,0,0,0,0,0,0,0,0,0,0,0,0,
0,0,0,0,1514,0,1514,0,1514,0,1514,0,1514,0,1514,0,1514,0,1514,0,1514,0,1514,0,1514,0,1514,0,1514,0,1514,0,1514,0,1514,0,1514,0,1514,0,0,0,0,0,
0,0,0,0,0,0,0,0,0,0,0,0,0,0,0,0,0,0,0,0,0,0,0,0,0,0,0,0,0,0,0,0,0,0,0,0,0,0,0,0,0,0,0,0,
0,0,0,0,1514,0,1514,0,1514,0,1514,0,1514,0,1514,0,1514,0,1514,0,1514,0,1514,0,1514,0,1514,0,1514,0,1514,0,1514,0,1514,0,1514,0,1514,0,0,0,0,0,
0,0,0,0,0,0,0,0,0,0,0,0,0,0,0,0,0,0,0,0,0,0,0,0,0,0,0,0,0,0,0,0,0,0,0,0,0,0,0,0,0,0,0,0,
0,0,0,0,1514,0,1514,0,1514,0,1514,0,1514,0,1514,0,1514,0,1514,0,1514,0,1514,0,1515,0,1515,0,1515,0,1515,0,1515,0,1515,0,1515,0,1514,0,0,0,0,0,
0,0,0,0,0,0,0,0,0,0,0,0,0,0,0,0,0,0,0,0,0,0,0,0,0,0,0,0,0,0,0,0,0,0,0,0,0,0,0,0,0,0,0,0,
0,0,0,0,1514,0,1514,0,1515,0,1515,0,1515,0,1515,0,1515,0,1514,0,1514,0,1514,0,1515,0,1515,0,1515,0,1515,0,1515,0,1515,0,1515,0,1514,0,0,0,0,0,
0,0,0,0,0,0,0,0,0,0,0,0,0,0,0,0,0,0,0,0,0,0,0,0,0,0,0,0,0,0,0,0,0,0,0,0,0,0,0,0,0,0,0,0,
0,0,0,0,1514,0,1514,0,1515,0,1515,0,1515,0,1515,0,1515,0,1514,0,1514,0,1514,0,1515,0,1515,0,1515,0,1515,0,1515,0,1515,0,1515,0,1514,0,0,0,0,0,
0,0,0,0,0,0,0,0,0,0,0,0,0,0,0,0,0,0,0,0,0,0,0,0,0,0,0,0,0,0,0,0,0,0,0,0,0,0,0,0,0,0,0,0,
0,0,0,0,1514,0,1514,0,1514,0,1514,0,1514,0,1514,0,1514,0,1514,0,1514,0,1514,0,1515,0,1515,0,1515,0,1515,0,1515,0,1515,0,1515,0,1514,0,0,0,0,0,
0,0,0,0,0,0,0,0,0,0,0,0,0,0,0,0,0,0,0,0,0,0,0,0,0,0,0,0,0,0,0,0,0,0,0,0,0,0,0,0,0,0,0,0,
0,0,0,0,1514,0,1514,0,1514,0,1514,0,1514,0,1514,0,1514,0,1514,0,1514,0,1514,0,1515,0,1515,0,1515,0,1515,0,1515,0,1515,0,1515,0,1514,0,0,0,0,0,
0,0,0,0,0,0,0,0,0,0,0,0,0,0,0,0,0,0,0,0,0,0,0,0,0,0,0,0,0,0,0,0,0,0,0,0,0,0,0,0,0,0,0,0,
0,0,0,0,1514,0,1514,0,1514,0,1514,0,1514,0,1514,0,1514,0,1514,0,1514,0,1514,0,1515,0,1515,0,1515,0,1515,0,1515,0,1515,0,1515,0,1514,0,0,0,0,0,
0,0,0,0,0,0,0,0,0,0,0,0,0,0,0,0,0,0,0,0,0,0,0,0,0,0,0,0,0,0,0,0,0,0,0,0,0,0,0,0,0,0,0,0,
0,0,0,0,1514,0,1514,0,1514,0,1514,0,1514,0,1514,0,1514,0,1514,0,1514,0,1514,0,1515,0,1515,0,1515,0,1515,0,1515,0,1515,0,1515,0,1514,0,0,0,0,0,
0,0,0,0,0,0,0,0,0,0,0,0,0,0,0,0,0,0,0,0,0,0,0,0,0,0,0,0,0,0,0,0,0,0,0,0,0,0,0,0,0,0,0,0,
0,0,0,0,1514,0,1514,0,1514,0,1514,0,1515,0,1515,0,1514,0,1514,0,1514,0,1514,0,1514,0,1514,0,1514,0,1514,0,1514,0,1514,0,1514,0,1514,0,0,0,0,0,
0,0,0,0,0,0,0,0,0,0,0,0,0,0,0,0,0,0,0,0,0,0,0,0,0,0,0,0,0,0,0,0,0,0,0,0,0,0,0,0,0,0,0,0,
0,0,0,0,1514,0,1514,0,1514,0,1514,0,1514,0,1514,0,1514,0,1514,0,1514,0,1514,0,1514,0,1514,0,1514,0,1514,0,1514,0,1514,0,1514,0,1514,0,0,0,0,0,
0,0,0,0,0,0,0,0,0,0,0,0,0,0,0,0,0,0,0,0,0,0,0,0,0,0,0,0,0,0,0,0,0,0,0,0,0,0,0,0,0,0,0,0,
0,0,0,0,1514,0,1514,0,1514,0,1514,0,1514,0,1514,0,1514,0,1514,0,1514,0,1514,0,1514,0,1514,0,1514,0,1514,0,1514,0,1514,0,1514,0,1514,0,0,0,0,0,
0,0,0,0,0,0,0,0,0,0,0,0,0,0,0,0,0,0,0,0,0,0,0,0,0,0,0,0,0,0,0,0,0,0,0,0,0,0,0,0,0,0,0,0,
0,0,0,0,1514,0,1514,0,1514,0,1514,0,1514,0,1514,0,1514,0,1514,0,1514,0,1514,0,1514,0,1514,0,1514,0,1514,0,1514,0,1514,0,1514,0,1514,0,0,0,0,0,
0,0,0,0,0,0,0,0,0,0,0,0,0,0,0,0,0,0,0,0,0,0,0,0,0,0,0,0,0,0,0,0,0,0,0,0,0,0,0,0,0,0,0,0
</data>
 </layer>
 <layer id="14" name="Tiles_Collision" width="44" height="44" visible="0">
  <properties>
   <property name="maybe_animation_id" value="d5b5e9552171fe70"/>
   <property name="maybe_tileset_id" value="b29026a2ad0be741"/>
   <property name="tile_size" type="int" value="8"/>
  </properties>
  <data encoding="csv">
1508,1508,1508,1508,1508,1508,1508,1508,1508,1508,1508,1508,1508,1508,1508,1508,1508,1508,1508,1508,1508,1508,1508,1508,1508,1508,1508,1508,1508,1508,1508,1508,1508,1508,1508,1508,1508,1508,1508,1508,1508,1508,1508,1508,
1508,1508,1508,1508,1508,1508,1508,1508,1508,1508,1508,1508,1508,1508,1508,1508,1508,1508,1508,1508,1508,1508,1508,1508,1508,1508,1508,1508,1508,1508,1508,1508,1508,1508,1508,1508,1508,1508,1508,1508,1508,1508,1508,1508,
1508,1508,1508,1508,1508,1508,1508,1508,1508,1508,1508,1508,1508,1508,1508,1508,1508,1508,1508,1508,1508,1508,1508,1508,1508,1508,1508,1508,1508,1508,1508,1508,1508,1508,1508,1508,1508,1508,1508,1508,1508,1508,1508,1508,
1508,1508,1508,1508,1508,1508,1508,1508,1508,1508,1508,1508,1508,1508,1508,1508,1508,1508,1508,1508,1508,1508,1508,1508,1508,1508,1508,1508,1508,1508,1508,1508,1508,1508,1508,1508,1508,1508,1508,1508,1508,1508,1508,1508,
1508,1508,1508,1508,1508,1508,1508,1508,1508,1508,1508,1508,1508,1508,1508,1508,1508,1508,1508,1508,1508,1508,1508,1508,1508,1508,1508,1508,1508,1508,1508,1508,1508,1508,1508,1508,1508,1508,1508,1508,1508,1508,1508,1508,
1508,1508,1508,1508,1508,1508,1508,1508,1508,1508,1508,1508,1508,1508,1508,1508,1508,1508,1508,1508,1508,1508,1508,1508,1508,1508,1508,1508,1508,1508,1508,1508,1508,1508,1508,1508,1508,1508,1508,1508,1508,1508,1508,1508,
1508,1508,1508,1508,1508,1508,1508,1508,1508,1508,1508,1508,1508,1508,1508,1508,1508,1508,1508,1508,1508,1508,1508,1508,1508,1508,1508,1508,1508,1508,1508,1508,1508,1508,1508,1508,1508,1508,1508,1508,1508,1508,1508,1508,
1508,1508,1508,1508,1508,1508,1508,1508,1508,1508,1508,1508,1508,1508,1508,1508,1508,1508,1508,1508,1508,1508,1508,1508,1508,1508,1508,1508,1508,1508,1508,1508,1508,1508,1508,1508,1508,1508,1508,1508,1508,1508,1508,1508,
1508,1508,1508,1508,1508,1508,1508,1508,1508,1508,1508,1508,1508,1508,1508,1508,1508,1508,1508,1508,1508,1508,1508,1508,1508,1508,1508,1508,1508,1508,1508,1508,1508,1508,1508,1508,1508,1508,1508,1508,1508,1508,1508,1508,
1508,1508,1508,1508,1508,1508,1508,1508,1508,1508,1508,1508,1508,1508,1508,1508,1508,1508,1508,1508,1508,1508,1508,1508,1508,1508,1508,1508,1508,1508,1508,1508,1508,1508,1508,1508,1508,1508,1508,1508,1508,1508,1508,1508,
1508,1508,1508,1508,1508,1508,1508,1508,1508,1508,1508,1508,1508,1508,1508,1508,1508,1508,1508,1508,1508,1508,1508,1508,1508,1508,1508,1508,1508,1508,1508,1508,1508,1508,1508,1508,1508,1508,1508,1508,1508,1508,1508,1508,
1508,1508,1508,1508,1508,1508,1508,1508,1508,1508,1508,1508,1508,1508,1508,1508,1508,1508,1508,1508,1508,1508,1508,1508,1508,1508,1508,1508,1508,1508,1508,1508,1508,1508,1508,1508,1508,1508,1508,1508,1508,1508,1508,1508,
1508,1508,1508,1508,1508,1508,1508,1508,1508,1508,1508,1508,1508,1508,1508,1508,1508,1508,1508,1505,1505,1508,1508,1508,1508,1508,1508,1508,1508,1508,1508,1508,1508,1508,1508,1508,1508,1508,1508,1508,1508,1508,1508,1508,
1508,1508,1508,1508,1508,1508,1505,1505,1505,1505,1505,1505,1505,1505,1505,1505,1505,1505,1505,1505,1505,1508,1508,1508,1508,1508,1508,1508,1508,1508,1508,1508,1508,1508,1508,1508,1508,1508,1508,1508,1508,1508,1508,1508,
1508,1508,1508,1508,1508,1508,1505,1505,1505,1505,1505,1505,1505,1505,1505,1505,1505,1505,1505,1505,1508,1508,1508,1508,1508,1508,1508,1508,1508,1508,1508,1508,1508,1508,1508,1508,1508,1508,1508,1508,1508,1508,1508,1508,
1508,1508,1508,1508,1508,1508,1505,1505,1505,1505,1505,1505,1505,1505,1505,1505,1505,1505,1505,1508,1508,1508,1508,1508,1508,1508,1508,1508,1508,1508,1508,1508,1508,1508,1508,1508,1508,1508,1508,1508,1508,1508,1508,1508,
1508,1508,1508,1508,1508,1508,1505,1505,1505,1505,1505,1505,1505,1505,1505,1505,1505,1505,1505,1508,1508,1508,1508,1508,1508,1508,1508,1508,1508,1508,1508,1508,1508,1508,1508,1508,1508,1508,1508,1508,1508,1508,1508,1508,
1508,1508,1508,1508,1508,1508,1505,1505,1505,1505,1505,1505,1505,1505,1505,1505,1505,1505,1505,1505,1505,1505,1505,1505,1505,1505,1505,1505,1505,1507,1507,1505,1505,1505,1505,1505,1505,1505,1508,1508,1508,1508,1508,1508,
1508,1508,1508,1508,1508,1508,1505,1505,1505,1505,1505,1505,1505,1505,1505,1505,1505,1505,1505,1505,1505,1505,1505,1505,1505,1505,1505,1505,1505,1505,1505,1505,1505,1505,1505,1505,1505,1505,1508,1508,1508,1508,1508,1508,
1508,1508,1508,1508,1508,1508,1505,1505,1505,1505,1505,1505,1505,1505,1505,1505,1505,1505,1505,1505,1505,1505,1505,1505,1505,1505,1505,1505,1505,1505,1505,1505,1505,1505,1505,1505,1505,1505,1508,1508,1508,1508,1508,1508,
1508,1508,1508,1508,1508,1508,1505,1505,1505,1505,1505,1505,1505,1505,1505,1505,1505,1505,1505,1505,1505,1505,1505,1505,1505,1505,1505,1505,1505,1505,1505,1505,1505,1505,1505,1505,1505,1505,1508,1508,1508,1508,1508,1508,
1508,1508,1508,1508,1508,1508,1505,1505,1508,1508,1508,1507,1507,1507,1507,1507,1507,1507,1507,1505,1505,1505,1505,1505,1505,1505,1505,1505,1505,1505,1505,1505,1505,1505,1505,1505,1505,1505,1508,1508,1508,1508,1508,1508,
1508,1508,1508,1508,1508,1508,1508,1508,1508,1508,1508,1507,1507,1507,1507,1507,1507,1507,1507,1508,1508,1508,1505,1505,1505,1508,1508,1508,1508,1508,1508,1508,1508,1508,1508,1508,1505,1505,1508,1508,1508,1508,1508,1508,
1508,1508,1508,1508,1508,1508,1508,1508,1508,1508,1508,1507,1507,1507,1507,1507,1507,1507,1507,1508,1508,1508,1505,1505,1505,1508,1508,1508,1508,1508,1508,1508,1508,1508,1508,1508,1505,1505,1508,1508,1508,1508,1508,1508,
1508,1508,1508,1508,1508,1508,1505,1505,1505,1505,1505,1505,1505,1505,1505,1505,1505,1505,1505,1505,1505,1505,1505,1505,1505,1505,1505,1505,1505,1505,1505,1508,1508,1508,1508,1505,1505,1505,1508,1508,1508,1508,1508,1508,
1508,1508,1508,1508,1508,1508,1505,1505,1505,1505,1505,1505,1505,1505,1505,1505,1505,1505,1505,1505,1505,1505,1505,1505,1505,1505,1505,1505,1505,1505,1505,1505,1505,1505,1505,1505,1505,1505,1508,1508,1508,1508,1508,1508,
1508,1508,1508,1508,1508,1508,1505,1505,1505,1505,1505,1505,1505,1505,1505,1505,1505,1505,1505,1505,1505,1505,1505,1505,1505,1505,1505,1505,1505,1505,1505,1507,1507,1507,1507,1505,1505,1505,1508,1508,1508,1508,1508,1508,
1508,1508,1508,1508,1508,1508,1507,1507,1507,1505,1505,1505,1505,1505,1505,1505,1505,1505,1505,1505,1505,1505,1505,1505,1505,1505,1505,1505,1505,1505,1505,1507,1507,1507,1507,1505,1505,1505,1508,1508,1508,1508,1508,1508,
1508,1508,1508,1508,1508,1508,1505,1505,1505,1505,1505,1505,1505,1505,1505,1505,1505,1505,1505,1505,1505,1505,1505,1505,1505,1505,1505,1505,1505,1505,1505,1505,1505,1505,1505,1505,1505,1505,1508,1508,1508,1508,1508,1508,
1508,1508,1508,1508,1508,1508,1505,1505,1505,1505,1505,1505,1505,1505,1505,1505,1505,1505,1505,1505,1505,1505,1505,1505,1505,1508,1508,1508,1508,1508,1508,1508,1508,1508,1508,1508,1505,1505,1508,1508,1508,1508,1508,1508,
1508,1508,1508,1508,1508,1508,1507,1507,1507,1505,1505,1505,1505,1505,1505,1505,1505,1505,1505,1505,1505,1505,1505,1505,1505,1508,1508,1508,1508,1508,1508,1508,1508,1508,1508,1508,1505,1505,1508,1508,1508,1508,1508,1508,
1508,1508,1508,1508,1508,1508,1505,1505,1505,1505,1505,1505,1505,1505,1505,1505,1505,1505,1505,1505,1505,1505,1505,1505,1505,1505,1505,1505,1505,1505,1505,1508,1508,1508,1508,1505,1505,1505,1508,1508,1508,1508,1508,1508,
1508,1508,1508,1508,1508,1508,1505,1505,1505,1505,1505,1505,1505,1505,1505,1505,1505,1505,1505,1505,1505,1505,1505,1505,1505,1505,1505,1505,1505,1505,1505,1505,1505,1505,1505,1505,1505,1505,1508,1508,1508,1508,1508,1508,
1508,1508,1508,1508,1508,1508,1507,1507,1507,1505,1505,1505,1505,1505,1505,1505,1505,1505,1505,1505,1505,1505,1505,1505,1505,1505,1505,1505,1505,1505,1505,1507,1507,1507,1507,1505,1505,1505,1508,1508,1508,1508,1508,1508,
1508,1508,1508,1508,1508,1508,1505,1505,1505,1505,1505,1505,1505,1505,1505,1505,1505,1505,1505,1505,1505,1505,1505,1505,1505,1505,1505,1505,1505,1505,1505,1507,1507,1507,1507,1505,1505,1505,1508,1508,1508,1508,1508,1508,
1508,1508,1508,1508,1508,1508,1505,1505,1505,1505,1505,1505,1505,1505,1505,1505,1505,1505,1505,1505,1505,1505,1505,1505,1505,1505,1505,1505,1505,1505,1505,1505,1505,1505,1505,1505,1505,1505,1508,1508,1508,1508,1508,1508,
1508,1508,1508,1508,1508,1508,1505,1505,1505,1505,1505,1505,1505,1505,1505,1505,1505,1505,1505,1505,1505,1505,1505,1505,1505,1505,1505,1505,1505,1505,1505,1505,1505,1505,1505,1505,1505,1505,1508,1508,1508,1508,1508,1508,
1508,1508,1508,1508,1508,1508,1508,1508,1508,1505,1505,1505,1505,1505,1505,1505,1505,1505,1505,1505,1505,1505,1505,1505,1505,1505,1505,1505,1505,1505,1505,1505,1505,1505,1505,1505,1505,1505,1508,1508,1508,1508,1508,1508,
1508,1508,1508,1508,1508,1508,1508,1508,1508,1508,1508,1508,1508,1505,1505,1508,1508,1508,1508,1508,1508,1508,1508,1508,1508,1508,1508,1508,1508,1508,1508,1508,1508,1508,1508,1508,1508,1508,1508,1508,1508,1508,1508,1508,
1508,1508,1508,1508,1508,1508,1508,1508,1508,1508,1508,1508,1508,1505,1505,1508,1508,1508,1508,1508,1508,1508,1508,1508,1508,1508,1508,1508,1508,1508,1508,1508,1508,1508,1508,1508,1508,1508,1508,1508,1508,1508,1508,1508,
1508,1508,1508,1508,1508,1508,1508,1508,1508,1508,1508,1508,1508,1505,1505,1508,1508,1508,1508,1508,1508,1508,1508,1508,1508,1508,1508,1508,1508,1508,1508,1508,1508,1508,1508,1508,1508,1508,1508,1508,1508,1508,1508,1508,
1508,1508,1508,1508,1508,1508,1508,1508,1508,1508,1508,1508,1508,1505,1505,1508,1508,1508,1508,1508,1508,1508,1508,1508,1508,1508,1508,1508,1508,1508,1508,1508,1508,1508,1508,1508,1508,1508,1508,1508,1508,1508,1508,1508,
1508,1508,1508,1508,1508,1508,1508,1508,1508,1508,1508,1508,1508,1505,1505,1508,1508,1508,1508,1508,1508,1508,1508,1508,1508,1508,1508,1508,1508,1508,1508,1508,1508,1508,1508,1508,1508,1508,1508,1508,1508,1508,1508,1508,
1508,1508,1508,1508,1508,1508,1508,1508,1508,1508,1508,1508,1508,1505,1505,1508,1508,1508,1508,1508,1508,1508,1508,1508,1508,1508,1508,1508,1508,1508,1508,1508,1508,1508,1508,1508,1508,1508,1508,1508,1508,1508,1508,1508
</data>
 </layer>
 <layer id="15" name="Tiles_Rules" width="44" height="44">
  <properties>
   <property name="maybe_animation_id" value="f525790c1101b1a1"/>
   <property name="maybe_tileset_id" value="a3b6ca91b299d4f5"/>
   <property name="tile_size" type="int" value="8"/>
  </properties>
  <data encoding="csv">
0,0,0,0,0,0,0,0,0,0,0,0,0,0,0,0,0,0,0,0,0,0,0,0,0,0,0,0,0,0,0,0,0,0,0,0,0,0,0,0,0,0,0,0,
0,0,0,0,0,0,0,0,0,0,0,0,0,0,0,0,0,0,0,0,0,0,0,0,0,0,0,0,0,0,0,0,0,0,0,0,0,0,0,0,0,0,0,0,
0,0,0,0,0,0,0,0,0,0,0,0,0,0,0,0,0,0,0,0,0,0,0,0,0,0,0,0,0,0,0,0,0,0,0,0,0,0,0,0,0,0,0,0,
0,0,0,0,0,0,0,0,0,0,0,0,0,0,0,0,0,0,0,0,0,0,0,0,0,0,0,0,0,0,0,0,0,0,0,0,0,0,0,0,0,0,0,0,
0,0,0,0,0,0,0,0,0,0,0,0,0,0,0,0,0,0,0,0,0,0,0,0,0,0,0,0,0,0,0,0,0,0,0,0,0,0,0,0,0,0,0,0,
0,0,0,0,0,0,0,0,0,0,0,0,0,0,0,0,0,0,0,0,0,0,0,0,0,0,0,0,0,0,0,0,0,0,0,0,0,0,0,0,0,0,0,0,
0,0,0,0,0,0,0,0,0,0,0,0,0,0,0,0,0,0,0,0,0,0,0,0,0,0,0,0,0,0,0,0,0,0,0,0,0,0,0,0,0,0,0,0,
0,0,0,0,0,0,0,0,0,0,0,0,0,0,0,0,0,0,0,0,0,0,0,0,0,0,0,0,0,0,0,0,0,0,0,0,0,0,0,0,0,0,0,0,
0,0,0,0,0,0,0,0,0,0,0,0,0,0,0,0,0,0,0,0,0,0,0,0,0,0,0,0,0,0,0,0,0,0,0,0,0,0,0,0,0,0,0,0,
0,0,0,0,0,0,0,0,0,0,0,0,0,0,0,0,0,0,0,0,0,0,0,0,0,0,0,0,0,0,0,0,0,0,0,0,0,0,0,0,0,0,0,0,
0,0,0,0,0,0,0,0,0,0,0,0,0,0,0,0,0,0,0,0,0,0,0,0,0,0,0,0,0,0,0,0,0,0,0,0,0,0,0,0,0,0,0,0,
0,0,0,0,0,0,0,0,0,0,0,0,0,0,0,0,0,0,0,0,0,0,0,0,0,0,0,0,0,0,0,0,0,0,0,0,0,0,0,0,0,0,0,0,
0,0,0,0,0,0,0,0,0,0,0,0,0,0,0,0,0,0,0,0,0,0,0,0,0,0,0,0,0,0,0,0,0,0,0,0,0,0,0,0,0,0,0,0,
0,0,0,0,0,0,0,0,0,0,0,0,0,0,0,0,0,0,0,0,0,0,0,0,0,0,0,0,0,0,0,0,0,0,0,0,0,0,0,0,0,0,0,0,
0,0,0,0,0,0,0,0,0,0,0,0,0,0,0,0,0,0,0,0,0,0,0,0,0,0,0,0,0,0,0,0,0,0,0,0,0,0,0,0,0,0,0,0,
0,0,0,0,0,0,0,0,0,0,0,0,0,0,0,0,0,0,0,0,0,0,0,0,0,0,0,0,0,0,0,0,0,0,0,0,0,0,0,0,0,0,0,0,
0,0,0,0,0,0,0,0,0,0,0,0,0,0,0,0,0,0,0,0,0,0,0,0,0,0,0,0,0,0,0,0,0,0,0,0,0,0,0,0,0,0,0,0,
0,0,0,0,0,0,0,0,0,0,0,0,0,0,0,0,0,0,0,0,0,0,0,0,0,0,0,0,0,0,0,0,0,0,0,0,0,0,0,0,0,0,0,0,
0,0,0,0,0,0,0,0,0,0,0,0,0,0,0,0,0,0,0,0,0,0,0,0,0,0,0,0,0,0,0,0,0,0,0,0,0,0,0,0,0,0,0,0,
0,0,0,0,0,0,0,0,0,0,0,0,0,0,0,0,0,0,0,0,0,0,0,0,0,0,0,0,0,0,0,0,0,0,0,0,0,0,0,0,0,0,0,0,
0,0,0,0,0,0,0,0,0,0,0,0,0,0,0,0,0,0,0,0,0,0,0,0,0,0,0,0,0,0,0,0,0,0,0,0,0,0,0,0,0,0,0,0,
0,0,0,0,0,0,0,0,0,0,0,0,0,0,0,0,0,0,0,0,0,0,0,0,0,0,0,0,0,0,0,0,0,0,0,0,0,0,0,0,0,0,0,0,
0,0,0,0,0,0,0,0,0,0,0,0,0,0,0,0,0,0,0,0,0,0,0,0,0,0,0,0,0,0,0,0,0,0,0,0,0,0,0,0,0,0,0,0,
0,0,0,0,0,0,0,0,0,0,0,0,0,0,0,0,0,0,0,0,0,0,0,0,0,0,0,0,0,0,0,0,0,0,0,0,0,0,0,0,0,0,0,0,
0,0,0,0,0,0,0,0,0,0,0,0,0,0,0,0,0,0,0,0,0,0,0,0,0,0,0,0,0,0,0,0,0,0,0,0,0,0,0,0,0,0,0,0,
0,0,0,0,0,0,0,0,0,0,0,0,0,0,0,0,0,0,0,0,0,0,0,0,0,0,0,0,0,0,0,0,0,0,0,0,0,0,0,0,0,0,0,0,
0,0,0,0,0,0,0,0,0,0,0,0,0,0,0,0,0,0,0,0,0,0,0,0,0,0,0,0,0,0,0,0,0,0,0,0,0,0,0,0,0,0,0,0,
0,0,0,0,0,0,0,0,0,0,0,0,0,0,0,0,0,0,0,0,0,0,0,0,0,0,0,0,0,0,0,0,0,0,0,0,0,0,0,0,0,0,0,0,
0,0,0,0,0,0,0,0,0,0,0,0,0,0,0,0,0,0,0,0,0,0,0,0,0,0,0,0,0,0,0,0,0,0,0,0,0,0,0,0,0,0,0,0,
0,0,0,0,0,0,0,0,0,0,0,0,0,0,0,0,0,0,0,0,0,0,0,0,0,0,0,0,0,0,0,0,0,0,0,0,0,0,0,0,0,0,0,0,
0,0,0,0,0,0,0,0,0,0,0,0,0,0,0,0,0,0,0,0,0,0,0,0,0,0,0,0,0,0,0,0,0,0,0,0,0,0,0,0,0,0,0,0,
0,0,0,0,0,0,0,0,0,0,0,0,0,0,0,0,0,0,0,0,0,0,0,0,0,0,0,0,0,0,0,0,0,0,0,0,0,0,0,0,0,0,0,0,
0,0,0,0,0,0,0,0,0,0,0,0,0,0,0,0,0,0,0,0,0,0,0,0,0,0,0,0,0,0,0,0,0,0,0,0,0,0,0,0,0,0,0,0,
0,0,0,0,0,0,0,0,0,0,0,0,0,0,0,0,0,0,0,0,0,0,0,0,0,0,0,0,0,0,0,0,0,0,0,0,0,0,0,0,0,0,0,0,
0,0,0,0,0,0,0,0,0,0,0,0,0,0,0,0,0,0,0,0,0,0,0,0,0,0,0,0,0,0,0,0,0,0,0,0,0,0,0,0,0,0,0,0,
0,0,0,0,0,0,0,0,0,0,0,0,0,0,0,0,0,0,0,0,0,0,0,0,0,0,0,0,0,0,0,0,0,0,0,0,0,0,0,0,0,0,0,0,
0,0,0,0,0,0,0,0,0,0,0,0,0,0,0,0,0,0,0,0,0,0,0,0,0,0,0,0,0,0,0,0,0,0,0,0,0,0,0,0,0,0,0,0,
0,0,0,0,0,0,0,0,0,0,0,0,0,0,0,0,0,0,0,0,0,0,0,0,0,0,0,0,0,0,0,0,0,0,0,0,0,0,0,0,0,0,0,0,
0,0,0,0,0,0,0,0,0,0,0,0,0,0,0,0,0,0,0,0,0,0,0,0,0,0,0,0,0,0,0,0,0,0,0,0,0,0,0,0,0,0,0,0,
0,0,0,0,0,0,0,0,0,0,0,0,0,0,0,0,0,0,0,0,0,0,0,0,0,0,0,0,0,0,0,0,0,0,0,0,0,0,0,0,0,0,0,0,
0,0,0,0,0,0,0,0,0,0,0,0,0,0,0,0,0,0,0,0,0,0,0,0,0,0,0,0,0,0,0,0,0,0,0,0,0,0,0,0,0,0,0,0,
0,0,0,0,0,0,0,0,0,0,0,0,0,0,0,0,0,0,0,0,0,0,0,0,0,0,0,0,0,0,0,0,0,0,0,0,0,0,0,0,0,0,0,0,
0,0,0,0,0,0,0,0,0,0,0,0,0,0,0,0,0,0,0,0,0,0,0,0,0,0,0,0,0,0,0,0,0,0,0,0,0,0,0,0,0,0,0,0,
0,0,0,0,0,0,0,0,0,0,0,0,0,0,0,0,0,0,0,0,0,0,0,0,0,0,0,0,0,0,0,0,0,0,0,0,0,0,0,0,0,0,0,0
</data>
 </layer>
 <layer id="16" name="Pathfinding" width="44" height="44">
  <properties>
   <property name="maybe_animation_id" value="6d2460f008fb99d4"/>
   <property name="maybe_tileset_id" value="264fe6c9523400a1"/>
   <property name="tile_size" type="int" value="8"/>
  </properties>
  <data encoding="csv">
0,0,0,0,0,0,0,0,0,0,0,0,0,0,0,0,0,0,0,0,0,0,0,0,0,0,0,0,0,0,0,0,0,0,0,0,0,0,0,0,0,0,0,0,
0,0,0,0,0,0,0,0,0,0,0,0,0,0,0,0,0,0,0,0,0,0,0,0,0,0,0,0,0,0,0,0,0,0,0,0,0,0,0,0,0,0,0,0,
0,0,0,0,0,0,0,0,0,0,0,0,0,0,0,0,0,0,0,0,0,0,0,0,0,0,0,0,0,0,0,0,0,0,0,0,0,0,0,0,0,0,0,0,
0,0,0,0,0,0,0,0,0,0,0,0,0,0,0,0,0,0,0,0,0,0,0,0,0,0,0,0,0,0,0,0,0,0,0,0,0,0,0,0,0,0,0,0,
0,0,0,0,0,0,0,0,0,0,0,0,0,0,0,0,0,0,0,0,0,0,0,0,0,0,0,0,0,0,0,0,0,0,0,0,0,0,0,0,0,0,0,0,
0,0,0,0,0,0,0,0,0,0,0,0,0,0,0,0,0,0,0,0,0,0,0,0,0,0,0,0,0,0,0,0,0,0,0,0,0,0,0,0,0,0,0,0,
0,0,0,0,0,0,0,0,0,0,0,0,0,0,0,0,0,0,0,0,0,0,0,0,0,0,0,0,0,0,0,0,0,0,0,0,0,0,0,0,0,0,0,0,
0,0,0,0,0,0,0,0,0,0,0,0,0,0,0,0,0,0,0,0,0,0,0,0,0,0,0,0,0,0,0,0,0,0,0,0,0,0,0,0,0,0,0,0,
0,0,0,0,0,0,0,0,0,0,0,0,0,0,0,0,0,0,0,0,0,0,0,0,0,0,0,0,0,0,0,0,0,0,0,0,0,0,0,0,0,0,0,0,
0,0,0,0,0,0,0,0,0,0,0,0,0,0,0,0,0,0,0,0,0,0,0,0,0,0,0,0,0,0,0,0,0,0,0,0,0,0,0,0,0,0,0,0,
0,0,0,0,0,0,0,0,0,0,0,0,0,0,0,0,0,0,0,0,0,0,0,0,0,0,0,0,0,0,0,0,0,0,0,0,0,0,0,0,0,0,0,0,
0,0,0,0,0,0,0,0,0,0,0,0,0,0,0,0,0,0,0,0,0,0,0,0,0,0,0,0,0,0,0,0,0,0,0,0,0,0,0,0,0,0,0,0,
0,0,0,0,0,0,0,0,0,0,0,0,0,0,0,0,0,0,0,0,0,0,0,0,0,0,0,0,0,0,0,0,0,0,0,0,0,0,0,0,0,0,0,0,
0,0,0,0,0,0,0,0,0,0,0,0,0,0,0,0,0,0,0,0,0,0,0,0,0,0,0,0,0,0,0,0,0,0,0,0,0,0,0,0,0,0,0,0,
0,0,0,0,0,0,0,0,0,0,0,6009,6009,6009,6009,6009,6009,6009,0,0,0,0,0,0,0,0,0,0,0,0,0,0,0,0,0,0,0,0,0,0,0,0,0,0,
0,0,0,0,0,0,0,0,0,0,0,6009,6009,6009,6009,6009,6009,6009,0,0,0,0,0,0,0,0,0,0,0,0,0,0,0,0,0,0,0,0,0,0,0,0,0,0,
0,0,0,0,0,0,0,0,0,0,0,0,0,6009,6009,0,0,0,0,0,0,0,0,0,0,0,0,0,0,6013,6013,0,0,0,0,0,0,0,0,0,0,0,0,0,
0,0,0,0,0,0,0,0,0,0,0,0,0,6009,6009,0,0,0,0,0,0,0,0,0,0,0,0,0,0,6013,6013,0,0,0,0,0,0,0,0,0,0,0,0,0,
0,0,0,0,0,0,0,0,0,0,0,0,0,6009,6009,6009,6009,6009,6009,6009,6009,6009,6009,6009,0,0,0,0,0,0,0,0,0,0,0,0,0,0,0,0,0,0,0,0,
0,0,0,0,0,0,0,0,0,0,0,0,0,6009,6009,6009,6009,6009,6009,6009,6009,6009,6009,6009,0,0,0,0,0,0,0,0,0,0,0,0,0,0,0,0,0,0,0,0,
0,0,0,0,0,0,0,0,0,0,0,0,0,0,0,0,0,0,0,0,0,0,6009,6009,0,0,0,0,0,0,0,0,0,0,0,0,0,0,0,0,0,0,0,0,
0,0,0,0,0,0,0,0,0,0,0,0,0,0,0,0,0,0,0,0,0,0,6009,6009,0,0,0,0,0,0,0,0,0,0,0,0,0,0,0,0,0,0,0,0,
0,0,0,0,0,0,0,0,0,0,0,0,0,0,0,0,0,0,0,0,0,0,6009,6009,0,0,0,0,0,0,0,0,0,0,0,0,0,0,0,0,0,0,0,0,
0,0,0,0,0,0,0,0,0,0,0,0,0,0,6008,0,0,0,0,0,0,0,6009,6009,0,0,0,0,0,0,0,0,0,0,0,0,0,0,0,0,0,0,0,0,
0,0,0,0,0,0,0,0,0,0,0,0,0,6009,6009,6009,6009,6009,6009,6009,6009,6009,6009,6009,6009,6009,6009,6009,6009,6009,6009,0,0,0,0,0,0,0,0,0,0,0,0,0,
0,0,0,0,0,0,0,0,0,0,0,0,0,6009,6009,6009,6009,6009,6009,6009,6009,6009,6009,6009,6009,6009,6009,6009,6009,6009,6009,6012,6012,6012,6012,6009,6009,6009,0,0,0,0,0,0,
0,0,0,0,0,0,0,0,0,0,0,0,0,6009,6009,0,0,0,0,0,0,0,0,0,0,0,0,6012,6012,6012,6012,0,0,0,0,6009,6009,6009,0,0,0,0,0,0,
0,0,0,0,0,0,0,0,0,0,0,0,0,6009,6009,0,0,0,0,0,0,0,0,0,0,0,6008,6012,6012,6012,6012,0,0,0,0,6012,6008,6009,0,0,0,0,0,0,
0,0,0,0,0,0,0,0,0,0,0,0,0,6009,6009,0,0,0,0,0,0,0,0,0,0,0,6008,6012,6012,6012,6012,6012,6012,6012,6012,6012,6008,6009,0,0,0,0,0,0,
0,0,0,0,0,0,0,0,0,0,0,0,0,6009,6009,0,0,0,0,0,0,0,0,0,0,0,0,0,0,0,0,0,0,0,0,0,6008,6009,0,0,0,0,0,0,
0,0,0,0,0,0,0,0,0,0,0,0,0,6009,6009,0,0,0,0,0,0,0,0,0,0,0,0,0,0,0,0,0,0,0,0,0,6008,6009,0,0,0,0,0,0,
0,0,0,0,0,0,0,0,0,0,0,0,0,6009,6009,6009,6009,6009,6009,6009,6009,6009,6009,6009,6009,6009,6009,6009,6009,6009,6009,0,0,0,0,0,6008,6009,0,0,0,0,0,0,
0,0,0,0,0,0,0,0,0,0,0,0,0,6009,6009,6009,6009,6009,6009,6009,6009,6009,6009,6009,6009,6009,6009,6009,6009,6009,6009,0,0,0,0,0,6008,6009,0,0,0,0,0,0,
0,0,0,0,0,0,0,0,0,0,0,0,0,6009,6009,0,0,0,0,0,0,0,0,0,0,0,0,0,0,0,0,0,0,0,0,0,6008,6009,0,0,0,0,0,0,
0,0,0,0,0,0,0,0,0,0,0,0,0,6009,6009,0,0,0,0,0,0,0,0,0,0,0,0,0,0,0,0,0,0,0,0,0,6008,6009,0,0,0,0,0,0,
0,0,0,0,0,0,0,0,0,0,0,0,0,6009,6009,0,0,0,0,0,0,0,0,0,6008,6008,6008,6008,6008,6008,6008,6008,6008,6008,6008,6008,6008,6009,0,0,0,0,0,0,
0,0,0,0,0,0,0,0,0,0,0,0,0,6009,6009,6009,6009,6009,6009,6009,6009,6009,6009,6009,6009,6009,6009,6009,6009,6009,6009,6009,6009,6009,6009,6009,6009,6009,0,0,0,0,0,0,
0,0,0,0,0,0,0,0,0,0,0,0,0,6009,6009,0,0,0,0,0,0,0,0,0,0,0,0,0,0,0,0,0,0,0,0,0,0,0,0,0,0,0,0,0,
0,0,0,0,0,0,0,0,0,0,0,0,0,6009,6009,0,0,0,0,0,0,0,0,0,0,0,0,0,0,0,0,0,0,0,0,0,0,0,0,0,0,0,0,0,
0,0,0,0,0,0,0,0,0,0,0,0,0,0,0,0,0,0,0,0,0,0,0,0,0,0,0,0,0,0,0,0,0,0,0,0,0,0,0,0,0,0,0,0,
0,0,0,0,0,0,0,0,0,0,0,0,0,0,0,0,0,0,0,0,0,0,0,0,0,0,0,0,0,0,0,0,0,0,0,0,0,0,0,0,0,0,0,0,
0,0,0,0,0,0,0,0,0,0,0,0,0,0,0,0,0,0,0,0,0,0,0,0,0,0,0,0,0,0,0,0,0,0,0,0,0,0,0,0,0,0,0,0,
0,0,0,0,0,0,0,0,0,0,0,0,0,0,0,0,0,0,0,0,0,0,0,0,0,0,0,0,0,0,0,0,0,0,0,0,0,0,0,0,0,0,0,0,
0,0,0,0,0,0,0,0,0,0,0,0,0,0,0,0,0,0,0,0,0,0,0,0,0,0,0,0,0,0,0,0,0,0,0,0,0,0,0,0,0,0,0,0
</data>
 </layer>
 <objectgroup draworder="index" id="17" name="Meta" visible="0">
  <object id="32" template="../../../templates/obj_roomtransition.tx" type="obj_roomtransition" x="104" y="328">
   <properties>
    <property name="destination_id" propertytype="LocationId" value="town"/>
    <property name="player_direction" type="int" value="270"/>
   </properties>
  </object>
  <object id="33" template="../../../templates/obj_roomtransition.tx" type="obj_roomtransition" x="152" y="120" width="16" height="24">
   <properties>
    <property name="destination_id" propertytype="LocationId" value="clinic_f2"/>
    <property name="play_stairs_sound" type="bool" value="true"/>
    <property name="player_direction" type="int" value="0"/>
   </properties>
  </object>
  <object id="34" template="../../../templates/ledgers/obj_clinic_store.tx" type="obj_clinic_store" x="124" y="181"/>
 </objectgroup>
 <objectgroup draworder="index" id="18" name="TrellisPoints_Valen_2h" visible="0">
  <object id="35" template="../../../templates/meta/obj_trellis_point_default.tx" name="v2h_ari_entrance" type="obj_trellis_point_default" x="100" y="348"/>
  <object id="36" template="../../../templates/meta/obj_trellis_point_default.tx" name="v2h_ari_start" type="obj_trellis_point_default" x="164" y="217"/>
  <object id="37" template="../../../templates/meta/obj_trellis_point_camera.tx" name="v2h_camera_1" type="obj_trellis_point_camera" x="188" y="357"/>
  <object id="38" template="../../../templates/meta/obj_trellis_point_camera.tx" name="v2h_camera_2" type="obj_trellis_point_camera" x="188" y="233"/>
  <object id="39" template="../../../templates/meta/obj_trellis_point_camera.tx" name="v2h_camera_2_also" type="obj_trellis_point_camera" x="84" y="161"/>
  <object id="40" template="../../../templates/meta/obj_trellis_point_default.tx" name="v2h_ari_give" type="obj_trellis_point_default" x="204" y="217"/>
  <object id="41" template="../../../templates/meta/obj_trellis_point_default.tx" name="v2h_ari_post_give" type="obj_trellis_point_default" x="184" y="217"/>
  <object id="42" template="../../../templates/meta/obj_trellis_point_default.tx" name="v2h_valen_medicine" type="obj_trellis_point_default" x="234" y="217"/>
  <object id="43" template="../../../templates/meta/obj_trellis_point_camera.tx" name="v2h_camera_6" type="obj_trellis_point_camera" x="216" y="233"/>
  <object id="44" template="../../../templates/meta/obj_trellis_point_default.tx" name="v2h_hayden_healed" type="obj_trellis_point_default" x="232" y="217"/>
  <object id="45" template="../../../templates/meta/obj_trellis_point_default.tx" name="v2h_ari_end" type="obj_trellis_point_default" x="100" y="217">
   <properties>
    <property name="direction" type="int" propertytype="Cardinal" value="1"/>
   </properties>
  </object>
  <object id="46" template="../../../templates/meta/obj_trellis_point_camera.tx" name="v2h_camera_7" type="obj_trellis_point_camera" x="100" y="233"/>
  <object id="47" template="../../../templates/meta/obj_trellis_point_default.tx" name="v2h_valen_end" type="obj_trellis_point_default" x="124" y="217">
   <properties>
    <property name="direction" type="int" propertytype="Cardinal" value="2"/>
   </properties>
  </object>
  <object id="48" template="../../../templates/meta/obj_trellis_point_default.tx" name="v2h_valen_facing_ari" type="obj_trellis_point_default" x="224" y="217"/>
  <object id="49" template="../../../templates/meta/obj_trellis_point_default.tx" name="v2h_heal_animation" type="obj_trellis_point_default" x="252" y="217"/>
  <object id="50" template="../../../templates/meta/obj_trellis_point_default.tx" name="v2h_hayden_run" type="obj_trellis_point_default" x="288" y="293"/>
  <object id="51" template="../../../templates/meta/obj_trellis_point_default.tx" name="v2h_valen_hop_back" type="obj_trellis_point_default" x="212" y="217"/>
 </objectgroup>
 <objectgroup id="26" name="TrellisPoints_Player_Delivery" visible="0">
  <object id="111" template="../../../templates/meta/obj_trellis_point_default.tx" name="pd_ari_entrance" type="obj_trellis_point_default" x="252" y="220"/>
  <object id="112" template="../../../templates/meta/obj_trellis_point_default.tx" name="pd_spouse_entrance" type="obj_trellis_point_default" x="274" y="218"/>
  <object id="113" template="../../../templates/meta/obj_trellis_point_default.tx" name="pd_valen_entrance" type="obj_trellis_point_default" x="229" y="218"/>
  <object id="114" template="../../../templates/meta/obj_trellis_point_default.tx" name="pd_valen_medicine" type="obj_trellis_point_default" x="194" y="150"/>
  <object id="115" template="../../../templates/meta/obj_trellis_point_camera.tx" name="pd_camera_1" type="obj_trellis_point_camera" x="252" y="251"/>
  <object id="116" template="../../../templates/meta/obj_trellis_point_camera.tx" name="pd_camera_2" type="obj_trellis_point_camera" x="252" y="182"/>
  <object id="117" template="../../../templates/meta/obj_trellis_point_camera.tx" name="pd_camera_3" type="obj_trellis_point_camera" x="252" y="155"/>
  <object id="118" template="../../../templates/meta/obj_trellis_point_camera.tx" name="pd_camera_4" type="obj_trellis_point_camera" x="252" y="220"/>
  <object id="119" template="../../../templates/meta/obj_trellis_point_camera.tx" name="pd_camera_5" type="obj_trellis_point_camera" x="265" y="220"/>
  <object id="120" template="../../../templates/meta/obj_trellis_point_camera.tx" name="pd_camera_6" type="obj_trellis_point_camera" x="240" y="220"/>
 </objectgroup>
 <objectgroup id="27" name="TrellisPoints_Spouse_Delivery">
  <object id="121" template="../../../templates/meta/obj_trellis_point_default.tx" name="spd_spouse_entrance" type="obj_trellis_point_default" x="252" y="220"/>
  <object id="122" template="../../../templates/meta/obj_trellis_point_default.tx" name="spd_ari_entrance" type="obj_trellis_point_default" x="274" y="218"/>
  <object id="123" template="../../../templates/meta/obj_trellis_point_default.tx" name="spd_valen_entrance" type="obj_trellis_point_default" x="229" y="218"/>
  <object id="124" template="../../../templates/meta/obj_trellis_point_default.tx" name="spd_valen_medicine" type="obj_trellis_point_default" x="194" y="150"/>
  <object id="125" template="../../../templates/meta/obj_trellis_point_camera.tx" name="spd_camera_1" type="obj_trellis_point_camera" x="252" y="251"/>
  <object id="126" template="../../../templates/meta/obj_trellis_point_camera.tx" name="spd_camera_2" type="obj_trellis_point_camera" x="252" y="182"/>
  <object id="127" template="../../../templates/meta/obj_trellis_point_camera.tx" name="spd_camera_3" type="obj_trellis_point_camera" x="252" y="155"/>
  <object id="128" template="../../../templates/meta/obj_trellis_point_camera.tx" name="spd_camera_4" type="obj_trellis_point_camera" x="252" y="220"/>
  <object id="129" template="../../../templates/meta/obj_trellis_point_camera.tx" name="spd_camera_5" type="obj_trellis_point_camera" x="265" y="220"/>
  <object id="131" template="../../../templates/meta/obj_trellis_point_default.tx" name="baby_prop" type="obj_trellis_point_default" x="258" y="214"/>
 </objectgroup>
 <objectgroup draworder="index" id="19" name="TrellisPoints_Valen_8h" visible="0">
  <object id="52" template="../../../templates/meta/obj_trellis_point_default.tx" name="v8h_valen_cf1_entrance" type="obj_trellis_point_default" x="224" y="217"/>
  <object id="53" template="../../../templates/meta/obj_trellis_point_default.tx" name="v8h_valen_cf1_basement" type="obj_trellis_point_default" x="98" y="135"/>
  <object id="54" template="../../../templates/meta/obj_trellis_point_camera.tx" name="v8h_camera_17" type="obj_trellis_point_camera" x="166" y="215"/>
  <object id="55" template="../../../templates/meta/obj_trellis_point_camera.tx" name="v8h_camera_18" type="obj_trellis_point_camera" x="238" y="217"/>
  <object id="56" template="../../../templates/meta/obj_trellis_point_camera.tx" name="v8h_camera_22" type="obj_trellis_point_camera" x="238" y="285"/>
  <object id="57" template="../../../templates/meta/obj_trellis_point_camera.tx" name="v8h_camera_23" type="obj_trellis_point_camera" x="238" y="165"/>
  <object id="58" template="../../../templates/meta/obj_trellis_point_default.tx" name="v8h_cf1_heal_animation" type="obj_trellis_point_default" x="252" y="217"/>
  <object id="59" template="../../../templates/meta/obj_trellis_point_camera.tx" name="v8h_camera_19" type="obj_trellis_point_camera" x="144" y="167"/>
 </objectgroup>
 <objectgroup draworder="index" id="20" name="TrellisPoints" visible="0">
  <object id="60" template="../../../templates/meta/obj_trellis_point_transition.tx" name="Exit to Town" type="obj_trellis_point_transition" x="100" y="309">
   <properties>
    <property name="direction" type="int" propertytype="Cardinal" value="3"/>
   </properties>
  </object>
  <object id="61" template="../../../templates/meta/obj_trellis_point_transition.tx" name="Clinic B1 Trap Door" type="obj_trellis_point_transition" x="84" y="133">
   <properties>
    <property name="direction" type="int" propertytype="Cardinal" value="2"/>
   </properties>
  </object>
  <object id="62" template="../../../templates/meta/obj_trellis_point_transition.tx" name="Clinic F2 Stairs" type="obj_trellis_point_transition" x="132" y="125">
   <properties>
    <property name="direction" type="int" propertytype="Cardinal" value="0"/>
   </properties>
  </object>
  <object id="63" template="../../../templates/meta/obj_trellis_point_default.tx" name="Doctor's Desk" type="obj_trellis_point_default" x="100" y="180"/>
  <object id="64" template="../../../templates/meta/obj_trellis_point_seat.tx" name="Research" type="obj_trellis_point_seat" x="228" y="149">
   <properties>
    <property name="direction" type="int" propertytype="Cardinal" value="1"/>
   </properties>
  </object>
  <object id="65" template="../../../templates/meta/obj_trellis_point_default.tx" name="Top Bed" type="obj_trellis_point_default" x="252" y="220"/>
  <object id="66" template="../../../templates/meta/obj_trellis_point_default.tx" name="Bottom Bed" type="obj_trellis_point_default" x="252" y="276"/>
  <object id="67" template="../../../templates/meta/obj_trellis_point_default.tx" name="Bothering Valen" type="obj_trellis_point_default" x="140" y="165">
   <properties>
    <property name="direction" type="int" propertytype="Cardinal" value="2"/>
   </properties>
  </object>
  <object id="68" template="../../../templates/meta/obj_trellis_point_default.tx" name="Valen Chatting" type="obj_trellis_point_default" x="116" y="165">
   <properties>
    <property name="direction" type="int" propertytype="Cardinal" value="0"/>
   </properties>
  </object>
  <object id="69" template="../../../templates/meta/obj_trellis_point_default.tx" name="Check In" type="obj_trellis_point_default" x="100" y="217">
   <properties>
    <property name="direction" type="int" propertytype="Cardinal" value="1"/>
   </properties>
  </object>
  <object id="70" template="../../../templates/meta/obj_trellis_point_default.tx" name="North Bed Side" type="obj_trellis_point_default" x="224" y="221">
   <properties>
    <property name="direction" type="int" propertytype="Cardinal" value="0"/>
   </properties>
  </object>
  <object id="71" template="../../../templates/meta/obj_trellis_point_default.tx" name="Prescription" type="obj_trellis_point_default" x="124" y="217">
   <properties>
    <property name="direction" type="int" propertytype="Cardinal" value="2"/>
   </properties>
  </object>
  <object id="72" template="../../../templates/meta/obj_trellis_point_default.tx" name="Valen Babysitting" type="obj_trellis_point_default" x="160" y="225"/>
  <object id="73" template="../../../templates/meta/obj_trellis_point_default.tx" name="Kids 1" type="obj_trellis_point_default" x="144" y="241">
   <properties>
    <property name="direction" type="int" propertytype="Cardinal" value="0"/>
   </properties>
  </object>
  <object id="74" template="../../../templates/meta/obj_trellis_point_default.tx" name="Kids 2" type="obj_trellis_point_default" x="160" y="253">
   <properties>
    <property name="direction" type="int" propertytype="Cardinal" value="1"/>
   </properties>
  </object>
  <object id="75" template="../../../templates/meta/obj_trellis_point_default.tx" name="Kids 3" type="obj_trellis_point_default" x="176" y="241">
   <properties>
    <property name="direction" type="int" propertytype="Cardinal" value="2"/>
   </properties>
  </object>
  <object id="76" template="../../../templates/meta/obj_trellis_point_default.tx" name="sweep_1" type="obj_trellis_point_default" x="184" y="177"/>
  <object id="77" template="../../../templates/meta/obj_trellis_point_default.tx" name="sweep_2" type="obj_trellis_point_default" x="116" y="237"/>
  <object id="78" template="../../../templates/meta/obj_trellis_point_default.tx" name="fix_bed_2" type="obj_trellis_point_default" x="228" y="273">
   <properties>
    <property name="direction" type="int" propertytype="Cardinal" value="0"/>
   </properties>
  </object>
  <object id="79" template="../../../templates/meta/obj_trellis_point_default.tx" name="fix_bed_1" type="obj_trellis_point_default" x="232" y="221">
   <properties>
    <property name="direction" type="int" propertytype="Cardinal" value="0"/>
   </properties>
  </object>
  <object id="80" template="../../../templates/meta/obj_trellis_point_default.tx" name="inventory" type="obj_trellis_point_default" x="272" y="157">
   <properties>
    <property name="direction" type="int" propertytype="Cardinal" value="1"/>
   </properties>
  </object>
 </objectgroup>
 <objectgroup draworder="index" id="21" name="TrellisPoints_Adeline_6h" visible="0">
  <object id="81" template="../../../templates/meta/obj_trellis_point_default.tx" name="a6h_adeline_c_start" type="obj_trellis_point_default" x="84" y="223"/>
  <object id="82" template="../../../templates/meta/obj_trellis_point_default.tx" name="a6h_ari_c_start" type="obj_trellis_point_default" x="108" y="223"/>
  <object id="83" template="../../../templates/meta/obj_trellis_point_default.tx" name="a6h_adeline_c_entrance" type="obj_trellis_point_default" x="100" y="345"/>
  <object id="84" template="../../../templates/meta/obj_trellis_point_default.tx" name="a6h_ari_c_entrance" type="obj_trellis_point_default" x="100" y="223"/>
  <object id="85" template="../../../templates/meta/obj_trellis_point_default.tx" name="a6h_valen_entrance" type="obj_trellis_point_default" x="96" y="179"/>
  <object id="86" template="../../../templates/meta/obj_trellis_point_camera.tx" name="a6h_camera_5" type="obj_trellis_point_camera" x="312" y="193"/>
  <object id="87" template="../../../templates/meta/obj_trellis_point_camera.tx" name="a6h_camera_6" type="obj_trellis_point_camera" x="30" y="193"/>
 </objectgroup>
 <objectgroup draworder="index" id="22" name="TrellisPoints_Pharmacy_Restock" visible="0">
  <object id="88" template="../../../templates/meta/obj_trellis_point_default.tx" name="pr_ari_start" type="obj_trellis_point_default" x="188" y="217">
   <properties>
    <property name="direction" type="int" propertytype="Cardinal" value="0"/>
   </properties>
  </object>
  <object id="89" template="../../../templates/meta/obj_trellis_point_default.tx" name="pr_ari_back" type="obj_trellis_point_default" x="161" y="223">
   <properties>
    <property name="direction" type="int" propertytype="Cardinal" value="0"/>
   </properties>
  </object>
  <object id="90" template="../../../templates/meta/obj_trellis_point_camera.tx" name="pr_camera_2" type="obj_trellis_point_camera" x="204" y="242"/>
  <object id="91" template="../../../templates/meta/obj_trellis_point_camera.tx" name="pr_camera_1" type="obj_trellis_point_camera" x="207" y="152"/>
  <object id="92" template="../../../templates/meta/obj_trellis_point_camera.tx" name="pr_camera_3" type="obj_trellis_point_camera" x="200" y="208"/>
  <object id="93" template="../../../templates/meta/obj_trellis_point_default.tx" name="pr_ari_open" type="obj_trellis_point_default" x="187" y="172"/>
  <object id="94" template="../../../templates/meta/obj_trellis_point_default.tx" name="pr_valen_stand" type="obj_trellis_point_default" x="227" y="159"/>
  <object id="95" template="../../../templates/meta/obj_trellis_point_camera.tx" name="pr_camera_2_response" type="obj_trellis_point_camera" x="179" y="242"/>
 </objectgroup>
 <objectgroup draworder="index" id="23" name="TrellisPoints_Valen_4h" visible="0">
  <object id="96" template="../../../templates/meta/obj_trellis_point_default.tx" name="v4h_ari_entrance" type="obj_trellis_point_default" x="84" y="213"/>
  <object id="97" template="../../../templates/meta/obj_trellis_point_default.tx" name="v4h_valen_entrance" type="obj_trellis_point_default" x="108" y="213"/>
  <object id="98" template="../../../templates/meta/obj_trellis_point_camera.tx" name="v4h_camera_1" type="obj_trellis_point_camera" x="96" y="293"/>
  <object id="99" template="../../../templates/meta/obj_trellis_point_camera.tx" name="v4h_camera_2" type="obj_trellis_point_camera" x="96" y="225"/>
  <object id="100" template="../../../templates/meta/obj_trellis_point_camera.tx" name="v4h_camera_3" type="obj_trellis_point_camera" x="112" y="149"/>
  <object id="101" template="../../../templates/meta/obj_trellis_point_default.tx" name="v4h_ari_bed" type="obj_trellis_point_default" x="252" y="219"/>
  <object id="102" template="../../../templates/meta/obj_trellis_point_default.tx" name="v4h_valen_bed" type="obj_trellis_point_default" x="212" y="219"/>
  <object id="103" template="../../../templates/meta/obj_trellis_point_default.tx" name="v4h_ari_standing" type="obj_trellis_point_default" x="232" y="219"/>
  <object id="104" template="../../../templates/meta/obj_trellis_point_camera.tx" name="v4h_camera_8" type="obj_trellis_point_camera" x="232" y="317"/>
  <object id="105" template="../../../templates/meta/obj_trellis_point_camera.tx" name="v4h_camera_9" type="obj_trellis_point_camera" x="232" y="233"/>
  <object id="106" template="../../../templates/meta/obj_trellis_point_default.tx" name="v4h_valen_exit" type="obj_trellis_point_default" x="172" y="169"/>
  <object id="107" template="../../../templates/meta/obj_trellis_point_default.tx" name="v4h_ari_exit" type="obj_trellis_point_default" x="172" y="187"/>
 </objectgroup>
 <objectgroup draworder="index" id="24" name="TrellisPoints_Dying" visible="0">
  <object id="108" template="../../../templates/meta/obj_trellis_point_default.tx" name="d_ari_entrance" type="obj_trellis_point_default" x="252" y="220"/>
  <object id="109" template="../../../templates/meta/obj_trellis_point_default.tx" name="d_valen_entrance" type="obj_trellis_point_default" x="214" y="221"/>
  <object id="110" template="../../../templates/meta/obj_trellis_point_camera.tx" name="d_camera_1" type="obj_trellis_point_camera" x="234" y="225"/>
 </objectgroup>
</map>
