<?xml version="1.0" encoding="UTF-8"?>
<map version="1.10" tiledversion="1.12.1" orientation="orthogonal" renderorder="right-down" width="40" height="48" tilewidth="8" tileheight="8" infinite="0" backgroundcolor="#000000" nextlayerid="24" nextobjectid="3">
 <tileset firstgid="1" source="../../../__gm_import.tsx"/>
 <tileset firstgid="1505" source="../../../tile_sets/__META/tile_collision_info.tsx"/>
 <tileset firstgid="1512" source="../../../tile_sets/tile_footsteps.tsx"/>
 <tileset firstgid="1656" source="../../../tile_sets/Farm/tile_grassautotile_spring.tsx"/>
 <tileset firstgid="1704" source="../../../tile_sets/Greenhouse/tile_greenhouse_white.tsx"/>
 <tileset firstgid="1803" source="../../../tile_sets/_GENERIC/tile_main_exteriors_spring.tsx"/>
 <tileset firstgid="5899" source="../../../tile_sets/_GENERIC/tile_main_interiors_shadows.tsx"/>
 <tileset firstgid="6155" source="../../../tile_sets/tile_priority_objects.tsx"/>
 <tileset firstgid="6323" source="../../../tile_sets/__META/tile_rules.tsx"/>
 <tileset firstgid="6343" source="../../../tile_sets/Farm/tile_soil_spring.tsx"/>
 <tileset firstgid="6391" source="../../../tile_sets/Farm/tile_soil_wet_spring.tsx"/>
 <tileset firstgid="6439" source="../../../tile_sets/Mini Museum/tile_mini_museum.tsx"/>
 <group id="1" name="Level_0">
  <layer id="7" name="Level_0_Floor" width="40" height="48">
   <properties>
    <property name="maybe_animation_id" value="15086595ffa2c1ed"/>
    <property name="maybe_tileset_id" value="966d986d8eca0ab7"/>
    <property name="tile_size" type="int" value="16"/>
   </properties>
   <data encoding="csv">
1704,0,1704,0,1704,0,1704,0,1704,0,1704,0,1704,0,1704,0,1704,0,1704,0,1704,0,1704,0,1704,0,1704,0,1704,0,1704,0,1704,0,1704,0,1704,0,1704,0,
0,0,0,0,0,0,0,0,0,0,0,0,0,0,0,0,0,0,0,0,0,0,0,0,0,0,0,0,0,0,0,0,0,0,0,0,0,0,0,0,
1704,0,1704,0,1704,0,1704,0,1704,0,1704,0,1704,0,1704,0,1704,0,1704,0,1704,0,1704,0,1704,0,1704,0,1704,0,1704,0,1704,0,1704,0,1704,0,1704,0,
0,0,0,0,0,0,0,0,0,0,0,0,0,0,0,0,0,0,0,0,0,0,0,0,0,0,0,0,0,0,0,0,0,0,0,0,0,0,0,0,
1704,0,1704,0,1704,0,1704,0,1704,0,1704,0,1704,0,1704,0,1704,0,1704,0,1704,0,1704,0,1704,0,1704,0,1704,0,1704,0,1704,0,1704,0,1704,0,1704,0,
0,0,0,0,0,0,0,0,0,0,0,0,0,0,0,0,0,0,0,0,0,0,0,0,0,0,0,0,0,0,0,0,0,0,0,0,0,0,0,0,
1704,0,1704,0,1704,0,1704,0,1704,0,1704,0,1704,0,1704,0,1704,0,1704,0,1704,0,1704,0,1704,0,1704,0,1704,0,1704,0,1704,0,1704,0,1704,0,1704,0,
0,0,0,0,0,0,0,0,0,0,0,0,0,0,0,0,0,0,0,0,0,0,0,0,0,0,0,0,0,0,0,0,0,0,0,0,0,0,0,0,
1704,0,1704,0,1704,0,1704,0,1704,0,1704,0,1704,0,1704,0,1704,0,1704,0,1704,0,1704,0,1704,0,1704,0,1704,0,1704,0,1704,0,1704,0,1704,0,1704,0,
0,0,0,0,0,0,0,0,0,0,0,0,0,0,0,0,0,0,0,0,0,0,0,0,0,0,0,0,0,0,0,0,0,0,0,0,0,0,0,0,
1704,0,1704,0,1704,0,1704,0,1704,0,1704,0,1704,0,1704,0,1704,0,1704,0,1704,0,1704,0,1704,0,1704,0,1704,0,1704,0,1704,0,1704,0,1704,0,1704,0,
0,0,0,0,0,0,0,0,0,0,0,0,0,0,0,0,0,0,0,0,0,0,0,0,0,0,0,0,0,0,0,0,0,0,0,0,0,0,0,0,
1704,0,1704,0,6517,0,6529,0,6517,0,6529,0,6517,0,6529,0,6517,0,6529,0,6517,0,6529,0,6517,0,6529,0,6517,0,6529,0,6517,0,6529,0,1704,0,1704,0,
0,0,0,0,0,0,0,0,0,0,0,0,0,0,0,0,0,0,0,0,0,0,0,0,0,0,0,0,0,0,0,0,0,0,0,0,0,0,0,0,
1704,0,1704,0,6529,0,6517,0,6529,0,6517,0,6529,0,6517,0,6529,0,6517,0,6529,0,6517,0,6529,0,6517,0,6529,0,6517,0,6529,0,6517,0,1704,0,1704,0,
0,0,0,0,0,0,0,0,0,0,0,0,0,0,0,0,0,0,0,0,0,0,0,0,0,0,0,0,0,0,0,0,0,0,0,0,0,0,0,0,
1704,0,1704,0,6517,0,6529,0,6517,0,6529,0,6517,0,6529,0,6517,0,6529,0,6517,0,6529,0,6517,0,6529,0,6517,0,6529,0,6517,0,6529,0,1704,0,1704,0,
0,0,0,0,0,0,0,0,0,0,0,0,0,0,0,0,0,0,0,0,0,0,0,0,0,0,0,0,0,0,0,0,0,0,0,0,0,0,0,0,
1704,0,1704,0,6529,0,6517,0,6529,0,6517,0,6529,0,6517,0,6529,0,6517,0,6529,0,6517,0,6529,0,6517,0,6529,0,6517,0,6529,0,6517,0,1704,0,1704,0,
0,0,0,0,0,0,0,0,0,0,0,0,0,0,0,0,0,0,0,0,0,0,0,0,0,0,0,0,0,0,0,0,0,0,0,0,0,0,0,0,
1704,0,1704,0,6517,0,6529,0,6517,0,6529,0,6517,0,6529,0,6517,0,6529,0,6517,0,6529,0,6517,0,6529,0,6517,0,6529,0,6517,0,6529,0,1704,0,1704,0,
0,0,0,0,0,0,0,0,0,0,0,0,0,0,0,0,0,0,0,0,0,0,0,0,0,0,0,0,0,0,0,0,0,0,0,0,0,0,0,0,
1704,0,1704,0,6529,0,6517,0,6529,0,6517,0,6529,0,6517,0,6529,0,6517,0,6529,0,6517,0,6529,0,6517,0,6529,0,6517,0,6529,0,6517,0,1704,0,1704,0,
0,0,0,0,0,0,0,0,0,0,0,0,0,0,0,0,0,0,0,0,0,0,0,0,0,0,0,0,0,0,0,0,0,0,0,0,0,0,0,0,
1704,0,1704,0,6517,0,6529,0,6517,0,6529,0,6517,0,6529,0,6517,0,6529,0,6517,0,6529,0,6517,0,6529,0,6517,0,6529,0,6517,0,6529,0,1704,0,1704,0,
0,0,0,0,0,0,0,0,0,0,0,0,0,0,0,0,0,0,0,0,0,0,0,0,0,0,0,0,0,0,0,0,0,0,0,0,0,0,0,0,
1704,0,1704,0,6529,0,6517,0,6529,0,6517,0,6529,0,6517,0,6529,0,6517,0,6529,0,6517,0,6529,0,6517,0,6529,0,6517,0,6529,0,6517,0,1704,0,1704,0,
0,0,0,0,0,0,0,0,0,0,0,0,0,0,0,0,0,0,0,0,0,0,0,0,0,0,0,0,0,0,0,0,0,0,0,0,0,0,0,0,
1704,0,1704,0,6517,0,6529,0,6517,0,6529,0,6517,0,6529,0,6517,0,6529,0,6517,0,6529,0,6517,0,6529,0,6517,0,6529,0,6517,0,6529,0,1704,0,1704,0,
0,0,0,0,0,0,0,0,0,0,0,0,0,0,0,0,0,0,0,0,0,0,0,0,0,0,0,0,0,0,0,0,0,0,0,0,0,0,0,0,
1704,0,1704,0,6529,0,6517,0,6529,0,6517,0,6529,0,6517,0,6529,0,6517,0,6529,0,6517,0,6529,0,6517,0,6529,0,6517,0,6529,0,6517,0,1704,0,1704,0,
0,0,0,0,0,0,0,0,0,0,0,0,0,0,0,0,0,0,0,0,0,0,0,0,0,0,0,0,0,0,0,0,0,0,0,0,0,0,0,0,
1704,0,1704,0,6517,0,6529,0,6517,0,6529,0,6517,0,6529,0,6517,0,6529,0,6517,0,6529,0,6517,0,6529,0,6517,0,6529,0,6517,0,6529,0,1704,0,1704,0,
0,0,0,0,0,0,0,0,0,0,0,0,0,0,0,0,0,0,0,0,0,0,0,0,0,0,0,0,0,0,0,0,0,0,0,0,0,0,0,0,
1704,0,1704,0,6529,0,6517,0,6529,0,6517,0,6529,0,6517,0,6529,0,6517,0,6529,0,6517,0,6529,0,6517,0,6529,0,6517,0,6529,0,6517,0,1704,0,1704,0,
0,0,0,0,0,0,0,0,0,0,0,0,0,0,0,0,0,0,0,0,0,0,0,0,0,0,0,0,0,0,0,0,0,0,0,0,0,0,0,0,
1704,0,1704,0,6517,0,6529,0,6517,0,6529,0,6517,0,6529,0,6517,0,6529,0,6517,0,6529,0,6517,0,6529,0,6517,0,6529,0,6517,0,6529,0,1704,0,1704,0,
0,0,0,0,0,0,0,0,0,0,0,0,0,0,0,0,0,0,0,0,0,0,0,0,0,0,0,0,0,0,0,0,0,0,0,0,0,0,0,0,
1704,0,1704,0,6529,0,6517,0,6529,0,6517,0,6529,0,6517,0,6518,0,6519,0,6519,0,6520,0,6529,0,6517,0,6529,0,6517,0,6529,0,6517,0,1704,0,1704,0,
0,0,0,0,0,0,0,0,0,0,0,0,0,0,0,0,0,0,0,0,0,0,0,0,0,0,0,0,0,0,0,0,0,0,0,0,0,0,0,0,
1704,0,1704,0,6517,0,6529,0,6517,0,6529,0,6517,0,6529,0,6530,0,6531,0,6531,0,6532,0,6517,0,6529,0,6517,0,6529,0,6517,0,6529,0,1704,0,1704,0,
0,0,0,0,0,0,0,0,0,0,0,0,0,0,0,0,0,0,0,0,0,0,0,0,0,0,0,0,0,0,0,0,0,0,0,0,0,0,0,0,
1704,0,1704,0,0,0,0,0,0,0,0,0,0,0,0,0,0,0,0,0,0,0,0,0,0,0,0,0,0,0,0,0,0,0,0,0,1704,0,1704,0,
0,0,0,0,0,0,0,0,0,0,0,0,0,0,0,0,0,0,0,0,0,0,0,0,0,0,0,0,0,0,0,0,0,0,0,0,0,0,0,0,
1704,0,1704,0,1704,0,1704,0,1704,0,1704,0,1704,0,1704,0,1704,0,1704,0,1704,0,1704,0,1704,0,1704,0,1704,0,1704,0,1704,0,1704,0,1704,0,1704,0,
0,0,0,0,0,0,0,0,0,0,0,0,0,0,0,0,0,0,0,0,0,0,0,0,0,0,0,0,0,0,0,0,0,0,0,0,0,0,0,0,
1704,0,1704,0,1704,0,1704,0,1704,0,1704,0,1704,0,1704,0,1704,0,1704,0,1704,0,1704,0,1704,0,1704,0,1704,0,1704,0,1704,0,1704,0,1704,0,1704,0,
0,0,0,0,0,0,0,0,0,0,0,0,0,0,0,0,0,0,0,0,0,0,0,0,0,0,0,0,0,0,0,0,0,0,0,0,0,0,0,0
</data>
  </layer>
  <layer id="8" name="Level_0_Shadows" width="40" height="48" visible="0">
   <properties>
    <property name="maybe_animation_id" value="babd09ade2b55c05"/>
    <property name="maybe_tileset_id" value="339411f6ba88c8f0"/>
    <property name="tile_size" type="int" value="16"/>
   </properties>
   <data encoding="csv">
0,0,0,0,0,0,0,0,0,0,0,0,0,0,0,0,0,0,0,0,0,0,0,0,0,0,0,0,0,0,0,0,0,0,0,0,0,0,0,0,
0,0,0,0,0,0,0,0,0,0,0,0,0,0,0,0,0,0,0,0,0,0,0,0,0,0,0,0,0,0,0,0,0,0,0,0,0,0,0,0,
5899,0,5899,0,5899,0,5899,0,5899,0,5899,0,5899,0,5899,0,5899,0,5899,0,5899,0,5899,0,5899,0,0,0,0,0,0,0,0,0,0,0,0,0,0,0,
0,0,0,0,0,0,0,0,0,0,0,0,0,0,0,0,0,0,0,0,0,0,0,0,0,0,0,0,0,0,0,0,0,0,0,0,0,0,0,0,
5899,0,5899,0,5899,0,5899,0,5899,0,5899,0,5899,0,5899,0,5899,0,5899,0,5899,0,5899,0,5899,0,0,0,0,0,0,0,0,0,0,0,0,0,0,0,
0,0,0,0,0,0,0,0,0,0,0,0,0,0,0,0,0,0,0,0,0,0,0,0,0,0,0,0,0,0,0,0,0,0,0,0,0,0,0,0,
5899,0,5899,0,5899,0,5899,0,5899,0,5899,0,5899,0,5899,0,5899,0,5899,0,5899,0,5899,0,5899,0,5899,0,5899,0,5899,0,5899,0,5899,0,5899,0,0,0,
0,0,0,0,0,0,0,0,0,0,0,0,0,0,0,0,0,0,0,0,0,0,0,0,0,0,0,0,0,0,0,0,0,0,0,0,0,0,0,0,
5899,0,5899,0,5899,0,5899,0,5899,0,5899,0,5899,0,5899,0,5899,0,5899,0,5899,0,5899,0,5899,0,5899,0,5899,0,5899,0,5899,0,5899,0,5899,0,5899,0,
0,0,0,0,0,0,0,0,0,0,0,0,0,0,0,0,0,0,0,0,0,0,0,0,0,0,0,0,0,0,0,0,0,0,0,0,0,0,0,0,
5899,0,5899,0,5899,0,5899,0,5899,0,5899,0,5899,0,5899,0,5899,0,5899,0,5899,0,5899,0,5899,0,5899,0,5899,0,5899,0,5899,0,5899,0,5899,0,5899,0,
0,0,0,0,0,0,0,0,0,0,0,0,0,0,0,0,0,0,0,0,0,0,0,0,0,0,0,0,0,0,0,0,0,0,0,0,0,0,0,0,
5899,0,5899,0,5900,0,5900,0,5927,0,5901,0,5901,0,5901,0,5901,0,5901,0,5901,0,5901,0,5901,0,5901,0,5901,0,5901,0,5901,0,5901,0,0,0,0,0,
0,0,0,0,0,0,0,0,0,0,0,0,0,0,0,0,0,0,0,0,0,0,0,0,0,0,0,0,0,0,0,0,0,0,0,0,0,0,0,0,
5899,0,5899,0,5900,0,5900,0,0,0,0,0,0,0,0,0,0,0,0,0,0,0,0,0,0,0,0,0,0,0,0,0,0,0,0,0,0,0,0,0,
0,0,0,0,0,0,0,0,0,0,0,0,0,0,0,0,0,0,0,0,0,0,0,0,0,0,0,0,0,0,0,0,0,0,0,0,0,0,0,0,
5899,0,5899,0,5900,0,5900,0,0,0,0,0,0,0,0,0,0,0,0,0,0,0,0,0,0,0,0,0,0,0,0,0,0,0,0,0,0,0,0,0,
0,0,0,0,0,0,0,0,0,0,0,0,0,0,0,0,0,0,0,0,0,0,0,0,0,0,0,0,0,0,0,0,0,0,0,0,0,0,0,0,
5899,0,5899,0,5900,0,5900,0,0,0,0,0,0,0,0,0,0,0,0,0,0,0,0,0,0,0,0,0,0,0,0,0,0,0,0,0,0,0,0,0,
0,0,0,0,0,0,0,0,0,0,0,0,0,0,0,0,0,0,0,0,0,0,0,0,0,0,0,0,0,0,0,0,0,0,0,0,0,0,0,0,
5899,0,5899,0,5900,0,5900,0,0,0,0,0,0,0,0,0,0,0,0,0,0,0,0,0,0,0,0,0,0,0,0,0,0,0,0,0,0,0,0,0,
0,0,0,0,0,0,0,0,0,0,0,0,0,0,0,0,0,0,0,0,0,0,0,0,0,0,0,0,0,0,0,0,0,0,0,0,0,0,0,0,
5899,0,5899,0,5900,0,5900,0,0,0,0,0,0,0,0,0,0,0,0,0,0,0,0,0,0,0,0,0,0,0,0,0,0,0,0,0,0,0,0,0,
0,0,0,0,0,0,0,0,0,0,0,0,0,0,0,0,0,0,0,0,0,0,0,0,0,0,0,0,0,0,0,0,0,0,0,0,0,0,0,0,
5899,0,5899,0,5900,0,5900,0,0,0,0,0,0,0,0,0,0,0,0,0,0,0,0,0,0,0,0,0,0,0,0,0,0,0,0,0,0,0,0,0,
0,0,0,0,0,0,0,0,0,0,0,0,0,0,0,0,0,0,0,0,0,0,0,0,0,0,0,0,0,0,0,0,0,0,0,0,0,0,0,0,
5899,0,5899,0,5900,0,5900,0,0,0,0,0,0,0,0,0,0,0,0,0,0,0,0,0,0,0,0,0,0,0,0,0,0,0,0,0,0,0,0,0,
0,0,0,0,0,0,0,0,0,0,0,0,0,0,0,0,0,0,0,0,0,0,0,0,0,0,0,0,0,0,0,0,0,0,0,0,0,0,0,0,
5899,0,5899,0,5900,0,5900,0,0,0,0,0,0,0,0,0,0,0,0,0,0,0,0,0,0,0,0,0,0,0,0,0,0,0,0,0,0,0,0,0,
0,0,0,0,0,0,0,0,0,0,0,0,0,0,0,0,0,0,0,0,0,0,0,0,0,0,0,0,0,0,0,0,0,0,0,0,0,0,0,0,
0,0,0,0,5900,0,5900,0,0,0,0,0,0,0,0,0,0,0,0,0,0,0,0,0,0,0,0,0,0,0,0,0,0,0,0,0,0,0,0,0,
0,0,0,0,0,0,0,0,0,0,0,0,0,0,0,0,0,0,0,0,0,0,0,0,0,0,0,0,0,0,0,0,0,0,0,0,0,0,0,0,
0,0,5899,0,5900,0,5900,0,0,0,0,0,0,0,0,0,0,0,0,0,0,0,0,0,0,0,0,0,0,0,0,0,0,0,0,0,0,0,0,0,
0,0,0,0,0,0,0,0,0,0,0,0,0,0,0,0,0,0,0,0,0,0,0,0,0,0,0,0,0,0,0,0,0,0,0,0,0,0,0,0,
0,0,0,0,5900,0,5900,0,0,0,0,0,0,0,0,0,0,0,0,0,0,0,0,0,0,0,0,0,0,0,0,0,0,0,0,0,0,0,0,0,
0,0,0,0,0,0,0,0,0,0,0,0,0,0,0,0,0,0,0,0,0,0,0,0,0,0,0,0,0,0,0,0,0,0,0,0,0,0,0,0,
0,0,0,0,5900,0,5900,0,0,0,0,0,0,0,0,0,0,0,0,0,0,0,0,0,0,0,0,0,0,0,0,0,0,0,0,0,0,0,0,0,
0,0,0,0,0,0,0,0,0,0,0,0,0,0,0,0,0,0,0,0,0,0,0,0,0,0,0,0,0,0,0,0,0,0,0,0,0,0,0,0,
0,0,0,0,5900,0,5900,0,0,0,0,0,0,0,0,0,0,0,0,0,0,0,0,0,0,0,0,0,0,0,0,0,0,0,0,0,0,0,0,0,
0,0,0,0,0,0,0,0,0,0,0,0,0,0,0,0,0,0,0,0,0,0,0,0,0,0,0,0,0,0,0,0,0,0,0,0,0,0,0,0,
0,0,0,0,5900,0,5900,0,0,0,0,0,0,0,0,0,0,0,0,0,0,0,0,0,0,0,0,0,0,0,0,0,0,0,0,0,0,0,0,0,
0,0,0,0,0,0,0,0,0,0,0,0,0,0,0,0,0,0,0,0,0,0,0,0,0,0,0,0,0,0,0,0,0,0,0,0,0,0,0,0,
0,0,0,0,0,0,0,0,0,0,0,0,0,0,0,0,0,0,0,0,0,0,0,0,0,0,0,0,0,0,0,0,0,0,0,0,0,0,0,0,
0,0,0,0,0,0,0,0,0,0,0,0,0,0,0,0,0,0,0,0,0,0,0,0,0,0,0,0,0,0,0,0,0,0,0,0,0,0,0,0,
0,0,0,0,0,0,0,0,0,0,0,0,0,0,0,0,0,0,0,0,0,0,0,0,0,0,0,0,0,0,0,0,0,0,0,0,0,0,0,0,
0,0,0,0,0,0,0,0,0,0,0,0,0,0,0,0,0,0,0,0,0,0,0,0,0,0,0,0,0,0,0,0,0,0,0,0,0,0,0,0,
0,0,0,0,0,0,0,0,0,0,0,0,0,0,0,0,0,0,0,0,0,0,0,0,0,0,0,0,0,0,0,0,0,0,0,0,0,0,0,0,
0,0,0,0,0,0,0,0,0,0,0,0,0,0,0,0,0,0,0,0,0,0,0,0,0,0,0,0,0,0,0,0,0,0,0,0,0,0,0,0
</data>
  </layer>
  <objectgroup draworder="index" id="9" name="Level_0_FloorSprites"/>
  <layer id="10" name="Level_0_Walls" width="40" height="48">
   <properties>
    <property name="maybe_animation_id" value="15086595ffa2c1ed"/>
    <property name="maybe_tileset_id" value="966d986d8eca0ab7"/>
    <property name="tile_size" type="int" value="16"/>
   </properties>
   <data encoding="csv">
1704,0,1704,0,1704,0,1704,0,1704,0,1704,0,1704,0,1704,0,1704,0,1704,0,1704,0,1704,0,1704,0,1704,0,1704,0,1704,0,1704,0,1704,0,1704,0,1704,0,
0,0,0,0,0,0,0,0,0,0,0,0,0,0,0,0,0,0,0,0,0,0,0,0,0,0,0,0,0,0,0,0,0,0,0,0,0,0,0,0,
1704,0,1704,0,1704,0,1704,0,1704,0,1704,0,1704,0,1704,0,1704,0,1704,0,1704,0,1704,0,1704,0,1704,0,1704,0,1704,0,1704,0,1704,0,1704,0,1704,0,
0,0,0,0,0,0,0,0,0,0,0,0,0,0,0,0,0,0,0,0,0,0,0,0,0,0,0,0,0,0,0,0,0,0,0,0,0,0,0,0,
1704,0,1704,0,6446,0,6445,0,6446,0,6448,0,6449,0,6450,0,6446,0,6446,0,6446,0,6446,0,6448,0,6449,0,6450,0,6446,0,6447,0,6446,0,1704,0,1704,0,
0,0,0,0,0,0,0,0,0,0,0,0,0,0,0,0,0,0,0,0,0,0,0,0,0,0,0,0,0,0,0,0,0,0,0,0,0,0,0,0,
1704,0,1704,0,6458,0,6457,0,6458,0,6460,0,6461,0,6462,0,6458,0,6458,0,6458,0,6458,0,6460,0,6461,0,6462,0,6458,0,6459,0,6458,0,1704,0,1704,0,
0,0,0,0,0,0,0,0,0,0,0,0,0,0,0,0,0,0,0,0,0,0,0,0,0,0,0,0,0,0,0,0,0,0,0,0,0,0,0,0,
1704,0,1704,0,6470,0,6469,0,6470,0,6472,0,6473,0,6474,0,6470,0,6470,0,6470,0,6470,0,6472,0,6473,0,6474,0,6470,0,6471,0,6470,0,1704,0,1704,0,
0,0,0,0,0,0,0,0,0,0,0,0,0,0,0,0,0,0,0,0,0,0,0,0,0,0,0,0,0,0,0,0,0,0,0,0,0,0,0,0,
1704,0,1704,0,6482,0,6481,0,6482,0,6484,0,6485,0,6486,0,6482,0,6482,0,6482,0,6482,0,6484,0,6485,0,6486,0,6482,0,6483,0,6482,0,1704,0,1704,0,
0,0,0,0,0,0,0,0,0,0,0,0,0,0,0,0,0,0,0,0,0,0,0,0,0,0,0,0,0,0,0,0,0,0,0,0,0,0,0,0,
1704,0,1704,0,6494,0,6493,0,6494,0,6496,0,6497,0,6498,0,6494,0,6494,0,6494,0,6494,0,6496,0,6497,0,6498,0,6494,0,6495,0,6494,0,1704,0,1704,0,
0,0,0,0,0,0,0,0,0,0,0,0,0,0,0,0,0,0,0,0,0,0,0,0,0,0,0,0,0,0,0,0,0,0,0,0,0,0,0,0,
1704,0,1704,0,1704,0,1704,0,1704,0,1704,0,1704,0,1704,0,1704,0,1704,0,1704,0,1704,0,1704,0,1704,0,1704,0,1704,0,1704,0,1704,0,1704,0,1704,0,
0,0,0,0,0,0,0,0,0,0,0,0,0,0,0,0,0,0,0,0,0,0,0,0,0,0,0,0,0,0,0,0,0,0,0,0,0,0,0,0,
1704,0,1704,0,1704,0,1704,0,1704,0,1704,0,1704,0,1704,0,1704,0,1704,0,1704,0,1704,0,1704,0,1704,0,1704,0,1704,0,1704,0,1704,0,1704,0,1704,0,
0,0,0,0,0,0,0,0,0,0,0,0,0,0,0,0,0,0,0,0,0,0,0,0,0,0,0,0,0,0,0,0,0,0,0,0,0,0,0,0,
1704,0,1704,0,1704,0,1704,0,1704,0,1704,0,1704,0,1704,0,1704,0,1704,0,1704,0,1704,0,1704,0,1704,0,1704,0,1704,0,1704,0,1704,0,1704,0,1704,0,
0,0,0,0,0,0,0,0,0,0,0,0,0,0,0,0,0,0,0,0,0,0,0,0,0,0,0,0,0,0,0,0,0,0,0,0,0,0,0,0,
1704,0,1704,0,1704,0,1704,0,1704,0,1704,0,1704,0,1704,0,1704,0,1704,0,1704,0,1704,0,1704,0,1704,0,1704,0,1704,0,1704,0,1704,0,1704,0,1704,0,
0,0,0,0,0,0,0,0,0,0,0,0,0,0,0,0,0,0,0,0,0,0,0,0,0,0,0,0,0,0,0,0,0,0,0,0,0,0,0,0,
1704,0,1704,0,1704,0,1704,0,1704,0,1704,0,1704,0,1704,0,1704,0,1704,0,1704,0,1704,0,1704,0,1704,0,1704,0,1704,0,1704,0,1704,0,1704,0,1704,0,
0,0,0,0,0,0,0,0,0,0,0,0,0,0,0,0,0,0,0,0,0,0,0,0,0,0,0,0,0,0,0,0,0,0,0,0,0,0,0,0,
1704,0,1704,0,1704,0,1704,0,1704,0,1704,0,1704,0,1704,0,1704,0,1704,0,1704,0,0,0,0,0,0,0,0,0,0,0,0,0,0,0,0,0,0,0,
0,0,0,0,0,0,0,0,0,0,0,0,0,0,0,0,0,0,0,0,0,0,0,0,0,0,0,0,0,0,0,0,0,0,0,0,0,0,0,0,
0,0,0,0,0,0,0,0,0,0,0,0,0,0,0,0,0,0,0,0,0,0,0,0,0,0,0,0,0,0,0,0,0,0,0,0,0,0,0,0,
0,0,0,0,0,0,0,0,0,0,0,0,0,0,0,0,0,0,0,0,0,0,0,0,0,0,0,0,0,0,0,0,0,0,0,0,0,0,0,0,
0,0,0,0,0,0,0,0,0,0,0,0,0,0,0,0,0,0,0,0,0,0,0,0,0,0,0,0,0,0,0,0,0,0,0,0,0,0,0,0,
0,0,0,0,0,0,0,0,0,0,0,0,0,0,0,0,0,0,0,0,0,0,0,0,0,0,0,0,0,0,0,0,0,0,0,0,0,0,0,0,
0,0,0,0,0,0,0,0,0,0,0,0,0,0,0,0,0,0,0,0,0,0,0,0,0,0,0,0,0,0,0,0,0,0,0,0,0,0,0,0,
0,0,0,0,0,0,0,0,0,0,0,0,0,0,0,0,0,0,0,0,0,0,0,0,0,0,0,0,0,0,0,0,0,0,0,0,0,0,0,0,
0,0,0,0,0,0,0,0,0,0,0,0,0,0,0,0,0,0,0,0,0,0,0,0,0,0,0,0,0,0,0,0,0,0,0,0,0,0,0,0,
0,0,0,0,0,0,0,0,0,0,0,0,0,0,0,0,0,0,0,0,0,0,0,0,0,0,0,0,0,0,0,0,0,0,0,0,0,0,0,0,
0,0,0,0,0,0,0,0,0,0,0,0,0,0,0,0,0,0,0,0,0,0,0,0,0,0,0,0,0,0,0,0,0,0,0,0,0,0,0,0,
0,0,0,0,0,0,0,0,0,0,0,0,0,0,0,0,0,0,0,0,0,0,0,0,0,0,0,0,0,0,0,0,0,0,0,0,0,0,0,0,
0,0,0,0,0,0,0,0,0,0,0,0,0,0,0,0,0,0,0,0,0,0,0,0,0,0,0,0,0,0,0,0,0,0,0,0,0,0,0,0,
0,0,0,0,0,0,0,0,0,0,0,0,0,0,0,0,0,0,0,0,0,0,0,0,0,0,0,0,0,0,0,0,0,0,0,0,0,0,0,0,
0,0,0,0,0,0,0,0,0,0,0,0,0,0,0,0,0,0,0,0,0,0,0,0,0,0,0,0,0,0,0,0,0,0,0,0,0,0,0,0,
0,0,0,0,0,0,0,0,0,0,0,0,0,0,0,0,0,0,0,0,0,0,0,0,0,0,0,0,0,0,0,0,0,0,0,0,0,0,0,0,
0,0,0,0,0,0,0,0,0,0,0,0,0,0,0,0,0,0,0,0,0,0,0,0,0,0,0,0,0,0,0,0,0,0,0,0,0,0,0,0,
0,0,0,0,0,0,0,0,0,0,0,0,0,0,0,0,0,0,0,0,0,0,0,0,0,0,0,0,0,0,0,0,0,0,0,0,0,0,0,0,
0,0,0,0,0,0,0,0,0,0,0,0,0,0,0,0,0,0,0,0,0,0,0,0,0,0,0,0,0,0,0,0,0,0,0,0,0,0,0,0,
0,0,0,0,0,0,0,0,0,0,0,0,0,0,0,0,0,0,0,0,0,0,0,0,0,0,0,0,0,0,0,0,0,0,0,0,0,0,0,0,
0,0,0,0,0,0,0,0,0,0,0,0,0,0,0,0,0,0,0,0,0,0,0,0,0,0,0,0,0,0,0,0,0,0,0,0,0,0,0,0,
0,0,0,0,0,0,0,0,0,0,0,0,0,0,0,0,0,0,0,0,0,0,0,0,0,0,0,0,0,0,0,0,0,0,0,0,0,0,0,0,
0,0,0,0,0,0,0,0,0,0,0,0,0,0,0,0,0,0,0,0,0,0,0,0,0,0,0,0,0,0,0,0,0,0,0,0,0,0,0,0,
0,0,0,0,0,0,0,0,0,0,0,0,0,0,0,0,0,0,0,0,0,0,0,0,0,0,0,0,0,0,0,0,0,0,0,0,0,0,0,0
</data>
  </layer>
  <objectgroup draworder="index" id="11" name="Level_0_Assets"/>
  <layer id="12" name="PriorityObjects" width="40" height="48">
   <properties>
    <property name="maybe_animation_id" value="c17a3f663f237941"/>
    <property name="maybe_tileset_id" value="6517ec72c0df75c4"/>
    <property name="tile_size" type="int" value="16"/>
   </properties>
   <data encoding="csv">
6155,0,6155,0,6155,0,6155,0,6155,0,6155,0,6155,0,6155,0,6155,0,6155,0,6155,0,6155,0,6155,0,6155,0,6155,0,6155,0,6155,0,6155,0,6155,0,6155,0,
0,0,0,0,0,0,0,0,0,0,0,0,0,0,0,0,0,0,0,0,0,0,0,0,0,0,0,0,0,0,0,0,0,0,0,0,0,0,0,0,
6155,0,6155,0,6155,0,6155,0,6155,0,6155,0,6155,0,6155,0,6155,0,6155,0,6155,0,6155,0,6155,0,6155,0,6155,0,6155,0,6155,0,6155,0,6155,0,6155,0,
0,0,0,0,0,0,0,0,0,0,0,0,0,0,0,0,0,0,0,0,0,0,0,0,0,0,0,0,0,0,0,0,0,0,0,0,0,0,0,0,
6155,0,6155,0,6155,0,6155,0,6155,0,6155,0,6155,0,6155,0,6155,0,6155,0,6155,0,6155,0,6155,0,6155,0,6155,0,6155,0,6155,0,6155,0,6155,0,6155,0,
0,0,0,0,0,0,0,0,0,0,0,0,0,0,0,0,0,0,0,0,0,0,0,0,0,0,0,0,0,0,0,0,0,0,0,0,0,0,0,0,
6155,0,6155,0,6155,0,6155,0,6155,0,6155,0,6155,0,6155,0,6155,0,6155,0,6155,0,6155,0,6155,0,6155,0,6155,0,6155,0,6155,0,6155,0,6155,0,6155,0,
0,0,0,0,0,0,0,0,0,0,0,0,0,0,0,0,0,0,0,0,0,0,0,0,0,0,0,0,0,0,0,0,0,0,0,0,0,0,0,0,
6155,0,6155,0,6155,0,6155,0,6155,0,6155,0,6155,0,6155,0,6155,0,6155,0,6155,0,6155,0,6155,0,6155,0,6155,0,6155,0,6155,0,6155,0,6155,0,6155,0,
0,0,0,0,0,0,0,0,0,0,0,0,0,0,0,0,0,0,0,0,0,0,0,0,0,0,0,0,0,0,0,0,0,0,0,0,0,0,0,0,
6155,0,6155,0,6155,0,6155,0,6155,0,6155,0,6155,0,6155,0,6155,0,6155,0,6155,0,6155,0,6155,0,6155,0,6155,0,6155,0,6155,0,6155,0,6155,0,6155,0,
0,0,0,0,0,0,0,0,0,0,0,0,0,0,0,0,0,0,0,0,0,0,0,0,0,0,0,0,0,0,0,0,0,0,0,0,0,0,0,0,
6155,0,6155,0,6155,0,6155,0,6155,0,6155,0,6155,0,6155,0,6155,0,6155,0,6155,0,6155,0,6155,0,6155,0,6155,0,6155,0,6155,0,6155,0,6155,0,6155,0,
0,0,0,0,0,0,0,0,0,0,0,0,0,0,0,0,0,0,0,0,0,0,0,0,0,0,0,0,0,0,0,0,0,0,0,0,0,0,0,0,
6155,0,6155,0,6155,0,6155,0,6155,0,6155,0,6155,0,6155,0,6155,0,6155,0,6155,0,6155,0,6155,0,6155,0,6155,0,6155,0,6155,0,6155,0,6155,0,6155,0,
0,0,0,0,0,0,0,0,0,0,0,0,0,0,0,0,0,0,0,0,0,0,0,0,0,0,0,0,0,0,0,0,0,0,0,0,0,0,0,0,
6155,0,6155,0,6155,0,6155,0,6155,0,6155,0,6155,0,6155,0,6155,0,6155,0,6155,0,6155,0,6155,0,6155,0,6155,0,6155,0,6155,0,6155,0,6155,0,6155,0,
0,0,0,0,0,0,0,0,0,0,0,0,0,0,0,0,0,0,0,0,0,0,0,0,0,0,0,0,0,0,0,0,0,0,0,0,0,0,0,0,
6155,0,6155,0,6155,0,6155,0,6155,0,6155,0,6155,0,6155,0,6155,0,6155,0,6155,0,6155,0,6155,0,6155,0,6155,0,6155,0,6155,0,6155,0,6155,0,6155,0,
0,0,0,0,0,0,0,0,0,0,0,0,0,0,0,0,0,0,0,0,0,0,0,0,0,0,0,0,0,0,0,0,0,0,0,0,0,0,0,0,
6155,0,6155,0,6155,0,6155,0,6155,0,6155,0,6155,0,6155,0,6155,0,6155,0,6155,0,6155,0,6155,0,6155,0,6155,0,6155,0,6155,0,6155,0,6155,0,6155,0,
0,0,0,0,0,0,0,0,0,0,0,0,0,0,0,0,0,0,0,0,0,0,0,0,0,0,0,0,0,0,0,0,0,0,0,0,0,0,0,0,
6155,0,6155,0,6155,0,6155,0,6155,0,6155,0,6155,0,6155,0,6155,0,6155,0,6155,0,6155,0,6155,0,6155,0,6155,0,6155,0,6155,0,6155,0,6155,0,6155,0,
0,0,0,0,0,0,0,0,0,0,0,0,0,0,0,0,0,0,0,0,0,0,0,0,0,0,0,0,0,0,0,0,0,0,0,0,0,0,0,0,
6155,0,6155,0,6155,0,6155,0,6155,0,6155,0,6155,0,6155,0,6155,0,6155,0,6155,0,6155,0,6155,0,6155,0,6155,0,6155,0,6155,0,6155,0,6155,0,6155,0,
0,0,0,0,0,0,0,0,0,0,0,0,0,0,0,0,0,0,0,0,0,0,0,0,0,0,0,0,0,0,0,0,0,0,0,0,0,0,0,0,
6155,0,6155,0,6155,0,6155,0,6155,0,6155,0,6155,0,6155,0,6155,0,6155,0,6155,0,6155,0,6155,0,6155,0,6155,0,6155,0,6155,0,6155,0,6155,0,6155,0,
0,0,0,0,0,0,0,0,0,0,0,0,0,0,0,0,0,0,0,0,0,0,0,0,0,0,0,0,0,0,0,0,0,0,0,0,0,0,0,0,
6155,0,6155,0,6155,0,6155,0,6155,0,6155,0,6155,0,6155,0,6155,0,6155,0,6155,0,6155,0,6155,0,6155,0,6155,0,6155,0,6155,0,6155,0,6155,0,6155,0,
0,0,0,0,0,0,0,0,0,0,0,0,0,0,0,0,0,0,0,0,0,0,0,0,0,0,0,0,0,0,0,0,0,0,0,0,0,0,0,0,
6155,0,6155,0,6155,0,6155,0,6155,0,6155,0,6155,0,6155,0,6155,0,6155,0,6155,0,6155,0,6155,0,6155,0,6155,0,6155,0,6155,0,6155,0,6155,0,6155,0,
0,0,0,0,0,0,0,0,0,0,0,0,0,0,0,0,0,0,0,0,0,0,0,0,0,0,0,0,0,0,0,0,0,0,0,0,0,0,0,0,
6155,0,6155,0,6155,0,6155,0,6155,0,6155,0,6155,0,6155,0,6155,0,6155,0,6155,0,6155,0,6155,0,6155,0,6155,0,6155,0,6155,0,6155,0,6155,0,6155,0,
0,0,0,0,0,0,0,0,0,0,0,0,0,0,0,0,0,0,0,0,0,0,0,0,0,0,0,0,0,0,0,0,0,0,0,0,0,0,0,0,
6155,0,6155,0,6155,0,6155,0,6155,0,6155,0,6155,0,6155,0,6155,0,6155,0,6155,0,6155,0,6155,0,6155,0,6155,0,6155,0,6155,0,6155,0,6155,0,6155,0,
0,0,0,0,0,0,0,0,0,0,0,0,0,0,0,0,0,0,0,0,0,0,0,0,0,0,0,0,0,0,0,0,0,0,0,0,0,0,0,0,
6155,0,6155,0,6155,0,6155,0,6155,0,6155,0,6155,0,6155,0,6155,0,6155,0,6155,0,6155,0,6155,0,6155,0,6155,0,6155,0,6155,0,6155,0,6155,0,6155,0,
0,0,0,0,0,0,0,0,0,0,0,0,0,0,0,0,0,0,0,0,0,0,0,0,0,0,0,0,0,0,0,0,0,0,0,0,0,0,0,0,
6155,0,6155,0,6155,0,6155,0,6155,0,6155,0,6155,0,6155,0,6155,0,6155,0,6155,0,6155,0,6155,0,6155,0,6155,0,6155,0,6155,0,6155,0,6155,0,6155,0,
0,0,0,0,0,0,0,0,0,0,0,0,0,0,0,0,0,0,0,0,0,0,0,0,0,0,0,0,0,0,0,0,0,0,0,0,0,0,0,0,
6155,0,6155,0,6155,0,6155,0,6155,0,6155,0,6155,0,6155,0,6155,0,6155,0,6155,0,6155,0,6155,0,6155,0,6155,0,6155,0,6155,0,6155,0,6155,0,6155,0,
0,0,0,0,0,0,0,0,0,0,0,0,0,0,0,0,0,0,0,0,0,0,0,0,0,0,0,0,0,0,0,0,0,0,0,0,0,0,0,0,
6155,0,6155,0,6155,0,6155,0,6155,0,6155,0,6155,0,6155,0,6155,0,6155,0,6155,0,6155,0,6155,0,6155,0,6155,0,6155,0,6155,0,6155,0,6155,0,6155,0,
0,0,0,0,0,0,0,0,0,0,0,0,0,0,0,0,0,0,0,0,0,0,0,0,0,0,0,0,0,0,0,0,0,0,0,0,0,0,0,0,
6155,0,6155,0,6155,0,6155,0,6155,0,6155,0,6155,0,6155,0,6155,0,6155,0,6155,0,6155,0,6155,0,6155,0,6155,0,6155,0,6155,0,6155,0,6155,0,6155,0,
0,0,0,0,0,0,0,0,0,0,0,0,0,0,0,0,0,0,0,0,0,0,0,0,0,0,0,0,0,0,0,0,0,0,0,0,0,0,0,0,
6155,0,6155,0,6155,0,6155,0,6155,0,6155,0,6155,0,6155,0,6155,0,6155,0,6155,0,6155,0,6155,0,6155,0,6155,0,6155,0,6155,0,6155,0,6155,0,6155,0,
0,0,0,0,0,0,0,0,0,0,0,0,0,0,0,0,0,0,0,0,0,0,0,0,0,0,0,0,0,0,0,0,0,0,0,0,0,0,0,0
</data>
  </layer>
 </group>
 <group id="13" name="Level_1">
  <layer id="14" name="Level_1_BlackArea" width="40" height="48">
   <properties>
    <property name="maybe_animation_id" value="894b2d60a17cb335"/>
    <property name="maybe_tileset_id" value="6df8acde94464761"/>
    <property name="tile_size" type="int" value="16"/>
   </properties>
   <data encoding="csv">
1729,0,1729,0,1729,0,1729,0,1729,0,1729,0,1729,0,1729,0,1729,0,1729,0,1729,0,1729,0,1729,0,1729,0,1729,0,1729,0,1729,0,1729,0,1729,0,1729,0,
0,0,0,0,0,0,0,0,0,0,0,0,0,0,0,0,0,0,0,0,0,0,0,0,0,0,0,0,0,0,0,0,0,0,0,0,0,0,0,0,
1729,0,1729,0,1729,0,1729,0,1729,0,1729,0,1729,0,1729,0,1729,0,1729,0,1729,0,1729,0,1729,0,1729,0,1729,0,1729,0,1729,0,1729,0,1729,0,1729,0,
0,0,0,0,0,0,0,0,0,0,0,0,0,0,0,0,0,0,0,0,0,0,0,0,0,0,0,0,0,0,0,0,0,0,0,0,0,0,0,0,
1729,0,1729,0,1704,0,1704,0,1704,0,1704,0,1704,0,1704,0,1704,0,1704,0,1704,0,1704,0,1704,0,1704,0,1704,0,1704,0,1704,0,1704,0,1729,0,1729,0,
0,0,0,0,0,0,0,0,0,0,0,0,0,0,0,0,0,0,0,0,0,0,0,0,0,0,0,0,0,0,0,0,0,0,0,0,0,0,0,0,
1729,0,1729,0,1704,0,1704,0,1704,0,1704,0,1704,0,1704,0,1704,0,1704,0,1704,0,1704,0,1704,0,1704,0,1704,0,1704,0,1704,0,1704,0,1729,0,1729,0,
0,0,0,0,0,0,0,0,0,0,0,0,0,0,0,0,0,0,0,0,0,0,0,0,0,0,0,0,0,0,0,0,0,0,0,0,0,0,0,0,
1729,0,1729,0,1704,0,1704,0,1704,0,1704,0,1704,0,1704,0,1704,0,1704,0,1704,0,1704,0,1704,0,1704,0,1704,0,1704,0,1704,0,1704,0,1729,0,1729,0,
0,0,0,0,0,0,0,0,0,0,0,0,0,0,0,0,0,0,0,0,0,0,0,0,0,0,0,0,0,0,0,0,0,0,0,0,0,0,0,0,
1729,0,1729,0,1704,0,1704,0,1704,0,1704,0,1704,0,1704,0,1704,0,1704,0,1704,0,1704,0,1704,0,1704,0,1704,0,1704,0,1704,0,1704,0,1729,0,1729,0,
0,0,0,0,0,0,0,0,0,0,0,0,0,0,0,0,0,0,0,0,0,0,0,0,0,0,0,0,0,0,0,0,0,0,0,0,0,0,0,0,
1729,0,1729,0,1704,0,1704,0,1704,0,1704,0,1704,0,1704,0,1704,0,1704,0,1704,0,1704,0,1704,0,1704,0,1704,0,1704,0,1704,0,1704,0,1729,0,1729,0,
0,0,0,0,0,0,0,0,0,0,0,0,0,0,0,0,0,0,0,0,0,0,0,0,0,0,0,0,0,0,0,0,0,0,0,0,0,0,0,0,
1729,0,1729,0,1704,0,1704,0,1704,0,1704,0,1704,0,1704,0,1704,0,1704,0,1704,0,1704,0,1704,0,1704,0,1704,0,1704,0,1704,0,1704,0,1729,0,1729,0,
0,0,0,0,0,0,0,0,0,0,0,0,0,0,0,0,0,0,0,0,0,0,0,0,0,0,0,0,0,0,0,0,0,0,0,0,0,0,0,0,
1729,0,1729,0,1704,0,1704,0,1704,0,1704,0,1704,0,1704,0,1704,0,1704,0,1704,0,1704,0,1704,0,1704,0,1704,0,1704,0,1704,0,1704,0,1729,0,1729,0,
0,0,0,0,0,0,0,0,0,0,0,0,0,0,0,0,0,0,0,0,0,0,0,0,0,0,0,0,0,0,0,0,0,0,0,0,0,0,0,0,
1729,0,1729,0,1704,0,1704,0,1704,0,1704,0,1704,0,1704,0,1704,0,1704,0,1704,0,1704,0,1704,0,1704,0,1704,0,1704,0,1704,0,1704,0,1729,0,1729,0,
0,0,0,0,0,0,0,0,0,0,0,0,0,0,0,0,0,0,0,0,0,0,0,0,0,0,0,0,0,0,0,0,0,0,0,0,0,0,0,0,
1729,0,1729,0,1704,0,1704,0,1704,0,1704,0,1704,0,1704,0,1704,0,1704,0,1704,0,1704,0,1704,0,1704,0,1704,0,1704,0,1704,0,1704,0,1729,0,1729,0,
0,0,0,0,0,0,0,0,0,0,0,0,0,0,0,0,0,0,0,0,0,0,0,0,0,0,0,0,0,0,0,0,0,0,0,0,0,0,0,0,
1729,0,1729,0,1704,0,1704,0,1704,0,1704,0,1704,0,1704,0,1704,0,1704,0,1704,0,1704,0,1704,0,1704,0,1704,0,1704,0,1704,0,1704,0,1729,0,1729,0,
0,0,0,0,0,0,0,0,0,0,0,0,0,0,0,0,0,0,0,0,0,0,0,0,0,0,0,0,0,0,0,0,0,0,0,0,0,0,0,0,
1729,0,1729,0,1704,0,1704,0,1704,0,1704,0,1704,0,1704,0,1704,0,1704,0,1704,0,1704,0,1704,0,1704,0,1704,0,1704,0,1704,0,1704,0,1729,0,1729,0,
0,0,0,0,0,0,0,0,0,0,0,0,0,0,0,0,0,0,0,0,0,0,0,0,0,0,0,0,0,0,0,0,0,0,0,0,0,0,0,0,
1729,0,1729,0,1704,0,1704,0,1704,0,1704,0,1704,0,1704,0,1704,0,1704,0,1704,0,1704,0,1704,0,1704,0,1704,0,1704,0,1704,0,1704,0,1729,0,1729,0,
0,0,0,0,0,0,0,0,0,0,0,0,0,0,0,0,0,0,0,0,0,0,0,0,0,0,0,0,0,0,0,0,0,0,0,0,0,0,0,0,
1729,0,1729,0,1704,0,1704,0,1704,0,1704,0,1704,0,1704,0,1704,0,1704,0,1704,0,1704,0,1704,0,1704,0,1704,0,1704,0,1704,0,1704,0,1729,0,1729,0,
0,0,0,0,0,0,0,0,0,0,0,0,0,0,0,0,0,0,0,0,0,0,0,0,0,0,0,0,0,0,0,0,0,0,0,0,0,0,0,0,
1729,0,1729,0,1704,0,1704,0,1704,0,1704,0,1704,0,1704,0,1704,0,1704,0,1704,0,1704,0,1704,0,1704,0,1704,0,1704,0,1704,0,1704,0,1729,0,1729,0,
0,0,0,0,0,0,0,0,0,0,0,0,0,0,0,0,0,0,0,0,0,0,0,0,0,0,0,0,0,0,0,0,0,0,0,0,0,0,0,0,
1729,0,1729,0,1704,0,1704,0,1704,0,1704,0,1704,0,1704,0,1704,0,1704,0,1704,0,1704,0,1704,0,1704,0,1704,0,1704,0,1704,0,1704,0,1729,0,1729,0,
0,0,0,0,0,0,0,0,0,0,0,0,0,0,0,0,0,0,0,0,0,0,0,0,0,0,0,0,0,0,0,0,0,0,0,0,0,0,0,0,
1729,0,1729,0,1704,0,1704,0,1704,0,1704,0,1704,0,1704,0,1704,0,1704,0,1704,0,1704,0,1704,0,1704,0,1704,0,1704,0,1704,0,1704,0,1729,0,1729,0,
0,0,0,0,0,0,0,0,0,0,0,0,0,0,0,0,0,0,0,0,0,0,0,0,0,0,0,0,0,0,0,0,0,0,0,0,0,0,0,0,
1729,0,1729,0,1704,0,1704,0,1704,0,1704,0,1704,0,1704,0,1704,0,1704,0,1704,0,1704,0,1704,0,1704,0,1704,0,1704,0,1704,0,1704,0,1729,0,1729,0,
0,0,0,0,0,0,0,0,0,0,0,0,0,0,0,0,0,0,0,0,0,0,0,0,0,0,0,0,0,0,0,0,0,0,0,0,0,0,0,0,
1729,0,1729,0,1704,0,1704,0,1704,0,1704,0,1704,0,1704,0,1704,0,1704,0,1704,0,1704,0,1704,0,1704,0,1704,0,1704,0,1704,0,1704,0,1729,0,1729,0,
0,0,0,0,0,0,0,0,0,0,0,0,0,0,0,0,0,0,0,0,0,0,0,0,0,0,0,0,0,0,0,0,0,0,0,0,0,0,0,0,
1729,0,1729,0,1704,0,1704,0,1704,0,1704,0,1704,0,1704,0,1704,0,1704,0,1704,0,1704,0,1704,0,1704,0,1704,0,1704,0,1704,0,1704,0,1729,0,1729,0,
0,0,0,0,0,0,0,0,0,0,0,0,0,0,0,0,0,0,0,0,0,0,0,0,0,0,0,0,0,0,0,0,0,0,0,0,0,0,0,0,
1729,0,1729,0,1729,0,1729,0,1729,0,1729,0,1729,0,1729,0,1729,0,1729,0,1729,0,1729,0,1729,0,1729,0,1729,0,1729,0,1729,0,1729,0,1729,0,1729,0,
0,0,0,0,0,0,0,0,0,0,0,0,0,0,0,0,0,0,0,0,0,0,0,0,0,0,0,0,0,0,0,0,0,0,0,0,0,0,0,0,
1729,0,1729,0,1729,0,1729,0,1729,0,1729,0,1729,0,1729,0,1729,0,1729,0,1729,0,1729,0,1729,0,1729,0,1729,0,1729,0,1729,0,1729,0,1729,0,1729,0,
0,0,0,0,0,0,0,0,0,0,0,0,0,0,0,0,0,0,0,0,0,0,0,0,0,0,0,0,0,0,0,0,0,0,0,0,0,0,0,0,
1729,0,1729,0,1729,0,1729,0,1729,0,1729,0,1729,0,1729,0,1729,0,1729,0,1729,0,1729,0,1729,0,1729,0,1729,0,1729,0,1729,0,1729,0,1729,0,1729,0,
0,0,0,0,0,0,0,0,0,0,0,0,0,0,0,0,0,0,0,0,0,0,0,0,0,0,0,0,0,0,0,0,0,0,0,0,0,0,0,0
</data>
  </layer>
  <layer id="15" name="Level_1_Ceiling" width="40" height="48">
   <properties>
    <property name="maybe_animation_id" value="15086595ffa2c1ed"/>
    <property name="maybe_tileset_id" value="966d986d8eca0ab7"/>
    <property name="tile_size" type="int" value="16"/>
   </properties>
   <data encoding="csv">
1704,0,1704,0,1704,0,1704,0,1704,0,1704,0,1704,0,1704,0,1704,0,1704,0,1704,0,1704,0,1704,0,1704,0,1704,0,1704,0,1704,0,1704,0,1704,0,1704,0,
0,0,0,0,0,0,0,0,0,0,0,0,0,0,0,0,0,0,0,0,0,0,0,0,0,0,0,0,0,0,0,0,0,0,0,0,0,0,0,0,
1704,0,6440,0,6441,0,6442,0,6442,0,6442,0,6442,0,6442,0,6442,0,6442,0,6442,0,6442,0,6442,0,6442,0,6442,0,6442,0,6442,0,6443,0,6444,0,1704,0,
0,0,0,0,0,0,0,0,0,0,0,0,0,0,0,0,0,0,0,0,0,0,0,0,0,0,0,0,0,0,0,0,0,0,0,0,0,0,0,0,
1704,0,6452,0,6453,0,6454,0,6454,0,6454,0,6454,0,6454,0,6454,0,6454,0,6454,0,6454,0,6454,0,6454,0,6454,0,6454,0,6454,0,6455,0,6456,0,1704,0,
0,0,0,0,0,0,0,0,0,0,0,0,0,0,0,0,0,0,0,0,0,0,0,0,0,0,0,0,0,0,0,0,0,0,0,0,0,0,0,0,
1704,0,6464,0,6465,0,1704,0,1704,0,1704,0,1704,0,1704,0,1704,0,1704,0,1704,0,1704,0,1704,0,1704,0,1704,0,1704,0,1704,0,6467,0,6468,0,1704,0,
0,0,0,0,0,0,0,0,0,0,0,0,0,0,0,0,0,0,0,0,0,0,0,0,0,0,0,0,0,0,0,0,0,0,0,0,0,0,0,0,
1704,0,6464,0,6465,0,1704,0,1704,0,1704,0,1704,0,1704,0,1704,0,1704,0,1704,0,1704,0,1704,0,1704,0,1704,0,1704,0,1704,0,6467,0,6468,0,1704,0,
0,0,0,0,0,0,0,0,0,0,0,0,0,0,0,0,0,0,0,0,0,0,0,0,0,0,0,0,0,0,0,0,0,0,0,0,0,0,0,0,
1704,0,6464,0,6465,0,1704,0,1704,0,1704,0,1704,0,1704,0,1704,0,1704,0,1704,0,1704,0,1704,0,1704,0,1704,0,1704,0,1704,0,6467,0,6468,0,1704,0,
0,0,0,0,0,0,0,0,0,0,0,0,0,0,0,0,0,0,0,0,0,0,0,0,0,0,0,0,0,0,0,0,0,0,0,0,0,0,0,0,
1704,0,6464,0,6465,0,1704,0,1704,0,1704,0,1704,0,1704,0,1704,0,1704,0,1704,0,1704,0,1704,0,1704,0,1704,0,1704,0,1704,0,6467,0,6468,0,1704,0,
0,0,0,0,0,0,0,0,0,0,0,0,0,0,0,0,0,0,0,0,0,0,0,0,0,0,0,0,0,0,0,0,0,0,0,0,0,0,0,0,
1704,0,6464,0,6465,0,1704,0,1704,0,1704,0,1704,0,1704,0,1704,0,1704,0,1704,0,1704,0,1704,0,1704,0,1704,0,1704,0,1704,0,6467,0,6468,0,1704,0,
0,0,0,0,0,0,0,0,0,0,0,0,0,0,0,0,0,0,0,0,0,0,0,0,0,0,0,0,0,0,0,0,0,0,0,0,0,0,0,0,
1704,0,6464,0,6465,0,1704,0,1704,0,1704,0,1704,0,1704,0,1704,0,1704,0,1704,0,1704,0,1704,0,1704,0,1704,0,1704,0,1704,0,6467,0,6468,0,1704,0,
0,0,0,0,0,0,0,0,0,0,0,0,0,0,0,0,0,0,0,0,0,0,0,0,0,0,0,0,0,0,0,0,0,0,0,0,0,0,0,0,
1704,0,6464,0,6465,0,1704,0,1704,0,1704,0,1704,0,1704,0,1704,0,1704,0,1704,0,1704,0,1704,0,1704,0,1704,0,1704,0,1704,0,6467,0,6468,0,1704,0,
0,0,0,0,0,0,0,0,0,0,0,0,0,0,0,0,0,0,0,0,0,0,0,0,0,0,0,0,0,0,0,0,0,0,0,0,0,0,0,0,
1704,0,6464,0,6465,0,1704,0,1704,0,1704,0,1704,0,1704,0,1704,0,1704,0,1704,0,1704,0,1704,0,1704,0,1704,0,1704,0,1704,0,6467,0,6468,0,1704,0,
0,0,0,0,0,0,0,0,0,0,0,0,0,0,0,0,0,0,0,0,0,0,0,0,0,0,0,0,0,0,0,0,0,0,0,0,0,0,0,0,
1704,0,6464,0,6465,0,1704,0,1704,0,1704,0,1704,0,1704,0,1704,0,1704,0,1704,0,1704,0,1704,0,1704,0,1704,0,1704,0,1704,0,6467,0,6468,0,1704,0,
0,0,0,0,0,0,0,0,0,0,0,0,0,0,0,0,0,0,0,0,0,0,0,0,0,0,0,0,0,0,0,0,0,0,0,0,0,0,0,0,
1704,0,6464,0,6465,0,1704,0,1704,0,1704,0,1704,0,1704,0,1704,0,1704,0,1704,0,1704,0,1704,0,1704,0,1704,0,1704,0,1704,0,6467,0,6468,0,1704,0,
0,0,0,0,0,0,0,0,0,0,0,0,0,0,0,0,0,0,0,0,0,0,0,0,0,0,0,0,0,0,0,0,0,0,0,0,0,0,0,0,
1704,0,6464,0,6465,0,1704,0,1704,0,1704,0,1704,0,1704,0,1704,0,1704,0,1704,0,1704,0,1704,0,1704,0,1704,0,1704,0,1704,0,6467,0,6468,0,1704,0,
0,0,0,0,0,0,0,0,0,0,0,0,0,0,0,0,0,0,0,0,0,0,0,0,0,0,0,0,0,0,0,0,0,0,0,0,0,0,0,0,
1704,0,6464,0,6465,0,1704,0,1704,0,1704,0,1704,0,1704,0,1704,0,1704,0,1704,0,1704,0,1704,0,1704,0,1704,0,1704,0,1704,0,6467,0,6468,0,1704,0,
0,0,0,0,0,0,0,0,0,0,0,0,0,0,0,0,0,0,0,0,0,0,0,0,0,0,0,0,0,0,0,0,0,0,0,0,0,0,0,0,
1704,0,6464,0,6465,0,1704,0,1704,0,1704,0,1704,0,1704,0,1704,0,1704,0,1704,0,1704,0,1704,0,1704,0,1704,0,1704,0,1704,0,6467,0,6468,0,1704,0,
0,0,0,0,0,0,0,0,0,0,0,0,0,0,0,0,0,0,0,0,0,0,0,0,0,0,0,0,0,0,0,0,0,0,0,0,0,0,0,0,
1704,0,6464,0,6465,0,1704,0,1704,0,1704,0,1704,0,1704,0,1704,0,1704,0,1704,0,1704,0,1704,0,1704,0,1704,0,1704,0,1704,0,6467,0,6468,0,1704,0,
0,0,0,0,0,0,0,0,0,0,0,0,0,0,0,0,0,0,0,0,0,0,0,0,0,0,0,0,0,0,0,0,0,0,0,0,0,0,0,0,
1704,0,6464,0,6465,0,1704,0,1704,0,1704,0,1704,0,1704,0,1704,0,1704,0,1704,0,1704,0,1704,0,1704,0,1704,0,1704,0,1704,0,6467,0,6468,0,1704,0,
0,0,0,0,0,0,0,0,0,0,0,0,0,0,0,0,0,0,0,0,0,0,0,0,0,0,0,0,0,0,0,0,0,0,0,0,0,0,0,0,
1704,0,6464,0,6465,0,1704,0,1704,0,1704,0,1704,0,1704,0,1704,0,1704,0,1704,0,1704,0,1704,0,1704,0,1704,0,1704,0,1704,0,6467,0,6468,0,1704,0,
0,0,0,0,0,0,0,0,0,0,0,0,0,0,0,0,0,0,0,0,0,0,0,0,0,0,0,0,0,0,0,0,0,0,0,0,0,0,0,0,
1704,0,6464,0,6465,0,1704,0,1704,0,1704,0,1704,0,1704,0,6499,0,6500,0,6501,0,6502,0,1704,0,1704,0,1704,0,1704,0,1704,0,6467,0,6468,0,1704,0,
0,0,0,0,0,0,0,0,0,0,0,0,0,0,0,0,0,0,0,0,0,0,0,0,0,0,0,0,0,0,0,0,0,0,0,0,0,0,0,0,
1704,0,6476,0,6477,0,6478,0,6478,0,6478,0,6478,0,6478,0,6511,0,6512,0,6513,0,6514,0,6478,0,6478,0,6478,0,6478,0,6478,0,6479,0,6480,0,1704,0,
0,0,0,0,0,0,0,0,0,0,0,0,0,0,0,0,0,0,0,0,0,0,0,0,0,0,0,0,0,0,0,0,0,0,0,0,0,0,0,0,
1704,0,6488,0,6489,0,6490,0,6490,0,6490,0,6490,0,6490,0,6523,0,6524,0,6525,0,6526,0,6490,0,6490,0,6490,0,6490,0,6490,0,6491,0,6492,0,1704,0,
0,0,0,0,0,0,0,0,0,0,0,0,0,0,0,0,0,0,0,0,0,0,0,0,0,0,0,0,0,0,0,0,0,0,0,0,0,0,0,0,
1704,0,1704,0,1704,0,1704,0,1704,0,1704,0,1704,0,1704,0,1704,0,1704,0,1704,0,1704,0,1704,0,1704,0,1704,0,1704,0,1704,0,1704,0,1704,0,1704,0,
0,0,0,0,0,0,0,0,0,0,0,0,0,0,0,0,0,0,0,0,0,0,0,0,0,0,0,0,0,0,0,0,0,0,0,0,0,0,0,0,
1704,0,1704,0,1704,0,1704,0,1704,0,1704,0,1704,0,1704,0,1704,0,1704,0,1704,0,1704,0,1704,0,1704,0,1704,0,1704,0,1704,0,1704,0,1704,0,1704,0,
0,0,0,0,0,0,0,0,0,0,0,0,0,0,0,0,0,0,0,0,0,0,0,0,0,0,0,0,0,0,0,0,0,0,0,0,0,0,0,0
</data>
  </layer>
 </group>
 <layer id="16" name="Tiles_Collision" width="40" height="48" visible="0">
  <properties>
   <property name="maybe_animation_id" value="d5b5e9552171fe70"/>
   <property name="maybe_tileset_id" value="b29026a2ad0be741"/>
   <property name="tile_size" type="int" value="8"/>
  </properties>
  <data encoding="csv">
1508,1508,1508,1508,1508,1508,1508,1508,1508,1508,1508,1508,1508,1508,1508,1508,1508,1508,1508,1508,1508,1508,1508,1508,1508,1508,1508,1508,1508,1508,1508,1508,1508,1508,1508,1508,1508,1508,1508,1508,
1508,1508,1508,1508,1508,1508,1508,1508,1508,1508,1508,1508,1508,1508,1508,1508,1508,1508,1508,1508,1508,1508,1508,1508,1508,1508,1508,1508,1508,1508,1508,1508,1508,1508,1508,1508,1508,1508,1508,1508,
1508,1508,1508,1508,1508,1508,1508,1508,1508,1508,1508,1508,1508,1508,1508,1508,1508,1508,1508,1508,1508,1508,1508,1508,1508,1508,1508,1508,1508,1508,1508,1508,1508,1508,1508,1508,1508,1508,1508,1508,
1508,1508,1508,1508,1508,1508,1508,1508,1508,1508,1508,1508,1508,1508,1508,1508,1508,1508,1508,1508,1508,1508,1508,1508,1508,1508,1508,1508,1508,1508,1508,1508,1508,1508,1508,1508,1508,1508,1508,1508,
1508,1508,1508,1508,1508,1508,1508,1508,1508,1508,1508,1508,1508,1508,1508,1508,1508,1508,1508,1508,1508,1508,1508,1508,1508,1508,1508,1508,1508,1508,1508,1508,1508,1508,1508,1508,1508,1508,1508,1508,
1508,1508,1508,1508,1508,1508,1508,1508,1508,1508,1508,1508,1508,1508,1508,1508,1508,1508,1508,1508,1508,1508,1508,1508,1508,1508,1508,1508,1508,1508,1508,1508,1508,1508,1508,1508,1508,1508,1508,1508,
1508,1508,1508,1508,1508,1508,1508,1508,1508,1508,1508,1508,1508,1508,1508,1508,1508,1508,1508,1508,1508,1508,1508,1508,1508,1508,1508,1508,1508,1508,1508,1508,1508,1508,1508,1508,1508,1508,1508,1508,
1508,1508,1508,1508,1508,1508,1508,1508,1508,1508,1508,1508,1508,1508,1508,1508,1508,1508,1508,1508,1508,1508,1508,1508,1508,1508,1508,1508,1508,1508,1508,1508,1508,1508,1508,1508,1508,1508,1508,1508,
1508,1508,1508,1508,1508,1508,1508,1508,1508,1508,1508,1508,1508,1508,1508,1508,1508,1508,1508,1508,1508,1508,1508,1508,1508,1508,1508,1508,1508,1508,1508,1508,1508,1508,1508,1508,1508,1508,1508,1508,
1508,1508,1508,1508,1508,1508,1508,1508,1508,1508,1508,1508,1508,1508,1508,1508,1508,1508,1508,1508,1508,1508,1508,1508,1508,1508,1508,1508,1508,1508,1508,1508,1508,1508,1508,1508,1508,1508,1508,1508,
1508,1508,1508,1508,1508,1508,1508,1508,1508,1508,1508,1508,1508,1508,1508,1508,1508,1508,1508,1508,1508,1508,1508,1508,1508,1508,1508,1508,1508,1508,1508,1508,1508,1508,1508,1508,1508,1508,1508,1508,
1508,1508,1508,1508,1508,1508,1508,1508,1508,1508,1508,1508,1508,1508,1508,1508,1508,1508,1508,1508,1508,1508,1508,1508,1508,1508,1508,1508,1508,1508,1508,1508,1508,1508,1508,1508,1508,1508,1508,1508,
1508,1508,1508,1508,1508,1508,1508,1508,1508,1508,1508,1508,1508,1508,1508,1508,1508,1508,1508,1508,1508,1508,1508,1508,1508,1508,1508,1508,1508,1508,1508,1508,1508,1508,1508,1508,1508,1508,1508,1508,
1508,1508,1508,1508,1508,1508,1505,1505,1505,1505,1505,1505,1505,1505,1505,1505,1505,1505,1505,1505,1505,1505,1505,1505,1505,1505,1505,1505,1505,1505,1505,1505,1505,1505,1508,1508,1508,1508,1508,1508,
1508,1508,1508,1508,1508,1508,1505,1505,1505,1505,1505,1505,1505,1505,1505,1505,1505,1505,1505,1505,1505,1505,1505,1505,1505,1505,1505,1505,1505,1505,1505,1505,1505,1505,1508,1508,1508,1508,1508,1508,
1508,1508,1508,1508,1508,1508,1505,1505,1505,1505,1505,1505,1505,1505,1505,1505,1505,1505,1505,1505,1505,1505,1505,1505,1505,1505,1505,1505,1505,1505,1505,1505,1505,1505,1508,1508,1508,1508,1508,1508,
1508,1508,1508,1508,1508,1508,1505,1505,1505,1505,1505,1505,1505,1505,1505,1505,1505,1505,1505,1505,1505,1505,1505,1505,1505,1505,1505,1505,1505,1505,1505,1505,1505,1505,1508,1508,1508,1508,1508,1508,
1508,1508,1508,1508,1508,1508,1505,1505,1505,1505,1505,1505,1505,1505,1505,1505,1505,1505,1505,1505,1505,1505,1505,1505,1505,1505,1505,1505,1505,1505,1505,1505,1505,1505,1508,1508,1508,1508,1508,1508,
1508,1508,1508,1508,1508,1508,1505,1505,1505,1505,1505,1505,1505,1505,1505,1505,1505,1505,1505,1505,1505,1505,1505,1505,1505,1505,1505,1505,1505,1505,1505,1505,1505,1505,1508,1508,1508,1508,1508,1508,
1508,1508,1508,1508,1508,1508,1505,1505,1505,1505,1505,1505,1505,1505,1505,1505,1505,1505,1505,1505,1505,1505,1505,1505,1505,1505,1505,1505,1505,1505,1505,1505,1505,1505,1508,1508,1508,1508,1508,1508,
1508,1508,1508,1508,1508,1508,1505,1505,1505,1505,1505,1505,1505,1505,1505,1505,1505,1505,1505,1505,1505,1505,1505,1505,1505,1505,1505,1505,1505,1505,1505,1505,1505,1505,1508,1508,1508,1508,1508,1508,
1508,1508,1508,1508,1508,1508,1505,1505,1505,1505,1505,1505,1505,1505,1505,1505,1505,1505,1505,1505,1505,1505,1505,1505,1505,1505,1505,1505,1505,1505,1505,1505,1505,1505,1508,1508,1508,1508,1508,1508,
1508,1508,1508,1508,1508,1508,1505,1505,1505,1505,1505,1505,1505,1505,1505,1505,1505,1505,1505,1505,1505,1505,1505,1505,1505,1505,1505,1505,1505,1505,1505,1505,1505,1505,1508,1508,1508,1508,1508,1508,
1508,1508,1508,1508,1508,1508,1505,1505,1505,1505,1505,1505,1505,1505,1505,1505,1505,1505,1505,1505,1505,1505,1505,1505,1505,1505,1505,1505,1505,1505,1505,1505,1505,1505,1508,1508,1508,1508,1508,1508,
1508,1508,1508,1508,1508,1508,1505,1505,1505,1505,1505,1505,1505,1505,1505,1505,1505,1505,1505,1505,1505,1505,1505,1505,1505,1505,1505,1505,1505,1505,1505,1505,1505,1505,1508,1508,1508,1508,1508,1508,
1508,1508,1508,1508,1508,1508,1505,1505,1505,1505,1505,1505,1505,1505,1505,1505,1505,1505,1505,1505,1505,1505,1505,1505,1505,1505,1505,1505,1505,1505,1505,1505,1505,1505,1508,1508,1508,1508,1508,1508,
1508,1508,1508,1508,1508,1508,1505,1505,1505,1505,1505,1505,1505,1505,1505,1505,1505,1505,1505,1505,1505,1505,1505,1505,1505,1505,1505,1505,1505,1505,1505,1505,1505,1505,1508,1508,1508,1508,1508,1508,
1508,1508,1508,1508,1508,1508,1505,1505,1505,1505,1505,1505,1505,1505,1505,1505,1505,1505,1505,1505,1505,1505,1505,1505,1505,1505,1505,1505,1505,1505,1505,1505,1505,1505,1508,1508,1508,1508,1508,1508,
1508,1508,1508,1508,1508,1508,1505,1505,1505,1505,1505,1505,1505,1505,1505,1505,1505,1505,1505,1505,1505,1505,1505,1505,1505,1505,1505,1505,1505,1505,1505,1505,1505,1505,1508,1508,1508,1508,1508,1508,
1508,1508,1508,1508,1508,1508,1505,1505,1505,1505,1505,1505,1505,1505,1505,1505,1505,1505,1505,1505,1505,1505,1505,1505,1505,1505,1505,1505,1505,1505,1505,1505,1505,1505,1508,1508,1508,1508,1508,1508,
1508,1508,1508,1508,1508,1508,1505,1505,1505,1505,1505,1505,1505,1505,1505,1505,1505,1505,1505,1505,1505,1505,1505,1505,1505,1505,1505,1505,1505,1505,1505,1505,1505,1505,1508,1508,1508,1508,1508,1508,
1508,1508,1508,1508,1508,1508,1505,1505,1505,1505,1505,1505,1505,1505,1505,1505,1505,1505,1505,1505,1505,1505,1505,1505,1505,1505,1505,1505,1505,1505,1505,1505,1505,1505,1508,1508,1508,1508,1508,1508,
1508,1508,1508,1508,1508,1508,1505,1505,1505,1505,1505,1505,1505,1505,1505,1505,1505,1505,1505,1505,1505,1505,1505,1505,1505,1505,1505,1505,1505,1505,1505,1505,1505,1505,1508,1508,1508,1508,1508,1508,
1508,1508,1508,1508,1508,1508,1505,1505,1505,1505,1505,1505,1505,1505,1505,1505,1505,1505,1505,1505,1505,1505,1505,1505,1505,1505,1505,1505,1505,1505,1505,1505,1505,1505,1508,1508,1508,1508,1508,1508,
1508,1508,1508,1508,1508,1508,1505,1505,1505,1505,1505,1505,1505,1505,1505,1505,1505,1505,1505,1505,1505,1505,1505,1505,1505,1505,1505,1505,1505,1505,1505,1505,1505,1505,1508,1508,1508,1508,1508,1508,
1508,1508,1508,1508,1508,1508,1505,1505,1505,1505,1505,1505,1505,1505,1505,1505,1505,1505,1505,1505,1505,1505,1505,1505,1505,1505,1505,1505,1505,1505,1505,1505,1505,1505,1508,1508,1508,1508,1508,1508,
1508,1508,1508,1508,1508,1508,1505,1505,1505,1505,1505,1505,1505,1505,1505,1505,1505,1505,1505,1505,1505,1505,1505,1505,1505,1505,1505,1505,1505,1505,1505,1505,1505,1505,1508,1508,1508,1508,1508,1508,
1508,1508,1508,1508,1508,1508,1505,1505,1505,1505,1505,1505,1505,1505,1505,1505,1505,1505,1505,1505,1505,1505,1505,1505,1505,1505,1505,1505,1505,1505,1505,1505,1505,1505,1508,1508,1508,1508,1508,1508,
1508,1508,1508,1508,1508,1508,1505,1505,1505,1505,1505,1505,1505,1505,1505,1505,1505,1505,1505,1505,1505,1505,1505,1505,1505,1505,1505,1505,1505,1505,1505,1505,1505,1505,1508,1508,1508,1508,1508,1508,
1508,1508,1508,1508,1508,1508,1505,1505,1505,1505,1505,1505,1505,1505,1505,1505,1505,1505,1505,1505,1505,1505,1505,1505,1505,1505,1505,1505,1505,1505,1505,1505,1505,1505,1508,1508,1508,1508,1508,1508,
1508,1508,1508,1508,1508,1508,1508,1508,1508,1508,1508,1508,1508,1508,1508,1508,1508,1508,1505,1505,1505,1505,1508,1508,1508,1508,1508,1508,1508,1508,1508,1508,1508,1508,1508,1508,1508,1508,1508,1508,
1508,1508,1508,1508,1508,1508,1508,1508,1508,1508,1508,1508,1508,1508,1508,1508,1508,1508,1505,1505,1505,1505,1508,1508,1508,1508,1508,1508,1508,1508,1508,1508,1508,1508,1508,1508,1508,1508,1508,1508,
1508,1508,1508,1508,1508,1508,1508,1508,1508,1508,1508,1508,1508,1508,1508,1508,1508,1508,1505,1505,1505,1505,1508,1508,1508,1508,1508,1508,1508,1508,1508,1508,1508,1508,1508,1508,1508,1508,1508,1508,
1508,1508,1508,1508,1508,1508,1508,1508,1508,1508,1508,1508,1508,1508,1508,1508,1508,1508,1508,1508,1508,1508,1508,1508,1508,1508,1508,1508,1508,1508,1508,1508,1508,1508,1508,1508,1508,1508,1508,1508,
1508,1508,1508,1508,1508,1508,1508,1508,1508,1508,1508,1508,1508,1508,1508,1508,1508,1508,1508,1508,1508,1508,1508,1508,1508,1508,1508,1508,1508,1508,1508,1508,1508,1508,1508,1508,1508,1508,1508,1508,
1508,1508,1508,1508,1508,1508,1508,1508,1508,1508,1508,1508,1508,1508,1508,1508,1508,1508,1508,1508,1508,1508,1508,1508,1508,1508,1508,1508,1508,1508,1508,1508,1508,1508,1508,1508,1508,1508,1508,1508,
1508,1508,1508,1508,1508,1508,1508,1508,1508,1508,1508,1508,1508,1508,1508,1508,1508,1508,1508,1508,1508,1508,1508,1508,1508,1508,1508,1508,1508,1508,1508,1508,1508,1508,1508,1508,1508,1508,1508,1508,
1508,1508,1508,1508,1508,1508,1508,1508,1508,1508,1508,1508,1508,1508,1508,1508,1508,1508,1508,1508,1508,1508,1508,1508,1508,1508,1508,1508,1508,1508,1508,1508,1508,1508,1508,1508,1508,1508,1508,1508
</data>
 </layer>
 <layer id="17" name="FootstepTiles" width="40" height="48" visible="0">
  <properties>
   <property name="maybe_animation_id" value="9b6388374855b54b"/>
   <property name="maybe_tileset_id" value="5fc72aa2902dea7"/>
   <property name="tile_size" type="int" value="16"/>
  </properties>
  <data encoding="csv">
1512,0,1512,0,1512,0,1512,0,1512,0,1512,0,1512,0,1512,0,1512,0,1512,0,1512,0,1512,0,1512,0,1512,0,1512,0,1512,0,1512,0,1512,0,1512,0,1512,0,
0,0,0,0,0,0,0,0,0,0,0,0,0,0,0,0,0,0,0,0,0,0,0,0,0,0,0,0,0,0,0,0,0,0,0,0,0,0,0,0,
1512,0,1512,0,1512,0,1512,0,1512,0,1512,0,1512,0,1512,0,1512,0,1512,0,1512,0,1512,0,1512,0,1512,0,1512,0,1512,0,1512,0,1512,0,1512,0,1512,0,
0,0,0,0,0,0,0,0,0,0,0,0,0,0,0,0,0,0,0,0,0,0,0,0,0,0,0,0,0,0,0,0,0,0,0,0,0,0,0,0,
1512,0,1512,0,1512,0,1512,0,1512,0,1512,0,1512,0,1512,0,1512,0,1512,0,1512,0,1512,0,1512,0,1512,0,1512,0,1512,0,1512,0,1512,0,1512,0,1512,0,
0,0,0,0,0,0,0,0,0,0,0,0,0,0,0,0,0,0,0,0,0,0,0,0,0,0,0,0,0,0,0,0,0,0,0,0,0,0,0,0,
1512,0,1512,0,1512,0,1512,0,1512,0,1512,0,1512,0,1512,0,1512,0,1512,0,1512,0,1512,0,1512,0,1512,0,1512,0,1512,0,1512,0,1512,0,1512,0,1512,0,
0,0,0,0,0,0,0,0,0,0,0,0,0,0,0,0,0,0,0,0,0,0,0,0,0,0,0,0,0,0,0,0,0,0,0,0,0,0,0,0,
1512,0,1512,0,1512,0,1512,0,1512,0,1512,0,1512,0,1512,0,1512,0,1512,0,1512,0,1512,0,1512,0,1512,0,1512,0,1512,0,1512,0,1512,0,1512,0,1512,0,
0,0,0,0,0,0,0,0,0,0,0,0,0,0,0,0,0,0,0,0,0,0,0,0,0,0,0,0,0,0,0,0,0,0,0,0,0,0,0,0,
1512,0,1512,0,1512,0,1512,0,1512,0,1512,0,1512,0,1512,0,1512,0,1512,0,1512,0,1512,0,1512,0,1512,0,1512,0,1512,0,1512,0,1512,0,1512,0,1512,0,
0,0,0,0,0,0,0,0,0,0,0,0,0,0,0,0,0,0,0,0,0,0,0,0,0,0,0,0,0,0,0,0,0,0,0,0,0,0,0,0,
1512,0,1512,0,1514,0,1514,0,1514,0,1514,0,1514,0,1514,0,1514,0,1514,0,1514,0,1514,0,1514,0,1514,0,1514,0,1514,0,1514,0,1514,0,1512,0,1512,0,
0,0,0,0,0,0,0,0,0,0,0,0,0,0,0,0,0,0,0,0,0,0,0,0,0,0,0,0,0,0,0,0,0,0,0,0,0,0,0,0,
1512,0,1512,0,1514,0,1514,0,1514,0,1514,0,1514,0,1514,0,1514,0,1514,0,1514,0,1514,0,1514,0,1514,0,1514,0,1514,0,1514,0,1514,0,1512,0,1512,0,
0,0,0,0,0,0,0,0,0,0,0,0,0,0,0,0,0,0,0,0,0,0,0,0,0,0,0,0,0,0,0,0,0,0,0,0,0,0,0,0,
1512,0,1512,0,1514,0,1514,0,1514,0,1514,0,1514,0,1514,0,1514,0,1514,0,1514,0,1514,0,1514,0,1514,0,1514,0,1514,0,1514,0,1514,0,1512,0,1512,0,
0,0,0,0,0,0,0,0,0,0,0,0,0,0,0,0,0,0,0,0,0,0,0,0,0,0,0,0,0,0,0,0,0,0,0,0,0,0,0,0,
1512,0,1512,0,1514,0,1514,0,1514,0,1514,0,1514,0,1514,0,1514,0,1514,0,1514,0,1514,0,1514,0,1514,0,1514,0,1514,0,1514,0,1514,0,1512,0,1512,0,
0,0,0,0,0,0,0,0,0,0,0,0,0,0,0,0,0,0,0,0,0,0,0,0,0,0,0,0,0,0,0,0,0,0,0,0,0,0,0,0,
1512,0,1512,0,1514,0,1514,0,1514,0,1514,0,1514,0,1514,0,1514,0,1514,0,1514,0,1514,0,1514,0,1514,0,1514,0,1514,0,1514,0,1514,0,1512,0,1512,0,
0,0,0,0,0,0,0,0,0,0,0,0,0,0,0,0,0,0,0,0,0,0,0,0,0,0,0,0,0,0,0,0,0,0,0,0,0,0,0,0,
1512,0,1512,0,1514,0,1514,0,1514,0,1514,0,1514,0,1514,0,1514,0,1514,0,1514,0,1514,0,1514,0,1514,0,1514,0,1514,0,1514,0,1514,0,1512,0,1512,0,
0,0,0,0,0,0,0,0,0,0,0,0,0,0,0,0,0,0,0,0,0,0,0,0,0,0,0,0,0,0,0,0,0,0,0,0,0,0,0,0,
1512,0,1512,0,1514,0,1514,0,1514,0,1514,0,1514,0,1514,0,1514,0,1514,0,1514,0,1514,0,1514,0,1514,0,1514,0,1514,0,1514,0,1514,0,1512,0,1512,0,
0,0,0,0,0,0,0,0,0,0,0,0,0,0,0,0,0,0,0,0,0,0,0,0,0,0,0,0,0,0,0,0,0,0,0,0,0,0,0,0,
1512,0,1512,0,1514,0,1514,0,1514,0,1514,0,1514,0,1514,0,1514,0,1514,0,1514,0,1514,0,1514,0,1514,0,1514,0,1514,0,1514,0,1514,0,1512,0,1512,0,
0,0,0,0,0,0,0,0,0,0,0,0,0,0,0,0,0,0,0,0,0,0,0,0,0,0,0,0,0,0,0,0,0,0,0,0,0,0,0,0,
1512,0,1512,0,1514,0,1514,0,1514,0,1514,0,1514,0,1514,0,1514,0,1514,0,1514,0,1514,0,1514,0,1514,0,1514,0,1514,0,1514,0,1514,0,1512,0,1512,0,
0,0,0,0,0,0,0,0,0,0,0,0,0,0,0,0,0,0,0,0,0,0,0,0,0,0,0,0,0,0,0,0,0,0,0,0,0,0,0,0,
1512,0,1512,0,1514,0,1514,0,1514,0,1514,0,1514,0,1514,0,1514,0,1514,0,1514,0,1514,0,1514,0,1514,0,1514,0,1514,0,1514,0,1514,0,1512,0,1512,0,
0,0,0,0,0,0,0,0,0,0,0,0,0,0,0,0,0,0,0,0,0,0,0,0,0,0,0,0,0,0,0,0,0,0,0,0,0,0,0,0,
1512,0,1512,0,1514,0,1514,0,1514,0,1514,0,1514,0,1514,0,1514,0,1514,0,1514,0,1514,0,1514,0,1514,0,1514,0,1514,0,1514,0,1514,0,1512,0,1512,0,
0,0,0,0,0,0,0,0,0,0,0,0,0,0,0,0,0,0,0,0,0,0,0,0,0,0,0,0,0,0,0,0,0,0,0,0,0,0,0,0,
1512,0,1512,0,1514,0,1514,0,1514,0,1514,0,1514,0,1514,0,1514,0,1514,0,1514,0,1514,0,1514,0,1514,0,1514,0,1514,0,1514,0,1514,0,1512,0,1512,0,
0,0,0,0,0,0,0,0,0,0,0,0,0,0,0,0,0,0,0,0,0,0,0,0,0,0,0,0,0,0,0,0,0,0,0,0,0,0,0,0,
1512,0,1512,0,1514,0,1514,0,1514,0,1514,0,1514,0,1514,0,1514,0,1514,0,1514,0,1514,0,1514,0,1514,0,1514,0,1514,0,1514,0,1514,0,1512,0,1512,0,
0,0,0,0,0,0,0,0,0,0,0,0,0,0,0,0,0,0,0,0,0,0,0,0,0,0,0,0,0,0,0,0,0,0,0,0,0,0,0,0,
1512,0,1512,0,1514,0,1514,0,1514,0,1514,0,1514,0,1514,0,1514,0,1514,0,1514,0,1514,0,1514,0,1514,0,1514,0,1514,0,1514,0,1514,0,1512,0,1512,0,
0,0,0,0,0,0,0,0,0,0,0,0,0,0,0,0,0,0,0,0,0,0,0,0,0,0,0,0,0,0,0,0,0,0,0,0,0,0,0,0,
1512,0,1512,0,1514,0,1514,0,1514,0,1514,0,1514,0,1514,0,1514,0,1514,0,1514,0,1514,0,1514,0,1514,0,1514,0,1514,0,1514,0,1514,0,1512,0,1512,0,
0,0,0,0,0,0,0,0,0,0,0,0,0,0,0,0,0,0,0,0,0,0,0,0,0,0,0,0,0,0,0,0,0,0,0,0,0,0,0,0,
1512,0,1512,0,1512,0,1512,0,1512,0,1512,0,1512,0,1512,0,1512,0,1514,0,1514,0,1512,0,1512,0,1512,0,1512,0,1512,0,1512,0,1512,0,1512,0,1512,0,
0,0,0,0,0,0,0,0,0,0,0,0,0,0,0,0,0,0,0,0,0,0,0,0,0,0,0,0,0,0,0,0,0,0,0,0,0,0,0,0,
1512,0,1512,0,1512,0,1512,0,1512,0,1512,0,1512,0,1512,0,1512,0,1514,0,1514,0,1512,0,1512,0,1512,0,1512,0,1512,0,1512,0,1512,0,1512,0,1512,0,
0,0,0,0,0,0,0,0,0,0,0,0,0,0,0,0,0,0,0,0,0,0,0,0,0,0,0,0,0,0,0,0,0,0,0,0,0,0,0,0,
1512,0,1512,0,1512,0,1512,0,1512,0,1512,0,1512,0,1512,0,1512,0,1514,0,1514,0,1512,0,1512,0,1512,0,1512,0,1512,0,1512,0,1512,0,1512,0,1512,0,
0,0,0,0,0,0,0,0,0,0,0,0,0,0,0,0,0,0,0,0,0,0,0,0,0,0,0,0,0,0,0,0,0,0,0,0,0,0,0,0
</data>
 </layer>
 <objectgroup draworder="index" id="18" name="Instances">
  <object id="2" template="../../../templates/obj_exterior_window_interior.tx" type="obj_exterior_window_interior" x="144" y="128"/>
 </objectgroup>
 <layer id="19" name="Tiles_Rules" width="40" height="48" visible="0">
  <properties>
   <property name="maybe_animation_id" value="f525790c1101b1a1"/>
   <property name="maybe_tileset_id" value="a3b6ca91b299d4f5"/>
   <property name="tile_size" type="int" value="8"/>
  </properties>
  <data encoding="csv">
0,0,0,0,0,0,0,0,0,0,0,0,0,0,0,0,0,0,0,0,0,0,0,0,0,0,0,0,0,0,0,0,0,0,0,0,0,0,0,0,
0,0,0,0,0,0,0,0,0,0,0,0,0,0,0,0,0,0,0,0,0,0,0,0,0,0,0,0,0,0,0,0,0,0,0,0,0,0,0,0,
0,0,0,0,0,0,0,0,0,0,0,0,0,0,0,0,0,0,0,0,0,0,0,0,0,0,0,0,0,0,0,0,0,0,0,0,0,0,0,0,
0,0,0,0,0,0,0,0,0,0,0,0,0,0,0,0,0,0,0,0,0,0,0,0,0,0,0,0,0,0,0,0,0,0,0,0,0,0,0,0,
0,0,0,0,0,0,0,0,0,0,0,0,0,0,0,0,0,0,0,0,0,0,0,0,0,0,0,0,0,0,0,0,0,0,0,0,0,0,0,0,
0,0,0,0,0,0,0,0,0,0,0,0,0,0,0,0,0,0,0,0,0,0,0,0,0,0,0,0,0,0,0,0,0,0,0,0,0,0,0,0,
0,0,0,0,0,0,6329,6329,6329,6329,6329,6329,6329,6329,6329,6329,6329,6329,6329,6329,6329,6329,6329,6329,6329,6329,6329,6329,6329,6329,6329,6329,6329,6329,0,0,0,0,0,0,
0,0,0,0,0,0,6329,6329,6329,6329,6329,6329,6329,6329,6329,6329,6329,6329,6329,6329,6329,6329,6329,6329,6329,6329,6329,6329,6329,6329,6329,6329,6329,6329,0,0,0,0,0,0,
0,0,0,0,0,0,6329,6329,6329,6329,6329,6329,6329,6329,6329,6329,6329,6329,6329,6329,6329,6329,6329,6329,6329,6329,6329,6329,6329,6329,6329,6329,6329,6329,0,0,0,0,0,0,
6323,6323,6323,6323,6323,6323,6329,6329,6329,6329,6329,6329,6329,6329,6329,6329,6329,6329,6329,6329,6329,6329,6329,6329,6329,6329,6329,6329,6329,6329,6329,6329,6329,6329,6323,6323,0,0,0,0,
6323,6323,6323,6323,6323,6323,6329,6329,6329,6329,6329,6329,6329,6329,6329,6329,6329,6329,6329,6329,6329,6329,6329,6329,6329,6329,6329,6329,6329,6329,6329,6329,6329,6329,6323,6323,6323,6323,6323,6323,
6323,6323,6323,6323,6323,6323,6329,6329,6329,6329,6329,6329,6329,6329,6329,6329,6329,6329,6329,6329,6329,6329,6329,6329,6329,6329,6329,6329,6329,6329,6329,6329,6329,6329,6323,6323,6323,6323,6323,0,
6323,6323,6323,6323,6323,6323,6329,6329,6329,6329,6329,6329,6329,6329,6329,6329,6329,6329,6329,6329,6329,6329,6329,6329,6329,6329,6329,6329,6329,6329,6329,6329,6329,6329,6323,6323,0,0,0,0,
6323,6323,6323,6323,6323,6323,6325,6325,6325,6325,6325,6325,6325,6325,6325,6325,6325,6325,6325,6325,6325,6325,6325,6325,6325,6325,6325,6325,6325,6325,6325,6325,6325,6325,6323,6323,0,0,0,0,
6323,6323,6323,6323,6323,6323,6325,6325,6325,6325,6325,6325,6325,6325,6325,6325,6325,6325,6325,6325,6325,6325,6325,6325,6325,6325,6325,6325,6325,6325,6325,6325,6325,6325,6323,6323,0,0,0,0,
6323,6323,6323,6323,6323,6323,6325,6325,6325,6325,6325,6325,6325,6325,6325,6325,6325,6325,6325,6325,6325,6325,6325,6325,6325,6325,6325,6325,6325,6325,6325,6325,6325,6325,6323,6323,0,0,0,0,
6323,6323,6323,6323,6323,6323,6325,6325,6325,6325,6325,6325,6325,6325,6325,6325,6325,6325,6325,6325,6325,6325,6325,6325,6325,6325,6325,6325,6325,6325,6325,6325,6325,6325,6323,6323,0,0,0,0,
6323,6323,6323,6323,6323,6323,6325,6325,6325,6325,6325,6325,6325,6325,6325,6325,6325,6325,6325,6325,6325,6325,6325,6325,6325,6325,6325,6325,6325,6325,6325,6325,6325,6325,6323,6323,0,0,0,0,
6323,6323,6323,6323,6323,6323,6325,6325,6325,6325,6325,6325,6325,6325,6325,6325,6325,6325,6325,6325,6325,6325,6325,6325,6325,6325,6325,6325,6325,6325,6325,6325,6325,6325,0,0,0,0,0,0,
6323,6323,6323,6323,6323,6323,6325,6325,6325,6325,6325,6325,6325,6325,6325,6325,6325,6325,6325,6325,6325,6325,6325,6325,6325,6325,6325,6325,6325,6325,6325,6325,6325,6325,0,0,0,0,0,0,
6323,6323,6323,6323,6323,6323,6325,6325,6325,6325,6325,6325,6325,6325,6325,6325,6325,6325,6325,6325,6325,6325,6325,6325,6325,6325,6325,6325,6325,6325,6325,6325,6325,6325,0,0,0,0,0,0,
6323,6323,6323,6323,6323,6323,6325,6325,6325,6325,6325,6325,6325,6325,6325,6325,6325,6325,6325,6325,6325,6325,6325,6325,6325,6325,6325,6325,6325,6325,6325,6325,6325,6325,0,0,0,0,0,0,
6323,6323,6323,6323,6323,6323,6325,6325,6325,6325,6325,6325,6325,6325,6325,6325,6325,6325,6325,6325,6325,6325,6325,6325,6325,6325,6325,6325,6325,6325,6325,6325,6325,6325,0,0,0,0,0,0,
6323,6323,6323,6323,6323,6323,6325,6325,6325,6325,6325,6325,6325,6325,6325,6325,6325,6325,6325,6325,6325,6325,6325,6325,6325,6325,6325,6325,6325,6325,6325,6325,6325,6325,0,0,0,0,0,0,
6323,6323,6323,6323,6323,6323,6325,6325,6325,6325,6325,6325,6325,6325,6325,6325,6325,6325,6325,6325,6325,6325,6325,6325,6325,6325,6325,6325,6325,6325,6325,6325,6325,6325,0,0,0,0,0,0,
0,0,0,0,0,0,6325,6325,6325,6325,6325,6325,6325,6325,6325,6325,6325,6325,6325,6325,6325,6325,6325,6325,6325,6325,6325,6325,6325,6325,6325,6325,6325,6325,0,0,0,0,0,0,
0,0,0,0,0,0,6325,6325,6325,6325,6325,6325,6325,6325,6325,6325,6325,6325,6325,6325,6325,6325,6325,6325,6325,6325,6325,6325,6325,6325,6325,6325,6325,6325,0,0,0,0,0,0,
0,0,0,0,0,0,6325,6325,6325,6325,6325,6325,6325,6325,6325,6325,6325,6325,6325,6325,6325,6325,6325,6325,6325,6325,6325,6325,6325,6325,6325,6325,6325,6325,0,0,0,0,0,0,
0,0,0,0,0,0,6325,6325,6325,6325,6325,6325,6325,6325,6325,6325,6325,6325,6325,6325,6325,6325,6325,6325,6325,6325,6325,6325,6325,6325,6325,6325,6325,6325,0,0,0,0,0,0,
0,0,0,0,0,0,6325,6325,6325,6325,6325,6325,6325,6325,6325,6325,6325,6325,6325,6325,6325,6325,6325,6325,6325,6325,6325,6325,6325,6325,6325,6325,6325,6325,0,0,0,0,0,0,
0,0,0,0,0,0,6325,6325,6325,6325,6325,6325,6325,6325,6325,6325,6325,6325,6325,6325,6325,6325,6325,6325,6325,6325,6325,6325,6325,6325,6325,6325,6325,6325,0,0,0,0,0,0,
0,0,0,0,0,0,6325,6325,6325,6325,6325,6325,6325,6325,6325,6325,6325,6325,6325,6325,6325,6325,6325,6325,6325,6325,6325,6325,6325,6325,6325,6325,6325,6325,0,0,0,0,0,0,
0,0,0,0,0,0,6325,6325,6325,6325,6325,6325,6325,6325,6325,6325,6325,6325,6325,6325,6325,6325,6325,6325,6325,6325,6325,6325,6325,6325,6325,6325,6325,6325,0,0,0,0,0,0,
0,0,0,0,0,0,6325,6325,6325,6325,6325,6325,6325,6325,6325,6325,6325,6325,6325,6325,6325,6325,6325,6325,6325,6325,6325,6325,6325,6325,6325,6325,6325,6325,0,0,0,0,0,0,
0,0,0,0,0,0,6325,6325,6325,6325,6325,6325,6325,6325,6325,6325,6325,6325,6325,6325,6325,6325,6325,6325,6325,6325,6325,6325,6325,6325,6325,6325,6325,6325,0,0,0,0,0,0,
0,0,0,0,0,0,6325,6325,6325,6325,6325,6325,6325,6325,6325,6325,6325,6325,6325,6325,6325,6325,6325,6325,6325,6325,6325,6325,6325,6325,6325,6325,6325,6325,0,0,0,0,0,0,
0,0,0,0,0,0,6325,6325,6325,6325,6325,6325,6325,6325,6325,6325,6325,6325,6325,6325,6325,6325,6325,6325,6325,6325,6325,6325,6325,6325,6325,6325,6325,6325,0,0,0,0,0,0,
0,0,0,0,0,0,6325,6325,6325,6325,6325,6325,6325,6325,6325,6325,6325,6325,6325,6325,6325,6325,6325,6325,6325,6325,6325,6325,6325,6325,6325,6325,6325,6325,0,0,0,0,0,0,
0,0,0,0,0,0,6325,6325,6325,6325,6325,6325,6325,6325,6325,6325,6325,6325,6325,6325,6325,6325,6325,6325,6325,6325,6325,6325,6325,6325,6325,6325,6325,6325,0,0,0,0,0,0,
0,0,0,0,0,0,6325,6325,6325,6325,6325,6325,6325,6325,6325,6325,6325,6325,6325,6325,6325,6325,6325,6325,6325,6325,6325,6325,6325,6325,6325,6325,6325,6325,0,0,0,0,0,0,
0,0,0,0,0,0,0,0,0,0,0,0,0,0,0,0,0,0,0,0,0,0,0,0,0,0,0,0,0,0,0,0,0,0,0,0,0,0,0,0,
0,0,0,0,0,0,0,0,0,0,0,0,0,0,0,0,0,0,0,0,0,0,0,0,0,0,0,0,0,0,0,0,0,0,0,0,0,0,0,0,
0,0,0,0,0,0,0,0,0,0,0,0,0,0,0,0,0,0,0,0,0,0,0,0,0,0,0,0,0,0,0,0,0,0,0,0,0,0,0,0,
0,0,0,0,0,0,0,0,0,0,0,0,0,0,0,0,0,0,0,0,0,0,0,0,0,0,0,0,0,0,0,0,0,0,0,0,0,0,0,0,
0,0,0,0,0,0,0,0,0,0,0,0,0,0,0,0,0,0,0,0,0,0,0,0,0,0,0,0,0,0,0,0,0,0,0,0,0,0,0,0,
0,0,0,0,0,0,0,0,0,0,0,0,0,0,0,0,0,0,0,0,0,0,0,0,0,0,0,0,0,0,0,0,0,0,0,0,0,0,0,0,
0,0,0,0,0,0,0,0,0,0,0,0,0,0,0,0,0,0,0,0,0,0,0,0,0,0,0,0,0,0,0,0,0,0,0,0,0,0,0,0,
0,0,0,0,0,0,0,0,0,0,0,0,0,0,0,0,0,0,0,0,0,0,0,0,0,0,0,0,0,0,0,0,0,0,0,0,0,0,0,0
</data>
 </layer>
 <objectgroup draworder="index" id="20" name="Lighting"/>
 <objectgroup draworder="index" id="21" name="Meta">
  <object id="1" template="../../../templates/obj_roomtransition.tx" type="obj_roomtransition" x="144" y="344" width="32" height="16">
   <properties>
    <property name="destination_id" propertytype="LocationId" value="farm"/>
    <property name="player_direction" type="int" value="270"/>
   </properties>
  </object>
 </objectgroup>
 <objectgroup draworder="index" id="22" name="TrellisPoints"/>
</map>
