<?xml version="1.0" encoding="UTF-8"?>
<map version="1.10" tiledversion="1.11.2" orientation="orthogonal" renderorder="right-down" width="30" height="38" tilewidth="8" tileheight="8" infinite="0" backgroundcolor="#000000" nextlayerid="24" nextobjectid="2">
 <tileset firstgid="1" source="../../../__gm_import.tsx"/>
 <tileset firstgid="1504" source="../../../tile_sets/__META/tile_collision_info.tsx"/>
 <tileset firstgid="1511" source="../../../tile_sets/tile_footsteps.tsx"/>
 <tileset firstgid="1655" source="../../../tile_sets/Farm/tile_grassautotile_spring.tsx"/>
 <tileset firstgid="1703" source="../../../tile_sets/Greenhouse/tile_greenhouse_white.tsx"/>
 <tileset firstgid="1802" source="../../../tile_sets/_GENERIC/tile_main_exteriors_spring.tsx"/>
 <tileset firstgid="5898" source="../../../tile_sets/_GENERIC/tile_main_interiors_shadows.tsx"/>
 <tileset firstgid="6154" source="../../../tile_sets/tile_priority_objects.tsx"/>
 <tileset firstgid="6322" source="../../../tile_sets/__META/tile_rules.tsx"/>
 <tileset firstgid="6342" source="../../../tile_sets/Farm/tile_soil_spring.tsx"/>
 <tileset firstgid="6390" source="../../../tile_sets/Farm/tile_soil_wet_spring.tsx"/>
 <group id="1" name="Level_0">
  <layer id="2" name="Level_0_Clearground" width="30" height="38">
   <properties>
    <property name="maybe_animation_id" value="8b076fb1615e63dc"/>
    <property name="maybe_tileset_id" value="c26b7129b9f84c96"/>
    <property name="tile_size" type="int" value="16"/>
   </properties>
   <data encoding="csv">
1866,0,1866,0,1866,0,1866,0,1866,0,1866,0,1866,0,1866,0,1866,0,1866,0,1866,0,1866,0,1866,0,1866,0,1866,0,
0,0,0,0,0,0,0,0,0,0,0,0,0,0,0,0,0,0,0,0,0,0,0,0,0,0,0,0,0,0,
1866,0,1866,0,1866,0,1866,0,1866,0,1866,0,1866,0,1866,0,1866,0,1866,0,1866,0,1866,0,1866,0,1866,0,1866,0,
0,0,0,0,0,0,0,0,0,0,0,0,0,0,0,0,0,0,0,0,0,0,0,0,0,0,0,0,0,0,
1866,0,1866,0,1866,0,1866,0,1866,0,1866,0,1866,0,1866,0,1866,0,1866,0,1866,0,1866,0,1866,0,1866,0,1866,0,
0,0,0,0,0,0,0,0,0,0,0,0,0,0,0,0,0,0,0,0,0,0,0,0,0,0,0,0,0,0,
1866,0,1866,0,1866,0,1866,0,1866,0,1866,0,1866,0,1866,0,1866,0,1866,0,1866,0,1866,0,1866,0,1866,0,1866,0,
0,0,0,0,0,0,0,0,0,0,0,0,0,0,0,0,0,0,0,0,0,0,0,0,0,0,0,0,0,0,
1866,0,1866,0,1866,0,1866,0,1866,0,1866,0,1866,0,1866,0,1866,0,1866,0,1866,0,1866,0,1866,0,1866,0,1866,0,
0,0,0,0,0,0,0,0,0,0,0,0,0,0,0,0,0,0,0,0,0,0,0,0,0,0,0,0,0,0,
1866,0,1866,0,1866,0,1866,0,1866,0,1866,0,1866,0,1866,0,1866,0,1866,0,1866,0,1866,0,1866,0,1866,0,1866,0,
0,0,0,0,0,0,0,0,0,0,0,0,0,0,0,0,0,0,0,0,0,0,0,0,0,0,0,0,0,0,
1866,0,1866,0,1866,0,1866,0,1866,0,1866,0,1866,0,1866,0,1866,0,1866,0,1866,0,1866,0,1866,0,1866,0,1866,0,
0,0,0,0,0,0,0,0,0,0,0,0,0,0,0,0,0,0,0,0,0,0,0,0,0,0,0,0,0,0,
1866,0,1866,0,1866,0,1866,0,1866,0,1866,0,1866,0,1866,0,1866,0,1866,0,1866,0,1866,0,1866,0,1866,0,1866,0,
0,0,0,0,0,0,0,0,0,0,0,0,0,0,0,0,0,0,0,0,0,0,0,0,0,0,0,0,0,0,
1866,0,1866,0,1866,0,1866,0,1866,0,1866,0,1866,0,1866,0,1866,0,1866,0,1866,0,1866,0,1866,0,1866,0,1866,0,
0,0,0,0,0,0,0,0,0,0,0,0,0,0,0,0,0,0,0,0,0,0,0,0,0,0,0,0,0,0,
1866,0,1866,0,1866,0,1866,0,1866,0,1866,0,1866,0,1866,0,1866,0,1866,0,1866,0,1866,0,1866,0,1866,0,1866,0,
0,0,0,0,0,0,0,0,0,0,0,0,0,0,0,0,0,0,0,0,0,0,0,0,0,0,0,0,0,0,
1866,0,1866,0,1866,0,1866,0,1866,0,1866,0,1866,0,1866,0,1866,0,1866,0,1866,0,1866,0,1866,0,1866,0,1866,0,
0,0,0,0,0,0,0,0,0,0,0,0,0,0,0,0,0,0,0,0,0,0,0,0,0,0,0,0,0,0,
1866,0,1866,0,1866,0,1866,0,1866,0,1866,0,1866,0,1866,0,1866,0,1866,0,1866,0,1866,0,1866,0,1866,0,1866,0,
0,0,0,0,0,0,0,0,0,0,0,0,0,0,0,0,0,0,0,0,0,0,0,0,0,0,0,0,0,0,
1866,0,1866,0,1866,0,1866,0,1866,0,1866,0,1866,0,1866,0,1866,0,1866,0,1866,0,1866,0,1866,0,1866,0,1866,0,
0,0,0,0,0,0,0,0,0,0,0,0,0,0,0,0,0,0,0,0,0,0,0,0,0,0,0,0,0,0,
1866,0,1866,0,1866,0,1866,0,1866,0,1866,0,1866,0,1866,0,1866,0,1866,0,1866,0,1866,0,1866,0,1866,0,1866,0,
0,0,0,0,0,0,0,0,0,0,0,0,0,0,0,0,0,0,0,0,0,0,0,0,0,0,0,0,0,0,
1866,0,1866,0,1866,0,1866,0,1866,0,1866,0,1866,0,1866,0,1866,0,1866,0,1866,0,1866,0,1866,0,1866,0,1866,0,
0,0,0,0,0,0,0,0,0,0,0,0,0,0,0,0,0,0,0,0,0,0,0,0,0,0,0,0,0,0,
1866,0,1866,0,1866,0,1866,0,1866,0,1866,0,1866,0,1866,0,1866,0,1866,0,1866,0,1866,0,1866,0,1866,0,1866,0,
0,0,0,0,0,0,0,0,0,0,0,0,0,0,0,0,0,0,0,0,0,0,0,0,0,0,0,0,0,0,
1866,0,1866,0,1866,0,1866,0,1866,0,1866,0,1866,0,1866,0,1866,0,1866,0,1866,0,1866,0,1866,0,1866,0,1866,0,
0,0,0,0,0,0,0,0,0,0,0,0,0,0,0,0,0,0,0,0,0,0,0,0,0,0,0,0,0,0,
1866,0,1866,0,1866,0,1866,0,1866,0,1866,0,1866,0,1866,0,1866,0,1866,0,1866,0,1866,0,1866,0,1866,0,1866,0,
0,0,0,0,0,0,0,0,0,0,0,0,0,0,0,0,0,0,0,0,0,0,0,0,0,0,0,0,0,0,
1866,0,1866,0,1866,0,1866,0,1866,0,1866,0,1866,0,1866,0,1866,0,1866,0,1866,0,1866,0,1866,0,1866,0,1866,0,
0,0,0,0,0,0,0,0,0,0,0,0,0,0,0,0,0,0,0,0,0,0,0,0,0,0,0,0,0,0
</data>
  </layer>
  <layer id="3" name="Level_0_Grassautotile" width="30" height="38">
   <properties>
    <property name="maybe_animation_id" value="cd1f5a5180878db7"/>
    <property name="maybe_tileset_id" value="abe525aba40c8c33"/>
    <property name="tile_size" type="int" value="16"/>
   </properties>
   <data encoding="csv">
0,0,0,0,0,0,0,0,0,0,0,0,0,0,0,0,0,0,0,0,0,0,0,0,0,0,0,0,0,0,
0,0,0,0,0,0,0,0,0,0,0,0,0,0,0,0,0,0,0,0,0,0,0,0,0,0,0,0,0,0,
0,0,0,0,0,0,0,0,0,0,0,0,0,0,0,0,0,0,0,0,0,0,0,0,0,0,0,0,0,0,
0,0,0,0,0,0,0,0,0,0,0,0,0,0,0,0,0,0,0,0,0,0,0,0,0,0,0,0,0,0,
0,0,0,0,0,0,0,0,0,0,0,0,0,0,0,0,0,0,0,0,0,0,0,0,0,0,0,0,0,0,
0,0,0,0,0,0,0,0,0,0,0,0,0,0,0,0,0,0,0,0,0,0,0,0,0,0,0,0,0,0,
0,0,0,0,0,0,0,0,0,0,0,0,0,0,0,0,0,0,0,0,0,0,0,0,0,0,0,0,0,0,
0,0,0,0,0,0,0,0,0,0,0,0,0,0,0,0,0,0,0,0,0,0,0,0,0,0,0,0,0,0,
0,0,0,0,0,0,0,0,0,0,0,0,0,0,0,0,0,0,0,0,0,0,0,0,0,0,0,0,0,0,
0,0,0,0,0,0,0,0,0,0,0,0,0,0,0,0,0,0,0,0,0,0,0,0,0,0,0,0,0,0,
0,0,0,0,0,0,0,0,0,0,0,0,0,0,0,0,0,0,0,0,0,0,0,0,0,0,0,0,0,0,
0,0,0,0,0,0,0,0,0,0,0,0,0,0,0,0,0,0,0,0,0,0,0,0,0,0,0,0,0,0,
0,0,0,0,0,0,0,0,0,0,0,0,0,0,0,0,0,0,0,0,0,0,0,0,0,0,0,0,0,0,
0,0,0,0,0,0,0,0,0,0,0,0,0,0,0,0,0,0,0,0,0,0,0,0,0,0,0,0,0,0,
0,0,0,0,0,0,0,0,0,0,0,0,0,0,0,0,0,0,0,0,0,0,0,0,0,0,0,0,0,0,
0,0,0,0,0,0,0,0,0,0,0,0,0,0,0,0,0,0,0,0,0,0,0,0,0,0,0,0,0,0,
0,0,0,0,0,0,0,0,0,0,1655,0,1655,0,1655,0,1655,0,1655,0,0,0,0,0,0,0,0,0,0,0,
0,0,0,0,0,0,0,0,0,0,0,0,0,0,0,0,0,0,0,0,0,0,0,0,0,0,0,0,0,0,
0,0,0,0,0,0,0,0,0,0,1655,0,1655,0,1655,0,1655,0,1655,0,0,0,0,0,0,0,0,0,0,0,
0,0,0,0,0,0,0,0,0,0,0,0,0,0,0,0,0,0,0,0,0,0,0,0,0,0,0,0,0,0,
0,0,0,0,0,0,0,0,0,0,1655,0,1655,0,1655,0,1655,0,1655,0,0,0,0,0,0,0,0,0,0,0,
0,0,0,0,0,0,0,0,0,0,0,0,0,0,0,0,0,0,0,0,0,0,0,0,0,0,0,0,0,0,
0,0,0,0,0,0,0,0,0,0,1655,0,1655,0,1655,0,1655,0,1655,0,0,0,0,0,0,0,0,0,0,0,
0,0,0,0,0,0,0,0,0,0,0,0,0,0,0,0,0,0,0,0,0,0,0,0,0,0,0,0,0,0,
0,0,0,0,0,0,0,0,0,0,1655,0,1655,0,1655,0,1655,0,1655,0,0,0,0,0,0,0,0,0,0,0,
0,0,0,0,0,0,0,0,0,0,0,0,0,0,0,0,0,0,0,0,0,0,0,0,0,0,0,0,0,0,
0,0,0,0,0,0,0,0,0,0,0,0,0,0,0,0,0,0,0,0,0,0,0,0,0,0,0,0,0,0,
0,0,0,0,0,0,0,0,0,0,0,0,0,0,0,0,0,0,0,0,0,0,0,0,0,0,0,0,0,0,
0,0,0,0,0,0,0,0,0,0,0,0,0,0,0,0,0,0,0,0,0,0,0,0,0,0,0,0,0,0,
0,0,0,0,0,0,0,0,0,0,0,0,0,0,0,0,0,0,0,0,0,0,0,0,0,0,0,0,0,0,
0,0,0,0,0,0,0,0,0,0,0,0,0,0,0,0,0,0,0,0,0,0,0,0,0,0,0,0,0,0,
0,0,0,0,0,0,0,0,0,0,0,0,0,0,0,0,0,0,0,0,0,0,0,0,0,0,0,0,0,0,
0,0,0,0,0,0,0,0,0,0,0,0,0,0,0,0,0,0,0,0,0,0,0,0,0,0,0,0,0,0,
0,0,0,0,0,0,0,0,0,0,0,0,0,0,0,0,0,0,0,0,0,0,0,0,0,0,0,0,0,0,
0,0,0,0,0,0,0,0,0,0,0,0,0,0,0,0,0,0,0,0,0,0,0,0,0,0,0,0,0,0,
0,0,0,0,0,0,0,0,0,0,0,0,0,0,0,0,0,0,0,0,0,0,0,0,0,0,0,0,0,0,
0,0,0,0,0,0,0,0,0,0,0,0,0,0,0,0,0,0,0,0,0,0,0,0,0,0,0,0,0,0,
0,0,0,0,0,0,0,0,0,0,0,0,0,0,0,0,0,0,0,0,0,0,0,0,0,0,0,0,0,0
</data>
  </layer>
  <layer id="4" name="Level_0_Ground" width="30" height="38">
   <properties>
    <property name="maybe_animation_id" value="8b076fb1615e63dc"/>
    <property name="maybe_tileset_id" value="c26b7129b9f84c96"/>
    <property name="tile_size" type="int" value="16"/>
   </properties>
   <data encoding="csv">
0,0,0,0,0,0,0,0,0,0,0,0,0,0,0,0,0,0,0,0,0,0,0,0,0,0,0,0,0,0,
0,0,0,0,0,0,0,0,0,0,0,0,0,0,0,0,0,0,0,0,0,0,0,0,0,0,0,0,0,0,
0,0,0,0,0,0,0,0,0,0,0,0,0,0,0,0,0,0,0,0,0,0,0,0,0,0,0,0,0,0,
0,0,0,0,0,0,0,0,0,0,0,0,0,0,0,0,0,0,0,0,0,0,0,0,0,0,0,0,0,0,
0,0,0,0,0,0,0,0,0,0,0,0,0,0,0,0,0,0,0,0,0,0,0,0,0,0,0,0,0,0,
0,0,0,0,0,0,0,0,0,0,0,0,0,0,0,0,0,0,0,0,0,0,0,0,0,0,0,0,0,0,
0,0,0,0,0,0,0,0,0,0,0,0,0,0,0,0,0,0,0,0,0,0,0,0,0,0,0,0,0,0,
0,0,0,0,0,0,0,0,0,0,0,0,0,0,0,0,0,0,0,0,0,0,0,0,0,0,0,0,0,0,
0,0,0,0,0,0,0,0,0,0,0,0,0,0,0,0,0,0,0,0,0,0,0,0,0,0,0,0,0,0,
0,0,0,0,0,0,0,0,0,0,0,0,0,0,0,0,0,0,0,0,0,0,0,0,0,0,0,0,0,0,
0,0,0,0,0,0,0,0,0,0,0,0,0,0,0,0,0,0,0,0,0,0,0,0,0,0,0,0,0,0,
0,0,0,0,0,0,0,0,0,0,0,0,0,0,0,0,0,0,0,0,0,0,0,0,0,0,0,0,0,0,
0,0,0,0,0,0,0,0,0,0,0,0,0,0,0,0,0,0,0,0,0,0,0,0,0,0,0,0,0,0,
0,0,0,0,0,0,0,0,0,0,0,0,0,0,0,0,0,0,0,0,0,0,0,0,0,0,0,0,0,0,
0,0,0,0,0,0,0,0,1866,0,1866,0,1866,0,1866,0,1866,0,1866,0,1866,0,0,0,0,0,0,0,0,0,
0,0,0,0,0,0,0,0,0,0,0,0,0,0,0,0,0,0,0,0,0,0,0,0,0,0,0,0,0,0,
0,0,0,0,0,0,0,0,1866,0,1866,0,1866,0,1866,0,1866,0,1866,0,1866,0,0,0,0,0,0,0,0,0,
0,0,0,0,0,0,0,0,0,0,0,0,0,0,0,0,0,0,0,0,0,0,0,0,0,0,0,0,0,0,
0,0,0,0,0,0,0,0,1866,0,1866,0,1866,0,1866,0,1866,0,1866,0,1866,0,0,0,0,0,0,0,0,0,
0,0,0,0,0,0,0,0,0,0,0,0,0,0,0,0,0,0,0,0,0,0,0,0,0,0,0,0,0,0,
0,0,0,0,0,0,0,0,1866,0,1866,0,1866,0,1866,0,1866,0,1866,0,1866,0,0,0,0,0,0,0,0,0,
0,0,0,0,0,0,0,0,0,0,0,0,0,0,0,0,0,0,0,0,0,0,0,0,0,0,0,0,0,0,
0,0,0,0,0,0,0,0,1866,0,1866,0,1866,0,1866,0,1866,0,1866,0,1866,0,0,0,0,0,0,0,0,0,
0,0,0,0,0,0,0,0,0,0,0,0,0,0,0,0,0,0,0,0,0,0,0,0,0,0,0,0,0,0,
0,0,0,0,0,0,0,0,1866,0,1866,0,1866,0,1866,0,1866,0,1866,0,1866,0,0,0,0,0,0,0,0,0,
0,0,0,0,0,0,0,0,0,0,0,0,0,0,0,0,0,0,0,0,0,0,0,0,0,0,0,0,0,0,
0,0,0,0,0,0,0,0,1866,0,1866,0,1866,0,1866,0,1866,0,1866,0,1866,0,0,0,0,0,0,0,0,0,
0,0,0,0,0,0,0,0,0,0,0,0,0,0,0,0,0,0,0,0,0,0,0,0,0,0,0,0,0,0,
0,0,0,0,0,0,0,0,0,0,0,0,0,0,0,0,0,0,0,0,0,0,0,0,0,0,0,0,0,0,
0,0,0,0,0,0,0,0,0,0,0,0,0,0,0,0,0,0,0,0,0,0,0,0,0,0,0,0,0,0,
0,0,0,0,0,0,0,0,0,0,0,0,0,0,0,0,0,0,0,0,0,0,0,0,0,0,0,0,0,0,
0,0,0,0,0,0,0,0,0,0,0,0,0,0,0,0,0,0,0,0,0,0,0,0,0,0,0,0,0,0,
0,0,0,0,0,0,0,0,0,0,0,0,0,0,0,0,0,0,0,0,0,0,0,0,0,0,0,0,0,0,
0,0,0,0,0,0,0,0,0,0,0,0,0,0,0,0,0,0,0,0,0,0,0,0,0,0,0,0,0,0,
0,0,0,0,0,0,0,0,0,0,0,0,0,0,0,0,0,0,0,0,0,0,0,0,0,0,0,0,0,0,
0,0,0,0,0,0,0,0,0,0,0,0,0,0,0,0,0,0,0,0,0,0,0,0,0,0,0,0,0,0,
0,0,0,0,0,0,0,0,0,0,0,0,0,0,0,0,0,0,0,0,0,0,0,0,0,0,0,0,0,0,
0,0,0,0,0,0,0,0,0,0,0,0,0,0,0,0,0,0,0,0,0,0,0,0,0,0,0,0,0,0
</data>
  </layer>
  <layer id="5" name="Level_0_Soil" width="30" height="38">
   <properties>
    <property name="maybe_animation_id" value="964a65343358d289"/>
    <property name="maybe_tileset_id" value="e66ae2c7e401aab6"/>
    <property name="tile_size" type="int" value="16"/>
   </properties>
   <data encoding="csv">
0,0,0,0,0,0,0,0,0,0,0,0,0,0,0,0,0,0,0,0,0,0,0,0,0,0,0,0,0,0,
0,0,0,0,0,0,0,0,0,0,0,0,0,0,0,0,0,0,0,0,0,0,0,0,0,0,0,0,0,0,
0,0,0,0,0,0,0,0,0,0,0,0,0,0,0,0,0,0,0,0,0,0,0,0,0,0,0,0,0,0,
0,0,0,0,0,0,0,0,0,0,0,0,0,0,0,0,0,0,0,0,0,0,0,0,0,0,0,0,0,0,
0,0,0,0,0,0,0,0,0,0,0,0,0,0,0,0,0,0,0,0,0,0,0,0,0,0,0,0,0,0,
0,0,0,0,0,0,0,0,0,0,0,0,0,0,0,0,0,0,0,0,0,0,0,0,0,0,0,0,0,0,
0,0,0,0,0,0,0,0,0,0,0,0,0,0,0,0,0,0,0,0,0,0,0,0,0,0,0,0,0,0,
0,0,0,0,0,0,0,0,0,0,0,0,0,0,0,0,0,0,0,0,0,0,0,0,0,0,0,0,0,0,
0,0,0,0,0,0,0,0,0,0,0,0,0,0,0,0,0,0,0,0,0,0,0,0,0,0,0,0,0,0,
0,0,0,0,0,0,0,0,0,0,0,0,0,0,0,0,0,0,0,0,0,0,0,0,0,0,0,0,0,0,
0,0,0,0,0,0,0,0,0,0,0,0,0,0,0,0,0,0,0,0,0,0,0,0,0,0,0,0,0,0,
0,0,0,0,0,0,0,0,0,0,0,0,0,0,0,0,0,0,0,0,0,0,0,0,0,0,0,0,0,0,
0,0,0,0,0,0,0,0,0,0,0,0,0,0,0,0,0,0,0,0,0,0,0,0,0,0,0,0,0,0,
0,0,0,0,0,0,0,0,0,0,0,0,0,0,0,0,0,0,0,0,0,0,0,0,0,0,0,0,0,0,
0,0,0,0,0,0,0,0,0,0,0,0,0,0,0,0,0,0,0,0,0,0,0,0,0,0,0,0,0,0,
0,0,0,0,0,0,0,0,0,0,0,0,0,0,0,0,0,0,0,0,0,0,0,0,0,0,0,0,0,0,
0,0,0,0,0,0,0,0,0,0,0,0,0,0,0,0,0,0,0,0,0,0,0,0,0,0,0,0,0,0,
0,0,0,0,0,0,0,0,0,0,0,0,0,0,0,0,0,0,0,0,0,0,0,0,0,0,0,0,0,0,
0,0,0,0,0,0,0,0,0,0,0,0,0,0,0,0,0,0,0,0,0,0,0,0,0,0,0,0,0,0,
0,0,0,0,0,0,0,0,0,0,0,0,0,0,0,0,0,0,0,0,0,0,0,0,0,0,0,0,0,0,
0,0,0,0,0,0,0,0,0,0,0,0,0,0,0,0,0,0,0,0,0,0,0,0,0,0,0,0,0,0,
0,0,0,0,0,0,0,0,0,0,0,0,0,0,0,0,0,0,0,0,0,0,0,0,0,0,0,0,0,0,
0,0,0,0,0,0,0,0,0,0,0,0,0,0,0,0,0,0,0,0,0,0,0,0,0,0,0,0,0,0,
0,0,0,0,0,0,0,0,0,0,0,0,0,0,0,0,0,0,0,0,0,0,0,0,0,0,0,0,0,0,
0,0,0,0,0,0,0,0,0,0,0,0,0,0,0,0,0,0,0,0,0,0,0,0,0,0,0,0,0,0,
0,0,0,0,0,0,0,0,0,0,0,0,0,0,0,0,0,0,0,0,0,0,0,0,0,0,0,0,0,0,
0,0,0,0,0,0,0,0,0,0,0,0,0,0,0,0,0,0,0,0,0,0,0,0,0,0,0,0,0,0,
0,0,0,0,0,0,0,0,0,0,0,0,0,0,0,0,0,0,0,0,0,0,0,0,0,0,0,0,0,0,
0,0,0,0,0,0,0,0,0,0,0,0,0,0,0,0,0,0,0,0,0,0,0,0,0,0,0,0,0,0,
0,0,0,0,0,0,0,0,0,0,0,0,0,0,0,0,0,0,0,0,0,0,0,0,0,0,0,0,0,0,
0,0,0,0,0,0,0,0,0,0,0,0,0,0,0,0,0,0,0,0,0,0,0,0,0,0,0,0,0,0,
0,0,0,0,0,0,0,0,0,0,0,0,0,0,0,0,0,0,0,0,0,0,0,0,0,0,0,0,0,0,
0,0,0,0,0,0,0,0,0,0,0,0,0,0,0,0,0,0,0,0,0,0,0,0,0,0,0,0,0,0,
0,0,0,0,0,0,0,0,0,0,0,0,0,0,0,0,0,0,0,0,0,0,0,0,0,0,0,0,0,0,
0,0,0,0,0,0,0,0,0,0,0,0,0,0,0,0,0,0,0,0,0,0,0,0,0,0,0,0,0,0,
0,0,0,0,0,0,0,0,0,0,0,0,0,0,0,0,0,0,0,0,0,0,0,0,0,0,0,0,0,0,
0,0,0,0,0,0,0,0,0,0,0,0,0,0,0,0,0,0,0,0,0,0,0,0,0,0,0,0,0,0,
0,0,0,0,0,0,0,0,0,0,0,0,0,0,0,0,0,0,0,0,0,0,0,0,0,0,0,0,0,0
</data>
  </layer>
  <layer id="6" name="Level_0_Water" width="30" height="38">
   <properties>
    <property name="maybe_animation_id" value="3b034f7b3407d163"/>
    <property name="maybe_tileset_id" value="55a525a1b9d714cc"/>
    <property name="tile_size" type="int" value="16"/>
   </properties>
   <data encoding="csv">
0,0,0,0,0,0,0,0,0,0,0,0,0,0,0,0,0,0,0,0,0,0,0,0,0,0,0,0,0,0,
0,0,0,0,0,0,0,0,0,0,0,0,0,0,0,0,0,0,0,0,0,0,0,0,0,0,0,0,0,0,
0,0,0,0,0,0,0,0,0,0,0,0,0,0,0,0,0,0,0,0,0,0,0,0,0,0,0,0,0,0,
0,0,0,0,0,0,0,0,0,0,0,0,0,0,0,0,0,0,0,0,0,0,0,0,0,0,0,0,0,0,
0,0,0,0,0,0,0,0,0,0,0,0,0,0,0,0,0,0,0,0,0,0,0,0,0,0,0,0,0,0,
0,0,0,0,0,0,0,0,0,0,0,0,0,0,0,0,0,0,0,0,0,0,0,0,0,0,0,0,0,0,
0,0,0,0,0,0,0,0,0,0,0,0,0,0,0,0,0,0,0,0,0,0,0,0,0,0,0,0,0,0,
0,0,0,0,0,0,0,0,0,0,0,0,0,0,0,0,0,0,0,0,0,0,0,0,0,0,0,0,0,0,
0,0,0,0,0,0,0,0,0,0,0,0,0,0,0,0,0,0,0,0,0,0,0,0,0,0,0,0,0,0,
0,0,0,0,0,0,0,0,0,0,0,0,0,0,0,0,0,0,0,0,0,0,0,0,0,0,0,0,0,0,
0,0,0,0,0,0,0,0,0,0,0,0,0,0,0,0,0,0,0,0,0,0,0,0,0,0,0,0,0,0,
0,0,0,0,0,0,0,0,0,0,0,0,0,0,0,0,0,0,0,0,0,0,0,0,0,0,0,0,0,0,
0,0,0,0,0,0,0,0,0,0,0,0,0,0,0,0,0,0,0,0,0,0,0,0,0,0,0,0,0,0,
0,0,0,0,0,0,0,0,0,0,0,0,0,0,0,0,0,0,0,0,0,0,0,0,0,0,0,0,0,0,
0,0,0,0,0,0,0,0,0,0,0,0,0,0,0,0,0,0,0,0,0,0,0,0,0,0,0,0,0,0,
0,0,0,0,0,0,0,0,0,0,0,0,0,0,0,0,0,0,0,0,0,0,0,0,0,0,0,0,0,0,
0,0,0,0,0,0,0,0,0,0,0,0,0,0,0,0,0,0,0,0,0,0,0,0,0,0,0,0,0,0,
0,0,0,0,0,0,0,0,0,0,0,0,0,0,0,0,0,0,0,0,0,0,0,0,0,0,0,0,0,0,
0,0,0,0,0,0,0,0,0,0,0,0,0,0,0,0,0,0,0,0,0,0,0,0,0,0,0,0,0,0,
0,0,0,0,0,0,0,0,0,0,0,0,0,0,0,0,0,0,0,0,0,0,0,0,0,0,0,0,0,0,
0,0,0,0,0,0,0,0,0,0,0,0,0,0,0,0,0,0,0,0,0,0,0,0,0,0,0,0,0,0,
0,0,0,0,0,0,0,0,0,0,0,0,0,0,0,0,0,0,0,0,0,0,0,0,0,0,0,0,0,0,
0,0,0,0,0,0,0,0,0,0,0,0,0,0,0,0,0,0,0,0,0,0,0,0,0,0,0,0,0,0,
0,0,0,0,0,0,0,0,0,0,0,0,0,0,0,0,0,0,0,0,0,0,0,0,0,0,0,0,0,0,
0,0,0,0,0,0,0,0,0,0,0,0,0,0,0,0,0,0,0,0,0,0,0,0,0,0,0,0,0,0,
0,0,0,0,0,0,0,0,0,0,0,0,0,0,0,0,0,0,0,0,0,0,0,0,0,0,0,0,0,0,
0,0,0,0,0,0,0,0,0,0,0,0,0,0,0,0,0,0,0,0,0,0,0,0,0,0,0,0,0,0,
0,0,0,0,0,0,0,0,0,0,0,0,0,0,0,0,0,0,0,0,0,0,0,0,0,0,0,0,0,0,
0,0,0,0,0,0,0,0,0,0,0,0,0,0,0,0,0,0,0,0,0,0,0,0,0,0,0,0,0,0,
0,0,0,0,0,0,0,0,0,0,0,0,0,0,0,0,0,0,0,0,0,0,0,0,0,0,0,0,0,0,
0,0,0,0,0,0,0,0,0,0,0,0,0,0,0,0,0,0,0,0,0,0,0,0,0,0,0,0,0,0,
0,0,0,0,0,0,0,0,0,0,0,0,0,0,0,0,0,0,0,0,0,0,0,0,0,0,0,0,0,0,
0,0,0,0,0,0,0,0,0,0,0,0,0,0,0,0,0,0,0,0,0,0,0,0,0,0,0,0,0,0,
0,0,0,0,0,0,0,0,0,0,0,0,0,0,0,0,0,0,0,0,0,0,0,0,0,0,0,0,0,0,
0,0,0,0,0,0,0,0,0,0,0,0,0,0,0,0,0,0,0,0,0,0,0,0,0,0,0,0,0,0,
0,0,0,0,0,0,0,0,0,0,0,0,0,0,0,0,0,0,0,0,0,0,0,0,0,0,0,0,0,0,
0,0,0,0,0,0,0,0,0,0,0,0,0,0,0,0,0,0,0,0,0,0,0,0,0,0,0,0,0,0,
0,0,0,0,0,0,0,0,0,0,0,0,0,0,0,0,0,0,0,0,0,0,0,0,0,0,0,0,0,0
</data>
  </layer>
  <layer id="7" name="Level_0_Floor_A" width="30" height="38">
   <properties>
    <property name="maybe_animation_id" value="894b2d60a17cb335"/>
    <property name="maybe_tileset_id" value="6df8acde94464761"/>
    <property name="tile_size" type="int" value="16"/>
   </properties>
   <data encoding="csv">
1703,0,1703,0,1703,0,1703,0,1703,0,1703,0,1703,0,1703,0,1703,0,1703,0,1703,0,1703,0,1703,0,1703,0,1703,0,
0,0,0,0,0,0,0,0,0,0,0,0,0,0,0,0,0,0,0,0,0,0,0,0,0,0,0,0,0,0,
1703,0,1703,0,1703,0,1703,0,1703,0,1703,0,1703,0,1703,0,1703,0,1703,0,1703,0,1703,0,1703,0,1703,0,1703,0,
0,0,0,0,0,0,0,0,0,0,0,0,0,0,0,0,0,0,0,0,0,0,0,0,0,0,0,0,0,0,
1703,0,1703,0,1703,0,1703,0,1703,0,1703,0,1703,0,1703,0,1703,0,1703,0,1703,0,1703,0,1703,0,1703,0,1703,0,
0,0,0,0,0,0,0,0,0,0,0,0,0,0,0,0,0,0,0,0,0,0,0,0,0,0,0,0,0,0,
1703,0,1703,0,1703,0,1703,0,1703,0,1703,0,1703,0,1703,0,1703,0,1703,0,1703,0,1703,0,1703,0,1703,0,1703,0,
0,0,0,0,0,0,0,0,0,0,0,0,0,0,0,0,0,0,0,0,0,0,0,0,0,0,0,0,0,0,
1703,0,1703,0,1703,0,1703,0,1703,0,1703,0,1703,0,1703,0,1703,0,1703,0,1703,0,1703,0,1703,0,1703,0,1703,0,
0,0,0,0,0,0,0,0,0,0,0,0,0,0,0,0,0,0,0,0,0,0,0,0,0,0,0,0,0,0,
1703,0,1703,0,1703,0,1703,0,1703,0,1703,0,1703,0,1703,0,1703,0,1703,0,1703,0,1703,0,1703,0,1703,0,1703,0,
0,0,0,0,0,0,0,0,0,0,0,0,0,0,0,0,0,0,0,0,0,0,0,0,0,0,0,0,0,0,
1703,0,1703,0,1764,0,1764,0,1764,0,1764,0,1764,0,1764,0,1764,0,1764,0,1764,0,1764,0,1764,0,1703,0,1703,0,
0,0,0,0,0,0,0,0,0,0,0,0,0,0,0,0,0,0,0,0,0,0,0,0,0,0,0,0,0,0,
1703,0,1703,0,1764,0,1764,0,1765,0,1766,0,1767,0,1766,0,1767,0,1767,0,1768,0,1764,0,1764,0,1703,0,1703,0,
0,0,0,0,0,0,0,0,0,0,0,0,0,0,0,0,0,0,0,0,0,0,0,0,0,0,0,0,0,0,
1703,0,1703,0,1764,0,1764,0,1776,0,1703,0,1703,0,1703,0,1703,0,1703,0,1779,0,1764,0,1764,0,1703,0,1703,0,
0,0,0,0,0,0,0,0,0,0,0,0,0,0,0,0,0,0,0,0,0,0,0,0,0,0,0,0,0,0,
1703,0,1703,0,1764,0,1764,0,1787,0,1703,0,1703,0,1703,0,1703,0,1703,0,1779,0,1764,0,1764,0,1703,0,1703,0,
0,0,0,0,0,0,0,0,0,0,0,0,0,0,0,0,0,0,0,0,0,0,0,0,0,0,0,0,0,0,
1703,0,1703,0,1764,0,1764,0,1776,0,1703,0,1703,0,1703,0,1703,0,1703,0,1779,0,1764,0,1764,0,1703,0,1703,0,
0,0,0,0,0,0,0,0,0,0,0,0,0,0,0,0,0,0,0,0,0,0,0,0,0,0,0,0,0,0,
1703,0,1703,0,1764,0,1764,0,1787,0,1703,0,1703,0,1703,0,1703,0,1703,0,1790,0,1764,0,1764,0,1703,0,1703,0,
0,0,0,0,0,0,0,0,0,0,0,0,0,0,0,0,0,0,0,0,0,0,0,0,0,0,0,0,0,0,
1703,0,1703,0,1764,0,1764,0,1787,0,1703,0,1703,0,1703,0,1703,0,1703,0,1790,0,1764,0,1764,0,1703,0,1703,0,
0,0,0,0,0,0,0,0,0,0,0,0,0,0,0,0,0,0,0,0,0,0,0,0,0,0,0,0,0,0,
1703,0,1703,0,1764,0,1764,0,1798,0,1799,0,1799,0,1800,0,1799,0,1800,0,1801,0,1764,0,1764,0,1703,0,1703,0,
0,0,0,0,0,0,0,0,0,0,0,0,0,0,0,0,0,0,0,0,0,0,0,0,0,0,0,0,0,0,
1703,0,1703,0,1764,0,1764,0,1764,0,1764,0,1764,0,1764,0,1764,0,1764,0,1764,0,1764,0,1764,0,1703,0,1703,0,
0,0,0,0,0,0,0,0,0,0,0,0,0,0,0,0,0,0,0,0,0,0,0,0,0,0,0,0,0,0,
1703,0,1703,0,1764,0,1764,0,1764,0,1764,0,1764,0,1764,0,1764,0,1764,0,1764,0,1764,0,1764,0,1703,0,1703,0,
0,0,0,0,0,0,0,0,0,0,0,0,0,0,0,0,0,0,0,0,0,0,0,0,0,0,0,0,0,0,
1703,0,1703,0,1764,0,1764,0,1764,0,1764,0,1764,0,1764,0,1764,0,1764,0,1764,0,1764,0,1764,0,1703,0,1703,0,
0,0,0,0,0,0,0,0,0,0,0,0,0,0,0,0,0,0,0,0,0,0,0,0,0,0,0,0,0,0,
1703,0,1703,0,1764,0,1764,0,1764,0,1764,0,1764,0,1764,0,1764,0,1764,0,1764,0,1764,0,1764,0,1703,0,1703,0,
0,0,0,0,0,0,0,0,0,0,0,0,0,0,0,0,0,0,0,0,0,0,0,0,0,0,0,0,0,0,
1703,0,1703,0,1764,0,1764,0,1764,0,1764,0,1764,0,1764,0,1764,0,1764,0,1764,0,1764,0,1764,0,1703,0,1703,0,
0,0,0,0,0,0,0,0,0,0,0,0,0,0,0,0,0,0,0,0,0,0,0,0,0,0,0,0,0,0
</data>
  </layer>
  <layer id="8" name="Level_0_Shadows" width="30" height="38">
   <properties>
    <property name="maybe_animation_id" value="babd09ade2b55c05"/>
    <property name="maybe_tileset_id" value="339411f6ba88c8f0"/>
    <property name="tile_size" type="int" value="16"/>
   </properties>
   <data encoding="csv">
0,0,0,0,0,0,0,0,0,0,0,0,0,0,0,0,0,0,0,0,0,0,0,0,0,0,0,0,0,0,
0,0,0,0,0,0,0,0,0,0,0,0,0,0,0,0,0,0,0,0,0,0,0,0,0,0,0,0,0,0,
5898,0,5898,0,5898,0,5898,0,5898,0,5898,0,5898,0,5898,0,5898,0,5898,0,5898,0,5898,0,5898,0,0,0,0,0,
0,0,0,0,0,0,0,0,0,0,0,0,0,0,0,0,0,0,0,0,0,0,0,0,0,0,0,0,0,0,
5898,0,5898,0,5898,0,5898,0,5898,0,5898,0,5898,0,5898,0,5898,0,5898,0,5898,0,5898,0,5898,0,0,0,0,0,
0,0,0,0,0,0,0,0,0,0,0,0,0,0,0,0,0,0,0,0,0,0,0,0,0,0,0,0,0,0,
5898,0,5898,0,5898,0,5898,0,5898,0,5898,0,5898,0,5898,0,5898,0,5898,0,5898,0,5898,0,5898,0,5898,0,0,0,
0,0,0,0,0,0,0,0,0,0,0,0,0,0,0,0,0,0,0,0,0,0,0,0,0,0,0,0,0,0,
5898,0,5898,0,5898,0,5898,0,5898,0,5898,0,5898,0,5898,0,5898,0,5898,0,5898,0,5898,0,5898,0,5898,0,0,0,
0,0,0,0,0,0,0,0,0,0,0,0,0,0,0,0,0,0,0,0,0,0,0,0,0,0,0,0,0,0,
5898,0,5898,0,5898,0,5898,0,5898,0,5898,0,5898,0,5898,0,5898,0,5898,0,5898,0,5898,0,5898,0,5898,0,5898,0,
0,0,0,0,0,0,0,0,0,0,0,0,0,0,0,0,0,0,0,0,0,0,0,0,0,0,0,0,0,0,
5898,0,5898,0,5899,0,5899,0,5926,0,5900,0,5900,0,5900,0,5900,0,5900,0,5900,0,5900,0,5900,0,5898,0,5898,0,
0,0,0,0,0,0,0,0,0,0,0,0,0,0,0,0,0,0,0,0,0,0,0,0,0,0,0,0,0,0,
5898,0,5898,0,5899,0,5899,0,5898,0,5898,0,5898,0,5898,0,5898,0,5898,0,5898,0,5898,0,5898,0,5898,0,5898,0,
0,0,0,0,0,0,0,0,0,0,0,0,0,0,0,0,0,0,0,0,0,0,0,0,0,0,0,0,0,0,
5898,0,5898,0,5899,0,5899,0,5898,0,5898,0,5898,0,5898,0,5898,0,5898,0,5898,0,5898,0,5898,0,5898,0,5898,0,
0,0,0,0,0,0,0,0,0,0,0,0,0,0,0,0,0,0,0,0,0,0,0,0,0,0,0,0,0,0,
5898,0,5898,0,5899,0,5899,0,5898,0,5898,0,5898,0,5898,0,5898,0,5898,0,5898,0,5898,0,5898,0,0,0,0,0,
0,0,0,0,0,0,0,0,0,0,0,0,0,0,0,0,0,0,0,0,0,0,0,0,0,0,0,0,0,0,
5898,0,5898,0,5899,0,5899,0,5898,0,5898,0,5898,0,5898,0,5898,0,5898,0,5898,0,5898,0,5898,0,0,0,0,0,
0,0,0,0,0,0,0,0,0,0,0,0,0,0,0,0,0,0,0,0,0,0,0,0,0,0,0,0,0,0,
5898,0,5898,0,5899,0,5899,0,5898,0,5898,0,5898,0,5898,0,5898,0,5898,0,5898,0,5898,0,5898,0,0,0,0,0,
0,0,0,0,0,0,0,0,0,0,0,0,0,0,0,0,0,0,0,0,0,0,0,0,0,0,0,0,0,0,
5898,0,5898,0,5899,0,5899,0,5898,0,5898,0,5898,0,5898,0,5898,0,5898,0,5898,0,5898,0,5898,0,0,0,0,0,
0,0,0,0,0,0,0,0,0,0,0,0,0,0,0,0,0,0,0,0,0,0,0,0,0,0,0,0,0,0,
5898,0,5898,0,5899,0,5899,0,5898,0,5898,0,5898,0,5898,0,5898,0,5898,0,5898,0,5898,0,5898,0,0,0,0,0,
0,0,0,0,0,0,0,0,0,0,0,0,0,0,0,0,0,0,0,0,0,0,0,0,0,0,0,0,0,0,
5898,0,5898,0,5899,0,5899,0,5898,0,5898,0,5898,0,5898,0,5898,0,5898,0,5898,0,5898,0,5898,0,0,0,0,0,
0,0,0,0,0,0,0,0,0,0,0,0,0,0,0,0,0,0,0,0,0,0,0,0,0,0,0,0,0,0,
0,0,0,0,5899,0,5899,0,0,0,0,0,0,0,0,0,0,0,0,0,0,0,0,0,0,0,0,0,0,0,
0,0,0,0,0,0,0,0,0,0,0,0,0,0,0,0,0,0,0,0,0,0,0,0,0,0,0,0,0,0,
5898,0,5898,0,5898,0,5898,0,0,0,0,0,0,0,0,0,0,0,0,0,0,0,0,0,0,0,0,0,0,0,
0,0,0,0,0,0,0,0,0,0,0,0,0,0,0,0,0,0,0,0,0,0,0,0,0,0,0,0,0,0,
5898,0,5898,0,5898,0,5898,0,0,0,0,0,0,0,0,0,0,0,0,0,0,0,0,0,0,0,0,0,0,0,
0,0,0,0,0,0,0,0,0,0,0,0,0,0,0,0,0,0,0,0,0,0,0,0,0,0,0,0,0,0,
5898,0,5898,0,5898,0,5898,0,0,0,0,0,0,0,0,0,0,0,0,0,0,0,0,0,0,0,0,0,0,0,
0,0,0,0,0,0,0,0,0,0,0,0,0,0,0,0,0,0,0,0,0,0,0,0,0,0,0,0,0,0
</data>
  </layer>
  <objectgroup draworder="index" id="9" name="Level_0_FloorSprites"/>
  <layer id="10" name="Level_0_Walls" width="30" height="38">
   <properties>
    <property name="maybe_animation_id" value="894b2d60a17cb335"/>
    <property name="maybe_tileset_id" value="6df8acde94464761"/>
    <property name="tile_size" type="int" value="16"/>
   </properties>
   <data encoding="csv">
1703,0,1703,0,1703,0,1703,0,1703,0,1703,0,1703,0,1703,0,1703,0,1703,0,1703,0,1703,0,1703,0,1703,0,1703,0,
0,0,0,0,0,0,0,0,0,0,0,0,0,0,0,0,0,0,0,0,0,0,0,0,0,0,0,0,0,0,
1703,0,1703,0,1703,0,1703,0,1703,0,1703,0,1703,0,1703,0,1703,0,1703,0,1703,0,1703,0,1703,0,1703,0,1703,0,
0,0,0,0,0,0,0,0,0,0,0,0,0,0,0,0,0,0,0,0,0,0,0,0,0,0,0,0,0,0,
1703,0,1703,0,1709,0,1710,0,1709,0,1710,0,1709,0,1710,0,1709,0,1710,0,1709,0,1710,0,1709,0,1703,0,1703,0,
0,0,0,0,0,0,0,0,0,0,0,0,0,0,0,0,0,0,0,0,0,0,0,0,0,0,0,0,0,0,
1703,0,1703,0,1720,0,1721,0,1720,0,1721,0,1720,0,1721,0,1720,0,1721,0,1720,0,1721,0,1720,0,1703,0,1703,0,
0,0,0,0,0,0,0,0,0,0,0,0,0,0,0,0,0,0,0,0,0,0,0,0,0,0,0,0,0,0,
1703,0,1703,0,1731,0,1732,0,1731,0,1732,0,1731,0,1732,0,1731,0,1732,0,1731,0,1732,0,1731,0,1703,0,1703,0,
0,0,0,0,0,0,0,0,0,0,0,0,0,0,0,0,0,0,0,0,0,0,0,0,0,0,0,0,0,0,
1703,0,1703,0,1742,0,1743,0,1742,0,1743,0,1742,0,1743,0,1742,0,1743,0,1742,0,1743,0,1742,0,1703,0,1703,0,
0,0,0,0,0,0,0,0,0,0,0,0,0,0,0,0,0,0,0,0,0,0,0,0,0,0,0,0,0,0,
1703,0,1703,0,1753,0,1754,0,1753,0,1754,0,1753,0,1754,0,1753,0,1754,0,1753,0,1754,0,1753,0,1703,0,1703,0,
0,0,0,0,0,0,0,0,0,0,0,0,0,0,0,0,0,0,0,0,0,0,0,0,0,0,0,0,0,0,
1703,0,1703,0,1703,0,1703,0,1703,0,1703,0,1703,0,1703,0,1703,0,1703,0,1703,0,1703,0,1703,0,1703,0,1703,0,
0,0,0,0,0,0,0,0,0,0,0,0,0,0,0,0,0,0,0,0,0,0,0,0,0,0,0,0,0,0,
1703,0,1703,0,1703,0,1703,0,1703,0,1703,0,1703,0,1703,0,1703,0,1703,0,1703,0,1703,0,1703,0,1703,0,1703,0,
0,0,0,0,0,0,0,0,0,0,0,0,0,0,0,0,0,0,0,0,0,0,0,0,0,0,0,0,0,0,
1703,0,1703,0,1703,0,1703,0,1703,0,1703,0,1703,0,1703,0,1703,0,1703,0,1703,0,1703,0,1703,0,1703,0,1703,0,
0,0,0,0,0,0,0,0,0,0,0,0,0,0,0,0,0,0,0,0,0,0,0,0,0,0,0,0,0,0,
1703,0,1703,0,1703,0,1703,0,1703,0,1703,0,1703,0,1703,0,1703,0,1703,0,1703,0,1703,0,1703,0,1703,0,1703,0,
0,0,0,0,0,0,0,0,0,0,0,0,0,0,0,0,0,0,0,0,0,0,0,0,0,0,0,0,0,0,
1703,0,1703,0,1703,0,1703,0,1703,0,1703,0,1703,0,1703,0,1703,0,1703,0,1703,0,1703,0,1703,0,1703,0,1703,0,
0,0,0,0,0,0,0,0,0,0,0,0,0,0,0,0,0,0,0,0,0,0,0,0,0,0,0,0,0,0,
1703,0,1703,0,1703,0,1703,0,1703,0,1703,0,1703,0,1703,0,1703,0,1703,0,1703,0,0,0,0,0,0,0,0,0,
0,0,0,0,0,0,0,0,0,0,0,0,0,0,0,0,0,0,0,0,0,0,0,0,0,0,0,0,0,0,
0,0,0,0,0,0,0,0,0,0,0,0,0,0,0,0,0,0,0,0,0,0,0,0,0,0,0,0,0,0,
0,0,0,0,0,0,0,0,0,0,0,0,0,0,0,0,0,0,0,0,0,0,0,0,0,0,0,0,0,0,
0,0,0,0,0,0,0,0,0,0,0,0,0,0,0,0,0,0,0,0,0,0,0,0,0,0,0,0,0,0,
0,0,0,0,0,0,0,0,0,0,0,0,0,0,0,0,0,0,0,0,0,0,0,0,0,0,0,0,0,0,
0,0,0,0,0,0,0,0,0,0,0,0,0,0,0,0,0,0,0,0,0,0,0,0,0,0,0,0,0,0,
0,0,0,0,0,0,0,0,0,0,0,0,0,0,0,0,0,0,0,0,0,0,0,0,0,0,0,0,0,0,
0,0,0,0,0,0,0,0,0,0,0,0,0,0,0,0,0,0,0,0,0,0,0,0,0,0,0,0,0,0,
0,0,0,0,0,0,0,0,0,0,0,0,0,0,0,0,0,0,0,0,0,0,0,0,0,0,0,0,0,0,
0,0,0,0,0,0,0,0,0,0,0,0,0,0,0,0,0,0,0,0,0,0,0,0,0,0,0,0,0,0,
0,0,0,0,0,0,0,0,0,0,0,0,0,0,0,0,0,0,0,0,0,0,0,0,0,0,0,0,0,0,
0,0,0,0,0,0,0,0,0,0,0,0,0,0,0,0,0,0,0,0,0,0,0,0,0,0,0,0,0,0,
0,0,0,0,0,0,0,0,0,0,0,0,0,0,0,0,0,0,0,0,0,0,0,0,0,0,0,0,0,0
</data>
  </layer>
  <objectgroup draworder="index" id="11" name="Level_0_Assets" visible="0"/>
  <layer id="12" name="PriorityObjects" width="30" height="38" visible="0">
   <properties>
    <property name="maybe_animation_id" value="c17a3f663f237941"/>
    <property name="maybe_tileset_id" value="6517ec72c0df75c4"/>
    <property name="tile_size" type="int" value="16"/>
   </properties>
   <data encoding="csv">
6154,0,6154,0,6154,0,6154,0,6154,0,6154,0,6154,0,6154,0,6154,0,6154,0,6154,0,6154,0,6154,0,6154,0,6154,0,
0,0,0,0,0,0,0,0,0,0,0,0,0,0,0,0,0,0,0,0,0,0,0,0,0,0,0,0,0,0,
6154,0,6154,0,6154,0,6154,0,6154,0,6154,0,6154,0,6154,0,6154,0,6154,0,6154,0,6154,0,6154,0,6154,0,6154,0,
0,0,0,0,0,0,0,0,0,0,0,0,0,0,0,0,0,0,0,0,0,0,0,0,0,0,0,0,0,0,
6154,0,6154,0,6154,0,6154,0,6154,0,6154,0,6154,0,6154,0,6154,0,6154,0,6154,0,6154,0,6154,0,6154,0,6154,0,
0,0,0,0,0,0,0,0,0,0,0,0,0,0,0,0,0,0,0,0,0,0,0,0,0,0,0,0,0,0,
6154,0,6154,0,6154,0,6154,0,6154,0,6154,0,6154,0,6154,0,6154,0,6154,0,6154,0,6154,0,6154,0,6154,0,6154,0,
0,0,0,0,0,0,0,0,0,0,0,0,0,0,0,0,0,0,0,0,0,0,0,0,0,0,0,0,0,0,
6154,0,6154,0,6154,0,6154,0,6154,0,6154,0,6154,0,6154,0,6154,0,6154,0,6154,0,6154,0,6154,0,6154,0,6154,0,
0,0,0,0,0,0,0,0,0,0,0,0,0,0,0,0,0,0,0,0,0,0,0,0,0,0,0,0,0,0,
6154,0,6154,0,6154,0,6154,0,6154,0,6154,0,6154,0,6154,0,6154,0,6154,0,6154,0,6154,0,6154,0,6154,0,6154,0,
0,0,0,0,0,0,0,0,0,0,0,0,0,0,0,0,0,0,0,0,0,0,0,0,0,0,0,0,0,0,
6154,0,6154,0,6154,0,6154,0,6154,0,6154,0,6154,0,6154,0,6154,0,6154,0,6154,0,6154,0,6154,0,6154,0,6154,0,
0,0,0,0,0,0,0,0,0,0,0,0,0,0,0,0,0,0,0,0,0,0,0,0,0,0,0,0,0,0,
6154,0,6154,0,6154,0,6154,0,6154,0,6154,0,6154,0,6154,0,6154,0,6154,0,6154,0,6154,0,6154,0,6154,0,6154,0,
0,0,0,0,0,0,0,0,0,0,0,0,0,0,0,0,0,0,0,0,0,0,0,0,0,0,0,0,0,0,
6154,0,6154,0,6154,0,6154,0,6154,0,6154,0,6154,0,6154,0,6154,0,6154,0,6154,0,6154,0,6154,0,6154,0,6154,0,
0,0,0,0,0,0,0,0,0,0,0,0,0,0,0,0,0,0,0,0,0,0,0,0,0,0,0,0,0,0,
6154,0,6154,0,6154,0,6154,0,6154,0,6154,0,6154,0,6154,0,6154,0,6154,0,6154,0,6154,0,6154,0,6154,0,6154,0,
0,0,0,0,0,0,0,0,0,0,0,0,0,0,0,0,0,0,0,0,0,0,0,0,0,0,0,0,0,0,
6154,0,6154,0,6154,0,6154,0,6154,0,6154,0,6154,0,6154,0,6154,0,6154,0,6154,0,6154,0,6154,0,6154,0,6154,0,
0,0,0,0,0,0,0,0,0,0,0,0,0,0,0,0,0,0,0,0,0,0,0,0,0,0,0,0,0,0,
6154,0,6154,0,6154,0,6154,0,6154,0,6154,0,6154,0,6154,0,6154,0,6154,0,6154,0,6154,0,6154,0,6154,0,6154,0,
0,0,0,0,0,0,0,0,0,0,0,0,0,0,0,0,0,0,0,0,0,0,0,0,0,0,0,0,0,0,
6154,0,6154,0,6154,0,6154,0,6154,0,6154,0,6154,0,6154,0,6154,0,6154,0,6154,0,6154,0,6154,0,6154,0,6154,0,
0,0,0,0,0,0,0,0,0,0,0,0,0,0,0,0,0,0,0,0,0,0,0,0,0,0,0,0,0,0,
6154,0,6154,0,6154,0,6154,0,6154,0,6154,0,6154,0,6154,0,6154,0,6154,0,6154,0,6154,0,6154,0,6154,0,6154,0,
0,0,0,0,0,0,0,0,0,0,0,0,0,0,0,0,0,0,0,0,0,0,0,0,0,0,0,0,0,0,
6154,0,6154,0,6154,0,6154,0,6154,0,6154,0,6154,0,6154,0,6154,0,6154,0,6154,0,6154,0,6154,0,6154,0,6154,0,
0,0,0,0,0,0,0,0,0,0,0,0,0,0,0,0,0,0,0,0,0,0,0,0,0,0,0,0,0,0,
6154,0,6154,0,6154,0,6154,0,6154,0,6154,0,6154,0,6154,0,6154,0,6154,0,6154,0,6154,0,6154,0,6154,0,6154,0,
0,0,0,0,0,0,0,0,0,0,0,0,0,0,0,0,0,0,0,0,0,0,0,0,0,0,0,0,0,0,
6154,0,6154,0,6154,0,6154,0,6154,0,6154,0,6154,0,6154,0,6154,0,6154,0,6154,0,6154,0,6154,0,6154,0,6154,0,
0,0,0,0,0,0,0,0,0,0,0,0,0,0,0,0,0,0,0,0,0,0,0,0,0,0,0,0,0,0,
6154,0,6154,0,6154,0,6154,0,6154,0,6154,0,6154,0,6154,0,6154,0,6154,0,6154,0,6154,0,6154,0,6154,0,6154,0,
0,0,0,0,0,0,0,0,0,0,0,0,0,0,0,0,0,0,0,0,0,0,0,0,0,0,0,0,0,0,
6154,0,6154,0,6154,0,6154,0,6154,0,6154,0,6154,0,6154,0,6154,0,6154,0,6154,0,6154,0,6154,0,6154,0,6154,0,
0,0,0,0,0,0,0,0,0,0,0,0,0,0,0,0,0,0,0,0,0,0,0,0,0,0,0,0,0,0
</data>
  </layer>
 </group>
 <group id="13" name="Level_1">
  <layer id="14" name="Level_1_BlackArea" width="30" height="38">
   <properties>
    <property name="maybe_animation_id" value="894b2d60a17cb335"/>
    <property name="maybe_tileset_id" value="6df8acde94464761"/>
    <property name="tile_size" type="int" value="16"/>
   </properties>
   <data encoding="csv">
1728,0,1728,0,1728,0,1728,0,1728,0,1728,0,1728,0,1728,0,1728,0,1728,0,1728,0,1728,0,1728,0,1728,0,1728,0,
0,0,0,0,0,0,0,0,0,0,0,0,0,0,0,0,0,0,0,0,0,0,0,0,0,0,0,0,0,0,
1728,0,1728,0,1728,0,1728,0,1728,0,1728,0,1728,0,1728,0,1728,0,1728,0,1728,0,1728,0,1728,0,1728,0,1728,0,
0,0,0,0,0,0,0,0,0,0,0,0,0,0,0,0,0,0,0,0,0,0,0,0,0,0,0,0,0,0,
1728,0,1728,0,1703,0,1703,0,1703,0,1703,0,1703,0,1703,0,1703,0,1703,0,1703,0,1703,0,1703,0,1728,0,1728,0,
0,0,0,0,0,0,0,0,0,0,0,0,0,0,0,0,0,0,0,0,0,0,0,0,0,0,0,0,0,0,
1728,0,1728,0,1703,0,1703,0,1703,0,1703,0,1703,0,1703,0,1703,0,1703,0,1703,0,1703,0,1703,0,1728,0,1728,0,
0,0,0,0,0,0,0,0,0,0,0,0,0,0,0,0,0,0,0,0,0,0,0,0,0,0,0,0,0,0,
1728,0,1728,0,1703,0,1703,0,1703,0,1703,0,1703,0,1703,0,1703,0,1703,0,1703,0,1703,0,1703,0,1728,0,1728,0,
0,0,0,0,0,0,0,0,0,0,0,0,0,0,0,0,0,0,0,0,0,0,0,0,0,0,0,0,0,0,
1728,0,1728,0,1703,0,1703,0,1703,0,1703,0,1703,0,1703,0,1703,0,1703,0,1703,0,1703,0,1703,0,1728,0,1728,0,
0,0,0,0,0,0,0,0,0,0,0,0,0,0,0,0,0,0,0,0,0,0,0,0,0,0,0,0,0,0,
1728,0,1728,0,1703,0,1703,0,1703,0,1703,0,1703,0,1703,0,1703,0,1703,0,1703,0,1703,0,1703,0,1728,0,1728,0,
0,0,0,0,0,0,0,0,0,0,0,0,0,0,0,0,0,0,0,0,0,0,0,0,0,0,0,0,0,0,
1728,0,1728,0,1703,0,1703,0,1703,0,1703,0,1703,0,1703,0,1703,0,1703,0,1703,0,1703,0,1703,0,1728,0,1728,0,
0,0,0,0,0,0,0,0,0,0,0,0,0,0,0,0,0,0,0,0,0,0,0,0,0,0,0,0,0,0,
1728,0,1728,0,1703,0,1703,0,1703,0,1703,0,1703,0,1703,0,1703,0,1703,0,1703,0,1703,0,1703,0,1728,0,1728,0,
0,0,0,0,0,0,0,0,0,0,0,0,0,0,0,0,0,0,0,0,0,0,0,0,0,0,0,0,0,0,
1728,0,1728,0,1703,0,1703,0,1703,0,1703,0,1703,0,1703,0,1703,0,1703,0,1703,0,1703,0,1703,0,1728,0,1728,0,
0,0,0,0,0,0,0,0,0,0,0,0,0,0,0,0,0,0,0,0,0,0,0,0,0,0,0,0,0,0,
1728,0,1728,0,1703,0,1703,0,1703,0,1703,0,1703,0,1703,0,1703,0,1703,0,1703,0,1703,0,1703,0,1728,0,1728,0,
0,0,0,0,0,0,0,0,0,0,0,0,0,0,0,0,0,0,0,0,0,0,0,0,0,0,0,0,0,0,
1728,0,1728,0,1703,0,1703,0,1703,0,1703,0,1703,0,1703,0,1703,0,1703,0,1703,0,1703,0,1703,0,1728,0,1728,0,
0,0,0,0,0,0,0,0,0,0,0,0,0,0,0,0,0,0,0,0,0,0,0,0,0,0,0,0,0,0,
1728,0,1728,0,1703,0,1703,0,1703,0,1703,0,1703,0,1703,0,1703,0,1703,0,1703,0,1703,0,1703,0,1728,0,1728,0,
0,0,0,0,0,0,0,0,0,0,0,0,0,0,0,0,0,0,0,0,0,0,0,0,0,0,0,0,0,0,
1728,0,1728,0,1703,0,1703,0,1703,0,1703,0,1703,0,1703,0,1703,0,1703,0,1703,0,1703,0,1703,0,1728,0,1728,0,
0,0,0,0,0,0,0,0,0,0,0,0,0,0,0,0,0,0,0,0,0,0,0,0,0,0,0,0,0,0,
1728,0,1728,0,1703,0,1703,0,1703,0,1703,0,1703,0,1703,0,1703,0,1703,0,1703,0,1703,0,1703,0,1728,0,1728,0,
0,0,0,0,0,0,0,0,0,0,0,0,0,0,0,0,0,0,0,0,0,0,0,0,0,0,0,0,0,0,
1728,0,1728,0,1703,0,1703,0,1703,0,1703,0,1703,0,1703,0,1703,0,1703,0,1703,0,1703,0,1703,0,1728,0,1728,0,
0,0,0,0,0,0,0,0,0,0,0,0,0,0,0,0,0,0,0,0,0,0,0,0,0,0,0,0,0,0,
1728,0,1728,0,1728,0,1728,0,1728,0,1728,0,1728,0,1728,0,1728,0,1728,0,1728,0,1728,0,1728,0,1728,0,1728,0,
0,0,0,0,0,0,0,0,0,0,0,0,0,0,0,0,0,0,0,0,0,0,0,0,0,0,0,0,0,0,
1728,0,1728,0,1728,0,1728,0,1728,0,1728,0,1728,0,1728,0,1728,0,1728,0,1728,0,1728,0,1728,0,1728,0,1728,0,
0,0,0,0,0,0,0,0,0,0,0,0,0,0,0,0,0,0,0,0,0,0,0,0,0,0,0,0,0,0,
1728,0,1728,0,1728,0,1728,0,1728,0,1728,0,1728,0,1728,0,1728,0,1728,0,1728,0,1728,0,1728,0,1728,0,1728,0,
0,0,0,0,0,0,0,0,0,0,0,0,0,0,0,0,0,0,0,0,0,0,0,0,0,0,0,0,0,0
</data>
  </layer>
  <layer id="15" name="Level_1_Ceiling" width="30" height="38">
   <properties>
    <property name="maybe_animation_id" value="894b2d60a17cb335"/>
    <property name="maybe_tileset_id" value="6df8acde94464761"/>
    <property name="tile_size" type="int" value="16"/>
   </properties>
   <data encoding="csv">
1703,0,1703,0,1703,0,1703,0,1703,0,1703,0,1703,0,1703,0,1703,0,1703,0,1703,0,1703,0,1703,0,1703,0,1703,0,
0,0,0,0,0,0,0,0,0,0,0,0,0,0,0,0,0,0,0,0,0,0,0,0,0,0,0,0,0,0,
1703,0,1704,0,1705,0,1706,0,1706,0,1706,0,1706,0,1706,0,1706,0,1706,0,1706,0,1706,0,1707,0,1708,0,1703,0,
0,0,0,0,0,0,0,0,0,0,0,0,0,0,0,0,0,0,0,0,0,0,0,0,0,0,0,0,0,0,
1703,0,1715,0,1716,0,1717,0,1717,0,1717,0,1717,0,1717,0,1717,0,1717,0,1717,0,1717,0,1718,0,1719,0,1703,0,
0,0,0,0,0,0,0,0,0,0,0,0,0,0,0,0,0,0,0,0,0,0,0,0,0,0,0,0,0,0,
1703,0,1726,0,1727,0,1703,0,1703,0,1703,0,1703,0,1703,0,1703,0,1703,0,1703,0,1703,0,1729,0,1730,0,1703,0,
0,0,0,0,0,0,0,0,0,0,0,0,0,0,0,0,0,0,0,0,0,0,0,0,0,0,0,0,0,0,
1703,0,1726,0,1727,0,1703,0,1703,0,1703,0,1703,0,1703,0,1703,0,1703,0,1703,0,1703,0,1729,0,1730,0,1703,0,
0,0,0,0,0,0,0,0,0,0,0,0,0,0,0,0,0,0,0,0,0,0,0,0,0,0,0,0,0,0,
1703,0,1726,0,1727,0,1703,0,1703,0,1703,0,1703,0,1703,0,1703,0,1703,0,1703,0,1703,0,1729,0,1730,0,1703,0,
0,0,0,0,0,0,0,0,0,0,0,0,0,0,0,0,0,0,0,0,0,0,0,0,0,0,0,0,0,0,
1703,0,1726,0,1727,0,1703,0,1703,0,1703,0,1703,0,1703,0,1703,0,1703,0,1703,0,1703,0,1729,0,1730,0,1703,0,
0,0,0,0,0,0,0,0,0,0,0,0,0,0,0,0,0,0,0,0,0,0,0,0,0,0,0,0,0,0,
1703,0,1726,0,1727,0,1703,0,1703,0,1703,0,1703,0,1703,0,1703,0,1703,0,1703,0,1703,0,1729,0,1730,0,1703,0,
0,0,0,0,0,0,0,0,0,0,0,0,0,0,0,0,0,0,0,0,0,0,0,0,0,0,0,0,0,0,
1703,0,1726,0,1727,0,1703,0,1703,0,1703,0,1703,0,1703,0,1703,0,1703,0,1703,0,1703,0,1729,0,1730,0,1703,0,
0,0,0,0,0,0,0,0,0,0,0,0,0,0,0,0,0,0,0,0,0,0,0,0,0,0,0,0,0,0,
1703,0,1726,0,1727,0,1703,0,1703,0,1703,0,1703,0,1703,0,1703,0,1703,0,1703,0,1703,0,1729,0,1730,0,1703,0,
0,0,0,0,0,0,0,0,0,0,0,0,0,0,0,0,0,0,0,0,0,0,0,0,0,0,0,0,0,0,
1703,0,1726,0,1727,0,1703,0,1703,0,1703,0,1703,0,1703,0,1703,0,1703,0,1703,0,1703,0,1729,0,1730,0,1703,0,
0,0,0,0,0,0,0,0,0,0,0,0,0,0,0,0,0,0,0,0,0,0,0,0,0,0,0,0,0,0,
1703,0,1726,0,1727,0,1703,0,1703,0,1703,0,1703,0,1703,0,1703,0,1703,0,1703,0,1703,0,1729,0,1730,0,1703,0,
0,0,0,0,0,0,0,0,0,0,0,0,0,0,0,0,0,0,0,0,0,0,0,0,0,0,0,0,0,0,
1703,0,1726,0,1727,0,1703,0,1703,0,1703,0,1703,0,1703,0,1703,0,1703,0,1703,0,1703,0,1729,0,1730,0,1703,0,
0,0,0,0,0,0,0,0,0,0,0,0,0,0,0,0,0,0,0,0,0,0,0,0,0,0,0,0,0,0,
1703,0,1726,0,1727,0,1703,0,1703,0,1703,0,1703,0,1703,0,1703,0,1703,0,1703,0,1703,0,1729,0,1730,0,1703,0,
0,0,0,0,0,0,0,0,0,0,0,0,0,0,0,0,0,0,0,0,0,0,0,0,0,0,0,0,0,0,
1703,0,1726,0,1727,0,1703,0,1703,0,1703,0,1769,0,1770,0,1771,0,1703,0,1703,0,1703,0,1729,0,1730,0,1703,0,
0,0,0,0,0,0,0,0,0,0,0,0,0,0,0,0,0,0,0,0,0,0,0,0,0,0,0,0,0,0,
1703,0,1737,0,1738,0,1739,0,1739,0,1739,0,1780,0,1781,0,1782,0,1739,0,1739,0,1739,0,1740,0,1741,0,1703,0,
0,0,0,0,0,0,0,0,0,0,0,0,0,0,0,0,0,0,0,0,0,0,0,0,0,0,0,0,0,0,
1703,0,1748,0,1749,0,1750,0,1750,0,1750,0,1791,0,1792,0,1793,0,1750,0,1750,0,1750,0,1751,0,1752,0,1703,0,
0,0,0,0,0,0,0,0,0,0,0,0,0,0,0,0,0,0,0,0,0,0,0,0,0,0,0,0,0,0,
1703,0,1703,0,1703,0,1703,0,1703,0,1703,0,1703,0,1703,0,1703,0,1703,0,1703,0,1703,0,1703,0,1703,0,1703,0,
0,0,0,0,0,0,0,0,0,0,0,0,0,0,0,0,0,0,0,0,0,0,0,0,0,0,0,0,0,0,
1703,0,1703,0,1703,0,1703,0,1703,0,1703,0,1703,0,1703,0,1703,0,1703,0,1703,0,1703,0,1703,0,1703,0,1703,0,
0,0,0,0,0,0,0,0,0,0,0,0,0,0,0,0,0,0,0,0,0,0,0,0,0,0,0,0,0,0
</data>
  </layer>
 </group>
 <layer id="16" name="Tiles_Collision" width="30" height="38" visible="0">
  <properties>
   <property name="maybe_animation_id" value="d5b5e9552171fe70"/>
   <property name="maybe_tileset_id" value="b29026a2ad0be741"/>
   <property name="tile_size" type="int" value="8"/>
  </properties>
  <data encoding="csv">
1507,1507,1507,1507,1507,1507,1507,1507,1507,1507,1507,1507,1507,1507,1507,1507,1507,1507,1507,1507,1507,1507,1507,1507,1507,1507,1507,1507,1507,1507,
1507,1507,1507,1507,1507,1507,1507,1507,1507,1507,1507,1507,1507,1507,1507,1507,1507,1507,1507,1507,1507,1507,1507,1507,1507,1507,1507,1507,1507,1507,
1507,1507,1507,1507,1507,1507,1507,1507,1507,1507,1507,1507,1507,1507,1507,1507,1507,1507,1507,1507,1507,1507,1507,1507,1507,1507,1507,1507,1507,1507,
1507,1507,1507,1507,1507,1507,1507,1507,1507,1507,1507,1507,1507,1507,1507,1507,1507,1507,1507,1507,1507,1507,1507,1507,1507,1507,1507,1507,1507,1507,
1507,1507,1507,1507,1507,1507,1507,1507,1507,1507,1507,1507,1507,1507,1507,1507,1507,1507,1507,1507,1507,1507,1507,1507,1507,1507,1507,1507,1507,1507,
1507,1507,1507,1507,1507,1507,1507,1507,1507,1507,1507,1507,1507,1507,1507,1507,1507,1507,1507,1507,1507,1507,1507,1507,1507,1507,1507,1507,1507,1507,
1507,1507,1507,1507,1507,1507,1507,1507,1507,1507,1507,1507,1507,1507,1507,1507,1507,1507,1507,1507,1507,1507,1507,1507,1507,1507,1507,1507,1507,1507,
1507,1507,1507,1507,1507,1507,1507,1507,1507,1507,1507,1507,1507,1507,1507,1507,1507,1507,1507,1507,1507,1507,1507,1507,1507,1507,1507,1507,1507,1507,
1507,1507,1507,1507,1507,1507,1507,1507,1507,1507,1507,1507,1507,1507,1507,1507,1507,1507,1507,1507,1507,1507,1507,1507,1507,1507,1507,1507,1507,1507,
1507,1507,1507,1507,1507,1507,1507,1507,1507,1507,1507,1507,1507,1507,1507,1507,1507,1507,1507,1507,1507,1507,1507,1507,1507,1507,1507,1507,1507,1507,
1507,1507,1507,1507,1507,1507,1507,1507,1507,1507,1507,1507,1507,1507,1507,1507,1507,1507,1507,1507,1507,1507,1507,1507,1507,1507,1507,1507,1507,1507,
1507,1507,1507,1507,1507,1507,1507,1507,1507,1507,1507,1507,1507,1507,1507,1507,1507,1507,1507,1507,1507,1507,1507,1507,1507,1507,1507,1507,1507,1507,
1507,1507,1507,1507,1507,1507,1507,1507,1507,1507,1507,1507,1507,1507,1507,1507,1507,1507,1507,1507,1507,1507,1507,1507,1507,1507,1507,1507,1507,1507,
1507,1507,1507,1507,1507,1507,1504,1504,1504,1504,1504,1504,1504,1504,1504,1504,1504,1504,1504,1504,1504,1504,1504,1504,1507,1507,1507,1507,1507,1507,
1507,1507,1507,1507,1507,1507,1504,1504,1504,1504,1504,1504,1504,1504,1504,1504,1504,1504,1504,1504,1504,1504,1504,1504,1507,1507,1507,1507,1507,1507,
1507,1507,1507,1507,1507,1507,1504,1504,1504,1504,1504,1504,1504,1504,1504,1504,1504,1504,1504,1504,1504,1504,1504,1504,1507,1507,1507,1507,1507,1507,
1507,1507,1507,1507,1507,1507,1504,1504,1504,1504,1504,1504,1504,1504,1504,1504,1504,1504,1504,1504,1504,1504,1504,1504,1507,1507,1507,1507,1507,1507,
1507,1507,1507,1507,1507,1507,1504,1504,1504,1504,1504,1504,1504,1504,1504,1504,1504,1504,1504,1504,1504,1504,1504,1504,1507,1507,1507,1507,1507,1507,
1507,1507,1507,1507,1507,1507,1504,1504,1504,1504,1504,1504,1504,1504,1504,1504,1504,1504,1504,1504,1504,1504,1504,1504,1507,1507,1507,1507,1507,1507,
1507,1507,1507,1507,1507,1507,1504,1504,1504,1504,1504,1504,1504,1504,1504,1504,1504,1504,1504,1504,1504,1504,1504,1504,1507,1507,1507,1507,1507,1507,
1507,1507,1507,1507,1507,1507,1504,1504,1504,1504,1504,1504,1504,1504,1504,1504,1504,1504,1504,1504,1504,1504,1504,1504,1507,1507,1507,1507,1507,1507,
1507,1507,1507,1507,1507,1507,1504,1504,1504,1504,1504,1504,1504,1504,1504,1504,1504,1504,1504,1504,1504,1504,1504,1504,1507,1507,1507,1507,1507,1507,
1507,1507,1507,1507,1507,1507,1504,1504,1504,1504,1504,1504,1504,1504,1504,1504,1504,1504,1504,1504,1504,1504,1504,1504,1507,1507,1507,1507,1507,1507,
1507,1507,1507,1507,1507,1507,1504,1504,1504,1504,1504,1504,1504,1504,1504,1504,1504,1504,1504,1504,1504,1504,1504,1504,1507,1507,1507,1507,1507,1507,
1507,1507,1507,1507,1507,1507,1504,1504,1504,1504,1504,1504,1504,1504,1504,1504,1504,1504,1504,1504,1504,1504,1504,1504,1507,1507,1507,1507,1507,1507,
1507,1507,1507,1507,1507,1507,1504,1504,1504,1504,1504,1504,1504,1504,1504,1504,1504,1504,1504,1504,1504,1504,1504,1504,1507,1507,1507,1507,1507,1507,
1507,1507,1507,1507,1507,1507,1504,1504,1504,1504,1504,1504,1504,1504,1504,1504,1504,1504,1504,1504,1504,1504,1504,1504,1507,1507,1507,1507,1507,1507,
1507,1507,1507,1507,1507,1507,1504,1504,1504,1504,1504,1504,1504,1504,1504,1504,1504,1504,1504,1504,1504,1504,1504,1504,1507,1507,1507,1507,1507,1507,
1507,1507,1507,1507,1507,1507,1504,1504,1504,1504,1504,1504,1504,1504,1504,1504,1504,1504,1504,1504,1504,1504,1504,1504,1507,1507,1507,1507,1507,1507,
1507,1507,1507,1507,1507,1507,1504,1504,1504,1504,1504,1504,1504,1504,1504,1504,1504,1504,1504,1504,1504,1504,1504,1504,1507,1507,1507,1507,1507,1507,
1507,1507,1507,1507,1507,1507,1507,1507,1507,1507,1507,1507,1507,1504,1504,1504,1504,1507,1507,1507,1507,1507,1507,1507,1507,1507,1507,1507,1507,1507,
1507,1507,1507,1507,1507,1507,1507,1507,1507,1507,1507,1507,1507,1504,1504,1504,1504,1507,1507,1507,1507,1507,1507,1507,1507,1507,1507,1507,1507,1507,
1507,1507,1507,1507,1507,1507,1507,1507,1507,1507,1507,1507,1507,1504,1504,1504,1504,1507,1507,1507,1507,1507,1507,1507,1507,1507,1507,1507,1507,1507,
1507,1507,1507,1507,1507,1507,1507,1507,1507,1507,1507,1507,1507,1507,1507,1507,1507,1507,1507,1507,1507,1507,1507,1507,1507,1507,1507,1507,1507,1507,
1507,1507,1507,1507,1507,1507,1507,1507,1507,1507,1507,1507,1507,1507,1507,1507,1507,1507,1507,1507,1507,1507,1507,1507,1507,1507,1507,1507,1507,1507,
1507,1507,1507,1507,1507,1507,1507,1507,1507,1507,1507,1507,1507,1507,1507,1507,1507,1507,1507,1507,1507,1507,1507,1507,1507,1507,1507,1507,1507,1507,
1507,1507,1507,1507,1507,1507,1507,1507,1507,1507,1507,1507,1507,1507,1507,1507,1507,1507,1507,1507,1507,1507,1507,1507,1507,1507,1507,1507,1507,1507,
1507,1507,1507,1507,1507,1507,1507,1507,1507,1507,1507,1507,1507,1507,1507,1507,1507,1507,1507,1507,1507,1507,1507,1507,1507,1507,1507,1507,1507,1507
</data>
 </layer>
 <layer id="17" name="FootstepTiles" width="30" height="38" visible="0">
  <properties>
   <property name="maybe_animation_id" value="9b6388374855b54b"/>
   <property name="maybe_tileset_id" value="5fc72aa2902dea7"/>
   <property name="tile_size" type="int" value="16"/>
  </properties>
  <data encoding="csv">
1511,0,1511,0,1511,0,1511,0,1511,0,1511,0,1511,0,1511,0,1511,0,1511,0,1511,0,1511,0,1511,0,1511,0,1511,0,
0,0,0,0,0,0,0,0,0,0,0,0,0,0,0,0,0,0,0,0,0,0,0,0,0,0,0,0,0,0,
1511,0,1511,0,1511,0,1511,0,1511,0,1511,0,1511,0,1511,0,1511,0,1511,0,1511,0,1511,0,1511,0,1511,0,1511,0,
0,0,0,0,0,0,0,0,0,0,0,0,0,0,0,0,0,0,0,0,0,0,0,0,0,0,0,0,0,0,
1511,0,1511,0,1511,0,1511,0,1511,0,1511,0,1511,0,1511,0,1511,0,1511,0,1511,0,1511,0,1511,0,1511,0,1511,0,
0,0,0,0,0,0,0,0,0,0,0,0,0,0,0,0,0,0,0,0,0,0,0,0,0,0,0,0,0,0,
1511,0,1511,0,1511,0,1511,0,1511,0,1511,0,1511,0,1511,0,1511,0,1511,0,1511,0,1511,0,1511,0,1511,0,1511,0,
0,0,0,0,0,0,0,0,0,0,0,0,0,0,0,0,0,0,0,0,0,0,0,0,0,0,0,0,0,0,
1511,0,1511,0,1511,0,1511,0,1511,0,1511,0,1511,0,1511,0,1511,0,1511,0,1511,0,1511,0,1511,0,1511,0,1511,0,
0,0,0,0,0,0,0,0,0,0,0,0,0,0,0,0,0,0,0,0,0,0,0,0,0,0,0,0,0,0,
1511,0,1511,0,1511,0,1511,0,1511,0,1511,0,1511,0,1511,0,1511,0,1511,0,1511,0,1511,0,1511,0,1511,0,1511,0,
0,0,0,0,0,0,0,0,0,0,0,0,0,0,0,0,0,0,0,0,0,0,0,0,0,0,0,0,0,0,
1511,0,1511,0,1513,0,1513,0,1513,0,1513,0,1513,0,1513,0,1513,0,1513,0,1513,0,1513,0,1513,0,1511,0,1511,0,
0,0,0,0,0,0,0,0,0,0,0,0,0,0,0,0,0,0,0,0,0,0,0,0,0,0,0,0,0,0,
1511,0,1511,0,1513,0,1513,0,1513,0,1513,0,1513,0,1513,0,1513,0,1513,0,1513,0,1513,0,1513,0,1511,0,1511,0,
0,0,0,0,0,0,0,0,0,0,0,0,0,0,0,0,0,0,0,0,0,0,0,0,0,0,0,0,0,0,
1511,0,1511,0,1513,0,1513,0,1513,0,1511,0,1511,0,1511,0,1511,0,1511,0,1513,0,1513,0,1513,0,1511,0,1511,0,
0,0,0,0,0,0,0,0,0,0,0,0,0,0,0,0,0,0,0,0,0,0,0,0,0,0,0,0,0,0,
1511,0,1511,0,1513,0,1513,0,1513,0,1511,0,1511,0,1511,0,1511,0,1511,0,1513,0,1513,0,1513,0,1511,0,1511,0,
0,0,0,0,0,0,0,0,0,0,0,0,0,0,0,0,0,0,0,0,0,0,0,0,0,0,0,0,0,0,
1511,0,1511,0,1513,0,1513,0,1513,0,1511,0,1511,0,1511,0,1511,0,1511,0,1513,0,1513,0,1513,0,1511,0,1511,0,
0,0,0,0,0,0,0,0,0,0,0,0,0,0,0,0,0,0,0,0,0,0,0,0,0,0,0,0,0,0,
1511,0,1511,0,1513,0,1513,0,1513,0,1511,0,1511,0,1511,0,1511,0,1511,0,1513,0,1513,0,1513,0,1511,0,1511,0,
0,0,0,0,0,0,0,0,0,0,0,0,0,0,0,0,0,0,0,0,0,0,0,0,0,0,0,0,0,0,
1511,0,1511,0,1513,0,1513,0,1513,0,1511,0,1511,0,1511,0,1511,0,1511,0,1513,0,1513,0,1513,0,1511,0,1511,0,
0,0,0,0,0,0,0,0,0,0,0,0,0,0,0,0,0,0,0,0,0,0,0,0,0,0,0,0,0,0,
1511,0,1511,0,1513,0,1513,0,1513,0,1513,0,1513,0,1513,0,1513,0,1513,0,1513,0,1513,0,1513,0,1511,0,1511,0,
0,0,0,0,0,0,0,0,0,0,0,0,0,0,0,0,0,0,0,0,0,0,0,0,0,0,0,0,0,0,
1511,0,1511,0,1513,0,1513,0,1513,0,1513,0,1513,0,1513,0,1513,0,1513,0,1513,0,1513,0,1513,0,1511,0,1511,0,
0,0,0,0,0,0,0,0,0,0,0,0,0,0,0,0,0,0,0,0,0,0,0,0,0,0,0,0,0,0,
1511,0,1511,0,1513,0,1513,0,1513,0,1513,0,1513,0,1513,0,1513,0,1513,0,1513,0,1513,0,1513,0,1511,0,1511,0,
0,0,0,0,0,0,0,0,0,0,0,0,0,0,0,0,0,0,0,0,0,0,0,0,0,0,0,0,0,0,
1511,0,1511,0,1511,0,1511,0,1511,0,1511,0,1513,0,1513,0,1513,0,1511,0,1511,0,1511,0,1511,0,1511,0,1511,0,
0,0,0,0,0,0,0,0,0,0,0,0,0,0,0,0,0,0,0,0,0,0,0,0,0,0,0,0,0,0,
1511,0,1511,0,1511,0,1511,0,1511,0,1511,0,1513,0,1513,0,1513,0,1511,0,1511,0,1511,0,1511,0,1511,0,1511,0,
0,0,0,0,0,0,0,0,0,0,0,0,0,0,0,0,0,0,0,0,0,0,0,0,0,0,0,0,0,0,
1511,0,1511,0,1511,0,1511,0,1511,0,1511,0,1513,0,1513,0,1513,0,1511,0,1511,0,1511,0,1511,0,1511,0,1511,0,
0,0,0,0,0,0,0,0,0,0,0,0,0,0,0,0,0,0,0,0,0,0,0,0,0,0,0,0,0,0
</data>
 </layer>
 <objectgroup draworder="index" id="18" name="Instances"/>
 <layer id="19" name="Tiles_Rules" width="30" height="38" visible="0">
  <properties>
   <property name="maybe_animation_id" value="f525790c1101b1a1"/>
   <property name="maybe_tileset_id" value="a3b6ca91b299d4f5"/>
   <property name="tile_size" type="int" value="8"/>
  </properties>
  <data encoding="csv">
0,0,0,0,0,0,0,0,0,0,0,0,0,0,0,0,0,0,0,0,0,0,0,0,0,0,0,0,0,0,
0,0,0,0,0,0,0,0,0,0,0,0,0,0,0,0,0,0,0,0,0,0,0,0,0,0,0,0,0,0,
0,0,0,0,0,0,0,0,0,0,0,0,0,0,0,0,0,0,0,0,0,0,0,0,0,0,0,0,0,0,
0,0,0,0,0,0,0,0,0,0,0,0,0,0,0,0,0,0,0,0,0,0,0,0,0,0,0,0,0,0,
0,0,0,0,0,0,0,0,0,0,0,0,0,0,0,0,0,0,0,0,0,0,0,0,0,0,0,0,0,0,
0,0,0,0,0,0,0,0,0,0,0,0,0,0,0,0,0,0,0,0,0,0,0,0,0,0,0,0,0,0,
0,0,0,0,0,0,0,0,0,0,0,0,0,0,0,0,0,0,0,0,0,0,0,0,0,0,0,0,0,0,
0,0,0,0,0,0,0,0,0,0,0,0,0,0,0,0,0,0,0,0,0,0,0,0,0,0,0,0,0,0,
0,0,0,0,0,0,0,0,0,0,0,0,0,0,0,0,0,0,0,0,0,0,0,0,0,0,0,0,0,0,
6322,6322,6322,6322,6322,6322,6322,6322,6322,6322,6322,6322,6322,6322,6322,6322,6322,6322,6322,6322,6322,6322,6322,6322,6322,6322,6322,6322,6322,6322,
6322,6322,6322,6322,6322,6322,6322,6322,6322,6322,6322,6322,6322,6322,6322,6322,6322,6322,6322,6322,6322,6322,6322,6322,6322,6322,6322,6322,6322,6322,
6322,6322,6322,6322,6322,6322,6322,6322,6322,6322,6322,6322,6322,6322,6322,6322,6322,6322,6322,6322,6322,6322,6322,6322,6322,6322,6322,6322,6322,6322,
6322,6322,6322,6322,6322,6322,6322,6322,6322,6322,6322,6322,6322,6322,6322,6322,6322,6322,6322,6322,6322,6322,6322,6322,6322,6322,6322,6322,6322,6322,
6322,6322,6322,6322,6322,6322,6324,6324,6324,6324,6324,6324,6324,6324,6324,6324,6324,6324,6324,6324,6324,6324,6324,6324,6322,6322,6322,6322,6322,6322,
6322,6322,6322,6322,6322,6322,6324,6324,6324,6324,6324,6324,6324,6324,6324,6324,6324,6324,6324,6324,6324,6324,6324,6324,6322,6322,6322,6322,6322,6322,
6322,6322,6322,6322,6322,6322,6324,6324,6324,6324,6324,6324,6324,6324,6324,6324,6324,6324,6324,6324,6324,6324,6324,6324,6322,6322,6322,6322,6322,6322,
6322,6322,6322,6322,6322,6322,6324,6324,6324,6324,6323,6323,6323,6323,6323,6323,6323,6323,6323,6323,6324,6324,6324,6324,6322,6322,6322,6322,6322,6322,
6322,6322,6322,6322,6322,6322,6324,6324,6324,6324,6323,6323,6323,6323,6323,6323,6323,6323,6323,6323,6324,6324,6324,6324,6322,6322,6322,6322,6322,6322,
6322,6322,6322,6322,6322,6322,6324,6324,6324,6324,6323,6323,6323,6323,6323,6323,6323,6323,6323,6323,6324,6324,6324,6324,6322,6322,6322,6322,6322,6322,
6322,6322,6322,6322,6322,6322,6324,6324,6324,6324,6323,6323,6323,6323,6323,6323,6323,6323,6323,6323,6324,6324,6324,6324,6322,6322,6322,6322,6322,6322,
6322,6322,6322,6322,6322,6322,6324,6324,6324,6324,6323,6323,6323,6323,6323,6323,6323,6323,6323,6323,6324,6324,6324,6324,6322,6322,6322,6322,6322,6322,
6322,6322,6322,6322,6322,6322,6324,6324,6324,6324,6323,6323,6323,6323,6323,6323,6323,6323,6323,6323,6324,6324,6324,6324,6322,6322,6322,6322,6322,6322,
6322,6322,6322,6322,6322,6322,6324,6324,6324,6324,6323,6323,6323,6323,6323,6323,6323,6323,6323,6323,6324,6324,6324,6324,6322,6322,6322,6322,6322,6322,
6322,6322,6322,6322,6322,6322,6324,6324,6324,6324,6323,6323,6323,6323,6323,6323,6323,6323,6323,6323,6324,6324,6324,6324,6322,6322,6322,6322,6322,6322,
6322,6322,6322,6322,6322,6322,6324,6324,6324,6324,6323,6323,6323,6323,6323,6323,6323,6323,6323,6323,6324,6324,6324,6324,6322,6322,6322,6322,6322,6322,
0,0,0,6322,6322,6322,6324,6324,6324,6324,6323,6323,6323,6323,6323,6323,6323,6323,6323,6323,6324,6324,6324,6324,6322,6322,6322,6322,6322,6322,
0,0,0,6322,6322,6322,6324,6324,6324,6324,6324,6324,6324,6324,6324,6324,6324,6324,6324,6324,6324,6324,6324,6324,6322,6322,6322,6322,6322,6322,
0,0,0,6322,6322,6322,6324,6324,6324,6324,6324,6324,6324,6324,6324,6324,6324,6324,6324,6324,6324,6324,6324,6324,6322,6322,6322,6322,6322,6322,
0,0,0,6322,6322,6322,6324,6324,6324,6324,6324,6324,6324,6324,6324,6324,6324,6324,6324,6324,6324,6324,6324,6324,6322,6322,6322,6322,6322,6322,
0,0,0,6322,6322,6322,6324,6324,6324,6324,6324,6324,6324,6324,6324,6324,6324,6324,6324,6324,6324,6324,6324,6324,6322,6322,6322,6322,6322,6322,
0,0,0,6322,6322,6322,6322,6322,6322,6322,6322,6322,6322,6322,6322,6322,6322,6322,6322,6322,6322,6322,6322,6322,6322,6322,6322,6322,6322,6322,
0,0,0,6322,6322,6322,6322,6322,6322,6322,6322,6322,6322,6322,6322,6322,6322,6322,6322,6322,6322,6322,6322,6322,6322,6322,6322,6322,6322,6322,
0,0,0,6322,6322,6322,6322,6322,6322,6322,6322,6322,6322,6322,6322,6322,6322,6322,6322,6322,6322,6322,6322,6322,6322,6322,6322,6322,6322,6322,
0,0,0,6322,6322,6322,6322,6322,6322,6322,6322,6322,6322,6322,6322,6322,6322,6322,6322,6322,6322,6322,6322,6322,6322,6322,6322,6322,6322,6322,
0,0,0,6322,6322,6322,6322,6322,6322,6322,6322,6322,6322,6322,6322,6322,6322,6322,6322,6322,6322,6322,6322,6322,6322,6322,6322,6322,6322,6322,
0,0,0,6322,6322,6322,6322,6322,6322,6322,6322,6322,6322,6322,6322,6322,6322,6322,6322,6322,6322,6322,6322,6322,6322,6322,6322,6322,6322,6322,
0,0,0,6322,6322,6322,6322,6322,6322,6322,6322,6322,6322,6322,6322,6322,6322,6322,6322,6322,6322,6322,6322,6322,6322,6322,6322,6322,6322,6322,
0,0,0,6322,6322,6322,6322,6322,6322,6322,6322,6322,6322,6322,6322,6322,6322,6322,6322,6322,6322,6322,6322,6322,6322,6322,6322,6322,6322,6322
</data>
 </layer>
 <objectgroup draworder="index" id="20" name="Lighting" visible="0"/>
 <objectgroup draworder="index" id="21" name="Meta">
  <object id="1" template="../../../templates/obj_roomtransition.tx" type="obj_roomtransition" x="104" y="264" width="32" height="16">
   <properties>
    <property name="destination_id" propertytype="LocationId" value="farm"/>
    <property name="player_direction" type="int" value="270"/>
   </properties>
  </object>
 </objectgroup>
 <objectgroup draworder="index" id="22" name="TrellisPoints"/>
</map>
