<?xml version="1.0" encoding="UTF-8"?>
<map version="1.10" tiledversion="1.11.2" orientation="orthogonal" renderorder="right-down" width="80" height="45" tilewidth="8" tileheight="8" infinite="0" backgroundcolor="#67b4df" nextlayerid="7" nextobjectid="15">
 <tileset firstgid="1" source="../../__gm_import.tsx"/>
 <objectgroup draworder="index" id="1" name="Clouds">
  <object id="1" type="asset" gid="143" x="-1000" y="294" width="2556" height="214">
   <properties>
    <property name="hscroll_speed" type="float" value="6"/>
    <property name="htile" type="bool" value="true"/>
   </properties>
  </object>
 </objectgroup>
 <objectgroup draworder="index" id="2" name="Mountains">
  <object id="2" type="asset" gid="579" x="-1000" y="362" width="2730" height="211">
   <properties>
    <property name="htile" type="bool" value="true"/>
   </properties>
  </object>
 </objectgroup>
 <objectgroup draworder="index" id="3" name="Assets">
  <object id="5" type="asset" gid="627" x="142" y="287" width="95" height="74"/>
  <object id="4" type="asset" gid="970" x="0" y="360" width="640" height="360"/>
  <object id="3" type="asset" gid="943" x="386" y="227" width="32" height="32"/>
  <object id="6" type="asset" gid="493" x="160" y="112" width="16" height="16"/>
  <object id="7" type="asset" gid="729" x="640" y="360" width="195" height="238"/>
  <object id="8" type="asset" gid="252" x="-193" y="360" width="195" height="238"/>
  <object id="9" type="asset" gid="252" x="-388" y="360" width="195" height="238"/>
  <object id="10" type="asset" gid="729" x="835" y="360" width="195" height="238"/>
  <object id="11" type="asset" gid="252" x="-583" y="360" width="195" height="238"/>
  <object id="12" type="asset" gid="729" x="1030" y="360" width="195" height="238"/>
  <object id="13" type="asset" gid="252" x="-772" y="360" width="195" height="238"/>
  <object id="14" type="asset" gid="729" x="1225" y="360" width="195" height="238"/>
 </objectgroup>
 <objectgroup draworder="index" id="4" name="Instances">
  <object id="14" template="../../templates/Setup.tx" x="200" y="216" visible="0"/>
 </objectgroup>
</map>
