<?xml version="1.0" encoding="UTF-8"?>
<map version="1.10" tiledversion="1.11.2" orientation="orthogonal" renderorder="right-down" width="38" height="46" tilewidth="8" tileheight="8" infinite="0" backgroundcolor="#000000" nextlayerid="25" nextobjectid="132">
 <tileset firstgid="1" source="../../../__gm_import.tsx"/>
 <tileset firstgid="1504" source="../../../tile_sets/__META/tile_collision_info.tsx"/>
 <tileset firstgid="1511" source="../../../tile_sets/tile_footsteps.tsx"/>
 <tileset firstgid="1655" source="../../../tile_sets/_GENERIC/tile_main_interiors.tsx"/>
 <tileset firstgid="5751" source="../../../tile_sets/_GENERIC/tile_main_interiors_shadows.tsx"/>
 <tileset firstgid="6007" source="../../../tile_sets/__META/tile_pathfinding.tsx"/>
 <tileset firstgid="6013" source="../../../tile_sets/__META/tile_rules.tsx"/>
 <group id="1" name="Level_0">
  <layer id="2" name="Level_0_Floor" width="38" height="46">
   <properties>
    <property name="maybe_animation_id" value="75ea443e6634d96"/>
    <property name="maybe_tileset_id" value="d8b504e9a8480fbe"/>
    <property name="tile_size" type="int" value="16"/>
   </properties>
   <data encoding="csv">
1655,0,1655,0,1655,0,1655,0,1655,0,1655,0,1655,0,1655,0,1655,0,1655,0,1655,0,1655,0,1655,0,1655,0,1655,0,1655,0,1655,0,0,0,0,0,
0,0,0,0,0,0,0,0,0,0,0,0,0,0,0,0,0,0,0,0,0,0,0,0,0,0,0,0,0,0,0,0,0,0,0,0,0,0,
1655,0,1655,0,1655,0,1655,0,1655,0,1655,0,1655,0,1655,0,1655,0,1655,0,1655,0,1655,0,1655,0,1655,0,1655,0,1655,0,1655,0,0,0,0,0,
0,0,0,0,0,0,0,0,0,0,0,0,0,0,0,0,0,0,0,0,0,0,0,0,0,0,0,0,0,0,0,0,0,0,0,0,0,0,
1655,0,1655,0,1655,0,1655,0,1655,0,1655,0,1655,0,1655,0,1655,0,1655,0,1655,0,1655,0,1655,0,1655,0,1655,0,1655,0,1655,0,0,0,0,0,
0,0,0,0,0,0,0,0,0,0,0,0,0,0,0,0,0,0,0,0,0,0,0,0,0,0,0,0,0,0,0,0,0,0,0,0,0,0,
1655,0,1655,0,1655,0,1655,0,1655,0,1655,0,1655,0,1655,0,1655,0,1655,0,1655,0,1655,0,1655,0,1655,0,1655,0,1655,0,1655,0,0,0,0,0,
0,0,0,0,0,0,0,0,0,0,0,0,0,0,0,0,0,0,0,0,0,0,0,0,0,0,0,0,0,0,0,0,0,0,0,0,0,0,
1655,0,1655,0,1655,0,1655,0,1655,0,1655,0,1655,0,1655,0,1655,0,1655,0,1655,0,1655,0,1655,0,1655,0,1655,0,1655,0,1655,0,0,0,0,0,
0,0,0,0,0,0,0,0,0,0,0,0,0,0,0,0,0,0,0,0,0,0,0,0,0,0,0,0,0,0,0,0,0,0,0,0,0,0,
1655,0,1655,0,1655,0,1655,0,1655,0,1655,0,1655,0,1655,0,1655,0,1655,0,1655,0,1655,0,1655,0,1655,0,1655,0,1655,0,1655,0,0,0,0,0,
0,0,0,0,0,0,0,0,0,0,0,0,0,0,0,0,0,0,0,0,0,0,0,0,0,0,0,0,0,0,0,0,0,0,0,0,0,0,
1655,0,1655,0,1655,0,1655,0,1655,0,1655,0,1655,0,1655,0,1655,0,1655,0,1655,0,1655,0,1655,0,1655,0,1655,0,1655,0,1655,0,0,0,0,0,
0,0,0,0,0,0,0,0,0,0,0,0,0,0,0,0,0,0,0,0,0,0,0,0,0,0,0,0,0,0,0,0,0,0,0,0,0,0,
1655,0,1655,0,1655,0,1655,0,1655,0,1655,0,1655,0,1655,0,1655,0,1655,0,1655,0,1655,0,1655,0,1655,0,1655,0,1655,0,1655,0,0,0,0,0,
0,0,0,0,0,0,0,0,0,0,0,0,0,0,0,0,0,0,0,0,0,0,0,0,0,0,0,0,0,0,0,0,0,0,0,0,0,0,
1655,0,1655,0,2807,0,2807,0,2807,0,2807,0,2807,0,2807,0,2807,0,2807,0,2807,0,2807,0,2807,0,2807,0,2807,0,2807,0,2807,0,1655,0,1655,0,
0,0,0,0,0,0,0,0,0,0,0,0,0,0,0,0,0,0,0,0,0,0,0,0,0,0,0,0,0,0,0,0,0,0,0,0,0,0,
1655,0,1655,0,2871,0,2807,0,2807,0,2871,0,2871,0,2871,0,2871,0,2871,0,2871,0,2871,0,2807,0,2807,0,2871,0,2871,0,2871,0,1655,0,1655,0,
0,0,0,0,0,0,0,0,0,0,0,0,0,0,0,0,0,0,0,0,0,0,0,0,0,0,0,0,0,0,0,0,0,0,0,0,0,0,
1655,0,1655,0,2807,0,2807,0,2807,0,2807,0,2807,0,2807,0,2807,0,2807,0,2807,0,2807,0,2807,0,2807,0,2807,0,2807,0,2807,0,1655,0,1655,0,
0,0,0,0,0,0,0,0,0,0,0,0,0,0,0,0,0,0,0,0,0,0,0,0,0,0,0,0,0,0,0,0,0,0,0,0,0,0,
1655,0,1655,0,2871,0,2807,0,2807,0,2871,0,2871,0,2871,0,2871,0,2871,0,2871,0,2871,0,2807,0,2807,0,2871,0,2871,0,2871,0,1655,0,1655,0,
0,0,0,0,0,0,0,0,0,0,0,0,0,0,0,0,0,0,0,0,0,0,0,0,0,0,0,0,0,0,0,0,0,0,0,0,0,0,
1655,0,1655,0,2807,0,2807,0,2807,0,2807,0,2807,0,2807,0,2807,0,2807,0,2807,0,2807,0,2807,0,2807,0,2807,0,2807,0,2807,0,1655,0,1655,0,
0,0,0,0,0,0,0,0,0,0,0,0,0,0,0,0,0,0,0,0,0,0,0,0,0,0,0,0,0,0,0,0,0,0,0,0,0,0,
1655,0,1655,0,2871,0,2807,0,2807,0,2871,0,2871,0,2871,0,2871,0,2871,0,2871,0,2871,0,2807,0,2807,0,2871,0,2871,0,2871,0,1655,0,1655,0,
0,0,0,0,0,0,0,0,0,0,0,0,0,0,0,0,0,0,0,0,0,0,0,0,0,0,0,0,0,0,0,0,0,0,0,0,0,0,
1655,0,1655,0,2807,0,2807,0,2807,0,2807,0,2807,0,2807,0,2807,0,2807,0,2807,0,2808,0,2809,0,2873,0,2809,0,2873,0,2809,0,0,0,1655,0,
0,0,0,0,0,0,0,0,0,0,0,0,0,0,0,0,0,0,0,0,0,0,0,0,0,0,0,0,0,0,0,0,0,0,0,0,0,0,
1655,0,1655,0,2871,0,2807,0,2807,0,2871,0,2871,0,2871,0,2871,0,2871,0,2871,0,2872,0,2873,0,2809,0,2873,0,2809,0,2873,0,0,0,0,0,
0,0,0,0,0,0,0,0,0,0,0,0,0,0,0,0,0,0,0,0,0,0,0,0,0,0,0,0,0,0,0,0,0,0,0,0,0,0,
1655,0,1655,0,2807,0,2871,0,2871,0,2807,0,2807,0,2807,0,2807,0,2807,0,2807,0,2808,0,2809,0,2873,0,2809,0,2873,0,2809,0,0,0,0,0,
0,0,0,0,0,0,0,0,0,0,0,0,0,0,0,0,0,0,0,0,0,0,0,0,0,0,0,0,0,0,0,0,0,0,0,0,0,0,
0,0,1655,0,2871,0,2807,0,2807,0,2871,0,2871,0,2871,0,2871,0,2871,0,2871,0,2872,0,2873,0,2809,0,2873,0,2809,0,2873,0,0,0,0,0,
0,0,0,0,0,0,0,0,0,0,0,0,0,0,0,0,0,0,0,0,0,0,0,0,0,0,0,0,0,0,0,0,0,0,0,0,0,0,
1655,0,1655,0,2807,0,2871,0,2871,0,2807,0,2807,0,2807,0,2807,0,2807,0,2807,0,2808,0,2809,0,2873,0,2809,0,2873,0,2809,0,0,0,0,0,
0,0,0,0,0,0,0,0,0,0,0,0,0,0,0,0,0,0,0,0,0,0,0,0,0,0,0,0,0,0,0,0,0,0,0,0,0,0,
1655,0,1655,0,2871,0,2871,0,2871,0,2871,0,2871,0,2871,0,2871,0,2871,0,2871,0,2872,0,2873,0,2809,0,2873,0,2809,0,2873,0,0,0,0,0,
0,0,0,0,0,0,0,0,0,0,0,0,0,0,0,0,0,0,0,0,0,0,0,0,0,0,0,0,0,0,0,0,0,0,0,0,0,0,
1655,0,1655,0,2807,0,2807,0,2807,0,2807,0,2807,0,2807,0,2807,0,2807,0,2807,0,2808,0,2809,0,2873,0,2809,0,2873,0,2809,0,0,0,0,0,
0,0,0,0,0,0,0,0,0,0,0,0,0,0,0,0,0,0,0,0,0,0,0,0,0,0,0,0,0,0,0,0,0,0,0,0,0,0,
1655,0,1655,0,2871,0,2871,0,2871,0,2871,0,2871,0,2871,0,2871,0,2871,0,2871,0,2872,0,2873,0,2809,0,2873,0,2809,0,2873,0,0,0,0,0,
0,0,0,0,0,0,0,0,0,0,0,0,0,0,0,0,0,0,0,0,0,0,0,0,0,0,0,0,0,0,0,0,0,0,0,0,0,0,
1655,0,0,0,0,0,0,0,0,0,0,0,0,0,0,0,0,0,0,0,0,0,0,0,0,0,0,0,0,0,0,0,0,0,0,0,0,0,
0,0,0,0,0,0,0,0,0,0,0,0,0,0,0,0,0,0,0,0,0,0,0,0,0,0,0,0,0,0,0,0,0,0,0,0,0,0
</data>
  </layer>
  <objectgroup draworder="index" id="3" name="Level_0_FloorSprites">
   <object id="1" type="asset" gid="718" x="128" y="320" width="48" height="32"/>
   <object id="2" type="asset" gid="261" x="72" y="304" width="64" height="64"/>
   <object id="3" type="asset" gid="881" x="216" y="320" width="32" height="64"/>
   <object id="4" type="asset" gid="722" x="112" y="224" width="120" height="64"/>
  </objectgroup>
  <layer id="4" name="Level_0_Shadows" width="38" height="46">
   <properties>
    <property name="maybe_animation_id" value="babd09ade2b55c05"/>
    <property name="maybe_tileset_id" value="339411f6ba88c8f0"/>
    <property name="tile_size" type="int" value="16"/>
   </properties>
   <data encoding="csv">
5751,0,5751,0,5751,0,5751,0,5751,0,5751,0,5751,0,5751,0,5751,0,5751,0,5751,0,5751,0,5751,0,5751,0,5751,0,5751,0,5751,0,0,0,0,0,
0,0,0,0,0,0,0,0,0,0,0,0,0,0,0,0,0,0,0,0,0,0,0,0,0,0,0,0,0,0,0,0,0,0,0,0,0,0,
5751,0,5751,0,5751,0,5751,0,5751,0,5751,0,5751,0,5751,0,5751,0,5751,0,5751,0,5751,0,5751,0,5751,0,5751,0,5751,0,5751,0,0,0,0,0,
0,0,0,0,0,0,0,0,0,0,0,0,0,0,0,0,0,0,0,0,0,0,0,0,0,0,0,0,0,0,0,0,0,0,0,0,0,0,
5751,0,5751,0,5751,0,5751,0,5751,0,5751,0,5751,0,5751,0,5751,0,5751,0,5751,0,5751,0,5751,0,5751,0,5751,0,5751,0,5751,0,0,0,0,0,
0,0,0,0,0,0,0,0,0,0,0,0,0,0,0,0,0,0,0,0,0,0,0,0,0,0,0,0,0,0,0,0,0,0,0,0,0,0,
5751,0,5751,0,5751,0,5751,0,5751,0,5751,0,5751,0,5751,0,5751,0,5751,0,5751,0,5751,0,5751,0,5751,0,5751,0,5751,0,5751,0,0,0,0,0,
0,0,0,0,0,0,0,0,0,0,0,0,0,0,0,0,0,0,0,0,0,0,0,0,0,0,0,0,0,0,0,0,0,0,0,0,0,0,
5751,0,5751,0,5751,0,5751,0,5751,0,5751,0,5751,0,5751,0,5751,0,5751,0,5751,0,5751,0,5751,0,5751,0,5751,0,5751,0,5751,0,0,0,0,0,
0,0,0,0,0,0,0,0,0,0,0,0,0,0,0,0,0,0,0,0,0,0,0,0,0,0,0,0,0,0,0,0,0,0,0,0,0,0,
5751,0,5751,0,5751,0,5751,0,5751,0,5751,0,5751,0,5751,0,5751,0,5751,0,5751,0,5751,0,5751,0,5751,0,5751,0,5751,0,5751,0,0,0,0,0,
0,0,0,0,0,0,0,0,0,0,0,0,0,0,0,0,0,0,0,0,0,0,0,0,0,0,0,0,0,0,0,0,0,0,0,0,0,0,
5751,0,5751,0,5751,0,5751,0,5751,0,5751,0,5751,0,5751,0,5751,0,5751,0,5751,0,5751,0,5751,0,5751,0,5751,0,5751,0,5751,0,0,0,0,0,
0,0,0,0,0,0,0,0,0,0,0,0,0,0,0,0,0,0,0,0,0,0,0,0,0,0,0,0,0,0,0,0,0,0,0,0,0,0,
5751,0,5751,0,5751,0,5751,0,5751,0,5751,0,5751,0,5751,0,5751,0,5751,0,5751,0,5751,0,5751,0,5751,0,5751,0,5751,0,5751,0,0,0,0,0,
0,0,0,0,0,0,0,0,0,0,0,0,0,0,0,0,0,0,0,0,0,0,0,0,0,0,0,0,0,0,0,0,0,0,0,0,0,0,
5751,0,5751,0,5751,0,5751,0,5751,0,5751,0,5751,0,5751,0,5751,0,5751,0,5751,0,5751,0,5751,0,5751,0,5751,0,5751,0,5751,0,0,0,0,0,
0,0,0,0,0,0,0,0,0,0,0,0,0,0,0,0,0,0,0,0,0,0,0,0,0,0,0,0,0,0,0,0,0,0,0,0,0,0,
5751,0,5751,0,5752,0,5752,0,5753,0,5753,0,5753,0,5753,0,5753,0,5753,0,5753,0,5753,0,5753,0,5753,0,5753,0,5753,0,5751,0,0,0,0,0,
0,0,0,0,0,0,0,0,0,0,0,0,0,0,0,0,0,0,0,0,0,0,0,0,0,0,0,0,0,0,0,0,0,0,0,0,0,0,
5751,0,5751,0,5752,0,5752,0,5751,0,5751,0,5751,0,5751,0,5751,0,5751,0,5751,0,5751,0,5751,0,5751,0,5751,0,5751,0,5751,0,0,0,0,0,
0,0,0,0,0,0,0,0,0,0,0,0,0,0,0,0,0,0,0,0,0,0,0,0,0,0,0,0,0,0,0,0,0,0,0,0,0,0,
5751,0,5751,0,5752,0,5752,0,5751,0,5751,0,5751,0,5751,0,5751,0,5751,0,5751,0,5751,0,5751,0,5751,0,5751,0,5751,0,5751,0,0,0,0,0,
0,0,0,0,0,0,0,0,0,0,0,0,0,0,0,0,0,0,0,0,0,0,0,0,0,0,0,0,0,0,0,0,0,0,0,0,0,0,
5751,0,5751,0,5752,0,5752,0,5751,0,5751,0,5751,0,5751,0,5751,0,5751,0,5751,0,5751,0,5751,0,5751,0,5751,0,5751,0,5751,0,0,0,0,0,
0,0,0,0,0,0,0,0,0,0,0,0,0,0,0,0,0,0,0,0,0,0,0,0,0,0,0,0,0,0,0,0,0,0,0,0,0,0,
5751,0,5751,0,5752,0,5752,0,5751,0,5751,0,5751,0,5751,0,5751,0,5751,0,5751,0,5751,0,5751,0,5751,0,5751,0,5751,0,5751,0,0,0,0,0,
0,0,0,0,0,0,0,0,0,0,0,0,0,0,0,0,0,0,0,0,0,0,0,0,0,0,0,0,0,0,0,0,0,0,0,0,0,0,
5751,0,5751,0,5752,0,5752,0,5751,0,5751,0,5751,0,5751,0,5751,0,5751,0,5751,0,5751,0,5751,0,5751,0,5751,0,5751,0,5751,0,0,0,0,0,
0,0,0,0,0,0,0,0,0,0,0,0,0,0,0,0,0,0,0,0,0,0,0,0,0,0,0,0,0,0,0,0,0,0,0,0,0,0,
5751,0,5751,0,5752,0,5752,0,5751,0,5751,0,5751,0,5751,0,5751,0,5751,0,5751,0,5751,0,5751,0,5751,0,5751,0,5751,0,5751,0,0,0,0,0,
0,0,0,0,0,0,0,0,0,0,0,0,0,0,0,0,0,0,0,0,0,0,0,0,0,0,0,0,0,0,0,0,0,0,0,0,0,0,
5751,0,5751,0,5752,0,5752,0,5751,0,5751,0,5751,0,5751,0,5751,0,5751,0,5751,0,5751,0,5751,0,5751,0,5751,0,5751,0,5751,0,0,0,0,0,
0,0,0,0,0,0,0,0,0,0,0,0,0,0,0,0,0,0,0,0,0,0,0,0,0,0,0,0,0,0,0,0,0,0,0,0,0,0,
0,0,0,0,5752,0,5752,0,0,0,0,0,0,0,0,0,0,0,0,0,0,0,0,0,0,0,0,0,0,0,0,0,0,0,0,0,0,0,
0,0,0,0,0,0,0,0,0,0,0,0,0,0,0,0,0,0,0,0,0,0,0,0,0,0,0,0,0,0,0,0,0,0,0,0,0,0,
0,0,0,0,5752,0,5752,0,0,0,0,0,0,0,0,0,0,0,0,0,0,0,0,0,0,0,0,0,0,0,0,0,0,0,0,0,0,0,
0,0,0,0,0,0,0,0,0,0,0,0,0,0,0,0,0,0,0,0,0,0,0,0,0,0,0,0,0,0,0,0,0,0,0,0,0,0,
0,0,0,0,5752,0,5752,0,0,0,0,0,0,0,0,0,0,0,0,0,0,0,0,0,0,0,0,0,0,0,0,0,0,0,0,0,0,0,
0,0,0,0,0,0,0,0,0,0,0,0,0,0,0,0,0,0,0,0,0,0,0,0,0,0,0,0,0,0,0,0,0,0,0,0,0,0,
0,0,0,0,5752,0,5752,0,0,0,0,0,0,0,0,0,0,0,0,0,0,0,0,0,0,0,0,0,0,0,0,0,0,0,0,0,0,0,
0,0,0,0,0,0,0,0,0,0,0,0,0,0,0,0,0,0,0,0,0,0,0,0,0,0,0,0,0,0,0,0,0,0,0,0,0,0,
0,0,0,0,0,0,0,0,0,0,0,0,0,0,0,0,0,0,0,0,0,0,0,0,0,0,0,0,0,0,0,0,0,0,0,0,0,0,
0,0,0,0,0,0,0,0,0,0,0,0,0,0,0,0,0,0,0,0,0,0,0,0,0,0,0,0,0,0,0,0,0,0,0,0,0,0,
0,0,0,0,0,0,0,0,0,0,0,0,0,0,0,0,0,0,0,0,0,0,0,0,0,0,0,0,0,0,0,0,0,0,0,0,0,0,
0,0,0,0,0,0,0,0,0,0,0,0,0,0,0,0,0,0,0,0,0,0,0,0,0,0,0,0,0,0,0,0,0,0,0,0,0,0
</data>
  </layer>
  <layer id="5" name="Level_0_Walls" width="38" height="46">
   <properties>
    <property name="maybe_animation_id" value="75ea443e6634d96"/>
    <property name="maybe_tileset_id" value="d8b504e9a8480fbe"/>
    <property name="tile_size" type="int" value="16"/>
   </properties>
   <data encoding="csv">
1655,0,1655,0,1655,0,1655,0,1655,0,1655,0,1655,0,1655,0,1655,0,1655,0,1655,0,1655,0,1655,0,1655,0,1655,0,1655,0,1655,0,0,0,0,0,
0,0,0,0,0,0,0,0,0,0,0,0,0,0,0,0,0,0,0,0,0,0,0,0,0,0,0,0,0,0,0,0,0,0,0,0,0,0,
1655,0,1655,0,1655,0,1655,0,1655,0,1655,0,1655,0,1655,0,1655,0,1655,0,1655,0,1655,0,1655,0,1655,0,1655,0,1655,0,1655,0,0,0,0,0,
0,0,0,0,0,0,0,0,0,0,0,0,0,0,0,0,0,0,0,0,0,0,0,0,0,0,0,0,0,0,0,0,0,0,0,0,0,0,
1655,0,1655,0,1655,0,1655,0,1655,0,1655,0,1655,0,1655,0,1655,0,1655,0,1655,0,1655,0,1655,0,1655,0,1655,0,1655,0,1655,0,0,0,0,0,
0,0,0,0,0,0,0,0,0,0,0,0,0,0,0,0,0,0,0,0,0,0,0,0,0,0,0,0,0,0,0,0,0,0,0,0,0,0,
1655,0,1655,0,1655,0,1655,0,1655,0,1655,0,1655,0,1655,0,3191,0,3191,0,2147486839,0,1655,0,1655,0,1655,0,1655,0,1655,0,1655,0,0,0,0,0,
0,0,0,0,0,0,0,0,0,0,0,0,0,0,0,0,0,0,0,0,0,0,0,0,0,0,0,0,0,0,0,0,0,0,0,0,0,0,
1655,0,1655,0,1655,0,1655,0,1655,0,1655,0,3191,0,3068,0,3069,0,3070,0,2147486717,0,2147486716,0,2147486839,0,1655,0,1655,0,1655,0,1655,0,0,0,0,0,
0,0,0,0,0,0,0,0,0,0,0,0,0,0,0,0,0,0,0,0,0,0,0,0,0,0,0,0,0,0,0,0,0,0,0,0,0,0,
1655,0,1655,0,1655,0,1655,0,3191,0,3130,0,3131,0,3132,0,3133,0,3134,0,2147486781,0,2147486780,0,2147486841,0,2147486716,0,2147486839,0,1655,0,1655,0,0,0,0,0,
0,0,0,0,0,0,0,0,0,0,0,0,0,0,0,0,0,0,0,0,0,0,0,0,0,0,0,0,0,0,0,0,0,0,0,0,0,0,
1655,0,1655,0,3191,0,3192,0,3193,0,3194,0,3195,0,3196,0,3197,0,3198,0,2147486845,0,2147486844,0,3134,0,2147486780,0,2147486841,0,2147486840,0,2147486839,0,0,0,0,0,
0,0,0,0,0,0,0,0,0,0,0,0,0,0,0,0,0,0,0,0,0,0,0,0,0,0,0,0,0,0,0,0,0,0,0,0,0,0,
1655,0,1655,0,3255,0,3256,0,3257,0,3258,0,3259,0,3260,0,3261,0,3262,0,2147486909,0,2147486908,0,2147486905,0,2147486905,0,2147486905,0,2147486904,0,2147486903,0,0,0,0,0,
0,0,0,0,0,0,0,0,0,0,0,0,0,0,0,0,0,0,0,0,0,0,0,0,0,0,0,0,0,0,0,0,0,0,0,0,0,0,
1655,0,1655,0,3319,0,3320,0,3321,0,3322,0,3323,0,3324,0,3325,0,3326,0,2147486973,0,2147486972,0,2147486969,0,2147486969,0,2147486969,0,2147486968,0,2147486967,0,0,0,0,0,
0,0,0,0,0,0,0,0,0,0,0,0,0,0,0,0,0,0,0,0,0,0,0,0,0,0,0,0,0,0,0,0,0,0,0,0,0,0,
1655,0,1655,0,3383,0,3384,0,3385,0,3386,0,3387,0,3388,0,3389,0,3390,0,2147487037,0,2147487036,0,2147487033,0,2147487033,0,2147487033,0,2147487032,0,2147487031,0,0,0,0,0,
0,0,0,0,0,0,0,0,0,0,0,0,0,0,0,0,0,0,0,0,0,0,0,0,0,0,0,0,0,0,0,0,0,0,0,0,0,0,
1655,0,1655,0,1655,0,1655,0,1655,0,1655,0,1655,0,1655,0,1655,0,1655,0,1655,0,1655,0,1655,0,1655,0,1655,0,1655,0,1655,0,0,0,0,0,
0,0,0,0,0,0,0,0,0,0,0,0,0,0,0,0,0,0,0,0,0,0,0,0,0,0,0,0,0,0,0,0,0,0,0,0,0,0,
1655,0,1655,0,1655,0,1655,0,1655,0,1655,0,1655,0,1655,0,1655,0,1655,0,1655,0,1655,0,1655,0,1655,0,1655,0,1655,0,1655,0,0,0,0,0,
0,0,0,0,0,0,0,0,0,0,0,0,0,0,0,0,0,0,0,0,0,0,0,0,0,0,0,0,0,0,0,0,0,0,0,0,0,0,
1655,0,1655,0,1655,0,1655,0,1655,0,1655,0,1655,0,1655,0,1655,0,1655,0,1655,0,1655,0,1655,0,1655,0,1655,0,1655,0,1655,0,0,0,0,0,
0,0,0,0,0,0,0,0,0,0,0,0,0,0,0,0,0,0,0,0,0,0,0,0,0,0,0,0,0,0,0,0,0,0,0,0,0,0,
1655,0,1655,0,1655,0,1655,0,1655,0,1655,0,1655,0,1655,0,1655,0,1655,0,1655,0,1655,0,1655,0,1655,0,1655,0,1655,0,1655,0,0,0,0,0,
0,0,0,0,0,0,0,0,0,0,0,0,0,0,0,0,0,0,0,0,0,0,0,0,0,0,0,0,0,0,0,0,0,0,0,0,0,0,
1655,0,1655,0,1655,0,1655,0,1655,0,1655,0,1655,0,1655,0,1655,0,1655,0,1655,0,1655,0,1655,0,1655,0,1655,0,1655,0,1655,0,0,0,0,0,
0,0,0,0,0,0,0,0,0,0,0,0,0,0,0,0,0,0,0,0,0,0,0,0,0,0,0,0,0,0,0,0,0,0,0,0,0,0,
1655,0,1655,0,1655,0,1655,0,1655,0,1655,0,1655,0,1655,0,1655,0,1655,0,1655,0,1655,0,1655,0,1655,0,1655,0,1655,0,1655,0,0,0,0,0,
0,0,0,0,0,0,0,0,0,0,0,0,0,0,0,0,0,0,0,0,0,0,0,0,0,0,0,0,0,0,0,0,0,0,0,0,0,0,
1655,0,1655,0,1655,0,1655,0,1655,0,1655,0,1655,0,1655,0,1655,0,1655,0,1655,0,1655,0,1655,0,1655,0,1655,0,1655,0,1655,0,0,0,0,0,
0,0,0,0,0,0,0,0,0,0,0,0,0,0,0,0,0,0,0,0,0,0,0,0,0,0,0,0,0,0,0,0,0,0,0,0,0,0,
0,0,0,0,0,0,0,0,0,0,0,0,0,0,0,0,0,0,0,0,0,0,0,0,0,0,0,0,0,0,0,0,0,0,0,0,0,0,
0,0,0,0,0,0,0,0,0,0,0,0,0,0,0,0,0,0,0,0,0,0,0,0,0,0,0,0,0,0,0,0,0,0,0,0,0,0,
0,0,0,0,0,0,0,0,0,0,0,0,0,0,0,0,0,0,0,0,0,0,0,0,0,0,0,0,0,0,0,0,0,0,0,0,0,0,
0,0,0,0,0,0,0,0,0,0,0,0,0,0,0,0,0,0,0,0,0,0,0,0,0,0,0,0,0,0,0,0,0,0,0,0,0,0,
0,0,0,0,0,0,0,0,0,0,0,0,0,0,0,0,0,0,0,0,0,0,0,0,0,0,0,0,0,0,0,0,0,0,0,0,0,0,
0,0,0,0,0,0,0,0,0,0,0,0,0,0,0,0,0,0,0,0,0,0,0,0,0,0,0,0,0,0,0,0,0,0,0,0,0,0,
0,0,0,0,0,0,0,0,0,0,0,0,0,0,0,0,0,0,0,0,0,0,0,0,0,0,0,0,0,0,0,0,0,0,0,0,0,0,
0,0,0,0,0,0,0,0,0,0,0,0,0,0,0,0,0,0,0,0,0,0,0,0,0,0,0,0,0,0,0,0,0,0,0,0,0,0,
0,0,0,0,0,0,0,0,0,0,0,0,0,0,0,0,0,0,0,0,0,0,0,0,0,0,0,0,0,0,0,0,0,0,0,0,0,0,
0,0,0,0,0,0,0,0,0,0,0,0,0,0,0,0,0,0,0,0,0,0,0,0,0,0,0,0,0,0,0,0,0,0,0,0,0,0,
0,0,0,0,0,0,0,0,0,0,0,0,0,0,0,0,0,0,0,0,0,0,0,0,0,0,0,0,0,0,0,0,0,0,0,0,0,0,
0,0,0,0,0,0,0,0,0,0,0,0,0,0,0,0,0,0,0,0,0,0,0,0,0,0,0,0,0,0,0,0,0,0,0,0,0,0
</data>
  </layer>
  <objectgroup draworder="index" id="6" name="Level_0_Windows">
   <object id="5" template="../../../templates/meta/obj_windowshader_interior.tx" type="obj_windowshader_interior" x="136" y="104" width="32" height="32"/>
  </objectgroup>
  <objectgroup draworder="index" id="7" name="Level_0_Assets">
   <object id="6" type="asset" gid="675" x="128" y="112" width="48" height="48"/>
   <object id="7" type="asset" gid="378" x="40" y="144" width="152" height="88"/>
   <object id="8" type="asset" gid="639" x="216" y="139" width="40" height="40"/>
   <object id="9" type="asset" gid="1490" x="168" y="176" width="56" height="96"/>
   <object id="10" type="asset" gid="1348" x="40" y="192" width="96" height="80"/>
   <object id="11" type="asset" gid="439" x="208" y="200" width="56" height="64"/>
   <object id="12" type="asset" gid="1503" x="208" y="200" width="56" height="64"/>
   <object id="13" type="asset" gid="678" x="208" y="216" width="56" height="40"/>
   <object id="14" type="asset" gid="1121" x="120" y="168" width="40" height="56"/>
   <object id="15" type="asset" gid="1453" x="144" y="168" width="40" height="56"/>
   <object id="16" type="asset" gid="216" x="168" y="248" width="112" height="64"/>
   <object id="17" type="asset" gid="1350" x="176" y="264" width="96" height="48"/>
   <object id="18" type="asset" gid="896" x="232" y="336" width="40" height="104"/>
   <object id="19" type="asset" gid="594" x="88" y="192" width="32" height="32"/>
   <object id="20" type="asset" gid="1203" x="80" y="296" width="48" height="48"/>
   <object id="21" type="asset" gid="303" x="80" y="248" width="48" height="48"/>
   <object id="22" type="asset" gid="1458" x="48" y="256" width="32" height="64"/>
   <object id="23" type="asset" gid="1354" x="40" y="312" width="48" height="88"/>
   <object id="24" type="asset" gid="850" x="40" y="312" width="48" height="88"/>
   <object id="25" type="asset" gid="985" x="48" y="328" width="40" height="40"/>
   <object id="26" type="asset" gid="483" x="240" y="264" width="24" height="24"/>
  </objectgroup>
 </group>
 <objectgroup draworder="index" id="8" name="Instances">
  <object id="27" template="../../../templates/objects/obj_celine_pot.tx" type="obj_celine_pot" x="96" y="171"/>
  <object id="28" template="../../../templates/objects/obj_star_brooch.tx" type="obj_star_brooch" x="235" y="198">
   <properties>
    <property name="npc_name" value="celine"/>
    <property name="z" type="float" value="-3"/>
   </properties>
  </object>
 </objectgroup>
 <group id="9" name="Level_1">
  <layer id="10" name="Level_1_Ceiling" width="38" height="46">
   <properties>
    <property name="maybe_animation_id" value="75ea443e6634d96"/>
    <property name="maybe_tileset_id" value="d8b504e9a8480fbe"/>
    <property name="tile_size" type="int" value="16"/>
   </properties>
   <data encoding="csv">
1793,0,1793,0,1793,0,1793,0,1793,0,1793,0,1793,0,1793,0,1793,0,1793,0,1793,0,1793,0,1793,0,1793,0,1793,0,1793,0,1793,0,1793,0,1793,0,
0,0,0,0,0,0,0,0,0,0,0,0,0,0,0,0,0,0,0,0,0,0,0,0,0,0,0,0,0,0,0,0,0,0,0,0,0,0,
1793,0,1793,0,1793,0,1793,0,1793,0,1793,0,1793,0,1793,0,1793,0,1793,0,1793,0,1793,0,1793,0,1793,0,1793,0,1793,0,1793,0,1793,0,1793,0,
0,0,0,0,0,0,0,0,0,0,0,0,0,0,0,0,0,0,0,0,0,0,0,0,0,0,0,0,0,0,0,0,0,0,0,0,0,0,
1793,0,1793,0,1793,0,1793,0,1793,0,1793,0,1793,0,2878,0,2879,0,2147486719,0,2147486527,0,2814,0,2815,0,1793,0,1793,0,1793,0,1793,0,1793,0,1793,0,
0,0,0,0,0,0,0,0,0,0,0,0,0,0,0,0,0,0,0,0,0,0,0,0,0,0,0,0,0,0,0,0,0,0,0,0,0,0,
1793,0,1793,0,1793,0,1793,0,1793,0,2878,0,2879,0,2942,0,2943,0,2147486783,0,2147486591,0,2816,0,2817,0,2818,0,1793,0,1793,0,1793,0,1793,0,1793,0,
0,0,0,0,0,0,0,0,0,0,0,0,0,0,0,0,0,0,0,0,0,0,0,0,0,0,0,0,0,0,0,0,0,0,0,0,0,0,
1793,0,1793,0,1793,0,2878,0,2879,0,2942,0,2943,0,2812,0,2813,0,1655,0,2147486461,0,2819,0,2820,0,2821,0,2147486527,0,2147486526,0,1793,0,1793,0,1793,0,
0,0,0,0,0,0,0,0,0,0,0,0,0,0,0,0,0,0,0,0,0,0,0,0,0,0,0,0,0,0,0,0,0,0,0,0,0,0,
1793,0,2878,0,2879,0,2942,0,2943,0,3006,0,3007,0,1655,0,1655,0,1655,0,1655,0,2822,0,2823,0,2824,0,2147486591,0,2147486590,0,2147486527,0,2147486526,0,1793,0,
0,0,0,0,0,0,0,0,0,0,0,0,0,0,0,0,0,0,0,0,0,0,0,0,0,0,0,0,0,0,0,0,0,0,0,0,0,0,
1793,0,2810,0,2811,0,2812,0,2813,0,1655,0,1655,0,1655,0,1655,0,1655,0,1655,0,1655,0,1655,0,1655,0,2147486461,0,2147486460,0,2147486459,0,2147486458,0,1793,0,
0,0,0,0,0,0,0,0,0,0,0,0,0,0,0,0,0,0,0,0,0,0,0,0,0,0,0,0,0,0,0,0,0,0,0,0,0,0,
1793,0,2876,0,2877,0,1655,0,1655,0,1655,0,1655,0,1655,0,1655,0,1655,0,1655,0,1655,0,1655,0,1655,0,1655,0,1655,0,2147486525,0,2147486524,0,1793,0,
0,0,0,0,0,0,0,0,0,0,0,0,0,0,0,0,0,0,0,0,0,0,0,0,0,0,0,0,0,0,0,0,0,0,0,0,0,0,
1793,0,2874,0,2875,0,1655,0,1655,0,1655,0,1655,0,1655,0,1655,0,1655,0,1655,0,1655,0,1655,0,1655,0,1655,0,1655,0,2147486523,0,2147486522,0,1793,0,
0,0,0,0,0,0,0,0,0,0,0,0,0,0,0,0,0,0,0,0,0,0,0,0,0,0,0,0,0,0,0,0,0,0,0,0,0,0,
1793,0,2938,0,2939,0,1655,0,1655,0,1655,0,1655,0,1655,0,1655,0,1655,0,1655,0,1655,0,1655,0,1655,0,1655,0,1655,0,2147486587,0,2147486586,0,1793,0,
0,0,0,0,0,0,0,0,0,0,0,0,0,0,0,0,0,0,0,0,0,0,0,0,0,0,0,0,0,0,0,0,0,0,0,0,0,0,
1793,0,2874,0,2875,0,1655,0,1655,0,1655,0,1655,0,1655,0,1655,0,1655,0,1655,0,1655,0,1655,0,1655,0,1655,0,1655,0,2147486523,0,2147486522,0,1793,0,
0,0,0,0,0,0,0,0,0,0,0,0,0,0,0,0,0,0,0,0,0,0,0,0,0,0,0,0,0,0,0,0,0,0,0,0,0,0,
1793,0,2874,0,2875,0,1655,0,1655,0,1655,0,1655,0,1655,0,1655,0,1655,0,1655,0,1655,0,1655,0,1655,0,1655,0,1655,0,2147486523,0,2147486522,0,1793,0,
0,0,0,0,0,0,0,0,0,0,0,0,0,0,0,0,0,0,0,0,0,0,0,0,0,0,0,0,0,0,0,0,0,0,0,0,0,0,
1793,0,2874,0,2875,0,1655,0,1655,0,1655,0,1655,0,1655,0,1655,0,1655,0,1655,0,1655,0,1655,0,1655,0,1655,0,1655,0,2147486523,0,2147486522,0,1793,0,
0,0,0,0,0,0,0,0,0,0,0,0,0,0,0,0,0,0,0,0,0,0,0,0,0,0,0,0,0,0,0,0,0,0,0,0,0,0,
1793,0,2874,0,2875,0,1655,0,1655,0,1655,0,1655,0,1655,0,1655,0,1655,0,1655,0,1655,0,1655,0,1655,0,1655,0,1655,0,2147486523,0,2147486522,0,1793,0,
0,0,0,0,0,0,0,0,0,0,0,0,0,0,0,0,0,0,0,0,0,0,0,0,0,0,0,0,0,0,0,0,0,0,0,0,0,0,
1793,0,2938,0,2939,0,1655,0,1655,0,1655,0,1655,0,1655,0,1655,0,1655,0,1655,0,1655,0,1655,0,1655,0,1655,0,1655,0,2147486587,0,2147486586,0,1793,0,
0,0,0,0,0,0,0,0,0,0,0,0,0,0,0,0,0,0,0,0,0,0,0,0,0,0,0,0,0,0,0,0,0,0,0,0,0,0,
1793,0,2874,0,2875,0,1655,0,1655,0,1655,0,1655,0,1655,0,1655,0,1655,0,1655,0,1655,0,1655,0,1655,0,1655,0,1655,0,2147486523,0,2147486522,0,1793,0,
0,0,0,0,0,0,0,0,0,0,0,0,0,0,0,0,0,0,0,0,0,0,0,0,0,0,0,0,0,0,0,0,0,0,0,0,0,0,
1793,0,2874,0,2875,0,1655,0,1655,0,1655,0,1655,0,1655,0,1655,0,1655,0,1655,0,1655,0,1655,0,1655,0,1655,0,1655,0,2147486523,0,2147486522,0,1793,0,
0,0,0,0,0,0,0,0,0,0,0,0,0,0,0,0,0,0,0,0,0,0,0,0,0,0,0,0,0,0,0,0,0,0,0,0,0,0,
1793,0,2874,0,2875,0,0,0,0,0,0,0,0,0,0,0,0,0,0,0,0,0,0,0,0,0,0,0,0,0,0,0,2147486523,0,2147486522,0,1793,0,
0,0,0,0,0,0,0,0,0,0,0,0,0,0,0,0,0,0,0,0,0,0,0,0,0,0,0,0,0,0,0,0,0,0,0,0,0,0,
1793,0,2874,0,2875,0,0,0,0,0,0,0,0,0,0,0,0,0,0,0,0,0,0,0,0,0,0,0,0,0,0,0,2147486523,0,2147486522,0,1793,0,
0,0,0,0,0,0,0,0,0,0,0,0,0,0,0,0,0,0,0,0,0,0,0,0,0,0,0,0,0,0,0,0,0,0,0,0,0,0,
1793,0,2938,0,2939,0,0,0,0,0,0,0,0,0,0,0,2935,0,2936,0,2937,0,0,0,0,0,0,0,0,0,0,0,2147486587,0,2147486586,0,1793,0,
0,0,0,0,0,0,0,0,0,0,0,0,0,0,0,0,0,0,0,0,0,0,0,0,0,0,0,0,0,0,0,0,0,0,0,0,0,0,
1793,0,3002,0,3003,0,2940,0,2940,0,2941,0,2940,0,2940,0,2999,0,3000,0,3001,0,2940,0,2940,0,2941,0,2940,0,2940,0,2147486651,0,2147486650,0,1793,0,
0,0,0,0,0,0,0,0,0,0,0,0,0,0,0,0,0,0,0,0,0,0,0,0,0,0,0,0,0,0,0,0,0,0,0,0,0,0,
1793,0,3066,0,3067,0,3004,0,3004,0,3005,0,3004,0,3004,0,3063,0,3064,0,3065,0,3004,0,3004,0,3005,0,3004,0,3004,0,2147486715,0,2147486714,0,1793,0,
0,0,0,0,0,0,0,0,0,0,0,0,0,0,0,0,0,0,0,0,0,0,0,0,0,0,0,0,0,0,0,0,0,0,0,0,0,0,
1793,0,1793,0,1793,0,1793,0,1793,0,1793,0,1793,0,1793,0,3127,0,3128,0,3129,0,1793,0,1793,0,1793,0,1793,0,1793,0,1793,0,1793,0,1793,0,
0,0,0,0,0,0,0,0,0,0,0,0,0,0,0,0,0,0,0,0,0,0,0,0,0,0,0,0,0,0,0,0,0,0,0,0,0,0
</data>
  </layer>
 </group>
 <layer id="11" name="FootstepTiles" width="38" height="46" visible="0">
  <properties>
   <property name="maybe_animation_id" value="9b6388374855b54b"/>
   <property name="maybe_tileset_id" value="5fc72aa2902dea7"/>
   <property name="tile_size" type="int" value="16"/>
  </properties>
  <data encoding="csv">
0,0,0,0,0,0,0,0,0,0,0,0,0,0,0,0,0,0,0,0,0,0,0,0,0,0,0,0,0,0,0,0,0,0,0,0,0,0,
0,0,0,0,0,0,0,0,0,0,0,0,0,0,0,0,0,0,0,0,0,0,0,0,0,0,0,0,0,0,0,0,0,0,0,0,0,0,
0,0,0,0,0,0,0,0,0,0,0,0,0,0,0,0,0,0,0,0,0,0,0,0,0,0,0,0,0,0,0,0,0,0,0,0,0,0,
0,0,0,0,0,0,0,0,0,0,0,0,0,0,0,0,0,0,0,0,0,0,0,0,0,0,0,0,0,0,0,0,0,0,0,0,0,0,
0,0,0,0,0,0,0,0,0,0,0,0,0,0,0,0,0,0,0,0,0,0,0,0,0,0,0,0,0,0,0,0,0,0,0,0,0,0,
0,0,0,0,0,0,0,0,0,0,0,0,0,0,0,0,0,0,0,0,0,0,0,0,0,0,0,0,0,0,0,0,0,0,0,0,0,0,
0,0,0,0,0,0,0,0,0,0,0,0,0,0,0,0,0,0,0,0,0,0,0,0,0,0,0,0,0,0,0,0,0,0,0,0,0,0,
0,0,0,0,0,0,0,0,0,0,0,0,0,0,0,0,0,0,0,0,0,0,0,0,0,0,0,0,0,0,0,0,0,0,0,0,0,0,
0,0,0,0,0,0,0,0,0,0,0,0,0,0,0,0,0,0,0,0,0,0,0,0,0,0,0,0,0,0,0,0,0,0,0,0,0,0,
0,0,0,0,0,0,0,0,0,0,0,0,0,0,0,0,0,0,0,0,0,0,0,0,0,0,0,0,0,0,0,0,0,0,0,0,0,0,
0,0,0,0,0,0,0,0,0,0,0,0,0,0,0,0,0,0,0,0,0,0,0,0,0,0,0,0,0,0,0,0,0,0,0,0,0,0,
0,0,0,0,0,0,0,0,0,0,0,0,0,0,0,0,0,0,0,0,0,0,0,0,0,0,0,0,0,0,0,0,0,0,0,0,0,0,
0,0,0,0,0,0,0,0,0,0,0,0,0,0,0,0,0,0,0,0,0,0,0,0,0,0,0,0,0,0,0,0,0,0,0,0,0,0,
0,0,0,0,0,0,0,0,0,0,0,0,0,0,0,0,0,0,0,0,0,0,0,0,0,0,0,0,0,0,0,0,0,0,0,0,0,0,
0,0,0,0,0,0,0,0,0,0,0,0,0,0,0,0,0,0,0,0,0,0,0,0,0,0,0,0,0,0,0,0,0,0,0,0,0,0,
0,0,0,0,0,0,0,0,0,0,0,0,0,0,0,0,0,0,0,0,0,0,0,0,0,0,0,0,0,0,0,0,0,0,0,0,0,0,
0,0,0,0,0,0,0,0,0,0,0,0,0,0,0,0,0,0,0,0,0,0,0,0,0,0,0,0,0,0,0,0,0,0,0,0,0,0,
0,0,0,0,0,0,0,0,0,0,0,0,0,0,0,0,0,0,0,0,0,0,0,0,0,0,0,0,0,0,0,0,0,0,0,0,0,0,
0,0,0,0,1512,0,1512,0,1512,0,1512,0,1512,0,1512,0,1512,0,1512,0,1512,0,1512,0,1512,0,1512,0,1512,0,1512,0,1512,0,0,0,0,0,
0,0,0,0,0,0,0,0,0,0,0,0,0,0,0,0,0,0,0,0,0,0,0,0,0,0,0,0,0,0,0,0,0,0,0,0,0,0,
0,0,0,0,1512,0,1512,0,1512,0,1512,0,1512,0,1512,0,1514,0,1514,0,1514,0,1514,0,1514,0,1514,0,1512,0,1512,0,1512,0,0,0,0,0,
0,0,0,0,0,0,0,0,0,0,0,0,0,0,0,0,0,0,0,0,0,0,0,0,0,0,0,0,0,0,0,0,0,0,0,0,0,0,
0,0,0,0,1512,0,1512,0,1512,0,1512,0,1512,0,1512,0,1514,0,1514,0,1514,0,1514,0,1514,0,1514,0,1512,0,1512,0,1512,0,0,0,0,0,
0,0,0,0,0,0,0,0,0,0,0,0,0,0,0,0,0,0,0,0,0,0,0,0,0,0,0,0,0,0,0,0,0,0,0,0,0,0,
0,0,0,0,1512,0,1512,0,1512,0,1512,0,1512,0,1512,0,1514,0,1514,0,1514,0,1514,0,1514,0,1514,0,1512,0,1512,0,1512,0,0,0,0,0,
0,0,0,0,0,0,0,0,0,0,0,0,0,0,0,0,0,0,0,0,0,0,0,0,0,0,0,0,0,0,0,0,0,0,0,0,0,0,
0,0,0,0,1512,0,1512,0,1512,0,1512,0,1512,0,1512,0,1514,0,1514,0,1514,0,1514,0,1514,0,1514,0,1512,0,1512,0,1512,0,0,0,0,0,
0,0,0,0,0,0,0,0,0,0,0,0,0,0,0,0,0,0,0,0,0,0,0,0,0,0,0,0,0,0,0,0,0,0,0,0,0,0,
0,0,0,0,1512,0,1512,0,1512,0,1512,0,1512,0,1512,0,1512,0,1512,0,1512,0,1512,0,1513,0,1513,0,1513,0,1513,0,1513,0,0,0,0,0,
0,0,0,0,0,0,0,0,0,0,0,0,0,0,0,0,0,0,0,0,0,0,0,0,0,0,0,0,0,0,0,0,0,0,0,0,0,0,
0,0,0,0,1512,0,1512,0,1512,0,1514,0,1514,0,1514,0,1512,0,1512,0,1512,0,1512,0,1513,0,1513,0,1513,0,1513,0,1513,0,0,0,0,0,
0,0,0,0,0,0,0,0,0,0,0,0,0,0,0,0,0,0,0,0,0,0,0,0,0,0,0,0,0,0,0,0,0,0,0,0,0,0,
0,0,0,0,1512,0,1512,0,1512,0,1514,0,1514,0,1514,0,1512,0,1512,0,1512,0,1512,0,1513,0,1513,0,1514,0,1513,0,1513,0,0,0,0,0,
0,0,0,0,0,0,0,0,0,0,0,0,0,0,0,0,0,0,0,0,0,0,0,0,0,0,0,0,0,0,0,0,0,0,0,0,0,0,
0,0,0,0,1512,0,1512,0,1512,0,1514,0,1514,0,1514,0,1512,0,1512,0,1512,0,1512,0,1513,0,1513,0,1514,0,1513,0,1513,0,0,0,0,0,
0,0,0,0,0,0,0,0,0,0,0,0,0,0,0,0,0,0,0,0,0,0,0,0,0,0,0,0,0,0,0,0,0,0,0,0,0,0,
0,0,0,0,1512,0,1512,0,1512,0,1514,0,1514,0,1514,0,1514,0,1514,0,1514,0,1512,0,1513,0,1513,0,1514,0,1513,0,1513,0,0,0,0,0,
0,0,0,0,0,0,0,0,0,0,0,0,0,0,0,0,0,0,0,0,0,0,0,0,0,0,0,0,0,0,0,0,0,0,0,0,0,0,
0,0,0,0,1512,0,1512,0,1512,0,1512,0,1512,0,1512,0,1514,0,1514,0,1514,0,1512,0,1513,0,1513,0,1514,0,1513,0,1513,0,0,0,0,0,
0,0,0,0,0,0,0,0,0,0,0,0,0,0,0,0,0,0,0,0,0,0,0,0,0,0,0,0,0,0,0,0,0,0,0,0,0,0,
0,0,0,0,1512,0,1512,0,1512,0,1512,0,1512,0,1512,0,1512,0,1512,0,1512,0,1512,0,1513,0,1513,0,1513,0,1513,0,1513,0,0,0,0,0,
0,0,0,0,0,0,0,0,0,0,0,0,0,0,0,0,0,0,0,0,0,0,0,0,0,0,0,0,0,0,0,0,0,0,0,0,0,0,
0,0,0,0,1512,0,1512,0,1512,0,1512,0,1512,0,1512,0,1512,0,1512,0,1512,0,1512,0,1513,0,1513,0,1513,0,1513,0,1513,0,0,0,0,0,
0,0,0,0,0,0,0,0,0,0,0,0,0,0,0,0,0,0,0,0,0,0,0,0,0,0,0,0,0,0,0,0,0,0,0,0,0,0,
0,0,0,0,1512,0,1512,0,1512,0,1512,0,1512,0,1512,0,1512,0,1512,0,1512,0,1512,0,1513,0,1513,0,1513,0,1513,0,1513,0,0,0,0,0,
0,0,0,0,0,0,0,0,0,0,0,0,0,0,0,0,0,0,0,0,0,0,0,0,0,0,0,0,0,0,0,0,0,0,0,0,0,0
</data>
 </layer>
 <layer id="12" name="Tiles_Collision" width="38" height="46" visible="0">
  <properties>
   <property name="maybe_animation_id" value="d5b5e9552171fe70"/>
   <property name="maybe_tileset_id" value="b29026a2ad0be741"/>
   <property name="tile_size" type="int" value="8"/>
  </properties>
  <data encoding="csv">
1507,1507,1507,1507,1507,1507,1507,1507,1507,1507,1507,1507,1507,1507,1507,1507,1507,1507,1507,1507,1507,1507,1507,1507,1507,1507,1507,1507,1507,1507,1507,1507,1507,1507,1507,1507,1507,1507,
1507,1507,1507,1507,1507,1507,1507,1507,1507,1507,1507,1507,1507,1507,1507,1507,1507,1507,1507,1507,1507,1507,1507,1507,1507,1507,1507,1507,1507,1507,1507,1507,1507,1507,1507,1507,1507,1507,
1507,1507,1507,1507,1507,1507,1507,1507,1507,1507,1507,1507,1507,1507,1507,1507,1507,1507,1507,1507,1507,1507,1507,1507,1507,1507,1507,1507,1507,1507,1507,1507,1507,1507,1507,1507,1507,1507,
1507,1507,1507,1507,1507,1507,1507,1507,1507,1507,1507,1507,1507,1507,1507,1507,1507,1507,1507,1507,1507,1507,1507,1507,1507,1507,1507,1507,1507,1507,1507,1507,1507,1507,1507,1507,1507,1507,
1507,1507,1507,1507,1507,1507,1507,1507,1507,1507,1507,1507,1507,1507,1507,1507,1507,1507,1507,1507,1507,1507,1507,1507,1507,1507,1507,1507,1507,1507,1507,1507,1507,1507,1507,1507,1507,1507,
1507,1507,1507,1507,1507,1507,1507,1507,1507,1507,1507,1507,1507,1507,1507,1507,1507,1507,1507,1507,1507,1507,1507,1507,1507,1507,1507,1507,1507,1507,1507,1507,1507,1507,1507,1507,1507,1507,
1507,1507,1507,1507,1507,1507,1507,1507,1507,1507,1507,1507,1507,1507,1507,1507,1507,1507,1507,1507,1507,1507,1507,1507,1507,1507,1507,1507,1507,1507,1507,1507,1507,1507,1507,1507,1507,1507,
1507,1507,1507,1507,1507,1507,1507,1507,1507,1507,1507,1507,1507,1507,1507,1507,1507,1507,1507,1507,1507,1507,1507,1507,1507,1507,1507,1507,1507,1507,1507,1507,1507,1507,1507,1507,1507,1507,
1507,1507,1507,1507,1507,1507,1507,1507,1507,1507,1507,1507,1507,1507,1507,1507,1507,1507,1507,1507,1507,1507,1507,1507,1507,1507,1507,1507,1507,1507,1507,1507,1507,1507,1507,1507,1507,1507,
1507,1507,1507,1507,1507,1507,1507,1507,1507,1507,1507,1507,1507,1507,1507,1507,1507,1507,1507,1507,1507,1507,1507,1507,1507,1507,1507,1507,1507,1507,1507,1507,1507,1507,1507,1507,1507,1507,
1507,1507,1507,1507,1507,1507,1507,1507,1507,1507,1507,1507,1507,1507,1507,1507,1507,1507,1507,1507,1507,1507,1507,1507,1507,1507,1507,1507,1507,1507,1507,1507,1507,1507,1507,1507,1507,1507,
1507,1507,1507,1507,1507,1507,1507,1507,1507,1507,1507,1507,1507,1507,1507,1507,1507,1507,1507,1507,1507,1507,1507,1507,1507,1507,1507,1507,1507,1507,1507,1507,1507,1507,1507,1507,1507,1507,
1507,1507,1507,1507,1507,1507,1507,1507,1507,1507,1507,1507,1507,1507,1507,1507,1507,1507,1507,1507,1507,1507,1507,1507,1507,1507,1507,1507,1507,1507,1507,1507,1507,1507,1507,1507,1507,1507,
1507,1507,1507,1507,1507,1507,1507,1507,1507,1507,1507,1507,1507,1507,1507,1507,1507,1507,1507,1507,1507,1507,1507,1507,1507,1507,1507,1507,1507,1507,1507,1507,1507,1507,1507,1507,1507,1507,
1507,1507,1507,1507,1507,1507,1507,1507,1507,1507,1507,1507,1507,1507,1507,1507,1507,1507,1507,1507,1507,1507,1507,1507,1507,1507,1507,1507,1507,1507,1507,1507,1507,1507,1507,1507,1507,1507,
1507,1507,1507,1507,1507,1507,1507,1507,1507,1507,1507,1507,1507,1507,1507,1507,1507,1507,1507,1507,1507,1507,1507,1507,1507,1507,1507,1507,1507,1507,1507,1507,1507,1507,1507,1507,1507,1507,
1507,1507,1507,1507,1507,1507,1507,1507,1507,1507,1507,1507,1507,1507,1507,1507,1507,1507,1507,1507,1507,1507,1507,1507,1507,1507,1507,1507,1507,1507,1507,1507,1507,1507,1507,1507,1507,1507,
1507,1507,1507,1507,1507,1507,1507,1507,1507,1507,1507,1507,1507,1507,1507,1507,1507,1507,1507,1507,1507,1507,1507,1507,1507,1507,1507,1507,1507,1507,1507,1507,1507,1507,1507,1507,1507,1507,
1507,1507,1507,1507,1507,1507,1507,1507,1507,1507,1507,1507,1507,1507,1507,1507,1507,1507,1507,1507,1507,1507,1507,1507,1507,1507,1507,1507,1507,1507,1507,1507,1507,1507,1507,1507,1507,1507,
1507,1507,1507,1507,1507,1507,1507,1507,1507,1507,1507,1507,1507,1507,1507,1507,1507,1507,1507,1507,1507,1507,1507,1507,1507,1507,1507,1507,1507,1507,1507,1507,1507,1507,1507,1507,1507,1507,
1507,1507,1507,1507,1507,1507,1507,1507,1507,1507,1507,1507,1507,1507,1507,1507,1504,1504,1504,1504,1504,1504,1507,1507,1507,1507,1507,1507,1507,1507,1507,1507,1507,1507,1507,1507,1507,1507,
1507,1507,1507,1507,1507,1507,1507,1507,1507,1507,1507,1507,1507,1507,1507,1507,1504,1504,1504,1504,1504,1504,1504,1504,1504,1504,1504,1504,1504,1504,1504,1504,1507,1507,1507,1507,1507,1507,
1507,1507,1507,1507,1507,1507,1504,1504,1504,1504,1504,1504,1506,1506,1504,1504,1504,1504,1504,1504,1504,1504,1504,1504,1504,1504,1504,1507,1507,1507,1507,1507,1507,1507,1507,1507,1507,1507,
1507,1507,1507,1507,1507,1507,1504,1504,1504,1504,1504,1504,1504,1504,1504,1504,1504,1504,1504,1504,1504,1504,1504,1504,1504,1504,1504,1507,1507,1507,1507,1507,1507,1507,1507,1507,1507,1507,
1507,1507,1507,1507,1507,1507,1504,1504,1504,1504,1504,1504,1504,1504,1504,1504,1504,1504,1504,1504,1504,1504,1504,1504,1504,1504,1504,1507,1507,1507,1507,1507,1507,1507,1507,1507,1507,1507,
1507,1507,1507,1507,1507,1507,1504,1504,1504,1504,1504,1504,1504,1504,1504,1504,1504,1504,1504,1504,1504,1504,1504,1504,1504,1504,1504,1507,1507,1507,1507,1507,1507,1507,1507,1507,1507,1507,
1507,1507,1507,1507,1507,1507,1504,1504,1504,1504,1504,1504,1504,1504,1504,1504,1504,1504,1504,1504,1504,1504,1507,1507,1507,1507,1507,1507,1507,1507,1507,1507,1507,1507,1507,1507,1507,1507,
1507,1507,1507,1507,1507,1507,1504,1504,1504,1504,1504,1504,1504,1504,1504,1504,1504,1504,1504,1504,1504,1504,1507,1507,1507,1507,1507,1507,1507,1507,1507,1507,1507,1507,1507,1507,1507,1507,
1507,1507,1507,1507,1507,1507,1504,1504,1504,1504,1504,1507,1507,1507,1507,1504,1504,1504,1504,1504,1504,1504,1507,1507,1507,1507,1507,1507,1507,1507,1507,1507,1507,1507,1507,1507,1507,1507,
1507,1507,1507,1507,1507,1507,1504,1507,1507,1504,1504,1506,1506,1506,1506,1504,1504,1504,1504,1504,1504,1504,1504,1507,1507,1507,1507,1507,1507,1507,1507,1507,1507,1507,1507,1507,1507,1507,
1507,1507,1507,1507,1507,1507,1507,1507,1507,1506,1504,1504,1504,1504,1504,1504,1504,1504,1504,1504,1504,1504,1504,1507,1507,1507,1507,1507,1507,1507,1507,1507,1507,1507,1507,1507,1507,1507,
1507,1507,1507,1507,1507,1507,1507,1507,1506,1506,1504,1504,1504,1504,1504,1504,1504,1504,1504,1504,1504,1504,1504,1507,1507,1507,1507,1507,1507,1507,1507,1507,1507,1507,1507,1507,1507,1507,
1507,1507,1507,1507,1507,1507,1507,1507,1506,1506,1504,1506,1506,1506,1506,1504,1504,1504,1504,1504,1504,1504,1504,1504,1504,1504,1504,1504,1504,1504,1507,1507,1507,1507,1507,1507,1507,1507,
1507,1507,1507,1507,1507,1507,1507,1507,1506,1506,1504,1506,1506,1506,1506,1504,1504,1504,1504,1504,1504,1504,1504,1504,1504,1504,1504,1504,1504,1504,1507,1507,1507,1507,1507,1507,1507,1507,
1507,1507,1507,1507,1507,1507,1507,1507,1506,1506,1504,1506,1506,1506,1506,1504,1504,1504,1504,1504,1504,1504,1504,1504,1504,1504,1504,1504,1504,1504,1507,1507,1507,1507,1507,1507,1507,1507,
1507,1507,1507,1507,1507,1507,1507,1507,1506,1506,1504,1506,1506,1506,1506,1504,1504,1504,1504,1504,1504,1504,1504,1504,1504,1504,1504,1504,1504,1504,1507,1507,1507,1507,1507,1507,1507,1507,
1507,1507,1507,1507,1507,1507,1507,1507,1506,1506,1504,1504,1504,1504,1504,1504,1504,1504,1504,1504,1504,1504,1504,1504,1504,1504,1504,1504,1504,1504,1507,1507,1507,1507,1507,1507,1507,1507,
1507,1507,1507,1507,1507,1507,1507,1507,1507,1507,1504,1504,1504,1504,1504,1504,1504,1504,1504,1504,1504,1504,1504,1504,1504,1504,1504,1504,1504,1504,1507,1507,1507,1507,1507,1507,1507,1507,
1507,1507,1507,1507,1507,1507,1507,1507,1507,1507,1504,1504,1504,1504,1504,1504,1504,1504,1504,1504,1504,1504,1504,1504,1504,1504,1504,1504,1504,1504,1507,1507,1507,1507,1507,1507,1507,1507,
1507,1507,1507,1507,1507,1507,1507,1507,1507,1507,1504,1504,1504,1504,1504,1504,1504,1504,1504,1504,1504,1504,1504,1504,1504,1504,1504,1504,1504,1504,1507,1507,1507,1507,1507,1507,1507,1507,
1507,1507,1507,1507,1507,1507,1507,1507,1507,1507,1507,1507,1507,1507,1507,1507,1507,1507,1504,1504,1507,1507,1507,1507,1507,1507,1507,1507,1507,1507,1507,1507,1507,1507,1507,1507,1507,1507,
1507,1507,1507,1507,1507,1507,1507,1507,1507,1507,1507,1507,1507,1507,1507,1507,1507,1507,1504,1504,1507,1507,1507,1507,1507,1507,1507,1507,1507,1507,1507,1507,1507,1507,1507,1507,1507,1507,
1507,1507,1507,1507,1507,1507,1507,1507,1507,1507,1507,1507,1507,1507,1507,1507,1507,1507,1504,1504,1507,1507,1507,1507,1507,1507,1507,1507,1507,1507,1507,1507,1507,1507,1507,1507,1507,1507,
1507,1507,1507,1507,1507,1507,1507,1507,1507,1507,1507,1507,1507,1507,1507,1507,1507,1507,1504,1504,1507,1507,1507,1507,1507,1507,1507,1507,1507,1507,1507,1507,1507,1507,1507,1507,1507,1507,
1507,1507,1507,1507,1507,1507,1507,1507,1507,1507,1507,1507,1507,1507,1507,1507,1507,1507,1504,1504,1507,1507,1507,1507,1507,1507,1507,1507,1507,1507,1507,1507,1507,1507,1507,1507,1507,1507,
1507,1507,1507,1507,1507,1507,1507,1507,1507,1507,1507,1507,1507,1507,1507,1507,1507,1507,1504,1504,1507,1507,1507,1507,1507,1507,1507,1507,1507,1507,1507,1507,1507,1507,1507,1507,1507,1507
</data>
 </layer>
 <layer id="13" name="Tiles_Rules" width="38" height="46">
  <properties>
   <property name="maybe_animation_id" value="f525790c1101b1a1"/>
   <property name="maybe_tileset_id" value="a3b6ca91b299d4f5"/>
   <property name="tile_size" type="int" value="8"/>
  </properties>
  <data encoding="csv">
0,0,0,0,0,0,0,0,0,0,0,0,0,0,0,0,0,0,0,0,0,0,0,0,0,0,0,0,0,0,0,0,0,0,0,0,0,0,
0,0,0,0,0,0,0,0,0,0,0,0,0,0,0,0,0,0,0,0,0,0,0,0,0,0,0,0,0,0,0,0,0,0,0,0,0,0,
0,0,0,0,0,0,0,0,0,0,0,0,0,0,0,0,0,0,0,0,0,0,0,0,0,0,0,0,0,0,0,0,0,0,0,0,0,0,
0,0,0,0,0,0,0,0,0,0,0,0,0,0,0,0,0,0,0,0,0,0,0,0,0,0,0,0,0,0,0,0,0,0,0,0,0,0,
0,0,0,0,0,0,0,0,0,0,0,0,0,0,0,0,0,0,0,0,0,0,0,0,0,0,0,0,0,0,0,0,0,0,0,0,0,0,
0,0,0,0,0,0,0,0,0,0,0,0,0,0,0,0,0,0,0,0,0,0,0,0,0,0,0,0,0,0,0,0,0,0,0,0,0,0,
0,0,0,0,0,0,0,0,0,0,0,0,0,0,0,0,0,0,0,0,0,0,0,0,0,0,0,0,0,0,0,0,0,0,0,0,0,0,
0,0,0,0,0,0,0,0,0,0,0,0,0,0,0,0,0,0,0,0,0,0,0,0,0,0,0,0,0,0,0,0,0,0,0,0,0,0,
0,0,0,0,0,0,0,0,0,0,0,0,0,0,0,0,0,0,0,0,0,0,0,0,0,0,0,0,0,0,0,0,0,0,0,0,0,0,
0,0,0,0,0,0,0,0,0,0,0,0,0,0,0,0,0,0,0,0,0,0,0,0,0,0,0,0,0,0,0,0,0,0,0,0,0,0,
0,0,0,0,0,0,0,0,0,0,0,0,0,0,0,0,0,0,0,0,0,0,0,0,0,0,0,0,0,0,0,0,0,0,0,0,0,0,
0,0,0,0,0,0,0,0,0,0,0,0,0,0,0,0,0,0,0,0,0,0,0,0,0,0,0,0,0,0,0,0,0,0,0,0,0,0,
0,0,0,0,0,0,0,0,0,0,0,0,0,0,0,0,0,0,0,0,0,0,0,0,0,0,0,0,0,0,0,0,0,0,0,0,0,0,
0,0,0,0,0,0,0,0,0,0,0,0,0,0,0,0,0,0,0,0,0,0,0,0,0,0,0,0,0,0,0,0,0,0,0,0,0,0,
0,0,0,0,0,0,0,0,0,0,0,0,0,0,0,0,0,0,0,0,0,0,0,0,0,0,0,0,0,0,0,0,0,0,0,0,0,0,
0,0,0,0,0,0,0,0,0,0,0,0,0,0,0,0,0,0,0,0,0,0,0,0,0,0,0,0,0,0,0,0,0,0,0,0,0,0,
0,0,0,0,0,0,0,0,0,0,0,0,0,0,0,0,0,0,0,0,0,0,0,0,0,0,0,0,0,0,0,0,0,0,0,0,0,0,
0,0,0,0,0,0,0,0,0,0,0,0,0,0,0,0,0,0,0,0,0,0,0,0,0,0,0,0,0,0,0,0,0,0,0,0,0,0,
0,0,0,0,0,0,0,0,0,0,0,0,0,0,0,0,0,0,0,0,0,0,0,0,0,0,0,0,0,0,0,0,0,0,0,0,0,0,
0,0,0,0,0,0,0,0,0,0,0,0,0,0,0,0,0,0,0,0,0,0,0,0,0,0,0,0,0,0,0,0,0,0,0,0,0,0,
0,0,0,0,0,0,0,0,0,0,0,0,0,0,0,0,0,0,0,0,0,0,0,0,0,0,0,0,0,0,0,0,0,0,0,0,0,0,
0,0,0,0,0,0,0,0,0,0,0,0,0,0,0,0,0,0,0,0,0,0,0,0,0,0,0,0,0,0,0,0,0,0,0,0,0,0,
0,0,0,0,0,0,0,0,0,0,0,0,0,0,0,0,0,0,0,0,0,0,0,0,0,0,0,0,0,0,0,0,0,0,0,0,0,0,
0,0,0,0,0,0,0,0,0,0,0,0,0,0,0,0,0,0,0,0,0,0,0,0,0,0,0,0,0,0,0,0,0,0,0,0,0,0,
0,0,0,0,0,0,0,0,0,0,0,0,0,0,0,0,0,0,0,0,0,0,0,0,0,0,0,0,0,0,0,0,0,0,0,0,0,0,
0,0,0,0,0,0,0,0,0,0,0,0,0,0,0,0,0,0,0,0,0,0,0,0,0,0,0,0,0,0,0,0,0,0,0,0,0,0,
0,0,0,0,0,0,0,0,0,0,0,0,0,0,0,0,0,0,0,0,0,0,0,0,0,0,0,0,0,0,0,0,0,0,0,0,0,0,
0,0,0,0,0,0,0,0,0,0,0,0,0,0,0,0,0,0,0,0,0,0,0,0,0,0,0,0,0,0,0,0,0,0,0,0,0,0,
0,0,0,0,0,0,0,0,0,0,0,0,0,0,0,0,0,0,0,0,0,0,0,0,0,0,0,0,0,0,0,0,0,0,0,0,0,0,
0,0,0,0,0,0,0,0,0,0,0,0,0,0,0,0,0,0,0,0,0,0,0,0,0,0,0,0,0,0,0,0,0,0,0,0,0,0,
0,0,0,0,0,0,0,0,0,0,0,0,0,0,0,0,0,0,0,0,0,0,0,0,0,0,0,0,0,0,0,0,0,0,0,0,0,0,
0,0,0,0,0,0,0,0,0,0,0,0,0,0,0,0,0,0,0,0,0,0,0,0,0,0,0,0,0,0,0,0,0,0,0,0,0,0,
0,0,0,0,0,0,0,0,0,0,0,0,0,0,0,0,0,0,0,0,0,0,0,0,0,0,0,0,0,0,0,0,0,0,0,0,0,0,
0,0,0,0,0,0,0,0,0,0,0,0,0,0,0,0,0,0,0,0,0,0,0,0,0,0,0,0,0,0,0,0,0,0,0,0,0,0,
0,0,0,0,0,0,0,0,0,0,0,0,0,0,0,0,0,0,0,0,0,0,0,0,0,0,0,0,0,0,0,0,0,0,0,0,0,0,
0,0,0,0,0,0,0,0,0,0,0,0,0,0,0,0,0,0,0,0,0,0,0,0,0,0,0,0,0,0,0,0,0,0,0,0,0,0,
0,0,0,0,0,0,0,0,0,0,0,0,0,0,0,0,0,0,0,0,0,0,0,0,0,0,0,0,0,0,0,0,0,0,0,0,0,0,
0,0,0,0,0,0,0,0,0,0,0,0,0,0,0,0,0,0,0,0,0,0,0,0,0,0,0,0,0,0,0,0,0,0,0,0,0,0,
0,0,0,0,0,0,0,0,0,0,0,0,0,0,0,0,0,0,0,0,0,0,0,0,0,0,0,0,0,0,0,0,0,0,0,0,0,0,
0,0,0,0,0,0,0,0,0,0,0,0,0,0,0,0,0,0,0,0,0,0,0,0,0,0,0,0,0,0,0,0,0,0,0,0,0,0,
0,0,0,0,0,0,0,0,0,0,0,0,0,0,0,0,0,0,0,0,0,0,0,0,0,0,0,0,0,0,0,0,0,0,0,0,0,0,
0,0,0,0,0,0,0,0,0,0,0,0,0,0,0,0,0,0,0,0,0,0,0,0,0,0,0,0,0,0,0,0,0,0,0,0,0,0,
0,0,0,0,0,0,0,0,0,0,0,0,0,0,0,0,0,0,0,0,0,0,0,0,0,0,0,0,0,0,0,0,0,0,0,0,0,0,
0,0,0,0,0,0,0,0,0,0,0,0,0,0,0,0,0,0,0,0,0,0,0,0,0,0,0,0,0,0,0,0,0,0,0,0,0,0,
0,0,0,0,0,0,0,0,0,0,0,0,0,0,0,0,0,0,0,0,0,0,0,0,0,0,0,0,0,0,0,0,0,0,0,0,0,0,
0,0,0,0,0,0,0,0,0,0,0,0,0,0,0,0,0,0,0,0,0,0,0,0,0,0,0,0,0,0,0,0,0,0,0,0,0,0
</data>
 </layer>
 <layer id="14" name="Pathfinding" width="38" height="46">
  <properties>
   <property name="maybe_animation_id" value="6d2460f008fb99d4"/>
   <property name="maybe_tileset_id" value="264fe6c9523400a1"/>
   <property name="tile_size" type="int" value="8"/>
  </properties>
  <data encoding="csv">
0,0,0,0,0,0,0,0,0,0,0,0,0,0,0,0,0,0,0,0,0,0,0,0,0,0,0,0,0,0,0,0,0,0,0,0,0,0,
0,0,0,0,0,0,0,0,0,0,0,0,0,0,0,0,0,0,0,0,0,0,0,0,0,0,0,0,0,0,0,0,0,0,0,0,0,0,
0,0,0,0,0,0,0,0,0,0,0,0,0,0,0,0,0,0,0,0,0,0,0,0,0,0,0,0,0,0,0,0,0,0,0,0,0,0,
0,0,0,0,0,0,0,0,0,0,0,0,0,0,0,0,0,0,0,0,0,0,0,0,0,0,0,0,0,0,0,0,0,0,0,0,0,0,
0,0,0,0,0,0,0,0,0,0,0,0,0,0,0,0,0,0,0,0,0,0,0,0,0,0,0,0,0,0,0,0,0,0,0,0,0,0,
0,0,0,0,0,0,0,0,0,0,0,0,0,0,0,0,0,0,0,0,0,0,0,0,0,0,0,0,0,0,0,0,0,0,0,0,0,0,
0,0,0,0,0,0,0,0,0,0,0,0,0,0,0,0,0,0,0,0,0,0,0,0,0,0,0,0,0,0,0,0,0,0,0,0,0,0,
0,0,0,0,0,0,0,0,0,0,0,0,0,0,0,0,0,0,0,0,0,0,0,0,0,0,0,0,0,0,0,0,0,0,0,0,0,0,
0,0,0,0,0,0,0,0,0,0,0,0,0,0,0,0,0,0,0,0,0,0,0,0,0,0,0,0,0,0,0,0,0,0,0,0,0,0,
0,0,0,0,0,0,0,0,0,0,0,0,0,0,0,0,0,0,0,0,0,0,0,0,0,0,0,0,0,0,0,0,0,0,0,0,0,0,
0,0,0,0,0,0,0,0,0,0,0,0,0,0,0,0,0,0,0,0,0,0,0,0,0,0,0,0,0,0,0,0,0,0,0,0,0,0,
0,0,0,0,0,0,0,0,0,0,0,0,0,0,0,0,0,0,0,0,0,0,0,0,0,0,0,0,0,0,0,0,0,0,0,0,0,0,
0,0,0,0,0,0,0,0,0,0,0,0,0,0,0,0,0,0,0,0,0,0,0,0,0,0,0,0,0,0,0,0,0,0,0,0,0,0,
0,0,0,0,0,0,0,0,0,0,0,0,0,0,0,0,0,0,0,0,0,0,0,0,0,0,0,0,0,0,0,0,0,0,0,0,0,0,
0,0,0,0,0,0,0,0,0,0,0,0,0,0,0,0,0,0,0,0,0,0,0,0,0,0,0,0,0,0,0,0,0,0,0,0,0,0,
0,0,0,0,0,0,0,0,0,0,0,0,0,0,0,0,0,0,0,0,0,0,0,0,0,0,0,0,0,0,0,0,0,0,0,0,0,0,
0,0,0,0,0,0,0,0,0,0,0,0,0,0,0,0,0,0,0,0,0,0,0,0,0,0,0,0,0,0,0,0,0,0,0,0,0,0,
0,0,0,0,0,0,0,0,0,0,0,0,0,0,0,0,0,0,0,0,0,0,0,0,0,0,0,0,0,0,0,0,0,0,0,0,0,0,
0,0,0,0,0,0,0,0,0,0,0,0,0,0,0,0,0,0,0,0,0,0,0,0,0,0,0,0,0,0,0,0,0,0,0,0,0,0,
0,0,0,0,0,0,0,0,0,6007,0,0,0,0,0,0,0,0,0,0,0,0,0,0,0,0,0,0,0,0,0,0,0,0,0,0,0,0,
0,0,0,0,0,0,0,0,0,6007,6007,6007,0,0,0,0,6008,6008,6008,6008,0,0,0,0,0,0,0,0,0,0,0,0,0,0,0,0,0,0,
0,0,0,0,0,0,0,0,0,0,6007,6007,0,0,0,0,6008,6008,6008,6008,6008,6008,6008,6008,6008,6008,6008,0,0,0,0,0,0,0,0,0,0,0,
0,0,0,0,0,0,0,0,0,6008,6008,6008,6012,6012,0,6008,6008,6008,6008,6008,6008,6008,6008,6008,6008,6008,6008,0,0,0,0,0,0,0,0,0,0,0,
0,0,0,0,0,0,0,0,0,6008,6008,6008,6008,6008,6008,6008,6008,6008,6008,6008,6008,6008,6008,6008,6008,6008,6008,0,0,0,0,0,0,0,0,0,0,0,
0,0,0,0,0,0,0,0,0,6008,6008,6008,6008,6008,6008,6008,6008,6008,6008,6008,6008,6008,6008,6008,6008,6008,6008,0,0,0,0,0,0,0,0,0,0,0,
0,0,0,0,0,0,0,0,0,6008,6008,6008,6008,6008,6008,6008,6008,6008,6008,6008,0,0,0,0,0,0,0,0,0,0,0,0,0,0,0,0,0,0,
0,0,0,0,0,0,0,0,0,6008,6008,6008,6008,6008,6008,6008,6008,6008,6008,6008,0,0,0,0,0,0,0,0,0,0,0,0,0,0,0,0,0,0,
0,0,0,0,0,0,0,0,0,0,0,0,0,0,0,0,6008,6008,6008,6008,0,0,0,0,0,0,0,0,0,0,0,0,0,0,0,0,0,0,
0,0,0,0,0,0,0,0,0,0,0,0,0,0,0,0,6008,6008,6008,6008,0,0,0,0,0,0,0,0,0,0,0,0,0,0,0,0,0,0,
0,0,0,0,0,0,0,0,0,0,0,0,6012,6012,0,0,6008,6008,6008,6008,0,0,0,0,0,0,0,0,0,0,0,0,0,0,0,0,0,0,
0,0,0,0,0,0,0,0,0,0,6008,6008,6008,6008,6008,6008,6008,6008,6008,6008,0,0,0,0,0,0,0,0,0,0,0,0,0,0,0,0,0,0,
0,0,0,0,0,0,0,0,0,0,6008,6008,6008,6008,6008,6008,6008,6008,6008,6008,0,0,0,0,0,0,0,0,0,0,0,0,0,0,0,0,0,0,
0,0,0,0,0,0,0,0,6012,6012,6008,0,0,0,0,6007,6007,6008,6008,6008,6008,6008,6008,6008,6008,6008,6008,6008,6008,6008,0,0,0,0,0,0,0,0,
0,0,0,0,0,0,0,0,6012,6012,6008,0,0,0,0,0,0,6008,6008,6008,6008,6008,6008,6008,6008,6008,6008,6008,6008,6008,0,0,0,0,0,0,0,0,
0,0,0,0,0,0,0,0,6012,6012,6008,0,0,0,0,0,0,6008,6008,6008,6008,6008,6008,6008,6008,6008,6008,6008,6008,6008,0,0,0,0,0,0,0,0,
0,0,0,0,0,0,0,0,6012,6012,6008,0,0,0,0,0,0,6008,6008,6008,0,0,0,0,0,0,0,0,6008,6008,0,0,0,0,0,0,0,0,
0,0,0,0,0,0,0,0,6012,6012,6008,6008,6008,6008,6008,6008,6008,6008,6008,6008,6008,6008,6008,6008,6008,6008,6008,6008,6008,6008,0,0,0,0,0,0,0,0,
0,0,0,0,0,0,0,0,0,0,6008,6008,6008,6008,6008,6008,6008,6008,6008,6008,6008,6008,6008,6008,6008,6008,6008,6008,6008,6008,0,0,0,0,0,0,0,0,
0,0,0,0,0,0,0,0,0,0,6008,6008,6008,6008,6008,6008,6008,6008,6008,6008,6008,0,0,0,0,0,0,0,0,0,0,0,0,0,0,0,0,0,
0,0,0,0,0,0,0,0,0,0,6008,6008,6008,6008,6008,6008,6008,6008,6008,6008,0,0,0,0,0,0,0,0,0,0,0,0,0,0,0,0,0,0,
0,0,0,0,0,0,0,0,0,0,0,0,0,0,0,0,0,0,6008,6008,0,0,0,0,0,0,0,0,0,0,0,0,0,0,0,0,0,0,
0,0,0,0,0,0,0,0,0,0,0,0,0,0,0,0,0,0,6008,6008,0,0,0,0,0,0,0,0,0,0,0,0,0,0,0,0,0,0,
0,0,0,0,0,0,0,0,0,0,0,0,0,0,0,0,0,0,6008,6008,0,0,0,0,0,0,0,0,0,0,0,0,0,0,0,0,0,0,
0,0,0,0,0,0,0,0,0,0,0,0,0,0,0,0,0,0,0,0,0,0,0,0,0,0,0,0,0,0,0,0,0,0,0,0,0,0,
0,0,0,0,0,0,0,0,0,0,0,0,0,0,0,0,0,0,0,0,0,0,0,0,0,0,0,0,0,0,0,0,0,0,0,0,0,0,
0,0,0,0,0,0,0,0,0,0,0,0,0,0,0,0,0,0,0,0,0,0,0,0,0,0,0,0,0,0,0,0,0,0,0,0,0,0
</data>
 </layer>
 <objectgroup draworder="index" id="15" name="Lighting" visible="0"/>
 <objectgroup draworder="index" id="16" name="TrellisPoints" visible="0">
  <object id="29" template="../../../templates/meta/obj_trellis_point_transition.tx" name="Exit to Town" type="obj_trellis_point_transition" x="140" y="333">
   <properties>
    <property name="direction" type="int" propertytype="Cardinal" value="3"/>
   </properties>
  </object>
  <object id="30" template="../../../templates/meta/obj_trellis_point_default.tx" name="Celine Wake Point" type="obj_trellis_point_default" x="224" y="188"/>
  <object id="31" template="../../../templates/meta/obj_trellis_point_default.tx" name="Next To Desk" type="obj_trellis_point_default" x="60" y="197">
   <properties>
    <property name="direction" type="int" propertytype="Cardinal" value="1"/>
   </properties>
  </object>
  <object id="32" template="../../../templates/meta/obj_trellis_point_seat.tx" name="Desk Seat" type="obj_trellis_point_seat" x="92" y="192">
   <properties>
    <property name="direction" type="int" propertytype="Cardinal" value="1"/>
   </properties>
  </object>
  <object id="33" template="../../../templates/meta/obj_trellis_point_seat.tx" name="ArmChair Seat" type="obj_trellis_point_seat" x="92" y="250">
   <properties>
    <property name="direction" type="int" propertytype="Cardinal" value="3"/>
   </properties>
  </object>
  <object id="34" template="../../../templates/meta/obj_trellis_point_seat.tx" name="Couch Seat Bottom" type="obj_trellis_point_seat" x="60" y="305">
   <properties>
    <property name="direction" type="int" propertytype="Cardinal" value="0"/>
   </properties>
  </object>
  <object id="35" template="../../../templates/meta/obj_trellis_point_seat.tx" name="Couch Seat Middle" type="obj_trellis_point_seat" x="60" y="291">
   <properties>
    <property name="direction" type="int" propertytype="Cardinal" value="0"/>
   </properties>
  </object>
  <object id="36" template="../../../templates/meta/obj_trellis_point_seat.tx" name="Couch Seat Upper" type="obj_trellis_point_seat" x="60" y="277">
   <properties>
    <property name="direction" type="int" propertytype="Cardinal" value="0"/>
   </properties>
  </object>
  <object id="37" template="../../../templates/meta/obj_trellis_point_default.tx" name="tidy_3" type="obj_trellis_point_default" x="88" y="321"/>
  <object id="38" template="../../../templates/meta/obj_trellis_point_default.tx" name="tidy_2" type="obj_trellis_point_default" x="172" y="205"/>
  <object id="39" template="../../../templates/meta/obj_trellis_point_default.tx" name="tidy_4" type="obj_trellis_point_default" x="188" y="305"/>
  <object id="40" template="../../../templates/meta/obj_trellis_point_default.tx" name="tidy_1" type="obj_trellis_point_default" x="72" y="217"/>
  <object id="41" template="../../../templates/meta/obj_trellis_point_default.tx" name="clean_4" type="obj_trellis_point_default" x="224" y="277">
   <properties>
    <property name="direction" type="int" propertytype="Cardinal" value="0"/>
   </properties>
  </object>
  <object id="42" template="../../../templates/meta/obj_trellis_point_default.tx" name="clean_2" type="obj_trellis_point_default" x="184" y="185">
   <properties>
    <property name="direction" type="int" propertytype="Cardinal" value="1"/>
   </properties>
  </object>
  <object id="43" template="../../../templates/meta/obj_trellis_point_default.tx" name="clean_1" type="obj_trellis_point_default" x="76" y="197">
   <properties>
    <property name="direction" type="int" propertytype="Cardinal" value="1"/>
   </properties>
  </object>
  <object id="44" template="../../../templates/meta/obj_trellis_point_default.tx" name="clean_3" type="obj_trellis_point_default" x="72" y="325">
   <properties>
    <property name="direction" type="int" propertytype="Cardinal" value="2"/>
   </properties>
  </object>
  <object id="45" template="../../../templates/meta/obj_trellis_point_default.tx" name="routine_entrance" type="obj_trellis_point_default" x="140" y="325">
   <properties>
    <property name="direction" type="int" propertytype="Cardinal" value="1"/>
   </properties>
  </object>
  <object id="46" template="../../../templates/meta/obj_trellis_point_default.tx" name="Group 2" type="obj_trellis_point_default" x="128" y="249"/>
  <object id="47" template="../../../templates/meta/obj_trellis_point_default.tx" name="Group 1" type="obj_trellis_point_default" x="112" y="261">
   <properties>
    <property name="direction" type="int" propertytype="Cardinal" value="0"/>
   </properties>
  </object>
  <object id="48" template="../../../templates/meta/obj_trellis_point_default.tx" name="Group 4" type="obj_trellis_point_default" x="128" y="273">
   <properties>
    <property name="direction" type="int" propertytype="Cardinal" value="1"/>
   </properties>
  </object>
  <object id="49" template="../../../templates/meta/obj_trellis_point_default.tx" name="Group 3" type="obj_trellis_point_default" x="144" y="261">
   <properties>
    <property name="direction" type="int" propertytype="Cardinal" value="2"/>
   </properties>
  </object>
 </objectgroup>
 <objectgroup draworder="index" id="17" name="TrellisPoints_Celine_6h" visible="0">
  <object id="50" template="../../../templates/meta/obj_trellis_point_default.tx" name="c6h_celine_start" type="obj_trellis_point_default" x="90" y="201"/>
  <object id="51" template="../../../templates/meta/obj_trellis_point_default.tx" name="c6h_ari_desk" type="obj_trellis_point_default" x="114" y="201"/>
  <object id="52" template="../../../templates/meta/obj_trellis_point_default.tx" name="c6h_celine_entrance" type="obj_trellis_point_default" x="120" y="267"/>
  <object id="53" template="../../../templates/meta/obj_trellis_point_default.tx" name="c6h_ari_entrance" type="obj_trellis_point_default" x="140" y="363"/>
  <object id="54" template="../../../templates/meta/obj_trellis_point_default.tx" name="c6h_ari_start" type="obj_trellis_point_default" x="140" y="311"/>
  <object id="55" template="../../../templates/meta/obj_trellis_point_default.tx" name="c6h_celine_exit" type="obj_trellis_point_default" x="140" y="265"/>
  <object id="56" template="../../../templates/meta/obj_trellis_point_default.tx" name="c6h_dell_entrance" type="obj_trellis_point_default" x="102" y="221"/>
  <object id="57" template="../../../templates/meta/obj_trellis_point_default.tx" name="c6h_dell_sprint_1" type="obj_trellis_point_default" x="134" y="221"/>
  <object id="58" template="../../../templates/meta/obj_trellis_point_default.tx" name="c6h_dell_sprint_2" type="obj_trellis_point_default" x="70" y="221"/>
  <object id="59" template="../../../templates/meta/obj_trellis_point_camera.tx" name="c6h_camera_1" type="obj_trellis_point_camera" x="92" y="261"/>
  <object id="60" template="../../../templates/meta/obj_trellis_point_camera.tx" name="c6h_camera_2" type="obj_trellis_point_camera" x="134" y="291"/>
  <object id="61" template="../../../templates/meta/obj_trellis_point_camera.tx" name="c6h_camera_3" type="obj_trellis_point_camera" x="102" y="227"/>
  <object id="62" template="../../../templates/meta/obj_trellis_point_prop.tx" name="c6h_celine_pot" type="obj_trellis_point_prop" x="100" y="173">
   <properties>
    <property name="prop_name" value="c6h_sprout"/>
   </properties>
  </object>
 </objectgroup>
 <objectgroup draworder="index" id="18" name="TrellisPoints_Juniper_6h" visible="0">
  <object id="63" template="../../../templates/meta/obj_trellis_point_default.tx" name="j6h_juniper_cr_entrance" type="obj_trellis_point_default" x="140" y="357"/>
  <object id="64" template="../../../templates/meta/obj_trellis_point_default.tx" name="j6h_juniper_cr_start" type="obj_trellis_point_default" x="140" y="263"/>
  <object id="65" template="../../../templates/meta/obj_trellis_point_default.tx" name="j6h_celine_entrance" type="obj_trellis_point_default" x="108" y="263"/>
  <object id="66" template="../../../templates/meta/obj_trellis_point_default.tx" name="j6h_celine_start" type="obj_trellis_point_default" x="78" y="193"/>
  <object id="67" template="../../../templates/meta/obj_trellis_point_default.tx" name="j6h_juniper_cr_forward" type="obj_trellis_point_default" x="128" y="263"/>
  <object id="68" template="../../../templates/meta/obj_trellis_point_default.tx" name="j6h_celine_forward" type="obj_trellis_point_default" x="124" y="205"/>
  <object id="69" template="../../../templates/meta/obj_trellis_point_default.tx" name="j6h_juniper_cr_north" type="obj_trellis_point_default" x="124" y="237"/>
  <object id="70" template="../../../templates/meta/obj_trellis_point_camera.tx" name="j6h_camera_5" type="obj_trellis_point_camera" x="140" y="361"/>
  <object id="71" template="../../../templates/meta/obj_trellis_point_camera.tx" name="j6h_camera_6" type="obj_trellis_point_camera" x="126" y="267"/>
  <object id="72" template="../../../templates/meta/obj_trellis_point_camera.tx" name="j6h_camera_7" type="obj_trellis_point_camera" x="90" y="217"/>
  <object id="73" template="../../../templates/meta/obj_trellis_point_camera.tx" name="j6h_camera_8" type="obj_trellis_point_camera" x="124" y="217"/>
  <object id="74" template="../../../templates/meta/obj_trellis_point_default.tx" name="j6h_ari_hide_celine" type="obj_trellis_point_default" x="140" y="363"/>
  <object id="75" template="../../../templates/meta/obj_trellis_point_prop.tx" name="j6h_tonic" type="obj_trellis_point_prop" x="84" y="169">
   <properties>
    <property name="prop_name" value="j6h_tonic"/>
   </properties>
  </object>
 </objectgroup>
 <objectgroup draworder="index" id="19" name="TrellisPoints_Celine_4h" visible="0">
  <object id="76" template="../../../templates/meta/obj_trellis_point_default.tx" name="c4h_ari_entrance" type="obj_trellis_point_default" x="140" y="361"/>
  <object id="77" template="../../../templates/meta/obj_trellis_point_camera.tx" name="c4h_camera_1" type="obj_trellis_point_camera" x="140" y="409"/>
  <object id="78" template="../../../templates/meta/obj_trellis_point_camera.tx" name="c4h_camera_2" type="obj_trellis_point_camera" x="140" y="285"/>
  <object id="79" template="../../../templates/meta/obj_trellis_point_default.tx" name="c4h_ari_talk" type="obj_trellis_point_default" x="124" y="209"/>
  <object id="80" template="../../../templates/meta/obj_trellis_point_default.tx" name="c4h_celine_talk" type="obj_trellis_point_default" x="124" y="185"/>
  <object id="81" template="../../../templates/meta/obj_trellis_point_default.tx" name="c4h_ari_start" type="obj_trellis_point_default" x="140" y="301"/>
  <object id="82" template="../../../templates/meta/obj_trellis_point_default.tx" name="c4h_celine_side_step" type="obj_trellis_point_default" x="144" y="185"/>
  <object id="83" template="../../../templates/meta/obj_trellis_point_default.tx" name="c4h_ari_pot" type="obj_trellis_point_default" x="100" y="197"/>
  <object id="84" template="../../../templates/meta/obj_trellis_point_camera.tx" name="c4h_camera_3" type="obj_trellis_point_camera" x="124" y="221"/>
  <object id="85" template="../../../templates/meta/obj_trellis_point_default.tx" name="c4h_ari_pot_back" type="obj_trellis_point_default" x="100" y="209"/>
  <object id="86" template="../../../templates/meta/obj_trellis_point_default.tx" name="c4h_celine_tea" type="obj_trellis_point_default" x="204" y="273"/>
  <object id="87" template="../../../templates/meta/obj_trellis_point_default.tx" name="c4h_ari_collect_dirt" type="obj_trellis_point_default" x="124" y="201"/>
 </objectgroup>
 <objectgroup draworder="index" id="20" name="Meta">
  <object id="88" template="../../../templates/obj_roomtransition.tx" type="obj_roomtransition" x="144" y="344">
   <properties>
    <property name="destination_id" propertytype="LocationId" value="town"/>
    <property name="player_direction" type="int" value="270"/>
   </properties>
  </object>
 </objectgroup>
 <objectgroup draworder="index" id="21" name="TrellisPoints_Celine_2h" visible="0">
  <object id="89" template="../../../templates/meta/obj_trellis_point_default.tx" name="c2h_ari_entrance" type="obj_trellis_point_default" x="140" y="361"/>
  <object id="90" template="../../../templates/meta/obj_trellis_point_default.tx" name="c2h_ari_start" type="obj_trellis_point_default" x="140" y="297"/>
  <object id="91" template="../../../templates/meta/obj_trellis_point_default.tx" name="c2h_ari_chair" type="obj_trellis_point_default" x="108" y="237"/>
  <object id="92" template="../../../templates/meta/obj_trellis_point_default.tx" name="c2h_celine_wander" type="obj_trellis_point_default" x="156" y="249"/>
  <object id="93" template="../../../templates/meta/obj_trellis_point_default.tx" name="c2h_ari_forward" type="obj_trellis_point_default" x="124" y="249"/>
  <object id="94" template="../../../templates/meta/obj_trellis_point_camera.tx" name="c2h_camera_1" type="obj_trellis_point_camera" x="140" y="377"/>
  <object id="95" template="../../../templates/meta/obj_trellis_point_camera.tx" name="c2h_camera_2" type="obj_trellis_point_camera" x="140" y="253"/>
  <object id="96" template="../../../templates/meta/obj_trellis_point_camera.tx" name="c2h_camera_3" type="obj_trellis_point_camera" x="92" y="265"/>
  <object id="97" template="../../../templates/meta/obj_trellis_point_camera.tx" name="c2h_camera_4" type="obj_trellis_point_camera" x="140" y="265"/>
 </objectgroup>
 <objectgroup draworder="index" id="22" name="TrellisPoints_Translating_the_Earth_Tablet" visible="0">
  <object id="98" template="../../../templates/meta/obj_trellis_point_prop.tx" name="tet_cr_earth_tablet" type="obj_trellis_point_prop" x="93" y="165">
   <properties>
    <property name="prop_name" value="tet_earth_tablet"/>
   </properties>
  </object>
  <object id="99" template="../../../templates/meta/obj_trellis_point_default.tx" name="tet_ari_cr_entrance" type="obj_trellis_point_default" x="140" y="363"/>
  <object id="100" template="../../../templates/meta/obj_trellis_point_default.tx" name="tet_juniper_cr_entrance" type="obj_trellis_point_default" x="140" y="357"/>
  <object id="101" template="../../../templates/meta/obj_trellis_point_default.tx" name="tet_juniper_cr_start" type="obj_trellis_point_default" x="130" y="301"/>
  <object id="102" template="../../../templates/meta/obj_trellis_point_default.tx" name="tet_ari_cr_start" type="obj_trellis_point_default" x="100" y="309"/>
  <object id="103" template="../../../templates/meta/obj_trellis_point_default.tx" name="tet_celine_tea" type="obj_trellis_point_default" x="206" y="273"/>
  <object id="104" template="../../../templates/meta/obj_trellis_point_camera.tx" name="tet_camera_4" type="obj_trellis_point_camera" x="140" y="377"/>
  <object id="105" template="../../../templates/meta/obj_trellis_point_camera.tx" name="tet_camera_5" type="obj_trellis_point_camera" x="122" y="303"/>
  <object id="106" template="../../../templates/meta/obj_trellis_point_camera.tx" name="tet_camera_6" type="obj_trellis_point_camera" x="92" y="219"/>
  <object id="107" template="../../../templates/meta/obj_trellis_point_default.tx" name="tet_juniper_cr_bench" type="obj_trellis_point_default" x="74" y="209"/>
  <object id="108" template="../../../templates/meta/obj_trellis_point_default.tx" name="tet_ari_cr_bench" type="obj_trellis_point_default" x="108" y="209"/>
  <object id="109" template="../../../templates/meta/obj_trellis_point_default.tx" name="tet_celine_tablet" type="obj_trellis_point_default" x="72" y="209"/>
  <object id="110" template="../../../templates/meta/obj_trellis_point_camera.tx" name="tet_camera_7" type="obj_trellis_point_camera" x="92" y="85"/>
  <object id="111" template="../../../templates/meta/obj_trellis_point_prop.tx" name="tet_fish" type="obj_trellis_point_prop" x="37" y="38">
   <properties>
    <property name="prop_name" value="tet_fish"/>
   </properties>
  </object>
  <object id="112" template="../../../templates/meta/obj_trellis_point_prop.tx" name="tet_jewel" type="obj_trellis_point_prop" x="67" y="38">
   <properties>
    <property name="prop_name" value="tet_jewel"/>
   </properties>
  </object>
  <object id="113" template="../../../templates/meta/obj_trellis_point_prop.tx" name="tet_kelp" type="obj_trellis_point_prop" x="103" y="38">
   <properties>
    <property name="prop_name" value="tet_kelp"/>
   </properties>
  </object>
  <object id="114" template="../../../templates/meta/obj_trellis_point_prop.tx" name="tet_bug" type="obj_trellis_point_prop" x="133" y="38">
   <properties>
    <property name="prop_name" value="tet_bug"/>
   </properties>
  </object>
 </objectgroup>
 <objectgroup draworder="index" id="23" name="TrellisPoints_Celine_8h">
  <object id="115" template="../../../templates/meta/obj_trellis_point_default.tx" name="c8h_ari_entrance" type="obj_trellis_point_default" x="140" y="359"/>
  <object id="116" template="../../../templates/meta/obj_trellis_point_default.tx" name="c8h_ari_start" type="obj_trellis_point_default" x="140" y="307"/>
  <object id="117" template="../../../templates/meta/obj_trellis_point_default.tx" name="c8h_ari_forward" type="obj_trellis_point_default" x="184" y="289"/>
  <object id="118" template="../../../templates/meta/obj_trellis_point_default.tx" name="c8h_celine_start" type="obj_trellis_point_default" x="224" y="289"/>
  <object id="119" template="../../../templates/meta/obj_trellis_point_default.tx" name="c8h_celine_entrance" type="obj_trellis_point_default" x="224" y="271"/>
  <object id="120" template="../../../templates/meta/obj_trellis_point_default.tx" name="c8h_ari_pot" type="obj_trellis_point_default" x="104" y="193"/>
  <object id="121" template="../../../templates/meta/obj_trellis_point_default.tx" name="c8h_celine_mid" type="obj_trellis_point_default" x="224" y="281"/>
  <object id="122" template="../../../templates/meta/obj_trellis_point_camera.tx" name="c8h_camera_1" type="obj_trellis_point_camera" x="140" y="367"/>
  <object id="123" template="../../../templates/meta/obj_trellis_point_camera.tx" name="c8h_camera_2" type="obj_trellis_point_camera" x="168" y="299"/>
  <object id="124" template="../../../templates/meta/obj_trellis_point_camera.tx" name="c8h_camera_3" type="obj_trellis_point_camera" x="204" y="277"/>
  <object id="125" template="../../../templates/meta/obj_trellis_point_camera.tx" name="c8h_camera_4" type="obj_trellis_point_camera" x="224" y="251"/>
  <object id="126" template="../../../templates/meta/obj_trellis_point_camera.tx" name="c8h_camera_5" type="obj_trellis_point_camera" x="224" y="299"/>
  <object id="127" template="../../../templates/meta/obj_trellis_point_camera.tx" name="c8h_camera_6" type="obj_trellis_point_camera" x="104" y="217"/>
  <object id="128" template="../../../templates/meta/obj_trellis_point_prop.tx" name="c8h_sandwiches" type="obj_trellis_point_prop" x="222" y="241">
   <properties>
    <property name="prop_name" value="c8h_sandwiches"/>
   </properties>
  </object>
  <object id="129" template="../../../templates/meta/obj_trellis_point_prop.tx" name="c8h_basket_open" type="obj_trellis_point_prop" x="240" y="267">
   <properties>
    <property name="prop_name" value="c8h_basket_vertical_open"/>
   </properties>
  </object>
  <object id="130" template="../../../templates/meta/obj_trellis_point_prop.tx" name="c8h_basket_closed" type="obj_trellis_point_prop" x="240" y="267">
   <properties>
    <property name="prop_name" value="c8h_basket_vertical_closed"/>
   </properties>
  </object>
  <object id="131" template="../../../templates/meta/obj_trellis_point_prop.tx" name="c8h_flower_pot" type="obj_trellis_point_prop" x="100" y="173">
   <properties>
    <property name="prop_name" value="c8h_flower_pot"/>
   </properties>
  </object>
 </objectgroup>
</map>
