<?xml version="1.0" encoding="UTF-8"?>
<map version="1.10" tiledversion="1.11.2" class="Dungeon" orientation="orthogonal" renderorder="right-down" width="140" height="108" tilewidth="8" tileheight="8" infinite="0" backgroundcolor="#3a003a" nextlayerid="7" nextobjectid="34">
 <tileset firstgid="1" source="../../../__gm_import.tsx"/>
 <tileset firstgid="1504" source="../../../tile_sets/Dungeon/Prototype/tile_dungeon_prototype.tsx"/>
 <tileset firstgid="1516" source="../../../tile_sets/Dungeon/Prototype/tile_main_dungeon_tile_chance.tsx"/>
 <layer id="1" name="Prototype" width="140" height="108">
  <properties>
   <property name="maybe_animation_id" value="c523b4ebab90977e"/>
   <property name="maybe_tileset_id" value="1f279aa214066309"/>
   <property name="tile_size" type="int" value="16"/>
  </properties>
  <data encoding="csv">
0,0,0,0,0,0,0,0,0,0,0,0,0,0,0,0,0,0,0,0,0,0,1504,0,1504,0,1504,0,1504,0,1504,0,1504,0,1504,0,1504,0,1504,0,1504,0,1504,0,1504,0,1504,0,1504,0,1504,0,1504,0,1504,0,1504,0,1504,0,1504,0,1504,0,1504,0,1504,0,1504,0,1504,0,1504,0,1504,0,1504,0,1504,0,1504,0,1504,0,1504,0,1504,0,1504,0,1504,0,1504,0,1504,0,1504,0,1504,0,1504,0,1504,0,1504,0,1504,0,1504,0,1504,0,1504,0,1504,0,1504,0,1504,0,1504,0,1504,0,1504,0,0,0,0,0,0,0,0,0,0,0,0,0,0,0,
0,0,0,0,0,0,0,0,0,0,0,0,0,0,0,0,0,0,0,0,0,0,0,0,0,0,0,0,0,0,0,0,0,0,0,0,0,0,0,0,0,0,0,0,0,0,0,0,0,0,0,0,0,0,0,0,0,0,0,0,0,0,0,0,0,0,0,0,0,0,0,0,0,0,0,0,0,0,0,0,0,0,0,0,0,0,0,0,0,0,0,0,0,0,0,0,0,0,0,0,0,0,0,0,0,0,0,0,0,0,0,0,0,0,0,0,0,0,0,0,0,0,0,0,0,0,0,0,0,0,0,0,0,0,0,0,0,0,0,0,
0,0,0,0,0,0,0,0,0,0,0,0,0,0,0,0,0,0,0,0,0,0,1504,0,1504,0,1504,0,1504,0,1504,0,1504,0,1504,0,1504,0,1504,0,1504,0,1504,0,1504,0,1504,0,1504,0,1504,0,1504,0,1504,0,1504,0,1504,0,1504,0,1504,0,1504,0,1504,0,1504,0,1504,0,1504,0,1504,0,1504,0,1504,0,1504,0,1504,0,1504,0,1504,0,1504,0,1504,0,1504,0,1504,0,1504,0,1504,0,1504,0,1504,0,1504,0,1504,0,1504,0,1504,0,1504,0,1504,0,1504,0,1504,0,1504,0,1504,0,1504,0,0,0,0,0,0,0,0,0,0,0,0,0,0,0,
0,0,0,0,0,0,0,0,0,0,0,0,0,0,0,0,0,0,0,0,0,0,0,0,0,0,0,0,0,0,0,0,0,0,0,0,0,0,0,0,0,0,0,0,0,0,0,0,0,0,0,0,0,0,0,0,0,0,0,0,0,0,0,0,0,0,0,0,0,0,0,0,0,0,0,0,0,0,0,0,0,0,0,0,0,0,0,0,0,0,0,0,0,0,0,0,0,0,0,0,0,0,0,0,0,0,0,0,0,0,0,0,0,0,0,0,0,0,0,0,0,0,0,0,0,0,0,0,0,0,0,0,0,0,0,0,0,0,0,0,
0,0,0,0,1504,0,1504,0,1504,0,1504,0,1504,0,1504,0,1504,0,1504,0,1504,0,1504,0,1504,0,1504,0,1504,0,1504,0,1504,0,1504,0,1504,0,1504,0,1504,0,1504,0,1504,0,1504,0,1504,0,1504,0,1504,0,1504,0,1504,0,1504,0,1504,0,1504,0,1504,0,1504,0,1504,0,1504,0,1504,0,1504,0,1504,0,1504,0,1504,0,1504,0,1504,0,1504,0,1504,0,1504,0,1504,0,1504,0,1504,0,1504,0,1504,0,1504,0,1504,0,1504,0,1504,0,1504,0,1504,0,1504,0,1504,0,1504,0,1504,0,1504,0,1504,0,0,0,0,0,0,0,0,0,0,0,0,0,0,0,
0,0,0,0,0,0,0,0,0,0,0,0,0,0,0,0,0,0,0,0,0,0,0,0,0,0,0,0,0,0,0,0,0,0,0,0,0,0,0,0,0,0,0,0,0,0,0,0,0,0,0,0,0,0,0,0,0,0,0,0,0,0,0,0,0,0,0,0,0,0,0,0,0,0,0,0,0,0,0,0,0,0,0,0,0,0,0,0,0,0,0,0,0,0,0,0,0,0,0,0,0,0,0,0,0,0,0,0,0,0,0,0,0,0,0,0,0,0,0,0,0,0,0,0,0,0,0,0,0,0,0,0,0,0,0,0,0,0,0,0,
0,0,1504,0,1504,0,1504,0,1504,0,1504,0,1504,0,1504,0,1504,0,1504,0,1504,0,1504,0,1504,0,1504,0,1504,0,1504,0,1504,0,1504,0,1504,0,1504,0,1504,0,1504,0,1504,0,1504,0,1504,0,1504,0,1504,0,1504,0,1504,0,1504,0,1504,0,1504,0,1504,0,1504,0,1504,0,1504,0,1504,0,1504,0,1504,0,1504,0,1504,0,1504,0,1504,0,1504,0,1504,0,1504,0,1504,0,1504,0,1504,0,1504,0,1504,0,1504,0,1504,0,1504,0,1504,0,1504,0,1504,0,1504,0,1504,0,1504,0,1504,0,1504,0,1504,0,0,0,0,0,0,0,0,0,0,0,0,0,0,0,
0,0,0,0,0,0,0,0,0,0,0,0,0,0,0,0,0,0,0,0,0,0,0,0,0,0,0,0,0,0,0,0,0,0,0,0,0,0,0,0,0,0,0,0,0,0,0,0,0,0,0,0,0,0,0,0,0,0,0,0,0,0,0,0,0,0,0,0,0,0,0,0,0,0,0,0,0,0,0,0,0,0,0,0,0,0,0,0,0,0,0,0,0,0,0,0,0,0,0,0,0,0,0,0,0,0,0,0,0,0,0,0,0,0,0,0,0,0,0,0,0,0,0,0,0,0,0,0,0,0,0,0,0,0,0,0,0,0,0,0,
0,0,1504,0,1504,0,1504,0,1504,0,1504,0,1504,0,1504,0,1504,0,1504,0,1504,0,1504,0,1504,0,1504,0,1504,0,1504,0,1504,0,1504,0,1504,0,1504,0,1504,0,1504,0,1504,0,1504,0,1504,0,1504,0,1504,0,1504,0,1504,0,1504,0,1504,0,1504,0,1504,0,1504,0,1504,0,1504,0,1504,0,1504,0,1504,0,1504,0,1504,0,1504,0,1504,0,1504,0,1504,0,1504,0,1504,0,1504,0,1504,0,1504,0,1504,0,1504,0,1504,0,1504,0,1504,0,1504,0,1504,0,1504,0,1504,0,1504,0,1504,0,1504,0,1504,0,1504,0,1504,0,0,0,0,0,0,0,0,0,0,0,
0,0,0,0,0,0,0,0,0,0,0,0,0,0,0,0,0,0,0,0,0,0,0,0,0,0,0,0,0,0,0,0,0,0,0,0,0,0,0,0,0,0,0,0,0,0,0,0,0,0,0,0,0,0,0,0,0,0,0,0,0,0,0,0,0,0,0,0,0,0,0,0,0,0,0,0,0,0,0,0,0,0,0,0,0,0,0,0,0,0,0,0,0,0,0,0,0,0,0,0,0,0,0,0,0,0,0,0,0,0,0,0,0,0,0,0,0,0,0,0,0,0,0,0,0,0,0,0,0,0,0,0,0,0,0,0,0,0,0,0,
0,0,1504,0,1504,0,1504,0,1504,0,1504,0,1504,0,1504,0,1504,0,1504,0,1504,0,1504,0,1504,0,1504,0,1504,0,1504,0,1504,0,1504,0,1504,0,1504,0,1504,0,1504,0,1504,0,1506,0,1506,0,1506,0,1506,0,1506,0,1506,0,1506,0,1506,0,1506,0,1506,0,1506,0,1506,0,1506,0,1506,0,1506,0,1506,0,1506,0,1506,0,1506,0,1506,0,1506,0,1506,0,1506,0,1506,0,1506,0,1506,0,1506,0,1504,0,1504,0,1504,0,1504,0,1504,0,1504,0,1504,0,1504,0,1504,0,1504,0,1504,0,1504,0,1504,0,1504,0,1504,0,0,0,0,0,0,0,0,0,0,0,
0,0,0,0,0,0,0,0,0,0,0,0,0,0,0,0,0,0,0,0,0,0,0,0,0,0,0,0,0,0,0,0,0,0,0,0,0,0,0,0,0,0,0,0,0,0,0,0,0,0,0,0,0,0,0,0,0,0,0,0,0,0,0,0,0,0,0,0,0,0,0,0,0,0,0,0,0,0,0,0,0,0,0,0,0,0,0,0,0,0,0,0,0,0,0,0,0,0,0,0,0,0,0,0,0,0,0,0,0,0,0,0,0,0,0,0,0,0,0,0,0,0,0,0,0,0,0,0,0,0,0,0,0,0,0,0,0,0,0,0,
0,0,1504,0,1504,0,1504,0,1504,0,1504,0,1504,0,1504,0,1504,0,1504,0,1504,0,1504,0,1504,0,1504,0,1504,0,1504,0,1504,0,1504,0,1504,0,1504,0,1504,0,1504,0,1504,0,1506,0,1505,0,1505,0,1505,0,1505,0,1505,0,1505,0,1505,0,1507,0,1507,0,1507,0,1507,0,1507,0,1507,0,1507,0,1507,0,1507,0,1507,0,1505,0,1505,0,1505,0,1505,0,1505,0,1507,0,1505,0,1505,0,1506,0,1504,0,1504,0,1504,0,1504,0,1504,0,1504,0,1504,0,1504,0,1504,0,1504,0,1504,0,1504,0,1504,0,1504,0,1504,0,0,0,0,0,0,0,0,0,0,0,
0,0,0,0,0,0,0,0,0,0,0,0,0,0,0,0,0,0,0,0,0,0,0,0,0,0,0,0,0,0,0,0,0,0,0,0,0,0,0,0,0,0,0,0,0,0,0,0,0,0,0,0,0,0,0,0,0,0,0,0,0,0,0,0,0,0,0,0,0,0,0,0,0,0,0,0,0,0,0,0,0,0,0,0,0,0,0,0,0,0,0,0,0,0,0,0,0,0,0,0,0,0,0,0,0,0,0,0,0,0,0,0,0,0,0,0,0,0,0,0,0,0,0,0,0,0,0,0,0,0,0,0,0,0,0,0,0,0,0,0,
0,0,1504,0,1504,0,1504,0,1504,0,1504,0,1504,0,1504,0,1504,0,1504,0,1504,0,1504,0,1504,0,1504,0,1504,0,1504,0,1504,0,1504,0,1504,0,1504,0,1504,0,1504,0,1504,0,1506,0,1505,0,1505,0,1507,0,1507,0,1507,0,1507,0,1507,0,1507,0,1505,0,1505,0,1505,0,1505,0,1505,0,1505,0,1505,0,1505,0,1507,0,1507,0,1507,0,1507,0,1507,0,1507,0,1507,0,1505,0,1505,0,1506,0,1504,0,1504,0,1504,0,1504,0,1504,0,1504,0,1504,0,1504,0,1504,0,1504,0,1504,0,1504,0,1504,0,1504,0,1504,0,0,0,0,0,0,0,0,0,0,0,
0,0,0,0,0,0,0,0,0,0,0,0,0,0,0,0,0,0,0,0,0,0,0,0,0,0,0,0,0,0,0,0,0,0,0,0,0,0,0,0,0,0,0,0,0,0,0,0,0,0,0,0,0,0,0,0,0,0,0,0,0,0,0,0,0,0,0,0,0,0,0,0,0,0,0,0,0,0,0,0,0,0,0,0,0,0,0,0,0,0,0,0,0,0,0,0,0,0,0,0,0,0,0,0,0,0,0,0,0,0,0,0,0,0,0,0,0,0,0,0,0,0,0,0,0,0,0,0,0,0,0,0,0,0,0,0,0,0,0,0,
0,0,1504,0,1504,0,1504,0,1504,0,1504,0,1504,0,1504,0,1504,0,1504,0,1504,0,1504,0,1504,0,1504,0,1504,0,1504,0,1504,0,1504,0,1504,0,1504,0,1504,0,1504,0,1504,0,1506,0,1505,0,1507,0,1507,0,1507,0,1507,0,1505,0,1507,0,1507,0,1505,0,1505,0,1505,0,1505,0,1505,0,1505,0,1507,0,1507,0,1507,0,1507,0,1507,0,1505,0,1505,0,1505,0,1505,0,1505,0,1505,0,1506,0,1504,0,1504,0,1504,0,1504,0,1504,0,1504,0,1504,0,1504,0,1504,0,1504,0,1504,0,1504,0,1504,0,1504,0,1504,0,0,0,0,0,0,0,0,0,0,0,
0,0,0,0,0,0,0,0,0,0,0,0,0,0,0,0,0,0,0,0,0,0,0,0,0,0,0,0,0,0,0,0,0,0,0,0,0,0,0,0,0,0,0,0,0,0,0,0,0,0,0,0,0,0,0,0,0,0,0,0,0,0,0,0,0,0,0,0,0,0,0,0,0,0,0,0,0,0,0,0,0,0,0,0,0,0,0,0,0,0,0,0,0,0,0,0,0,0,0,0,0,0,0,0,0,0,0,0,0,0,0,0,0,0,0,0,0,0,0,0,0,0,0,0,0,0,0,0,0,0,0,0,0,0,0,0,0,0,0,0,
0,0,1504,0,1504,0,1504,0,1504,0,1504,0,1504,0,1504,0,1504,0,1504,0,1504,0,1504,0,1504,0,1504,0,1504,0,1504,0,1504,0,1504,0,1504,0,1504,0,1504,0,1504,0,1504,0,1506,0,1505,0,1507,0,1505,0,1507,0,1505,0,1505,0,1505,0,1507,0,1507,0,1507,0,1507,0,1507,0,1507,0,1507,0,1505,0,1505,0,1505,0,1505,0,1507,0,1505,0,1505,0,1505,0,1505,0,1505,0,1505,0,1506,0,1504,0,1504,0,1504,0,1504,0,1504,0,1504,0,1504,0,1504,0,1504,0,1504,0,1504,0,1504,0,1504,0,1504,0,1504,0,0,0,0,0,0,0,0,0,0,0,
0,0,0,0,0,0,0,0,0,0,0,0,0,0,0,0,0,0,0,0,0,0,0,0,0,0,0,0,0,0,0,0,0,0,0,0,0,0,0,0,0,0,0,0,0,0,0,0,0,0,0,0,0,0,0,0,0,0,0,0,0,0,0,0,0,0,0,0,0,0,0,0,0,0,0,0,0,0,0,0,0,0,0,0,0,0,0,0,0,0,0,0,0,0,0,0,0,0,0,0,0,0,0,0,0,0,0,0,0,0,0,0,0,0,0,0,0,0,0,0,0,0,0,0,0,0,0,0,0,0,0,0,0,0,0,0,0,0,0,0,
0,0,1504,0,1504,0,1504,0,1504,0,1504,0,1504,0,1504,0,1504,0,1504,0,1504,0,1504,0,1504,0,1504,0,1504,0,1504,0,1504,0,1504,0,1504,0,1504,0,1504,0,1504,0,1504,0,1506,0,1505,0,1507,0,1507,0,1507,0,1505,0,1505,0,1505,0,1505,0,1505,0,1505,0,1505,0,1505,0,1505,0,1505,0,1505,0,1505,0,1505,0,1505,0,1507,0,1507,0,1505,0,1505,0,1507,0,1507,0,1505,0,1506,0,1504,0,1504,0,1504,0,1504,0,1504,0,1504,0,1504,0,1504,0,1504,0,1504,0,1504,0,1504,0,1504,0,1504,0,1504,0,0,0,0,0,0,0,0,0,0,0,
0,0,0,0,0,0,0,0,0,0,0,0,0,0,0,0,0,0,0,0,0,0,0,0,0,0,0,0,0,0,0,0,0,0,0,0,0,0,0,0,0,0,0,0,0,0,0,0,0,0,0,0,0,0,0,0,0,0,0,0,0,0,0,0,0,0,0,0,0,0,0,0,0,0,0,0,0,0,0,0,0,0,0,0,0,0,0,0,0,0,0,0,0,0,0,0,0,0,0,0,0,0,0,0,0,0,0,0,0,0,0,0,0,0,0,0,0,0,0,0,0,0,0,0,0,0,0,0,0,0,0,0,0,0,0,0,0,0,0,0,
0,0,1504,0,1504,0,1504,0,1504,0,1504,0,1504,0,1504,0,1504,0,1504,0,1504,0,1504,0,1504,0,1504,0,1504,0,1504,0,1504,0,1504,0,1504,0,1504,0,1504,0,1504,0,1504,0,1506,0,1505,0,1505,0,1507,0,1507,0,1505,0,1505,0,1505,0,1505,0,1505,0,1505,0,1505,0,1505,0,1505,0,1505,0,1505,0,1505,0,1505,0,1505,0,1505,0,1507,0,1505,0,1505,0,1507,0,1507,0,1505,0,1506,0,1504,0,1504,0,1504,0,1504,0,1504,0,1504,0,1504,0,1504,0,1504,0,1504,0,1504,0,1504,0,1504,0,1504,0,1504,0,0,0,0,0,0,0,0,0,0,0,
0,0,0,0,0,0,0,0,0,0,0,0,0,0,0,0,0,0,0,0,0,0,0,0,0,0,0,0,0,0,0,0,0,0,0,0,0,0,0,0,0,0,0,0,0,0,0,0,0,0,0,0,0,0,0,0,0,0,0,0,0,0,0,0,0,0,0,0,0,0,0,0,0,0,0,0,0,0,0,0,0,0,0,0,0,0,0,0,0,0,0,0,0,0,0,0,0,0,0,0,0,0,0,0,0,0,0,0,0,0,0,0,0,0,0,0,0,0,0,0,0,0,0,0,0,0,0,0,0,0,0,0,0,0,0,0,0,0,0,0,
0,0,1504,0,1504,0,1504,0,1504,0,1504,0,1504,0,1504,0,1504,0,1504,0,1504,0,1504,0,1504,0,1504,0,1504,0,1504,0,1504,0,1504,0,1504,0,1504,0,1504,0,1504,0,1504,0,1506,0,1505,0,1505,0,1505,0,1507,0,1505,0,1505,0,1505,0,1505,0,1505,0,1505,0,1505,0,1505,0,1505,0,1505,0,1505,0,1505,0,1505,0,1507,0,1505,0,1507,0,1507,0,1507,0,1505,0,1507,0,1505,0,1506,0,1504,0,1504,0,1504,0,1504,0,1504,0,1504,0,1504,0,1504,0,1504,0,1504,0,1504,0,1504,0,1504,0,1504,0,1504,0,0,0,0,0,0,0,0,0,0,0,
0,0,0,0,0,0,0,0,0,0,0,0,0,0,0,0,0,0,0,0,0,0,0,0,0,0,0,0,0,0,0,0,0,0,0,0,0,0,0,0,0,0,0,0,0,0,0,0,0,0,0,0,0,0,0,0,0,0,0,0,0,0,0,0,0,0,0,0,0,0,0,0,0,0,0,0,0,0,0,0,0,0,0,0,0,0,0,0,0,0,0,0,0,0,0,0,0,0,0,0,0,0,0,0,0,0,0,0,0,0,0,0,0,0,0,0,0,0,0,0,0,0,0,0,0,0,0,0,0,0,0,0,0,0,0,0,0,0,0,0,
0,0,1504,0,1504,0,1504,0,1504,0,1504,0,1504,0,1504,0,1504,0,1504,0,1504,0,1504,0,1504,0,1504,0,1504,0,1504,0,1504,0,1504,0,1504,0,1504,0,1504,0,1504,0,1504,0,1506,0,1505,0,1505,0,1505,0,1507,0,1505,0,1505,0,1510,0,1510,0,1510,0,1510,0,1510,0,1510,0,1510,0,1510,0,1510,0,1510,0,1505,0,1507,0,1505,0,1505,0,1505,0,1505,0,1505,0,1507,0,1505,0,1506,0,1504,0,1504,0,1504,0,1504,0,1504,0,1504,0,1504,0,1504,0,1504,0,1504,0,1504,0,1504,0,1504,0,1504,0,1504,0,0,0,0,0,0,0,0,0,0,0,
0,0,0,0,0,0,0,0,0,0,0,0,0,0,0,0,0,0,0,0,0,0,0,0,0,0,0,0,0,0,0,0,0,0,0,0,0,0,0,0,0,0,0,0,0,0,0,0,0,0,0,0,0,0,0,0,0,0,0,0,0,0,0,0,0,0,0,0,0,0,0,0,0,0,0,0,0,0,0,0,0,0,0,0,0,0,0,0,0,0,0,0,0,0,0,0,0,0,0,0,0,0,0,0,0,0,0,0,0,0,0,0,0,0,0,0,0,0,0,0,0,0,0,0,0,0,0,0,0,0,0,0,0,0,0,0,0,0,0,0,
0,0,1504,0,1504,0,1504,0,1504,0,1504,0,1504,0,1504,0,1504,0,1504,0,1504,0,1504,0,1504,0,1504,0,1504,0,1504,0,1504,0,1504,0,1504,0,1504,0,1504,0,1504,0,1504,0,1506,0,1505,0,1505,0,1507,0,1507,0,1505,0,1505,0,1510,0,1510,0,1510,0,1510,0,1510,0,1510,0,1510,0,1510,0,1510,0,1510,0,1505,0,1507,0,1505,0,1505,0,1505,0,1505,0,1505,0,1507,0,1505,0,1506,0,1504,0,1504,0,1504,0,1504,0,1504,0,1504,0,1504,0,1504,0,1504,0,1504,0,1504,0,1504,0,1504,0,1504,0,1504,0,0,0,0,0,0,0,0,0,0,0,
0,0,0,0,0,0,0,0,0,0,0,0,0,0,0,0,0,0,0,0,0,0,0,0,0,0,0,0,0,0,0,0,0,0,0,0,0,0,0,0,0,0,0,0,0,0,0,0,0,0,0,0,0,0,0,0,0,0,0,0,0,0,0,0,0,0,0,0,0,0,0,0,0,0,0,0,0,0,0,0,0,0,0,0,0,0,0,0,0,0,0,0,0,0,0,0,0,0,0,0,0,0,0,0,0,0,0,0,0,0,0,0,0,0,0,0,0,0,0,0,0,0,0,0,0,0,0,0,0,0,0,0,0,0,0,0,0,0,0,0,
0,0,1504,0,1504,0,1504,0,1504,0,1504,0,1504,0,1504,0,1504,0,1504,0,1504,0,1504,0,1504,0,1504,0,1504,0,1504,0,1504,0,1504,0,1504,0,1504,0,1504,0,1504,0,1504,0,1506,0,1507,0,1507,0,1507,0,1505,0,1505,0,1505,0,1510,0,1510,0,1510,0,1510,0,1510,0,1510,0,1510,0,1510,0,1510,0,1510,0,1505,0,1507,0,1505,0,1505,0,1505,0,1505,0,1507,0,1507,0,1505,0,1506,0,1504,0,1504,0,1504,0,1504,0,1504,0,1504,0,1504,0,1504,0,1504,0,1504,0,1504,0,1504,0,1504,0,1504,0,1504,0,0,0,0,0,0,0,0,0,0,0,
0,0,0,0,0,0,0,0,0,0,0,0,0,0,0,0,0,0,0,0,0,0,0,0,0,0,0,0,0,0,0,0,0,0,0,0,0,0,0,0,0,0,0,0,0,0,0,0,0,0,0,0,0,0,0,0,0,0,0,0,0,0,0,0,0,0,0,0,0,0,0,0,0,0,0,0,0,0,0,0,0,0,0,0,0,0,0,0,0,0,0,0,0,0,0,0,0,0,0,0,0,0,0,0,0,0,0,0,0,0,0,0,0,0,0,0,0,0,0,0,0,0,0,0,0,0,0,0,0,0,0,0,0,0,0,0,0,0,0,0,
0,0,1504,0,1504,0,1504,0,1504,0,1504,0,1504,0,1504,0,1504,0,1504,0,1504,0,1504,0,1504,0,1504,0,1504,0,1504,0,1504,0,1504,0,1504,0,1504,0,1504,0,1504,0,1504,0,1506,0,1505,0,1507,0,1507,0,1505,0,1505,0,1505,0,1510,0,1510,0,1510,0,1510,0,1510,0,1510,0,1510,0,1510,0,1510,0,1510,0,1505,0,1505,0,1507,0,1505,0,1505,0,1505,0,1507,0,1505,0,1505,0,1506,0,1504,0,1504,0,1504,0,1504,0,1504,0,1504,0,1504,0,1504,0,1504,0,1504,0,1504,0,1504,0,1504,0,1504,0,1504,0,0,0,0,0,0,0,0,0,0,0,
0,0,0,0,0,0,0,0,0,0,0,0,0,0,0,0,0,0,0,0,0,0,0,0,0,0,0,0,0,0,0,0,0,0,0,0,0,0,0,0,0,0,0,0,0,0,0,0,0,0,0,0,0,0,0,0,0,0,0,0,0,0,0,0,0,0,0,0,0,0,0,0,0,0,0,0,0,0,0,0,0,0,0,0,0,0,0,0,0,0,0,0,0,0,0,0,0,0,0,0,0,0,0,0,0,0,0,0,0,0,0,0,0,0,0,0,0,0,0,0,0,0,0,0,0,0,0,0,0,0,0,0,0,0,0,0,0,0,0,0,
0,0,1504,0,1504,0,1504,0,1504,0,1504,0,1504,0,1504,0,1504,0,1504,0,1504,0,1504,0,1504,0,1504,0,1504,0,1504,0,1504,0,1504,0,1504,0,1504,0,1504,0,1504,0,1504,0,1506,0,1505,0,1507,0,1505,0,1505,0,1505,0,1505,0,1510,0,1510,0,1510,0,1510,0,1510,0,1510,0,1510,0,1510,0,1510,0,1510,0,1505,0,1505,0,1505,0,1507,0,1507,0,1507,0,1507,0,1505,0,1505,0,1506,0,1504,0,1504,0,1504,0,1504,0,1504,0,1504,0,1504,0,1504,0,1504,0,1504,0,1504,0,1504,0,1504,0,1504,0,1504,0,0,0,0,0,0,0,0,0,0,0,
0,0,0,0,0,0,0,0,0,0,0,0,0,0,0,0,0,0,0,0,0,0,0,0,0,0,0,0,0,0,0,0,0,0,0,0,0,0,0,0,0,0,0,0,0,0,0,0,0,0,0,0,0,0,0,0,0,0,0,0,0,0,0,0,0,0,0,0,0,0,0,0,0,0,0,0,0,0,0,0,0,0,0,0,0,0,0,0,0,0,0,0,0,0,0,0,0,0,0,0,0,0,0,0,0,0,0,0,0,0,0,0,0,0,0,0,0,0,0,0,0,0,0,0,0,0,0,0,0,0,0,0,0,0,0,0,0,0,0,0,
0,0,1504,0,1504,0,1504,0,1504,0,1504,0,1504,0,1504,0,1504,0,1504,0,1504,0,1504,0,1504,0,1504,0,1504,0,1504,0,1504,0,1504,0,1504,0,1504,0,1504,0,1504,0,1504,0,1506,0,1505,0,1507,0,1507,0,1505,0,1505,0,1505,0,1510,0,1510,0,1510,0,1510,0,1510,0,1510,0,1510,0,1510,0,1510,0,1510,0,1505,0,1505,0,1505,0,1507,0,1507,0,1507,0,1505,0,1505,0,1505,0,1506,0,1504,0,1504,0,1504,0,1504,0,1504,0,1504,0,1504,0,1504,0,1504,0,1504,0,1504,0,1504,0,1504,0,1504,0,1504,0,0,0,0,0,0,0,0,0,0,0,
0,0,0,0,0,0,0,0,0,0,0,0,0,0,0,0,0,0,0,0,0,0,0,0,0,0,0,0,0,0,0,0,0,0,0,0,0,0,0,0,0,0,0,0,0,0,0,0,0,0,0,0,0,0,0,0,0,0,0,0,0,0,0,0,0,0,0,0,0,0,0,0,0,0,0,0,0,0,0,0,0,0,0,0,0,0,0,0,0,0,0,0,0,0,0,0,0,0,0,0,0,0,0,0,0,0,0,0,0,0,0,0,0,0,0,0,0,0,0,0,0,0,0,0,0,0,0,0,0,0,0,0,0,0,0,0,0,0,0,0,
0,0,1504,0,1504,0,1504,0,1504,0,1504,0,1504,0,1504,0,1504,0,1504,0,1504,0,1504,0,1504,0,1504,0,1504,0,1504,0,1504,0,1504,0,1504,0,1504,0,1504,0,1504,0,1504,0,1506,0,1505,0,1505,0,1505,0,1507,0,1505,0,1505,0,1510,0,1510,0,1510,0,1510,0,1510,0,1510,0,1510,0,1510,0,1510,0,1510,0,1505,0,1505,0,1505,0,1507,0,1505,0,1505,0,1507,0,1505,0,1505,0,1506,0,1504,0,1504,0,1504,0,1504,0,1504,0,1504,0,1504,0,1504,0,1504,0,1504,0,1504,0,1504,0,1504,0,1504,0,1504,0,0,0,0,0,0,0,0,0,0,0,
0,0,0,0,0,0,0,0,0,0,0,0,0,0,0,0,0,0,0,0,0,0,0,0,0,0,0,0,0,0,0,0,0,0,0,0,0,0,0,0,0,0,0,0,0,0,0,0,0,0,0,0,0,0,0,0,0,0,0,0,0,0,0,0,0,0,0,0,0,0,0,0,0,0,0,0,0,0,0,0,0,0,0,0,0,0,0,0,0,0,0,0,0,0,0,0,0,0,0,0,0,0,0,0,0,0,0,0,0,0,0,0,0,0,0,0,0,0,0,0,0,0,0,0,0,0,0,0,0,0,0,0,0,0,0,0,0,0,0,0,
0,0,1504,0,1504,0,1504,0,1504,0,1504,0,1504,0,1504,0,1504,0,1504,0,1504,0,1504,0,1504,0,1504,0,1504,0,1504,0,1504,0,1504,0,1504,0,1504,0,1504,0,1504,0,1504,0,1506,0,1505,0,1505,0,1505,0,1507,0,1505,0,1505,0,1510,0,1510,0,1510,0,1510,0,1510,0,1510,0,1510,0,1510,0,1510,0,1510,0,1505,0,1505,0,1505,0,1507,0,1507,0,1505,0,1507,0,1507,0,1505,0,1506,0,1504,0,1504,0,1504,0,1504,0,1504,0,1504,0,1504,0,1504,0,1504,0,1504,0,1504,0,1504,0,1504,0,1504,0,1504,0,0,0,0,0,0,0,0,0,0,0,
0,0,0,0,0,0,0,0,0,0,0,0,0,0,0,0,0,0,0,0,0,0,0,0,0,0,0,0,0,0,0,0,0,0,0,0,0,0,0,0,0,0,0,0,0,0,0,0,0,0,0,0,0,0,0,0,0,0,0,0,0,0,0,0,0,0,0,0,0,0,0,0,0,0,0,0,0,0,0,0,0,0,0,0,0,0,0,0,0,0,0,0,0,0,0,0,0,0,0,0,0,0,0,0,0,0,0,0,0,0,0,0,0,0,0,0,0,0,0,0,0,0,0,0,0,0,0,0,0,0,0,0,0,0,0,0,0,0,0,0,
0,0,1504,0,1504,0,1504,0,1504,0,1504,0,1504,0,1504,0,1504,0,1504,0,1504,0,1504,0,1504,0,1504,0,1504,0,1504,0,1504,0,1504,0,1504,0,1504,0,1504,0,1504,0,1504,0,1506,0,1505,0,1505,0,1507,0,1505,0,1505,0,1505,0,1510,0,1510,0,1510,0,1510,0,1510,0,1510,0,1510,0,1510,0,1510,0,1510,0,1505,0,1505,0,1505,0,1505,0,1507,0,1507,0,1507,0,1507,0,1505,0,1506,0,1504,0,1504,0,1504,0,1504,0,1504,0,1504,0,1504,0,1504,0,1504,0,1504,0,1504,0,1504,0,1504,0,1504,0,1504,0,0,0,0,0,0,0,0,0,0,0,
0,0,0,0,0,0,0,0,0,0,0,0,0,0,0,0,0,0,0,0,0,0,0,0,0,0,0,0,0,0,0,0,0,0,0,0,0,0,0,0,0,0,0,0,0,0,0,0,0,0,0,0,0,0,0,0,0,0,0,0,0,0,0,0,0,0,0,0,0,0,0,0,0,0,0,0,0,0,0,0,0,0,0,0,0,0,0,0,0,0,0,0,0,0,0,0,0,0,0,0,0,0,0,0,0,0,0,0,0,0,0,0,0,0,0,0,0,0,0,0,0,0,0,0,0,0,0,0,0,0,0,0,0,0,0,0,0,0,0,0,
0,0,1504,0,1504,0,1504,0,1504,0,1504,0,1504,0,1504,0,1504,0,1504,0,1504,0,1504,0,1504,0,1504,0,1504,0,1504,0,1504,0,1504,0,1504,0,1504,0,1504,0,1504,0,1504,0,1506,0,1505,0,1505,0,1505,0,1505,0,1505,0,1505,0,1510,0,1510,0,1510,0,1510,0,1510,0,1510,0,1510,0,1510,0,1510,0,1510,0,1505,0,1505,0,1505,0,1505,0,1505,0,1505,0,1505,0,1505,0,1505,0,1506,0,1504,0,1504,0,1504,0,1504,0,1504,0,1504,0,1504,0,1504,0,1504,0,1504,0,1504,0,1504,0,1504,0,1504,0,1504,0,0,0,0,0,0,0,0,0,0,0,
0,0,0,0,0,0,0,0,0,0,0,0,0,0,0,0,0,0,0,0,0,0,0,0,0,0,0,0,0,0,0,0,0,0,0,0,0,0,0,0,0,0,0,0,0,0,0,0,0,0,0,0,0,0,0,0,0,0,0,0,0,0,0,0,0,0,0,0,0,0,0,0,0,0,0,0,0,0,0,0,0,0,0,0,0,0,0,0,0,0,0,0,0,0,0,0,0,0,0,0,0,0,0,0,0,0,0,0,0,0,0,0,0,0,0,0,0,0,0,0,0,0,0,0,0,0,0,0,0,0,0,0,0,0,0,0,0,0,0,0,
0,0,1504,0,1504,0,1504,0,1504,0,1504,0,1504,0,1504,0,1504,0,1504,0,1504,0,1504,0,1504,0,1504,0,1504,0,1504,0,1504,0,1504,0,1504,0,1504,0,1504,0,1504,0,1504,0,1506,0,1506,0,1506,0,1505,0,1505,0,1505,0,1505,0,1510,0,1510,0,1510,0,1510,0,1510,0,1510,0,1510,0,1510,0,1510,0,1510,0,1505,0,1505,0,1505,0,1505,0,1505,0,1505,0,1505,0,1505,0,1505,0,1506,0,1504,0,1504,0,1504,0,1504,0,1504,0,1504,0,1504,0,1504,0,1504,0,1504,0,1504,0,1504,0,1504,0,1504,0,1504,0,1504,0,0,0,0,0,0,0,0,0,
0,0,0,0,0,0,0,0,0,0,0,0,0,0,0,0,0,0,0,0,0,0,0,0,0,0,0,0,0,0,0,0,0,0,0,0,0,0,0,0,0,0,0,0,0,0,0,0,0,0,0,0,0,0,0,0,0,0,0,0,0,0,0,0,0,0,0,0,0,0,0,0,0,0,0,0,0,0,0,0,0,0,0,0,0,0,0,0,0,0,0,0,0,0,0,0,0,0,0,0,0,0,0,0,0,0,0,0,0,0,0,0,0,0,0,0,0,0,0,0,0,0,0,0,0,0,0,0,0,0,0,0,0,0,0,0,0,0,0,0,
0,0,1504,0,1504,0,1504,0,1504,0,1504,0,1504,0,1504,0,1504,0,1504,0,1504,0,1504,0,1504,0,1504,0,1504,0,1504,0,1504,0,1504,0,1504,0,1504,0,1504,0,1504,0,1504,0,1504,0,1504,0,1506,0,1506,0,1506,0,1506,0,1506,0,1506,0,1510,0,1510,0,1510,0,1510,0,1510,0,1510,0,1510,0,1510,0,1510,0,1505,0,1505,0,1505,0,1505,0,1505,0,1506,0,1506,0,1506,0,1506,0,1506,0,1504,0,1504,0,1504,0,1504,0,1504,0,1504,0,1504,0,1504,0,1504,0,1504,0,1504,0,1504,0,1504,0,1504,0,1504,0,1504,0,0,0,0,0,0,0,0,0,
0,0,0,0,0,0,0,0,0,0,0,0,0,0,0,0,0,0,0,0,0,0,0,0,0,0,0,0,0,0,0,0,0,0,0,0,0,0,0,0,0,0,0,0,0,0,0,0,0,0,0,0,0,0,0,0,0,0,0,0,0,0,0,0,0,0,0,0,0,0,0,0,0,0,0,0,0,0,0,0,0,0,0,0,0,0,0,0,0,0,0,0,0,0,0,0,0,0,0,0,0,0,0,0,0,0,0,0,0,0,0,0,0,0,0,0,0,0,0,0,0,0,0,0,0,0,0,0,0,0,0,0,0,0,0,0,0,0,0,0,
0,0,1504,0,1504,0,1504,0,1504,0,1504,0,1504,0,1504,0,1504,0,1504,0,1504,0,1504,0,1504,0,1504,0,1504,0,1504,0,1504,0,1504,0,1504,0,1504,0,1504,0,1504,0,1504,0,1504,0,1504,0,1504,0,1504,0,1504,0,1504,0,1504,0,1506,0,1506,0,1506,0,1510,0,1510,0,1510,0,1506,0,1506,0,1506,0,1506,0,1506,0,1506,0,1506,0,1506,0,1506,0,1506,0,1504,0,1504,0,1504,0,1504,0,1504,0,1504,0,1504,0,1504,0,1504,0,1504,0,1504,0,1504,0,1504,0,1504,0,1504,0,1504,0,1504,0,1504,0,1504,0,1504,0,0,0,0,0,0,0,0,0,
0,0,0,0,0,0,0,0,0,0,0,0,0,0,0,0,0,0,0,0,0,0,0,0,0,0,0,0,0,0,0,0,0,0,0,0,0,0,0,0,0,0,0,0,0,0,0,0,0,0,0,0,0,0,0,0,0,0,0,0,0,0,0,0,0,0,0,0,0,0,0,0,0,0,0,0,0,0,0,0,0,0,0,0,0,0,0,0,0,0,0,0,0,0,0,0,0,0,0,0,0,0,0,0,0,0,0,0,0,0,0,0,0,0,0,0,0,0,0,0,0,0,0,0,0,0,0,0,0,0,0,0,0,0,0,0,0,0,0,0,
0,0,1504,0,1504,0,1504,0,1504,0,1504,0,1504,0,1504,0,1504,0,1504,0,1504,0,1504,0,1504,0,1504,0,1504,0,1504,0,1504,0,1504,0,1504,0,1504,0,1504,0,1504,0,1504,0,1504,0,1504,0,1504,0,1504,0,1504,0,1504,0,1504,0,1504,0,1504,0,1506,0,1510,0,1510,0,1510,0,1506,0,1504,0,1504,0,1504,0,1504,0,1504,0,1504,0,1504,0,1504,0,1504,0,1504,0,1504,0,1504,0,1504,0,1504,0,1504,0,1504,0,1504,0,1504,0,1504,0,1504,0,1504,0,1504,0,1504,0,1504,0,1504,0,1504,0,1504,0,1504,0,1504,0,0,0,0,0,0,0,0,0,
0,0,0,0,0,0,0,0,0,0,0,0,0,0,0,0,0,0,0,0,0,0,0,0,0,0,0,0,0,0,0,0,0,0,0,0,0,0,0,0,0,0,0,0,0,0,0,0,0,0,0,0,0,0,0,0,0,0,0,0,0,0,0,0,0,0,0,0,0,0,0,0,0,0,0,0,0,0,0,0,0,0,0,0,0,0,0,0,0,0,0,0,0,0,0,0,0,0,0,0,0,0,0,0,0,0,0,0,0,0,0,0,0,0,0,0,0,0,0,0,0,0,0,0,0,0,0,0,0,0,0,0,0,0,0,0,0,0,0,0,
0,0,1504,0,1504,0,1504,0,1504,0,1504,0,1504,0,1504,0,1504,0,1504,0,1504,0,1504,0,1504,0,1504,0,1504,0,1504,0,1504,0,1504,0,1504,0,1504,0,1504,0,1504,0,1504,0,1504,0,1504,0,1504,0,1504,0,1504,0,1504,0,1504,0,1504,0,1504,0,1506,0,1510,0,1510,0,1510,0,1506,0,1504,0,1504,0,1504,0,1504,0,1504,0,1504,0,1504,0,1504,0,1504,0,1504,0,1504,0,1504,0,1504,0,1504,0,1504,0,1504,0,1504,0,1504,0,1504,0,1504,0,1504,0,1504,0,1504,0,1504,0,1504,0,1504,0,1504,0,1504,0,1504,0,0,0,0,0,0,0,0,0,
0,0,0,0,0,0,0,0,0,0,0,0,0,0,0,0,0,0,0,0,0,0,0,0,0,0,0,0,0,0,0,0,0,0,0,0,0,0,0,0,0,0,0,0,0,0,0,0,0,0,0,0,0,0,0,0,0,0,0,0,0,0,0,0,0,0,0,0,0,0,0,0,0,0,0,0,0,0,0,0,0,0,0,0,0,0,0,0,0,0,0,0,0,0,0,0,0,0,0,0,0,0,0,0,0,0,0,0,0,0,0,0,0,0,0,0,0,0,0,0,0,0,0,0,0,0,0,0,0,0,0,0,0,0,0,0,0,0,0,0,
0,0,1504,0,1504,0,1504,0,1504,0,1504,0,1504,0,1504,0,1504,0,1504,0,1504,0,1504,0,1504,0,1504,0,1504,0,1504,0,1504,0,1504,0,1504,0,1504,0,1504,0,1504,0,1504,0,1504,0,1504,0,1504,0,1504,0,1504,0,1504,0,1504,0,1504,0,1504,0,1506,0,1510,0,1510,0,1510,0,1506,0,1504,0,1504,0,1504,0,1504,0,1504,0,1504,0,1504,0,1504,0,1504,0,1504,0,1504,0,1504,0,1504,0,1504,0,1504,0,1504,0,1504,0,1504,0,1504,0,1504,0,1504,0,1504,0,1504,0,1504,0,1504,0,1504,0,1504,0,1504,0,1504,0,0,0,0,0,0,0,0,0,
0,0,0,0,0,0,0,0,0,0,0,0,0,0,0,0,0,0,0,0,0,0,0,0,0,0,0,0,0,0,0,0,0,0,0,0,0,0,0,0,0,0,0,0,0,0,0,0,0,0,0,0,0,0,0,0,0,0,0,0,0,0,0,0,0,0,0,0,0,0,0,0,0,0,0,0,0,0,0,0,0,0,0,0,0,0,0,0,0,0,0,0,0,0,0,0,0,0,0,0,0,0,0,0,0,0,0,0,0,0,0,0,0,0,0,0,0,0,0,0,0,0,0,0,0,0,0,0,0,0,0,0,0,0,0,0,0,0,0,0,
0,0,1504,0,1504,0,1504,0,1504,0,1504,0,1504,0,1504,0,1504,0,1504,0,1504,0,1504,0,1504,0,1504,0,1504,0,1504,0,1504,0,1504,0,1504,0,1504,0,1504,0,1504,0,1504,0,1504,0,1504,0,1504,0,1504,0,1504,0,1504,0,1504,0,1504,0,1506,0,1506,0,1510,0,1510,0,1510,0,1506,0,1506,0,1504,0,1504,0,1504,0,1504,0,1504,0,1504,0,1504,0,1504,0,1504,0,1504,0,1504,0,1504,0,1504,0,1504,0,1504,0,1504,0,1504,0,1504,0,1504,0,1504,0,1504,0,1504,0,1504,0,1504,0,1504,0,1504,0,1504,0,1504,0,0,0,0,0,0,0,0,0,
0,0,0,0,0,0,0,0,0,0,0,0,0,0,0,0,0,0,0,0,0,0,0,0,0,0,0,0,0,0,0,0,0,0,0,0,0,0,0,0,0,0,0,0,0,0,0,0,0,0,0,0,0,0,0,0,0,0,0,0,0,0,0,0,0,0,0,0,0,0,0,0,0,0,0,0,0,0,0,0,0,0,0,0,0,0,0,0,0,0,0,0,0,0,0,0,0,0,0,0,0,0,0,0,0,0,0,0,0,0,0,0,0,0,0,0,0,0,0,0,0,0,0,0,0,0,0,0,0,0,0,0,0,0,0,0,0,0,0,0,
0,0,1504,0,1504,0,1504,0,1504,0,1504,0,1504,0,1504,0,1504,0,1504,0,1504,0,1504,0,1504,0,1504,0,1504,0,1504,0,1504,0,1504,0,1504,0,1504,0,1504,0,1504,0,1504,0,1504,0,1504,0,1504,0,1504,0,1504,0,1504,0,1504,0,1504,0,1506,0,1510,0,1510,0,1510,0,1510,0,1510,0,1506,0,1506,0,1504,0,1504,0,1504,0,1504,0,1504,0,1504,0,1504,0,1504,0,1504,0,1504,0,1504,0,1504,0,1504,0,1504,0,1504,0,1504,0,1504,0,1504,0,1504,0,1504,0,1504,0,1504,0,1504,0,1504,0,1504,0,1504,0,1504,0,0,0,0,0,0,0,0,0,
0,0,0,0,0,0,0,0,0,0,0,0,0,0,0,0,0,0,0,0,0,0,0,0,0,0,0,0,0,0,0,0,0,0,0,0,0,0,0,0,0,0,0,0,0,0,0,0,0,0,0,0,0,0,0,0,0,0,0,0,0,0,0,0,0,0,0,0,0,0,0,0,0,0,0,0,0,0,0,0,0,0,0,0,0,0,0,0,0,0,0,0,0,0,0,0,0,0,0,0,0,0,0,0,0,0,0,0,0,0,0,0,0,0,0,0,0,0,0,0,0,0,0,0,0,0,0,0,0,0,0,0,0,0,0,0,0,0,0,0,
0,0,1504,0,1504,0,1504,0,1504,0,1504,0,1504,0,1504,0,1504,0,1504,0,1504,0,1504,0,1504,0,1504,0,1504,0,1504,0,1504,0,1504,0,1504,0,1504,0,1504,0,1504,0,1504,0,1504,0,1504,0,1504,0,1504,0,1504,0,1504,0,1504,0,1506,0,1506,0,1510,0,1510,0,1510,0,1510,0,1510,0,1510,0,1506,0,1506,0,1506,0,1504,0,1504,0,1504,0,1504,0,1504,0,1504,0,1504,0,1504,0,1504,0,1504,0,1504,0,1504,0,1504,0,1504,0,1504,0,1504,0,1504,0,1504,0,1504,0,1504,0,1504,0,1504,0,1504,0,1504,0,1504,0,0,0,0,0,0,0,0,0,
0,0,0,0,0,0,0,0,0,0,0,0,0,0,0,0,0,0,0,0,0,0,0,0,0,0,0,0,0,0,0,0,0,0,0,0,0,0,0,0,0,0,0,0,0,0,0,0,0,0,0,0,0,0,0,0,0,0,0,0,0,0,0,0,0,0,0,0,0,0,0,0,0,0,0,0,0,0,0,0,0,0,0,0,0,0,0,0,0,0,0,0,0,0,0,0,0,0,0,0,0,0,0,0,0,0,0,0,0,0,0,0,0,0,0,0,0,0,0,0,0,0,0,0,0,0,0,0,0,0,0,0,0,0,0,0,0,0,0,0,
0,0,1504,0,1504,0,1504,0,1504,0,1504,0,1504,0,1504,0,1504,0,1504,0,1504,0,1504,0,1504,0,1504,0,1504,0,1504,0,1504,0,1504,0,1504,0,1504,0,1504,0,1504,0,1504,0,1506,0,1506,0,1506,0,1506,0,1506,0,1506,0,1506,0,1506,0,1510,0,1510,0,1510,0,1510,0,1510,0,1510,0,1510,0,1510,0,1510,0,1506,0,1506,0,1506,0,1506,0,1506,0,1506,0,1506,0,1504,0,1504,0,1504,0,1504,0,1504,0,1504,0,1504,0,1504,0,1504,0,1504,0,1504,0,1504,0,1504,0,1504,0,1504,0,1504,0,1504,0,1504,0,1504,0,0,0,0,0,0,0,0,0,
0,0,0,0,0,0,0,0,0,0,0,0,0,0,0,0,0,0,0,0,0,0,0,0,0,0,0,0,0,0,0,0,0,0,0,0,0,0,0,0,0,0,0,0,0,0,0,0,0,0,0,0,0,0,0,0,0,0,0,0,0,0,0,0,0,0,0,0,0,0,0,0,0,0,0,0,0,0,0,0,0,0,0,0,0,0,0,0,0,0,0,0,0,0,0,0,0,0,0,0,0,0,0,0,0,0,0,0,0,0,0,0,0,0,0,0,0,0,0,0,0,0,0,0,0,0,0,0,0,0,0,0,0,0,0,0,0,0,0,0,
0,0,1504,0,1504,0,1504,0,1504,0,1504,0,1504,0,1504,0,1504,0,1504,0,1504,0,1504,0,1504,0,1504,0,1504,0,1504,0,1504,0,1504,0,1504,0,1504,0,1504,0,1504,0,1504,0,1506,0,1505,0,1505,0,1505,0,1505,0,1505,0,1505,0,1510,0,1510,0,1510,0,1510,0,1510,0,1510,0,1510,0,1510,0,1510,0,1510,0,1505,0,1505,0,1505,0,1505,0,1505,0,1505,0,1506,0,1504,0,1504,0,1504,0,1504,0,1504,0,1504,0,1504,0,1504,0,1504,0,1504,0,1504,0,1504,0,1504,0,1504,0,1504,0,1504,0,1504,0,1504,0,1504,0,0,0,0,0,0,0,0,0,
0,0,0,0,0,0,0,0,0,0,0,0,0,0,0,0,0,0,0,0,0,0,0,0,0,0,0,0,0,0,0,0,0,0,0,0,0,0,0,0,0,0,0,0,0,0,0,0,0,0,0,0,0,0,0,0,0,0,0,0,0,0,0,0,0,0,0,0,0,0,0,0,0,0,0,0,0,0,0,0,0,0,0,0,0,0,0,0,0,0,0,0,0,0,0,0,0,0,0,0,0,0,0,0,0,0,0,0,0,0,0,0,0,0,0,0,0,0,0,0,0,0,0,0,0,0,0,0,0,0,0,0,0,0,0,0,0,0,0,0,
0,0,1504,0,1504,0,1504,0,1504,0,1504,0,1504,0,1504,0,1504,0,1504,0,1504,0,1504,0,1504,0,1504,0,1504,0,1504,0,1504,0,1504,0,1504,0,1504,0,1504,0,1504,0,1504,0,1506,0,1505,0,1508,0,1508,0,1508,0,1505,0,1505,0,1510,0,1510,0,1510,0,1510,0,1510,0,1510,0,1510,0,1510,0,1510,0,1510,0,1505,0,1505,0,1508,0,1508,0,1508,0,1505,0,1506,0,1504,0,1504,0,1504,0,1504,0,1504,0,1504,0,1504,0,1504,0,1504,0,1504,0,1504,0,1504,0,1504,0,1504,0,1504,0,1504,0,1504,0,1504,0,1504,0,0,0,0,0,0,0,0,0,
0,0,0,0,0,0,0,0,0,0,0,0,0,0,0,0,0,0,0,0,0,0,0,0,0,0,0,0,0,0,0,0,0,0,0,0,0,0,0,0,0,0,0,0,0,0,0,0,0,0,0,0,0,0,0,0,0,0,0,0,0,0,0,0,0,0,0,0,0,0,0,0,0,0,0,0,0,0,0,0,0,0,0,0,0,0,0,0,0,0,0,0,0,0,0,0,0,0,0,0,0,0,0,0,0,0,0,0,0,0,0,0,0,0,0,0,0,0,0,0,0,0,0,0,0,0,0,0,0,0,0,0,0,0,0,0,0,0,0,0,
0,0,1504,0,1504,0,1504,0,1504,0,1504,0,1504,0,1504,0,1504,0,1504,0,1504,0,1504,0,1504,0,1504,0,1504,0,1504,0,1504,0,1504,0,1504,0,1504,0,1504,0,1504,0,1504,0,1506,0,1505,0,1508,0,1508,0,1508,0,1505,0,1505,0,1510,0,1510,0,1510,0,1510,0,1510,0,1510,0,1510,0,1510,0,1510,0,1510,0,1505,0,1505,0,1508,0,1508,0,1508,0,1505,0,1506,0,1504,0,1504,0,1504,0,1504,0,1504,0,1504,0,1504,0,1504,0,1504,0,1504,0,1504,0,1504,0,1504,0,1504,0,1504,0,1504,0,1504,0,1504,0,1504,0,0,0,0,0,0,0,0,0,
0,0,0,0,0,0,0,0,0,0,0,0,0,0,0,0,0,0,0,0,0,0,0,0,0,0,0,0,0,0,0,0,0,0,0,0,0,0,0,0,0,0,0,0,0,0,0,0,0,0,0,0,0,0,0,0,0,0,0,0,0,0,0,0,0,0,0,0,0,0,0,0,0,0,0,0,0,0,0,0,0,0,0,0,0,0,0,0,0,0,0,0,0,0,0,0,0,0,0,0,0,0,0,0,0,0,0,0,0,0,0,0,0,0,0,0,0,0,0,0,0,0,0,0,0,0,0,0,0,0,0,0,0,0,0,0,0,0,0,0,
0,0,1504,0,1504,0,1504,0,1504,0,1504,0,1504,0,1504,0,1504,0,1504,0,1504,0,1504,0,1504,0,1504,0,1504,0,1504,0,1504,0,1504,0,1504,0,1504,0,1504,0,1504,0,1504,0,1506,0,1505,0,1508,0,1508,0,1508,0,1505,0,1505,0,1510,0,1510,0,1510,0,1510,0,1510,0,1510,0,1510,0,1510,0,1510,0,1510,0,1505,0,1505,0,1508,0,1508,0,1508,0,1505,0,1506,0,1504,0,1504,0,1504,0,1504,0,1504,0,1504,0,1504,0,1504,0,1504,0,1504,0,1504,0,1504,0,1504,0,1504,0,1504,0,1504,0,1504,0,1504,0,1504,0,1504,0,0,0,0,0,0,0,
0,0,0,0,0,0,0,0,0,0,0,0,0,0,0,0,0,0,0,0,0,0,0,0,0,0,0,0,0,0,0,0,0,0,0,0,0,0,0,0,0,0,0,0,0,0,0,0,0,0,0,0,0,0,0,0,0,0,0,0,0,0,0,0,0,0,0,0,0,0,0,0,0,0,0,0,0,0,0,0,0,0,0,0,0,0,0,0,0,0,0,0,0,0,0,0,0,0,0,0,0,0,0,0,0,0,0,0,0,0,0,0,0,0,0,0,0,0,0,0,0,0,0,0,0,0,0,0,0,0,0,0,0,0,0,0,0,0,0,0,
0,0,1504,0,1504,0,1504,0,1504,0,1504,0,1504,0,1504,0,1504,0,1504,0,1504,0,1504,0,1504,0,1504,0,1504,0,1504,0,1504,0,1504,0,1504,0,1504,0,1504,0,1504,0,1504,0,1506,0,1505,0,1505,0,1505,0,1505,0,1505,0,1505,0,1510,0,1510,0,1510,0,1510,0,1510,0,1510,0,1510,0,1510,0,1510,0,1510,0,1505,0,1505,0,1505,0,1505,0,1505,0,1505,0,1506,0,1504,0,1504,0,1504,0,1504,0,1504,0,1504,0,1504,0,1504,0,1504,0,1504,0,1504,0,1504,0,1504,0,1504,0,1504,0,1504,0,1504,0,1504,0,1504,0,1504,0,0,0,0,0,0,0,
0,0,0,0,0,0,0,0,0,0,0,0,0,0,0,0,0,0,0,0,0,0,0,0,0,0,0,0,0,0,0,0,0,0,0,0,0,0,0,0,0,0,0,0,0,0,0,0,0,0,0,0,0,0,0,0,0,0,0,0,0,0,0,0,0,0,0,0,0,0,0,0,0,0,0,0,0,0,0,0,0,0,0,0,0,0,0,0,0,0,0,0,0,0,0,0,0,0,0,0,0,0,0,0,0,0,0,0,0,0,0,0,0,0,0,0,0,0,0,0,0,0,0,0,0,0,0,0,0,0,0,0,0,0,0,0,0,0,0,0,
0,0,1504,0,1504,0,1504,0,1504,0,1504,0,1504,0,1504,0,1504,0,1504,0,1504,0,1504,0,1504,0,1504,0,1504,0,1504,0,1504,0,1504,0,1504,0,1504,0,1504,0,1504,0,1504,0,1506,0,1505,0,1505,0,1505,0,1505,0,1505,0,1505,0,1510,0,1510,0,1510,0,1510,0,1510,0,1510,0,1510,0,1510,0,1510,0,1510,0,1505,0,1505,0,1505,0,1505,0,1505,0,1505,0,1506,0,1504,0,1504,0,1504,0,1504,0,1504,0,1504,0,1504,0,1504,0,1504,0,1504,0,1504,0,1504,0,1504,0,1504,0,1504,0,1504,0,1504,0,1504,0,1504,0,1504,0,0,0,0,0,0,0,
0,0,0,0,0,0,0,0,0,0,0,0,0,0,0,0,0,0,0,0,0,0,0,0,0,0,0,0,0,0,0,0,0,0,0,0,0,0,0,0,0,0,0,0,0,0,0,0,0,0,0,0,0,0,0,0,0,0,0,0,0,0,0,0,0,0,0,0,0,0,0,0,0,0,0,0,0,0,0,0,0,0,0,0,0,0,0,0,0,0,0,0,0,0,0,0,0,0,0,0,0,0,0,0,0,0,0,0,0,0,0,0,0,0,0,0,0,0,0,0,0,0,0,0,0,0,0,0,0,0,0,0,0,0,0,0,0,0,0,0,
0,0,1504,0,1504,0,1504,0,1504,0,1504,0,1504,0,1504,0,1504,0,1504,0,1504,0,1504,0,1504,0,1504,0,1504,0,1504,0,1504,0,1504,0,1504,0,1504,0,1504,0,1504,0,1504,0,1506,0,1505,0,1505,0,1505,0,1505,0,1505,0,1505,0,1510,0,1510,0,1510,0,1510,0,1510,0,1510,0,1510,0,1510,0,1510,0,1510,0,1505,0,1505,0,1505,0,1505,0,1505,0,1505,0,1506,0,1504,0,1504,0,1504,0,1504,0,1504,0,1504,0,1504,0,1504,0,1504,0,1504,0,1504,0,1504,0,1504,0,1504,0,1504,0,1504,0,1504,0,1504,0,1504,0,1504,0,0,0,0,0,0,0,
0,0,0,0,0,0,0,0,0,0,0,0,0,0,0,0,0,0,0,0,0,0,0,0,0,0,0,0,0,0,0,0,0,0,0,0,0,0,0,0,0,0,0,0,0,0,0,0,0,0,0,0,0,0,0,0,0,0,0,0,0,0,0,0,0,0,0,0,0,0,0,0,0,0,0,0,0,0,0,0,0,0,0,0,0,0,0,0,0,0,0,0,0,0,0,0,0,0,0,0,0,0,0,0,0,0,0,0,0,0,0,0,0,0,0,0,0,0,0,0,0,0,0,0,0,0,0,0,0,0,0,0,0,0,0,0,0,0,0,0,
0,0,1504,0,1504,0,1504,0,1504,0,1504,0,1504,0,1504,0,1504,0,1504,0,1504,0,1504,0,1504,0,1504,0,1504,0,1504,0,1504,0,1504,0,1504,0,1504,0,1504,0,1504,0,1504,0,1506,0,1505,0,1508,0,1508,0,1508,0,1505,0,1505,0,1505,0,1505,0,1505,0,1505,0,1505,0,1505,0,1505,0,1505,0,1505,0,1505,0,1505,0,1505,0,1508,0,1508,0,1508,0,1505,0,1506,0,1504,0,1504,0,1504,0,1504,0,1504,0,1504,0,1504,0,1504,0,1504,0,1504,0,1504,0,1504,0,1504,0,1504,0,1504,0,1504,0,1504,0,1504,0,1504,0,1504,0,0,0,0,0,0,0,
0,0,0,0,0,0,0,0,0,0,0,0,0,0,0,0,0,0,0,0,0,0,0,0,0,0,0,0,0,0,0,0,0,0,0,0,0,0,0,0,0,0,0,0,0,0,0,0,0,0,0,0,0,0,0,0,0,0,0,0,0,0,0,0,0,0,0,0,0,0,0,0,0,0,0,0,0,0,0,0,0,0,0,0,0,0,0,0,0,0,0,0,0,0,0,0,0,0,0,0,0,0,0,0,0,0,0,0,0,0,0,0,0,0,0,0,0,0,0,0,0,0,0,0,0,0,0,0,0,0,0,0,0,0,0,0,0,0,0,0,
0,0,1504,0,1504,0,1504,0,1504,0,1504,0,1504,0,1504,0,1504,0,1504,0,1504,0,1504,0,1504,0,1504,0,1504,0,1504,0,1504,0,1504,0,1504,0,1504,0,1504,0,1504,0,1504,0,1506,0,1505,0,1508,0,1508,0,1508,0,1505,0,1505,0,1505,0,1505,0,1508,0,1508,0,1508,0,1508,0,1508,0,1508,0,1505,0,1505,0,1505,0,1505,0,1508,0,1508,0,1508,0,1505,0,1506,0,1504,0,1504,0,1504,0,1504,0,1504,0,1504,0,1504,0,1504,0,1504,0,1504,0,1504,0,1504,0,1504,0,1504,0,1504,0,1504,0,1504,0,1504,0,1504,0,1504,0,0,0,0,0,0,0,
0,0,0,0,0,0,0,0,0,0,0,0,0,0,0,0,0,0,0,0,0,0,0,0,0,0,0,0,0,0,0,0,0,0,0,0,0,0,0,0,0,0,0,0,0,0,0,0,0,0,0,0,0,0,0,0,0,0,0,0,0,0,0,0,0,0,0,0,0,0,0,0,0,0,0,0,0,0,0,0,0,0,0,0,0,0,0,0,0,0,0,0,0,0,0,0,0,0,0,0,0,0,0,0,0,0,0,0,0,0,0,0,0,0,0,0,0,0,0,0,0,0,0,0,0,0,0,0,0,0,0,0,0,0,0,0,0,0,0,0,
0,0,1504,0,1504,0,1504,0,1504,0,1504,0,1504,0,1504,0,1504,0,1504,0,1504,0,1504,0,1504,0,1504,0,1504,0,1504,0,1504,0,1504,0,1504,0,1504,0,1504,0,1504,0,1504,0,1506,0,1505,0,1508,0,1508,0,1508,0,1505,0,1505,0,1505,0,1505,0,1508,0,1508,0,1508,0,1508,0,1508,0,1508,0,1505,0,1505,0,1505,0,1505,0,1508,0,1508,0,1508,0,1505,0,1506,0,1504,0,1504,0,1504,0,1504,0,1504,0,1504,0,1504,0,1504,0,1504,0,1504,0,0,0,0,0,0,0,0,0,0,0,0,0,0,0,0,0,0,0,0,0,0,0,0,0,0,0,
0,0,0,0,0,0,0,0,0,0,0,0,0,0,0,0,0,0,0,0,0,0,0,0,0,0,0,0,0,0,0,0,0,0,0,0,0,0,0,0,0,0,0,0,0,0,0,0,0,0,0,0,0,0,0,0,0,0,0,0,0,0,0,0,0,0,0,0,0,0,0,0,0,0,0,0,0,0,0,0,0,0,0,0,0,0,0,0,0,0,0,0,0,0,0,0,0,0,0,0,0,0,0,0,0,0,0,0,0,0,0,0,0,0,0,0,0,0,0,0,0,0,0,0,0,0,0,0,0,0,0,0,0,0,0,0,0,0,0,0,
0,0,1504,0,1504,0,1504,0,1504,0,1504,0,1504,0,1504,0,1504,0,1504,0,1504,0,1504,0,1504,0,1504,0,1504,0,1504,0,1504,0,1504,0,1504,0,1504,0,1504,0,1504,0,1504,0,1506,0,1505,0,1508,0,1508,0,1508,0,1505,0,1505,0,1505,0,1505,0,1508,0,1508,0,1508,0,1508,0,1508,0,1508,0,1505,0,1505,0,1505,0,1505,0,1508,0,1508,0,1508,0,1505,0,1506,0,1504,0,1504,0,1504,0,1504,0,1504,0,1504,0,1504,0,1504,0,1504,0,1504,0,0,0,0,0,0,0,0,0,0,0,0,0,0,0,0,0,0,0,0,0,0,0,0,0,0,0,
0,0,0,0,0,0,0,0,0,0,0,0,0,0,0,0,0,0,0,0,0,0,0,0,0,0,0,0,0,0,0,0,0,0,0,0,0,0,0,0,0,0,0,0,0,0,0,0,0,0,0,0,0,0,0,0,0,0,0,0,0,0,0,0,0,0,0,0,0,0,0,0,0,0,0,0,0,0,0,0,0,0,0,0,0,0,0,0,0,0,0,0,0,0,0,0,0,0,0,0,0,0,0,0,0,0,0,0,0,0,0,0,0,0,0,0,0,0,0,0,0,0,0,0,0,0,0,0,0,0,0,0,0,0,0,0,0,0,0,0,
0,0,0,0,1504,0,1504,0,1504,0,1504,0,1504,0,1504,0,1504,0,1504,0,1504,0,1504,0,1504,0,1504,0,1504,0,1504,0,1504,0,1504,0,1504,0,1504,0,1504,0,1504,0,1504,0,1506,0,1505,0,1505,0,1505,0,1505,0,1505,0,1505,0,1505,0,1505,0,1505,0,1505,0,1505,0,1505,0,1505,0,1505,0,1505,0,1505,0,1505,0,1505,0,1505,0,1505,0,1505,0,1505,0,1506,0,1504,0,1504,0,1504,0,1504,0,1504,0,1504,0,1504,0,1504,0,1504,0,1504,0,0,0,0,0,0,0,0,0,0,0,0,0,0,0,0,0,0,0,0,0,0,0,0,0,0,0,
0,0,0,0,0,0,0,0,0,0,0,0,0,0,0,0,0,0,0,0,0,0,0,0,0,0,0,0,0,0,0,0,0,0,0,0,0,0,0,0,0,0,0,0,0,0,0,0,0,0,0,0,0,0,0,0,0,0,0,0,0,0,0,0,0,0,0,0,0,0,0,0,0,0,0,0,0,0,0,0,0,0,0,0,0,0,0,0,0,0,0,0,0,0,0,0,0,0,0,0,0,0,0,0,0,0,0,0,0,0,0,0,0,0,0,0,0,0,0,0,0,0,0,0,0,0,0,0,0,0,0,0,0,0,0,0,0,0,0,0,
0,0,0,0,1504,0,1504,0,1504,0,1504,0,1504,0,1504,0,1504,0,1504,0,1504,0,1504,0,1504,0,1504,0,1504,0,1504,0,1504,0,1504,0,1504,0,1504,0,1504,0,1504,0,1504,0,1506,0,1506,0,1506,0,1506,0,1506,0,1506,0,1506,0,1506,0,1506,0,1506,0,1506,0,1506,0,1506,0,1506,0,1506,0,1506,0,1506,0,1506,0,1506,0,1506,0,1506,0,1506,0,1506,0,1506,0,1504,0,1504,0,1504,0,0,0,0,0,0,0,0,0,0,0,0,0,0,0,0,0,0,0,0,0,0,0,0,0,0,0,0,0,0,0,0,0,0,0,0,0,0,0,0,0,
0,0,0,0,0,0,0,0,0,0,0,0,0,0,0,0,0,0,0,0,0,0,0,0,0,0,0,0,0,0,0,0,0,0,0,0,0,0,0,0,0,0,0,0,0,0,0,0,0,0,0,0,0,0,0,0,0,0,0,0,0,0,0,0,0,0,0,0,0,0,0,0,0,0,0,0,0,0,0,0,0,0,0,0,0,0,0,0,0,0,0,0,0,0,0,0,0,0,0,0,0,0,0,0,0,0,0,0,0,0,0,0,0,0,0,0,0,0,0,0,0,0,0,0,0,0,0,0,0,0,0,0,0,0,0,0,0,0,0,0,
0,0,0,0,1504,0,1504,0,1504,0,1504,0,1504,0,1504,0,1504,0,1504,0,1504,0,1504,0,1504,0,1504,0,1504,0,1504,0,1504,0,1504,0,1504,0,1504,0,1504,0,1504,0,1504,0,1504,0,1504,0,1504,0,1504,0,1504,0,1504,0,1504,0,1504,0,1504,0,1504,0,1504,0,1504,0,1504,0,1504,0,1504,0,1504,0,0,0,0,0,0,0,0,0,0,0,0,0,0,0,0,0,0,0,0,0,0,0,0,0,0,0,0,0,0,0,0,0,0,0,0,0,0,0,0,0,0,0,0,0,0,0,0,0,0,0,0,0,0,0,0,0,0,0,0,0,0,0,
0,0,0,0,0,0,0,0,0,0,0,0,0,0,0,0,0,0,0,0,0,0,0,0,0,0,0,0,0,0,0,0,0,0,0,0,0,0,0,0,0,0,0,0,0,0,0,0,0,0,0,0,0,0,0,0,0,0,0,0,0,0,0,0,0,0,0,0,0,0,0,0,0,0,0,0,0,0,0,0,0,0,0,0,0,0,0,0,0,0,0,0,0,0,0,0,0,0,0,0,0,0,0,0,0,0,0,0,0,0,0,0,0,0,0,0,0,0,0,0,0,0,0,0,0,0,0,0,0,0,0,0,0,0,0,0,0,0,0,0,
0,0,0,0,0,0,0,0,0,0,0,0,0,0,0,0,0,0,0,0,0,0,0,0,0,0,0,0,0,0,0,0,0,0,0,0,0,0,0,0,0,0,0,0,0,0,0,0,0,0,0,0,0,0,0,0,0,0,0,0,0,0,0,0,0,0,0,0,0,0,0,0,0,0,0,0,0,0,0,0,0,0,0,0,0,0,0,0,0,0,0,0,0,0,0,0,0,0,0,0,0,0,0,0,0,0,0,0,0,0,0,0,0,0,0,0,0,0,0,0,0,0,0,0,0,0,0,0,0,0,0,0,0,0,0,0,0,0,0,0,
0,0,0,0,0,0,0,0,0,0,0,0,0,0,0,0,0,0,0,0,0,0,0,0,0,0,0,0,0,0,0,0,0,0,0,0,0,0,0,0,0,0,0,0,0,0,0,0,0,0,0,0,0,0,0,0,0,0,0,0,0,0,0,0,0,0,0,0,0,0,0,0,0,0,0,0,0,0,0,0,0,0,0,0,0,0,0,0,0,0,0,0,0,0,0,0,0,0,0,0,0,0,0,0,0,0,0,0,0,0,0,0,0,0,0,0,0,0,0,0,0,0,0,0,0,0,0,0,0,0,0,0,0,0,0,0,0,0,0,0,
0,0,0,0,0,0,0,0,0,0,0,0,0,0,0,0,0,0,0,0,0,0,0,0,0,0,0,0,0,0,0,0,0,0,0,0,0,0,0,0,0,0,0,0,0,0,0,0,0,0,0,0,0,0,0,0,0,0,0,0,0,0,0,0,0,0,0,0,0,0,0,0,0,0,0,0,0,0,0,0,0,0,0,0,0,0,0,0,0,0,0,0,0,0,0,0,0,0,0,0,0,0,0,0,0,0,0,0,0,0,0,0,0,0,0,0,0,0,0,0,0,0,0,0,0,0,0,0,0,0,0,0,0,0,0,0,0,0,0,0,
0,0,0,0,0,0,0,0,0,0,0,0,0,0,0,0,0,0,0,0,0,0,0,0,0,0,0,0,0,0,0,0,0,0,0,0,0,0,0,0,0,0,0,0,0,0,0,0,0,0,0,0,0,0,0,0,0,0,0,0,0,0,0,0,0,0,0,0,0,0,0,0,0,0,0,0,0,0,0,0,0,0,0,0,0,0,0,0,0,0,0,0,0,0,0,0,0,0,0,0,0,0,0,0,0,0,0,0,0,0,0,0,0,0,0,0,0,0,0,0,0,0,0,0,0,0,0,0,0,0,0,0,0,0,0,0,0,0,0,0,
0,0,0,0,0,0,0,0,0,0,0,0,0,0,0,0,0,0,0,0,0,0,0,0,0,0,0,0,0,0,0,0,0,0,0,0,0,0,0,0,0,0,0,0,0,0,0,0,0,0,0,0,0,0,0,0,0,0,0,0,0,0,0,0,0,0,0,0,0,0,0,0,0,0,0,0,0,0,0,0,0,0,0,0,0,0,0,0,0,0,0,0,0,0,0,0,0,0,0,0,0,0,0,0,0,0,0,0,0,0,0,0,0,0,0,0,0,0,0,0,0,0,0,0,0,0,0,0,0,0,0,0,0,0,0,0,0,0,0,0,
0,0,0,0,0,0,0,0,0,0,0,0,0,0,0,0,0,0,0,0,0,0,0,0,0,0,0,0,0,0,0,0,0,0,0,0,0,0,0,0,0,0,0,0,0,0,0,0,0,0,0,0,0,0,0,0,0,0,0,0,0,0,0,0,0,0,0,0,0,0,0,0,0,0,0,0,0,0,0,0,0,0,0,0,0,0,0,0,0,0,0,0,0,0,0,0,0,0,0,0,0,0,0,0,0,0,0,0,0,0,0,0,0,0,0,0,0,0,0,0,0,0,0,0,0,0,0,0,0,0,0,0,0,0,0,0,0,0,0,0,
0,0,0,0,0,0,0,0,0,0,0,0,0,0,0,0,0,0,0,0,0,0,0,0,0,0,0,0,0,0,0,0,0,0,0,0,0,0,0,0,0,0,0,0,0,0,0,0,0,0,0,0,0,0,0,0,0,0,0,0,0,0,0,0,0,0,0,0,0,0,0,0,0,0,0,0,0,0,0,0,0,0,0,0,0,0,0,0,0,0,0,0,0,0,0,0,0,0,0,0,0,0,0,0,0,0,0,0,0,0,0,0,0,0,0,0,0,0,0,0,0,0,0,0,0,0,0,0,0,0,0,0,0,0,0,0,0,0,0,0,
0,0,0,0,0,0,0,0,0,0,0,0,0,0,0,0,0,0,0,0,0,0,0,0,0,0,0,0,0,0,0,0,0,0,0,0,0,0,0,0,0,0,0,0,0,0,0,0,0,0,0,0,0,0,0,0,0,0,0,0,0,0,0,0,0,0,0,0,0,0,0,0,0,0,0,0,0,0,0,0,0,0,0,0,0,0,0,0,0,0,0,0,0,0,0,0,0,0,0,0,0,0,0,0,0,0,0,0,0,0,0,0,0,0,0,0,0,0,0,0,0,0,0,0,0,0,0,0,0,0,0,0,0,0,0,0,0,0,0,0,
0,0,0,0,0,0,0,0,0,0,0,0,0,0,0,0,0,0,0,0,0,0,0,0,0,0,0,0,0,0,0,0,0,0,0,0,0,0,0,0,0,0,0,0,0,0,0,0,0,0,0,0,0,0,0,0,0,0,0,0,0,0,0,0,0,0,0,0,0,0,0,0,0,0,0,0,0,0,0,0,0,0,0,0,0,0,0,0,0,0,0,0,0,0,0,0,0,0,0,0,0,0,0,0,0,0,0,0,0,0,0,0,0,0,0,0,0,0,0,0,0,0,0,0,0,0,0,0,0,0,0,0,0,0,0,0,0,0,0,0,
0,0,0,0,0,0,0,0,0,0,0,0,0,0,0,0,0,0,0,0,0,0,0,0,0,0,0,0,0,0,0,0,0,0,0,0,0,0,0,0,0,0,0,0,0,0,0,0,0,0,0,0,0,0,0,0,0,0,0,0,0,0,0,0,0,0,0,0,0,0,0,0,0,0,0,0,0,0,0,0,0,0,0,0,0,0,0,0,0,0,0,0,0,0,0,0,0,0,0,0,0,0,0,0,0,0,0,0,0,0,0,0,0,0,0,0,0,0,0,0,0,0,0,0,0,0,0,0,0,0,0,0,0,0,0,0,0,0,0,0,
0,0,0,0,0,0,0,0,0,0,0,0,0,0,0,0,0,0,0,0,0,0,0,0,0,0,0,0,0,0,0,0,0,0,0,0,0,0,0,0,0,0,0,0,0,0,0,0,0,0,0,0,0,0,0,0,0,0,0,0,0,0,0,0,0,0,0,0,0,0,0,0,0,0,0,0,0,0,0,0,0,0,0,0,0,0,0,0,0,0,0,0,0,0,0,0,0,0,0,0,0,0,0,0,0,0,0,0,0,0,0,0,0,0,0,0,0,0,0,0,0,0,0,0,0,0,0,0,0,0,0,0,0,0,0,0,0,0,0,0,
0,0,0,0,0,0,0,0,0,0,0,0,0,0,0,0,0,0,0,0,0,0,0,0,0,0,0,0,0,0,0,0,0,0,0,0,0,0,0,0,0,0,0,0,0,0,0,0,0,0,0,0,0,0,0,0,0,0,0,0,0,0,0,0,0,0,0,0,0,0,0,0,0,0,0,0,0,0,0,0,0,0,0,0,0,0,0,0,0,0,0,0,0,0,0,0,0,0,0,0,0,0,0,0,0,0,0,0,0,0,0,0,0,0,0,0,0,0,0,0,0,0,0,0,0,0,0,0,0,0,0,0,0,0,0,0,0,0,0,0,
0,0,0,0,0,0,0,0,0,0,0,0,0,0,0,0,0,0,0,0,0,0,0,0,0,0,0,0,0,0,0,0,0,0,0,0,0,0,0,0,0,0,0,0,0,0,0,0,0,0,0,0,0,0,0,0,0,0,0,0,0,0,0,0,0,0,0,0,0,0,0,0,0,0,0,0,0,0,0,0,0,0,0,0,0,0,0,0,0,0,0,0,0,0,0,0,0,0,0,0,0,0,0,0,0,0,0,0,0,0,0,0,0,0,0,0,0,0,0,0,0,0,0,0,0,0,0,0,0,0,0,0,0,0,0,0,0,0,0,0,
0,0,0,0,0,0,0,0,0,0,0,0,0,0,0,0,0,0,0,0,0,0,0,0,0,0,0,0,0,0,0,0,0,0,0,0,0,0,0,0,0,0,0,0,0,0,0,0,0,0,0,0,0,0,0,0,0,0,0,0,0,0,0,0,0,0,0,0,0,0,0,0,0,0,0,0,0,0,0,0,0,0,0,0,0,0,0,0,0,0,0,0,0,0,0,0,0,0,0,0,0,0,0,0,0,0,0,0,0,0,0,0,0,0,0,0,0,0,0,0,0,0,0,0,0,0,0,0,0,0,0,0,0,0,0,0,0,0,0,0
</data>
 </layer>
 <layer id="2" name="Chance" width="140" height="108">
  <properties>
   <property name="maybe_animation_id" value="818f0d7683463c1"/>
   <property name="maybe_tileset_id" value="fce7bba5e540ce43"/>
   <property name="tile_size" type="int" value="16"/>
  </properties>
  <data encoding="csv">
1516,0,1516,0,1516,0,1516,0,1516,0,1516,0,1516,0,1516,0,1516,0,1516,0,1516,0,1516,0,1516,0,1516,0,1516,0,1516,0,1516,0,1516,0,1516,0,1516,0,1516,0,1516,0,1516,0,1516,0,1516,0,1516,0,1516,0,1516,0,1516,0,1516,0,1516,0,1516,0,1516,0,1516,0,1516,0,1516,0,1516,0,1516,0,1516,0,1516,0,1516,0,1516,0,1516,0,1516,0,1516,0,1516,0,1516,0,1516,0,1516,0,1516,0,1516,0,1516,0,1516,0,1516,0,1516,0,1516,0,1516,0,1516,0,1516,0,1516,0,1516,0,1516,0,1516,0,1516,0,1516,0,0,0,0,0,0,0,0,0,0,0,
0,0,0,0,0,0,0,0,0,0,0,0,0,0,0,0,0,0,0,0,0,0,0,0,0,0,0,0,0,0,0,0,0,0,0,0,0,0,0,0,0,0,0,0,0,0,0,0,0,0,0,0,0,0,0,0,0,0,0,0,0,0,0,0,0,0,0,0,0,0,0,0,0,0,0,0,0,0,0,0,0,0,0,0,0,0,0,0,0,0,0,0,0,0,0,0,0,0,0,0,0,0,0,0,0,0,0,0,0,0,0,0,0,0,0,0,0,0,0,0,0,0,0,0,0,0,0,0,0,0,0,0,0,0,0,0,0,0,0,0,
1516,0,1516,0,1516,0,1516,0,1516,0,1516,0,1516,0,1516,0,1516,0,1516,0,1516,0,1516,0,1516,0,1516,0,1516,0,1516,0,1516,0,1516,0,1516,0,1516,0,1516,0,1516,0,1516,0,1516,0,1516,0,1516,0,1516,0,1516,0,1516,0,1516,0,1516,0,1516,0,1516,0,1516,0,1516,0,1516,0,1516,0,1516,0,1516,0,1516,0,1516,0,1516,0,1516,0,1516,0,1516,0,1516,0,1516,0,1516,0,1516,0,1516,0,1516,0,1516,0,1516,0,1516,0,1516,0,1516,0,1516,0,1516,0,1516,0,1516,0,1516,0,1516,0,1516,0,1516,0,1516,0,0,0,0,0,0,0,0,0,0,0,
0,0,0,0,0,0,0,0,0,0,0,0,0,0,0,0,0,0,0,0,0,0,0,0,0,0,0,0,0,0,0,0,0,0,0,0,0,0,0,0,0,0,0,0,0,0,0,0,0,0,0,0,0,0,0,0,0,0,0,0,0,0,0,0,0,0,0,0,0,0,0,0,0,0,0,0,0,0,0,0,0,0,0,0,0,0,0,0,0,0,0,0,0,0,0,0,0,0,0,0,0,0,0,0,0,0,0,0,0,0,0,0,0,0,0,0,0,0,0,0,0,0,0,0,0,0,0,0,0,0,0,0,0,0,0,0,0,0,0,0,
1516,0,1516,0,1516,0,1516,0,1516,0,1516,0,1516,0,1516,0,1516,0,1516,0,1516,0,1516,0,1516,0,1516,0,1516,0,1516,0,1516,0,1516,0,1516,0,1516,0,1516,0,1516,0,1516,0,1516,0,1516,0,1516,0,1516,0,1516,0,1516,0,1516,0,1516,0,1516,0,1516,0,1516,0,1516,0,1516,0,1516,0,1516,0,1516,0,1516,0,1516,0,1516,0,1516,0,1516,0,1516,0,1516,0,1516,0,1516,0,1516,0,1516,0,1516,0,1516,0,1516,0,1516,0,1516,0,1516,0,1516,0,1516,0,1516,0,1516,0,1516,0,1516,0,1516,0,1516,0,1516,0,0,0,0,0,0,0,0,0,0,0,
0,0,0,0,0,0,0,0,0,0,0,0,0,0,0,0,0,0,0,0,0,0,0,0,0,0,0,0,0,0,0,0,0,0,0,0,0,0,0,0,0,0,0,0,0,0,0,0,0,0,0,0,0,0,0,0,0,0,0,0,0,0,0,0,0,0,0,0,0,0,0,0,0,0,0,0,0,0,0,0,0,0,0,0,0,0,0,0,0,0,0,0,0,0,0,0,0,0,0,0,0,0,0,0,0,0,0,0,0,0,0,0,0,0,0,0,0,0,0,0,0,0,0,0,0,0,0,0,0,0,0,0,0,0,0,0,0,0,0,0,
1516,0,1516,0,1516,0,1516,0,1516,0,1516,0,1516,0,1516,0,1516,0,1516,0,1516,0,1516,0,1516,0,1516,0,1516,0,1516,0,1516,0,1516,0,1516,0,1516,0,1516,0,1516,0,1516,0,1516,0,1516,0,1516,0,1516,0,1516,0,1516,0,1516,0,1516,0,1516,0,1516,0,1516,0,1516,0,1516,0,1516,0,1516,0,1516,0,1516,0,1516,0,1516,0,1516,0,1516,0,1516,0,1516,0,1516,0,1516,0,1516,0,1516,0,1516,0,1516,0,1516,0,1516,0,1516,0,1516,0,1516,0,1516,0,1516,0,1516,0,1516,0,1516,0,1516,0,1516,0,1516,0,0,0,0,0,0,0,0,0,0,0,
0,0,0,0,0,0,0,0,0,0,0,0,0,0,0,0,0,0,0,0,0,0,0,0,0,0,0,0,0,0,0,0,0,0,0,0,0,0,0,0,0,0,0,0,0,0,0,0,0,0,0,0,0,0,0,0,0,0,0,0,0,0,0,0,0,0,0,0,0,0,0,0,0,0,0,0,0,0,0,0,0,0,0,0,0,0,0,0,0,0,0,0,0,0,0,0,0,0,0,0,0,0,0,0,0,0,0,0,0,0,0,0,0,0,0,0,0,0,0,0,0,0,0,0,0,0,0,0,0,0,0,0,0,0,0,0,0,0,0,0,
1516,0,1516,0,1516,0,1516,0,1516,0,1516,0,1516,0,1516,0,1516,0,1516,0,1516,0,1516,0,1516,0,1516,0,1516,0,1516,0,1516,0,1516,0,1516,0,1516,0,1516,0,1516,0,1516,0,1516,0,1516,0,1516,0,1516,0,1516,0,1516,0,1516,0,1516,0,1516,0,1516,0,1516,0,1516,0,1516,0,1516,0,1516,0,1516,0,1516,0,1516,0,1516,0,1516,0,1516,0,1516,0,1516,0,1516,0,1516,0,1516,0,1516,0,1516,0,1516,0,1516,0,1516,0,1516,0,1516,0,1516,0,1516,0,1516,0,1516,0,1516,0,1516,0,1516,0,1516,0,1516,0,0,0,0,0,0,0,0,0,0,0,
0,0,0,0,0,0,0,0,0,0,0,0,0,0,0,0,0,0,0,0,0,0,0,0,0,0,0,0,0,0,0,0,0,0,0,0,0,0,0,0,0,0,0,0,0,0,0,0,0,0,0,0,0,0,0,0,0,0,0,0,0,0,0,0,0,0,0,0,0,0,0,0,0,0,0,0,0,0,0,0,0,0,0,0,0,0,0,0,0,0,0,0,0,0,0,0,0,0,0,0,0,0,0,0,0,0,0,0,0,0,0,0,0,0,0,0,0,0,0,0,0,0,0,0,0,0,0,0,0,0,0,0,0,0,0,0,0,0,0,0,
1516,0,1516,0,1516,0,1516,0,1516,0,1516,0,1516,0,1516,0,1516,0,1516,0,1516,0,1516,0,1516,0,1516,0,1516,0,1516,0,1516,0,1516,0,1516,0,1516,0,1516,0,1516,0,1516,0,1516,0,1516,0,1516,0,1516,0,1516,0,1516,0,1516,0,1516,0,1516,0,1516,0,1516,0,1516,0,1516,0,1516,0,1516,0,1516,0,1516,0,1516,0,1516,0,1516,0,1516,0,1516,0,1516,0,1516,0,1516,0,1516,0,1516,0,1516,0,1516,0,1516,0,1516,0,1516,0,1516,0,1516,0,1516,0,1516,0,1516,0,1516,0,1516,0,1516,0,1516,0,1516,0,0,0,0,0,0,0,0,0,0,0,
0,0,0,0,0,0,0,0,0,0,0,0,0,0,0,0,0,0,0,0,0,0,0,0,0,0,0,0,0,0,0,0,0,0,0,0,0,0,0,0,0,0,0,0,0,0,0,0,0,0,0,0,0,0,0,0,0,0,0,0,0,0,0,0,0,0,0,0,0,0,0,0,0,0,0,0,0,0,0,0,0,0,0,0,0,0,0,0,0,0,0,0,0,0,0,0,0,0,0,0,0,0,0,0,0,0,0,0,0,0,0,0,0,0,0,0,0,0,0,0,0,0,0,0,0,0,0,0,0,0,0,0,0,0,0,0,0,0,0,0,
1516,0,1516,0,1516,0,1516,0,1516,0,1516,0,1516,0,1516,0,1516,0,1516,0,1516,0,1516,0,1516,0,1516,0,1516,0,1516,0,1516,0,1516,0,1516,0,1516,0,1516,0,1516,0,1516,0,1516,0,1518,0,1518,0,1518,0,1518,0,1518,0,1533,0,1516,0,1516,0,1516,0,1518,0,1518,0,1518,0,1518,0,1518,0,1518,0,1518,0,1516,0,1516,0,1533,0,1516,0,1516,0,1518,0,1518,0,1518,0,1558,0,1516,0,1516,0,1516,0,1516,0,1516,0,1516,0,1516,0,1516,0,1516,0,1516,0,1516,0,1516,0,1516,0,1516,0,1516,0,1516,0,0,0,0,0,0,0,0,0,0,0,
0,0,0,0,0,0,0,0,0,0,0,0,0,0,0,0,0,0,0,0,0,0,0,0,0,0,0,0,0,0,0,0,0,0,0,0,0,0,0,0,0,0,0,0,0,0,0,0,0,0,0,0,0,0,0,0,0,0,0,0,0,0,0,0,0,0,0,0,0,0,0,0,0,0,0,0,0,0,0,0,0,0,0,0,0,0,0,0,0,0,0,0,0,0,0,0,0,0,0,0,0,0,0,0,0,0,0,0,0,0,0,0,0,0,0,0,0,0,0,0,0,0,0,0,0,0,0,0,0,0,0,0,0,0,0,0,0,0,0,0,
1516,0,1516,0,1516,0,1516,0,1516,0,1516,0,1516,0,1516,0,1516,0,1516,0,1516,0,1516,0,1516,0,1516,0,1516,0,1516,0,1516,0,1516,0,1516,0,1516,0,1516,0,1516,0,1516,0,1516,0,1518,0,1518,0,1518,0,1558,0,1558,0,1516,0,1516,0,1516,0,1516,0,1516,0,1518,0,1518,0,1518,0,1518,0,1518,0,1516,0,1516,0,1516,0,1516,0,1516,0,1516,0,1516,0,1518,0,1558,0,1518,0,1516,0,1516,0,1516,0,1516,0,1516,0,1516,0,1516,0,1516,0,1516,0,1516,0,1516,0,1516,0,1516,0,1516,0,1516,0,1516,0,0,0,0,0,0,0,0,0,0,0,
0,0,0,0,0,0,0,0,0,0,0,0,0,0,0,0,0,0,0,0,0,0,0,0,0,0,0,0,0,0,0,0,0,0,0,0,0,0,0,0,0,0,0,0,0,0,0,0,0,0,0,0,0,0,0,0,0,0,0,0,0,0,0,0,0,0,0,0,0,0,0,0,0,0,0,0,0,0,0,0,0,0,0,0,0,0,0,0,0,0,0,0,0,0,0,0,0,0,0,0,0,0,0,0,0,0,0,0,0,0,0,0,0,0,0,0,0,0,0,0,0,0,0,0,0,0,0,0,0,0,0,0,0,0,0,0,0,0,0,0,
1516,0,1516,0,1516,0,1516,0,1516,0,1516,0,1516,0,1516,0,1516,0,1516,0,1516,0,1516,0,1516,0,1516,0,1516,0,1516,0,1516,0,1516,0,1516,0,1516,0,1516,0,1516,0,1516,0,1516,0,1518,0,1518,0,1518,0,1558,0,1516,0,1516,0,1516,0,1516,0,1516,0,1516,0,1518,0,1518,0,1518,0,1516,0,1516,0,1516,0,1516,0,1516,0,1516,0,1516,0,1516,0,1516,0,1518,0,1518,0,1518,0,1516,0,1516,0,1516,0,1516,0,1516,0,1516,0,1516,0,1516,0,1516,0,1516,0,1516,0,1516,0,1516,0,1516,0,1516,0,1516,0,0,0,0,0,0,0,0,0,0,0,
0,0,0,0,0,0,0,0,0,0,0,0,0,0,0,0,0,0,0,0,0,0,0,0,0,0,0,0,0,0,0,0,0,0,0,0,0,0,0,0,0,0,0,0,0,0,0,0,0,0,0,0,0,0,0,0,0,0,0,0,0,0,0,0,0,0,0,0,0,0,0,0,0,0,0,0,0,0,0,0,0,0,0,0,0,0,0,0,0,0,0,0,0,0,0,0,0,0,0,0,0,0,0,0,0,0,0,0,0,0,0,0,0,0,0,0,0,0,0,0,0,0,0,0,0,0,0,0,0,0,0,0,0,0,0,0,0,0,0,0,
1516,0,1516,0,1516,0,1516,0,1516,0,1516,0,1516,0,1516,0,1516,0,1516,0,1516,0,1516,0,1516,0,1516,0,1516,0,1516,0,1516,0,1516,0,1516,0,1516,0,1516,0,1516,0,1516,0,1516,0,1558,0,1518,0,1516,0,1516,0,1516,0,1516,0,1516,0,1516,0,1516,0,1516,0,1516,0,1516,0,1518,0,1516,0,1516,0,1516,0,1516,0,1516,0,1516,0,1516,0,1516,0,1516,0,1516,0,1518,0,1558,0,1516,0,1516,0,1516,0,1516,0,1516,0,1516,0,1516,0,1516,0,1516,0,1516,0,1516,0,1516,0,1516,0,1516,0,1516,0,1516,0,0,0,0,0,0,0,0,0,0,0,
0,0,0,0,0,0,0,0,0,0,0,0,0,0,0,0,0,0,0,0,0,0,0,0,0,0,0,0,0,0,0,0,0,0,0,0,0,0,0,0,0,0,0,0,0,0,0,0,0,0,0,0,0,0,0,0,0,0,0,0,0,0,0,0,0,0,0,0,0,0,0,0,0,0,0,0,0,0,0,0,0,0,0,0,0,0,0,0,0,0,0,0,0,0,0,0,0,0,0,0,0,0,0,0,0,0,0,0,0,0,0,0,0,0,0,0,0,0,0,0,0,0,0,0,0,0,0,0,0,0,0,0,0,0,0,0,0,0,0,0,
1516,0,1516,0,1516,0,1516,0,1516,0,1516,0,1516,0,1516,0,1516,0,1516,0,1516,0,1516,0,1516,0,1516,0,1516,0,1516,0,1516,0,1516,0,1516,0,1516,0,1516,0,1516,0,1516,0,1516,0,1558,0,1518,0,1516,0,1516,0,1516,0,1516,0,1516,0,1516,0,1516,0,1516,0,1516,0,1565,0,1516,0,1516,0,1516,0,1516,0,1516,0,1516,0,1516,0,1516,0,1516,0,1516,0,1516,0,1516,0,1518,0,1516,0,1516,0,1516,0,1516,0,1516,0,1516,0,1516,0,1516,0,1516,0,1516,0,1516,0,1516,0,1516,0,1516,0,1516,0,1516,0,0,0,0,0,0,0,0,0,0,0,
0,0,0,0,0,0,0,0,0,0,0,0,0,0,0,0,0,0,0,0,0,0,0,0,0,0,0,0,0,0,0,0,0,0,0,0,0,0,0,0,0,0,0,0,0,0,0,0,0,0,0,0,0,0,0,0,0,0,0,0,0,0,0,0,0,0,0,0,0,0,0,0,0,0,0,0,0,0,0,0,0,0,0,0,0,0,0,0,0,0,0,0,0,0,0,0,0,0,0,0,0,0,0,0,0,0,0,0,0,0,0,0,0,0,0,0,0,0,0,0,0,0,0,0,0,0,0,0,0,0,0,0,0,0,0,0,0,0,0,0,
1516,0,1516,0,1516,0,1516,0,1516,0,1516,0,1516,0,1516,0,1516,0,1516,0,1516,0,1516,0,1516,0,1516,0,1516,0,1516,0,1516,0,1516,0,1516,0,1516,0,1516,0,1516,0,1516,0,1516,0,1516,0,1516,0,1516,0,1565,0,1516,0,1516,0,1516,0,1516,0,1516,0,1516,0,1516,0,1516,0,1516,0,1516,0,1516,0,1516,0,1516,0,1516,0,1516,0,1516,0,1516,0,1516,0,1516,0,1516,0,1516,0,1516,0,1516,0,1516,0,1516,0,1516,0,1516,0,1516,0,1516,0,1516,0,1516,0,1516,0,1516,0,1516,0,1516,0,1516,0,1516,0,0,0,0,0,0,0,0,0,0,0,
0,0,0,0,0,0,0,0,0,0,0,0,0,0,0,0,0,0,0,0,0,0,0,0,0,0,0,0,0,0,0,0,0,0,0,0,0,0,0,0,0,0,0,0,0,0,0,0,0,0,0,0,0,0,0,0,0,0,0,0,0,0,0,0,0,0,0,0,0,0,0,0,0,0,0,0,0,0,0,0,0,0,0,0,0,0,0,0,0,0,0,0,0,0,0,0,0,0,0,0,0,0,0,0,0,0,0,0,0,0,0,0,0,0,0,0,0,0,0,0,0,0,0,0,0,0,0,0,0,0,0,0,0,0,0,0,0,0,0,0,
1516,0,1516,0,1516,0,1516,0,1516,0,1516,0,1516,0,1516,0,1516,0,1516,0,1516,0,1516,0,1516,0,1516,0,1516,0,1516,0,1516,0,1516,0,1516,0,1516,0,1516,0,1516,0,1516,0,1516,0,1516,0,1558,0,1516,0,1516,0,1516,0,1516,0,1516,0,1516,0,1516,0,1516,0,1516,0,1516,0,1516,0,1516,0,1516,0,1516,0,1516,0,1516,0,1516,0,1516,0,1516,0,1516,0,1516,0,1516,0,1516,0,1516,0,1516,0,1516,0,1516,0,1516,0,1516,0,1516,0,1516,0,1516,0,1516,0,1516,0,1516,0,1516,0,1516,0,1516,0,1516,0,0,0,0,0,0,0,0,0,0,0,
0,0,0,0,0,0,0,0,0,0,0,0,0,0,0,0,0,0,0,0,0,0,0,0,0,0,0,0,0,0,0,0,0,0,0,0,0,0,0,0,0,0,0,0,0,0,0,0,0,0,0,0,0,0,0,0,0,0,0,0,0,0,0,0,0,0,0,0,0,0,0,0,0,0,0,0,0,0,0,0,0,0,0,0,0,0,0,0,0,0,0,0,0,0,0,0,0,0,0,0,0,0,0,0,0,0,0,0,0,0,0,0,0,0,0,0,0,0,0,0,0,0,0,0,0,0,0,0,0,0,0,0,0,0,0,0,0,0,0,0,
1516,0,1516,0,1516,0,1516,0,1516,0,1516,0,1516,0,1516,0,1516,0,1516,0,1516,0,1516,0,1516,0,1516,0,1516,0,1516,0,1516,0,1516,0,1516,0,1516,0,1516,0,1516,0,1516,0,1516,0,1516,0,1516,0,1516,0,1516,0,1516,0,1516,0,1516,0,1516,0,1516,0,1516,0,1516,0,1516,0,1516,0,1516,0,1516,0,1516,0,1516,0,1516,0,1516,0,1516,0,1516,0,1516,0,1516,0,1516,0,1516,0,1516,0,1516,0,1516,0,1516,0,1516,0,1516,0,1516,0,1516,0,1516,0,1516,0,1516,0,1516,0,1516,0,1516,0,1516,0,1516,0,0,0,0,0,0,0,0,0,0,0,
0,0,0,0,0,0,0,0,0,0,0,0,0,0,0,0,0,0,0,0,0,0,0,0,0,0,0,0,0,0,0,0,0,0,0,0,0,0,0,0,0,0,0,0,0,0,0,0,0,0,0,0,0,0,0,0,0,0,0,0,0,0,0,0,0,0,0,0,0,0,0,0,0,0,0,0,0,0,0,0,0,0,0,0,0,0,0,0,0,0,0,0,0,0,0,0,0,0,0,0,0,0,0,0,0,0,0,0,0,0,0,0,0,0,0,0,0,0,0,0,0,0,0,0,0,0,0,0,0,0,0,0,0,0,0,0,0,0,0,0,
1516,0,1516,0,1516,0,1516,0,1516,0,1516,0,1516,0,1516,0,1516,0,1516,0,1516,0,1516,0,1516,0,1516,0,1516,0,1516,0,1516,0,1516,0,1516,0,1516,0,1516,0,1516,0,1516,0,1516,0,1516,0,1516,0,1583,0,1516,0,1516,0,1516,0,1516,0,1516,0,1516,0,1516,0,1516,0,1516,0,1516,0,1516,0,1516,0,1516,0,1516,0,1516,0,1516,0,1558,0,1518,0,1516,0,1516,0,1516,0,1516,0,1516,0,1516,0,1516,0,1516,0,1516,0,1516,0,1516,0,1516,0,1516,0,1516,0,1516,0,1516,0,1516,0,1516,0,1516,0,1516,0,0,0,0,0,0,0,0,0,0,0,
0,0,0,0,0,0,0,0,0,0,0,0,0,0,0,0,0,0,0,0,0,0,0,0,0,0,0,0,0,0,0,0,0,0,0,0,0,0,0,0,0,0,0,0,0,0,0,0,0,0,0,0,0,0,0,0,0,0,0,0,0,0,0,0,0,0,0,0,0,0,0,0,0,0,0,0,0,0,0,0,0,0,0,0,0,0,0,0,0,0,0,0,0,0,0,0,0,0,0,0,0,0,0,0,0,0,0,0,0,0,0,0,0,0,0,0,0,0,0,0,0,0,0,0,0,0,0,0,0,0,0,0,0,0,0,0,0,0,0,0,
1516,0,1516,0,1516,0,1516,0,1516,0,1516,0,1516,0,1516,0,1516,0,1516,0,1516,0,1516,0,1516,0,1516,0,1516,0,1516,0,1516,0,1516,0,1516,0,1516,0,1516,0,1516,0,1516,0,1516,0,1516,0,1516,0,1516,0,1516,0,1516,0,1516,0,1516,0,1516,0,1516,0,1516,0,1516,0,1516,0,1516,0,1516,0,1516,0,1516,0,1516,0,1516,0,1558,0,1518,0,1518,0,1518,0,1516,0,1516,0,1516,0,1516,0,1516,0,1516,0,1516,0,1516,0,1516,0,1516,0,1516,0,1516,0,1516,0,1516,0,1516,0,1516,0,1516,0,1516,0,1516,0,0,0,0,0,0,0,0,0,0,0,
0,0,0,0,0,0,0,0,0,0,0,0,0,0,0,0,0,0,0,0,0,0,0,0,0,0,0,0,0,0,0,0,0,0,0,0,0,0,0,0,0,0,0,0,0,0,0,0,0,0,0,0,0,0,0,0,0,0,0,0,0,0,0,0,0,0,0,0,0,0,0,0,0,0,0,0,0,0,0,0,0,0,0,0,0,0,0,0,0,0,0,0,0,0,0,0,0,0,0,0,0,0,0,0,0,0,0,0,0,0,0,0,0,0,0,0,0,0,0,0,0,0,0,0,0,0,0,0,0,0,0,0,0,0,0,0,0,0,0,0,
1516,0,1516,0,1516,0,1516,0,1516,0,1516,0,1516,0,1516,0,1516,0,1516,0,1516,0,1516,0,1516,0,1516,0,1516,0,1516,0,1516,0,1516,0,1516,0,1516,0,1516,0,1516,0,1516,0,1516,0,1516,0,1516,0,1516,0,1516,0,1558,0,1516,0,1516,0,1516,0,1516,0,1516,0,1516,0,1516,0,1597,0,1516,0,1516,0,1516,0,1516,0,1516,0,1516,0,1518,0,1558,0,1516,0,1516,0,1516,0,1516,0,1516,0,1516,0,1516,0,1516,0,1516,0,1516,0,1516,0,1516,0,1516,0,1516,0,1516,0,1516,0,1516,0,1516,0,1516,0,1516,0,0,0,0,0,0,0,0,0,0,0,
0,0,0,0,0,0,0,0,0,0,0,0,0,0,0,0,0,0,0,0,0,0,0,0,0,0,0,0,0,0,0,0,0,0,0,0,0,0,0,0,0,0,0,0,0,0,0,0,0,0,0,0,0,0,0,0,0,0,0,0,0,0,0,0,0,0,0,0,0,0,0,0,0,0,0,0,0,0,0,0,0,0,0,0,0,0,0,0,0,0,0,0,0,0,0,0,0,0,0,0,0,0,0,0,0,0,0,0,0,0,0,0,0,0,0,0,0,0,0,0,0,0,0,0,0,0,0,0,0,0,0,0,0,0,0,0,0,0,0,0,
1516,0,1516,0,1516,0,1516,0,1516,0,1516,0,1516,0,1516,0,1516,0,1516,0,1516,0,1516,0,1516,0,1516,0,1516,0,1516,0,1516,0,1516,0,1516,0,1516,0,1516,0,1516,0,1516,0,1516,0,1518,0,1516,0,1558,0,1516,0,1516,0,1516,0,1516,0,1516,0,1516,0,1516,0,1516,0,1516,0,1516,0,1516,0,1516,0,1516,0,1516,0,1516,0,1516,0,1516,0,1516,0,1516,0,1516,0,1516,0,1516,0,1516,0,1516,0,1516,0,1516,0,1516,0,1516,0,1516,0,1516,0,1516,0,1516,0,1516,0,1516,0,1516,0,1516,0,1516,0,1516,0,0,0,0,0,0,0,0,0,0,0,
0,0,0,0,0,0,0,0,0,0,0,0,0,0,0,0,0,0,0,0,0,0,0,0,0,0,0,0,0,0,0,0,0,0,0,0,0,0,0,0,0,0,0,0,0,0,0,0,0,0,0,0,0,0,0,0,0,0,0,0,0,0,0,0,0,0,0,0,0,0,0,0,0,0,0,0,0,0,0,0,0,0,0,0,0,0,0,0,0,0,0,0,0,0,0,0,0,0,0,0,0,0,0,0,0,0,0,0,0,0,0,0,0,0,0,0,0,0,0,0,0,0,0,0,0,0,0,0,0,0,0,0,0,0,0,0,0,0,0,0,
1516,0,1516,0,1516,0,1516,0,1516,0,1516,0,1516,0,1516,0,1516,0,1516,0,1516,0,1516,0,1516,0,1516,0,1516,0,1516,0,1516,0,1516,0,1516,0,1516,0,1516,0,1516,0,1516,0,1516,0,1516,0,1518,0,1516,0,1516,0,1516,0,1516,0,1516,0,1516,0,1516,0,1516,0,1516,0,1516,0,1516,0,1516,0,1516,0,1516,0,1516,0,1516,0,1565,0,1516,0,1516,0,1516,0,1518,0,1518,0,1518,0,1516,0,1516,0,1516,0,1516,0,1516,0,1516,0,1516,0,1516,0,1516,0,1516,0,1516,0,1516,0,1516,0,1516,0,1516,0,1516,0,0,0,0,0,0,0,0,0,0,0,
0,0,0,0,0,0,0,0,0,0,0,0,0,0,0,0,0,0,0,0,0,0,0,0,0,0,0,0,0,0,0,0,0,0,0,0,0,0,0,0,0,0,0,0,0,0,0,0,0,0,0,0,0,0,0,0,0,0,0,0,0,0,0,0,0,0,0,0,0,0,0,0,0,0,0,0,0,0,0,0,0,0,0,0,0,0,0,0,0,0,0,0,0,0,0,0,0,0,0,0,0,0,0,0,0,0,0,0,0,0,0,0,0,0,0,0,0,0,0,0,0,0,0,0,0,0,0,0,0,0,0,0,0,0,0,0,0,0,0,0,
1516,0,1516,0,1516,0,1516,0,1516,0,1516,0,1516,0,1516,0,1516,0,1516,0,1516,0,1516,0,1516,0,1516,0,1516,0,1516,0,1516,0,1516,0,1516,0,1516,0,1516,0,1516,0,1516,0,1516,0,1518,0,1558,0,1518,0,1516,0,1516,0,1516,0,1516,0,1516,0,1516,0,1516,0,1516,0,1516,0,1516,0,1516,0,1516,0,1516,0,1516,0,1516,0,1516,0,1516,0,1516,0,1518,0,1518,0,1533,0,1518,0,1516,0,1516,0,1516,0,1516,0,1516,0,1516,0,1516,0,1516,0,1516,0,1516,0,1516,0,1516,0,1516,0,1516,0,1516,0,1516,0,0,0,0,0,0,0,0,0,0,0,
0,0,0,0,0,0,0,0,0,0,0,0,0,0,0,0,0,0,0,0,0,0,0,0,0,0,0,0,0,0,0,0,0,0,0,0,0,0,0,0,0,0,0,0,0,0,0,0,0,0,0,0,0,0,0,0,0,0,0,0,0,0,0,0,0,0,0,0,0,0,0,0,0,0,0,0,0,0,0,0,0,0,0,0,0,0,0,0,0,0,0,0,0,0,0,0,0,0,0,0,0,0,0,0,0,0,0,0,0,0,0,0,0,0,0,0,0,0,0,0,0,0,0,0,0,0,0,0,0,0,0,0,0,0,0,0,0,0,0,0,
1516,0,1516,0,1516,0,1516,0,1516,0,1516,0,1516,0,1516,0,1516,0,1516,0,1516,0,1516,0,1516,0,1516,0,1516,0,1516,0,1516,0,1516,0,1516,0,1516,0,1516,0,1516,0,1516,0,1516,0,1533,0,1518,0,1558,0,1630,0,1518,0,1516,0,1516,0,1516,0,1516,0,1516,0,1516,0,1516,0,1516,0,1516,0,1516,0,1516,0,1516,0,1516,0,1516,0,1516,0,1516,0,1558,0,1518,0,1518,0,1558,0,1516,0,1516,0,1516,0,1516,0,1516,0,1516,0,1516,0,1516,0,1516,0,1516,0,1516,0,1516,0,1516,0,1516,0,1516,0,1516,0,0,0,0,0,0,0,0,0,0,0,
0,0,0,0,0,0,0,0,0,0,0,0,0,0,0,0,0,0,0,0,0,0,0,0,0,0,0,0,0,0,0,0,0,0,0,0,0,0,0,0,0,0,0,0,0,0,0,0,0,0,0,0,0,0,0,0,0,0,0,0,0,0,0,0,0,0,0,0,0,0,0,0,0,0,0,0,0,0,0,0,0,0,0,0,0,0,0,0,0,0,0,0,0,0,0,0,0,0,0,0,0,0,0,0,0,0,0,0,0,0,0,0,0,0,0,0,0,0,0,0,0,0,0,0,0,0,0,0,0,0,0,0,0,0,0,0,0,0,0,0,
1516,0,1516,0,1516,0,1516,0,1516,0,1516,0,1516,0,1516,0,1516,0,1516,0,1516,0,1516,0,1516,0,1516,0,1516,0,1516,0,1516,0,1516,0,1516,0,1516,0,1516,0,1516,0,1516,0,1516,0,1516,0,1518,0,1518,0,1533,0,1558,0,1516,0,1516,0,1516,0,1516,0,1516,0,1516,0,1516,0,1516,0,1516,0,1516,0,1516,0,1516,0,1516,0,1516,0,1558,0,1518,0,1518,0,1516,0,1516,0,1516,0,1516,0,1516,0,1516,0,1516,0,1516,0,1516,0,1516,0,1516,0,1516,0,1516,0,1516,0,1516,0,1516,0,1516,0,1516,0,1516,0,0,0,0,0,0,0,0,0,0,0,
0,0,0,0,0,0,0,0,0,0,0,0,0,0,0,0,0,0,0,0,0,0,0,0,0,0,0,0,0,0,0,0,0,0,0,0,0,0,0,0,0,0,0,0,0,0,0,0,0,0,0,0,0,0,0,0,0,0,0,0,0,0,0,0,0,0,0,0,0,0,0,0,0,0,0,0,0,0,0,0,0,0,0,0,0,0,0,0,0,0,0,0,0,0,0,0,0,0,0,0,0,0,0,0,0,0,0,0,0,0,0,0,0,0,0,0,0,0,0,0,0,0,0,0,0,0,0,0,0,0,0,0,0,0,0,0,0,0,0,0,
1516,0,1516,0,1516,0,1516,0,1516,0,1516,0,1516,0,1516,0,1516,0,1516,0,1516,0,1516,0,1516,0,1516,0,1516,0,1516,0,1516,0,1516,0,1516,0,1516,0,1516,0,1516,0,1516,0,1516,0,1516,0,1516,0,1516,0,1516,0,1525,0,1516,0,1516,0,1516,0,1516,0,1516,0,1516,0,1516,0,1516,0,1516,0,1516,0,1516,0,1516,0,1558,0,1518,0,1533,0,1518,0,1516,0,1516,0,1516,0,1516,0,1516,0,1516,0,1516,0,1516,0,1516,0,1516,0,1516,0,1516,0,1516,0,1516,0,1516,0,1516,0,1516,0,1516,0,1516,0,1516,0,0,0,0,0,0,0,0,0,0,0,
0,0,0,0,0,0,0,0,0,0,0,0,0,0,0,0,0,0,0,0,0,0,0,0,0,0,0,0,0,0,0,0,0,0,0,0,0,0,0,0,0,0,0,0,0,0,0,0,0,0,0,0,0,0,0,0,0,0,0,0,0,0,0,0,0,0,0,0,0,0,0,0,0,0,0,0,0,0,0,0,0,0,0,0,0,0,0,0,0,0,0,0,0,0,0,0,0,0,0,0,0,0,0,0,0,0,0,0,0,0,0,0,0,0,0,0,0,0,0,0,0,0,0,0,0,0,0,0,0,0,0,0,0,0,0,0,0,0,0,0,
1516,0,1516,0,1516,0,1516,0,1516,0,1516,0,1516,0,1516,0,1516,0,1516,0,1516,0,1516,0,1516,0,1516,0,1516,0,1516,0,1516,0,1516,0,1516,0,1516,0,1516,0,1516,0,1516,0,1516,0,1516,0,1516,0,1516,0,1516,0,1516,0,1516,0,1516,0,1516,0,1516,0,1516,0,1516,0,1516,0,1516,0,1516,0,1516,0,1516,0,1516,0,1516,0,1518,0,1518,0,1516,0,1516,0,1516,0,1516,0,1516,0,1516,0,1516,0,1516,0,1516,0,1516,0,1516,0,1516,0,1516,0,1516,0,1516,0,1516,0,1516,0,1516,0,1516,0,1516,0,1516,0,0,0,0,0,0,0,0,0,0,0,
0,0,0,0,0,0,0,0,0,0,0,0,0,0,0,0,0,0,0,0,0,0,0,0,0,0,0,0,0,0,0,0,0,0,0,0,0,0,0,0,0,0,0,0,0,0,0,0,0,0,0,0,0,0,0,0,0,0,0,0,0,0,0,0,0,0,0,0,0,0,0,0,0,0,0,0,0,0,0,0,0,0,0,0,0,0,0,0,0,0,0,0,0,0,0,0,0,0,0,0,0,0,0,0,0,0,0,0,0,0,0,0,0,0,0,0,0,0,0,0,0,0,0,0,0,0,0,0,0,0,0,0,0,0,0,0,0,0,0,0,
1516,0,1516,0,1516,0,1516,0,1516,0,1516,0,1516,0,1516,0,1516,0,1516,0,1516,0,1516,0,1516,0,1516,0,1516,0,1516,0,1516,0,1516,0,1516,0,1516,0,1516,0,1516,0,1516,0,1516,0,1516,0,1516,0,1516,0,1516,0,1516,0,1516,0,1516,0,1516,0,1516,0,1516,0,1516,0,1516,0,1516,0,1516,0,1516,0,1516,0,1516,0,1516,0,1516,0,1516,0,1516,0,1516,0,1516,0,1516,0,1516,0,1516,0,1516,0,1516,0,1516,0,1516,0,1516,0,1516,0,1516,0,1516,0,1516,0,1516,0,1516,0,1516,0,1516,0,1516,0,1516,0,0,0,0,0,0,0,0,0,0,0,
0,0,0,0,0,0,0,0,0,0,0,0,0,0,0,0,0,0,0,0,0,0,0,0,0,0,0,0,0,0,0,0,0,0,0,0,0,0,0,0,0,0,0,0,0,0,0,0,0,0,0,0,0,0,0,0,0,0,0,0,0,0,0,0,0,0,0,0,0,0,0,0,0,0,0,0,0,0,0,0,0,0,0,0,0,0,0,0,0,0,0,0,0,0,0,0,0,0,0,0,0,0,0,0,0,0,0,0,0,0,0,0,0,0,0,0,0,0,0,0,0,0,0,0,0,0,0,0,0,0,0,0,0,0,0,0,0,0,0,0,
1516,0,1516,0,1516,0,1516,0,1516,0,1516,0,1516,0,1516,0,1516,0,1516,0,1516,0,1516,0,1516,0,1516,0,1516,0,1516,0,1516,0,1516,0,1516,0,1516,0,1516,0,1516,0,1516,0,1516,0,1516,0,1516,0,1516,0,1516,0,1516,0,1516,0,1516,0,1516,0,1516,0,1516,0,1516,0,1516,0,1516,0,1516,0,1516,0,1516,0,1516,0,1516,0,1516,0,1516,0,1516,0,1516,0,1516,0,1516,0,1516,0,1516,0,1516,0,1516,0,1516,0,1516,0,1516,0,1516,0,1516,0,1516,0,1516,0,1516,0,1516,0,1516,0,1516,0,1516,0,1516,0,0,0,0,0,0,0,0,0,0,0,
0,0,0,0,0,0,0,0,0,0,0,0,0,0,0,0,0,0,0,0,0,0,0,0,0,0,0,0,0,0,0,0,0,0,0,0,0,0,0,0,0,0,0,0,0,0,0,0,0,0,0,0,0,0,0,0,0,0,0,0,0,0,0,0,0,0,0,0,0,0,0,0,0,0,0,0,0,0,0,0,0,0,0,0,0,0,0,0,0,0,0,0,0,0,0,0,0,0,0,0,0,0,0,0,0,0,0,0,0,0,0,0,0,0,0,0,0,0,0,0,0,0,0,0,0,0,0,0,0,0,0,0,0,0,0,0,0,0,0,0,
1516,0,1516,0,1516,0,1516,0,1516,0,1516,0,1516,0,1516,0,1516,0,1516,0,1516,0,1516,0,1516,0,1516,0,1516,0,1516,0,1516,0,1516,0,1516,0,1516,0,1516,0,1516,0,1516,0,1516,0,1516,0,1516,0,1516,0,1516,0,1516,0,1516,0,1516,0,1516,0,1516,0,1516,0,1516,0,1516,0,1516,0,1516,0,1516,0,1516,0,1516,0,1516,0,1516,0,1516,0,1516,0,1516,0,1516,0,1516,0,1516,0,1516,0,1516,0,1516,0,1516,0,1516,0,1516,0,1516,0,1516,0,1516,0,1516,0,1516,0,1516,0,1516,0,1516,0,1516,0,1516,0,0,0,0,0,0,0,0,0,0,0,
0,0,0,0,0,0,0,0,0,0,0,0,0,0,0,0,0,0,0,0,0,0,0,0,0,0,0,0,0,0,0,0,0,0,0,0,0,0,0,0,0,0,0,0,0,0,0,0,0,0,0,0,0,0,0,0,0,0,0,0,0,0,0,0,0,0,0,0,0,0,0,0,0,0,0,0,0,0,0,0,0,0,0,0,0,0,0,0,0,0,0,0,0,0,0,0,0,0,0,0,0,0,0,0,0,0,0,0,0,0,0,0,0,0,0,0,0,0,0,0,0,0,0,0,0,0,0,0,0,0,0,0,0,0,0,0,0,0,0,0,
1516,0,1516,0,1516,0,1516,0,1516,0,1516,0,1516,0,1516,0,1516,0,1516,0,1516,0,1516,0,1516,0,1516,0,1516,0,1516,0,1516,0,1516,0,1516,0,1516,0,1516,0,1516,0,1516,0,1516,0,1516,0,1516,0,1516,0,1516,0,1516,0,1516,0,1516,0,1516,0,1516,0,1516,0,1516,0,1516,0,1516,0,1516,0,1516,0,1516,0,1516,0,1516,0,1516,0,1516,0,1516,0,1516,0,1516,0,1516,0,1516,0,1516,0,1516,0,1516,0,1516,0,1516,0,1516,0,1516,0,1516,0,1516,0,1516,0,1516,0,1516,0,1516,0,1516,0,1516,0,1516,0,0,0,0,0,0,0,0,0,0,0,
0,0,0,0,0,0,0,0,0,0,0,0,0,0,0,0,0,0,0,0,0,0,0,0,0,0,0,0,0,0,0,0,0,0,0,0,0,0,0,0,0,0,0,0,0,0,0,0,0,0,0,0,0,0,0,0,0,0,0,0,0,0,0,0,0,0,0,0,0,0,0,0,0,0,0,0,0,0,0,0,0,0,0,0,0,0,0,0,0,0,0,0,0,0,0,0,0,0,0,0,0,0,0,0,0,0,0,0,0,0,0,0,0,0,0,0,0,0,0,0,0,0,0,0,0,0,0,0,0,0,0,0,0,0,0,0,0,0,0,0,
1516,0,1516,0,1516,0,1516,0,1516,0,1516,0,1516,0,1516,0,1516,0,1516,0,1516,0,1516,0,1516,0,1516,0,1516,0,1516,0,1516,0,1516,0,1516,0,1516,0,1516,0,1516,0,1516,0,1516,0,1516,0,1516,0,1516,0,1516,0,1516,0,1516,0,1516,0,1516,0,1516,0,1516,0,1516,0,1516,0,1516,0,1516,0,1516,0,1516,0,1516,0,1516,0,1516,0,1516,0,1516,0,1516,0,1516,0,1516,0,1516,0,1516,0,1516,0,1516,0,1516,0,1516,0,1516,0,1516,0,1516,0,1516,0,1516,0,1516,0,1516,0,1516,0,1516,0,1516,0,1516,0,0,0,0,0,0,0,0,0,0,0,
0,0,0,0,0,0,0,0,0,0,0,0,0,0,0,0,0,0,0,0,0,0,0,0,0,0,0,0,0,0,0,0,0,0,0,0,0,0,0,0,0,0,0,0,0,0,0,0,0,0,0,0,0,0,0,0,0,0,0,0,0,0,0,0,0,0,0,0,0,0,0,0,0,0,0,0,0,0,0,0,0,0,0,0,0,0,0,0,0,0,0,0,0,0,0,0,0,0,0,0,0,0,0,0,0,0,0,0,0,0,0,0,0,0,0,0,0,0,0,0,0,0,0,0,0,0,0,0,0,0,0,0,0,0,0,0,0,0,0,0,
1516,0,1516,0,1516,0,1516,0,1516,0,1516,0,1516,0,1516,0,1516,0,1516,0,1516,0,1516,0,1516,0,1516,0,1516,0,1516,0,1516,0,1516,0,1516,0,1516,0,1516,0,1516,0,1516,0,1516,0,1516,0,1516,0,1516,0,1516,0,1516,0,1516,0,1516,0,1516,0,1516,0,1516,0,1516,0,1516,0,1516,0,1516,0,1516,0,1516,0,1516,0,1516,0,1516,0,1516,0,1516,0,1516,0,1516,0,1516,0,1516,0,1516,0,1516,0,1516,0,1516,0,1516,0,1516,0,1516,0,1516,0,1516,0,1516,0,1516,0,1516,0,1516,0,1516,0,1516,0,1516,0,0,0,0,0,0,0,0,0,0,0,
0,0,0,0,0,0,0,0,0,0,0,0,0,0,0,0,0,0,0,0,0,0,0,0,0,0,0,0,0,0,0,0,0,0,0,0,0,0,0,0,0,0,0,0,0,0,0,0,0,0,0,0,0,0,0,0,0,0,0,0,0,0,0,0,0,0,0,0,0,0,0,0,0,0,0,0,0,0,0,0,0,0,0,0,0,0,0,0,0,0,0,0,0,0,0,0,0,0,0,0,0,0,0,0,0,0,0,0,0,0,0,0,0,0,0,0,0,0,0,0,0,0,0,0,0,0,0,0,0,0,0,0,0,0,0,0,0,0,0,0,
1516,0,1516,0,1516,0,1516,0,1516,0,1516,0,1516,0,1516,0,1516,0,1516,0,1516,0,1516,0,1516,0,1516,0,1516,0,1516,0,1516,0,1516,0,1516,0,1516,0,1516,0,1516,0,1516,0,1516,0,1516,0,1516,0,1516,0,1516,0,1516,0,1516,0,1516,0,1516,0,1516,0,1516,0,1516,0,1516,0,1516,0,1516,0,1516,0,1516,0,1516,0,1516,0,1516,0,1516,0,1516,0,1516,0,1516,0,1516,0,1516,0,1516,0,1516,0,1516,0,1516,0,1516,0,1516,0,1516,0,1516,0,1516,0,1516,0,1516,0,1516,0,1516,0,1516,0,1516,0,1516,0,0,0,0,0,0,0,0,0,0,0,
0,0,0,0,0,0,0,0,0,0,0,0,0,0,0,0,0,0,0,0,0,0,0,0,0,0,0,0,0,0,0,0,0,0,0,0,0,0,0,0,0,0,0,0,0,0,0,0,0,0,0,0,0,0,0,0,0,0,0,0,0,0,0,0,0,0,0,0,0,0,0,0,0,0,0,0,0,0,0,0,0,0,0,0,0,0,0,0,0,0,0,0,0,0,0,0,0,0,0,0,0,0,0,0,0,0,0,0,0,0,0,0,0,0,0,0,0,0,0,0,0,0,0,0,0,0,0,0,0,0,0,0,0,0,0,0,0,0,0,0,
1516,0,1516,0,1516,0,1516,0,1516,0,1516,0,1516,0,1516,0,1516,0,1516,0,1516,0,1516,0,1516,0,1516,0,1516,0,1516,0,1516,0,1516,0,1516,0,1516,0,1516,0,1516,0,1516,0,1516,0,1516,0,1516,0,1516,0,1516,0,1516,0,1516,0,1516,0,1516,0,1516,0,1516,0,1516,0,1516,0,1516,0,1516,0,1516,0,1516,0,1516,0,1516,0,1516,0,1516,0,1516,0,1516,0,1516,0,1516,0,1516,0,1516,0,1516,0,1516,0,1516,0,1516,0,1516,0,1516,0,1516,0,1516,0,1516,0,1516,0,1516,0,1516,0,1516,0,1516,0,1516,0,0,0,0,0,0,0,0,0,0,0,
0,0,0,0,0,0,0,0,0,0,0,0,0,0,0,0,0,0,0,0,0,0,0,0,0,0,0,0,0,0,0,0,0,0,0,0,0,0,0,0,0,0,0,0,0,0,0,0,0,0,0,0,0,0,0,0,0,0,0,0,0,0,0,0,0,0,0,0,0,0,0,0,0,0,0,0,0,0,0,0,0,0,0,0,0,0,0,0,0,0,0,0,0,0,0,0,0,0,0,0,0,0,0,0,0,0,0,0,0,0,0,0,0,0,0,0,0,0,0,0,0,0,0,0,0,0,0,0,0,0,0,0,0,0,0,0,0,0,0,0,
1516,0,1516,0,1516,0,1516,0,1516,0,1516,0,1516,0,1516,0,1516,0,1516,0,1516,0,1516,0,1516,0,1516,0,1516,0,1516,0,1516,0,1516,0,1516,0,1516,0,1516,0,1516,0,1516,0,1516,0,1516,0,1516,0,1516,0,1516,0,1516,0,1516,0,1516,0,1516,0,1516,0,1516,0,1516,0,1516,0,1516,0,1516,0,1516,0,1516,0,1516,0,1516,0,1516,0,1516,0,1516,0,1516,0,1516,0,1516,0,1516,0,1516,0,1516,0,1516,0,1516,0,1516,0,1516,0,1516,0,1516,0,1516,0,1516,0,1516,0,1516,0,1516,0,1516,0,1516,0,1516,0,0,0,0,0,0,0,0,0,0,0,
0,0,0,0,0,0,0,0,0,0,0,0,0,0,0,0,0,0,0,0,0,0,0,0,0,0,0,0,0,0,0,0,0,0,0,0,0,0,0,0,0,0,0,0,0,0,0,0,0,0,0,0,0,0,0,0,0,0,0,0,0,0,0,0,0,0,0,0,0,0,0,0,0,0,0,0,0,0,0,0,0,0,0,0,0,0,0,0,0,0,0,0,0,0,0,0,0,0,0,0,0,0,0,0,0,0,0,0,0,0,0,0,0,0,0,0,0,0,0,0,0,0,0,0,0,0,0,0,0,0,0,0,0,0,0,0,0,0,0,0,
1516,0,1516,0,1516,0,1516,0,1516,0,1516,0,1516,0,1516,0,1516,0,1516,0,1516,0,1516,0,1516,0,1516,0,1516,0,1516,0,1516,0,1516,0,1516,0,1516,0,1516,0,1516,0,1516,0,1516,0,1516,0,1516,0,1516,0,1516,0,1516,0,1558,0,1516,0,1516,0,1516,0,1516,0,1516,0,1516,0,1516,0,1516,0,1516,0,1516,0,1558,0,1516,0,1516,0,1516,0,1516,0,1516,0,1516,0,1516,0,1516,0,1516,0,1516,0,1516,0,1516,0,1516,0,1516,0,1516,0,1516,0,1516,0,1516,0,1516,0,1516,0,1516,0,1516,0,1516,0,1516,0,0,0,0,0,0,0,0,0,0,0,
0,0,0,0,0,0,0,0,0,0,0,0,0,0,0,0,0,0,0,0,0,0,0,0,0,0,0,0,0,0,0,0,0,0,0,0,0,0,0,0,0,0,0,0,0,0,0,0,0,0,0,0,0,0,0,0,0,0,0,0,0,0,0,0,0,0,0,0,0,0,0,0,0,0,0,0,0,0,0,0,0,0,0,0,0,0,0,0,0,0,0,0,0,0,0,0,0,0,0,0,0,0,0,0,0,0,0,0,0,0,0,0,0,0,0,0,0,0,0,0,0,0,0,0,0,0,0,0,0,0,0,0,0,0,0,0,0,0,0,0,
1516,0,1516,0,1516,0,1516,0,1516,0,1516,0,1516,0,1516,0,1516,0,1516,0,1516,0,1516,0,1516,0,1516,0,1516,0,1516,0,1516,0,1516,0,1516,0,1516,0,1516,0,1516,0,1516,0,1516,0,1516,0,1516,0,1557,0,1516,0,1516,0,1516,0,1516,0,1516,0,1516,0,1516,0,1597,0,1516,0,1516,0,1516,0,1516,0,1516,0,1516,0,1516,0,1516,0,1557,0,1516,0,1516,0,1516,0,1516,0,1516,0,1516,0,1516,0,1516,0,1516,0,1516,0,1516,0,1516,0,1516,0,1516,0,1516,0,1516,0,1516,0,1516,0,1516,0,1516,0,1516,0,0,0,0,0,0,0,0,0,0,0,
0,0,0,0,0,0,0,0,0,0,0,0,0,0,0,0,0,0,0,0,0,0,0,0,0,0,0,0,0,0,0,0,0,0,0,0,0,0,0,0,0,0,0,0,0,0,0,0,0,0,0,0,0,0,0,0,0,0,0,0,0,0,0,0,0,0,0,0,0,0,0,0,0,0,0,0,0,0,0,0,0,0,0,0,0,0,0,0,0,0,0,0,0,0,0,0,0,0,0,0,0,0,0,0,0,0,0,0,0,0,0,0,0,0,0,0,0,0,0,0,0,0,0,0,0,0,0,0,0,0,0,0,0,0,0,0,0,0,0,0,
1516,0,1516,0,1516,0,1516,0,1516,0,1516,0,1516,0,1516,0,1516,0,1516,0,1516,0,1516,0,1516,0,1516,0,1516,0,1516,0,1516,0,1516,0,1516,0,1516,0,1516,0,1516,0,1516,0,1516,0,1516,0,1557,0,1533,0,1557,0,1516,0,1516,0,1516,0,1516,0,1516,0,1516,0,1516,0,1516,0,1516,0,1516,0,1516,0,1516,0,1516,0,1516,0,1557,0,1533,0,1557,0,1516,0,1516,0,1516,0,1516,0,1516,0,1516,0,1516,0,1516,0,1516,0,1516,0,1516,0,1516,0,1516,0,1516,0,1516,0,1516,0,1516,0,1516,0,1516,0,1516,0,0,0,0,0,0,0,0,0,0,0,
0,0,0,0,0,0,0,0,0,0,0,0,0,0,0,0,0,0,0,0,0,0,0,0,0,0,0,0,0,0,0,0,0,0,0,0,0,0,0,0,0,0,0,0,0,0,0,0,0,0,0,0,0,0,0,0,0,0,0,0,0,0,0,0,0,0,0,0,0,0,0,0,0,0,0,0,0,0,0,0,0,0,0,0,0,0,0,0,0,0,0,0,0,0,0,0,0,0,0,0,0,0,0,0,0,0,0,0,0,0,0,0,0,0,0,0,0,0,0,0,0,0,0,0,0,0,0,0,0,0,0,0,0,0,0,0,0,0,0,0,
1516,0,1516,0,1516,0,1516,0,1516,0,1516,0,1516,0,1516,0,1516,0,1516,0,1516,0,1516,0,1516,0,1516,0,1516,0,1516,0,1516,0,1516,0,1516,0,1516,0,1516,0,1516,0,1516,0,1516,0,1516,0,1516,0,1557,0,1516,0,1516,0,1516,0,1516,0,1516,0,1516,0,1516,0,1516,0,1645,0,1516,0,1516,0,1516,0,1516,0,1516,0,1516,0,1516,0,1557,0,1516,0,1516,0,1516,0,1516,0,1516,0,1516,0,1516,0,1516,0,1516,0,1516,0,1516,0,1516,0,1516,0,1516,0,1516,0,1516,0,1516,0,1516,0,1516,0,1516,0,1516,0,0,0,0,0,0,0,0,0,0,0,
0,0,0,0,0,0,0,0,0,0,0,0,0,0,0,0,0,0,0,0,0,0,0,0,0,0,0,0,0,0,0,0,0,0,0,0,0,0,0,0,0,0,0,0,0,0,0,0,0,0,0,0,0,0,0,0,0,0,0,0,0,0,0,0,0,0,0,0,0,0,0,0,0,0,0,0,0,0,0,0,0,0,0,0,0,0,0,0,0,0,0,0,0,0,0,0,0,0,0,0,0,0,0,0,0,0,0,0,0,0,0,0,0,0,0,0,0,0,0,0,0,0,0,0,0,0,0,0,0,0,0,0,0,0,0,0,0,0,0,0,
1516,0,1516,0,1516,0,1516,0,1516,0,1516,0,1516,0,1516,0,1516,0,1516,0,1516,0,1516,0,1516,0,1516,0,1516,0,1516,0,1516,0,1516,0,1516,0,1516,0,1516,0,1516,0,1516,0,1516,0,1516,0,1516,0,1516,0,1516,0,1516,0,1516,0,1516,0,1516,0,1516,0,1516,0,1516,0,1516,0,1516,0,1516,0,1516,0,1516,0,1516,0,1516,0,1516,0,1516,0,1516,0,1516,0,1516,0,1516,0,1516,0,1516,0,1516,0,1516,0,1516,0,1516,0,1516,0,1516,0,1516,0,1516,0,1516,0,1516,0,1516,0,1516,0,1516,0,1516,0,1516,0,0,0,0,0,0,0,0,0,0,0,
0,0,0,0,0,0,0,0,0,0,0,0,0,0,0,0,0,0,0,0,0,0,0,0,0,0,0,0,0,0,0,0,0,0,0,0,0,0,0,0,0,0,0,0,0,0,0,0,0,0,0,0,0,0,0,0,0,0,0,0,0,0,0,0,0,0,0,0,0,0,0,0,0,0,0,0,0,0,0,0,0,0,0,0,0,0,0,0,0,0,0,0,0,0,0,0,0,0,0,0,0,0,0,0,0,0,0,0,0,0,0,0,0,0,0,0,0,0,0,0,0,0,0,0,0,0,0,0,0,0,0,0,0,0,0,0,0,0,0,0,
1516,0,1516,0,1516,0,1516,0,1516,0,1516,0,1516,0,1516,0,1516,0,1516,0,1516,0,1516,0,1516,0,1516,0,1516,0,1516,0,1516,0,1516,0,1516,0,1516,0,1516,0,1516,0,1516,0,1516,0,1516,0,1516,0,1516,0,1516,0,1516,0,1516,0,1516,0,1516,0,1516,0,1516,0,1516,0,1516,0,1516,0,1516,0,1516,0,1516,0,1516,0,1516,0,1516,0,1516,0,1516,0,1516,0,1516,0,1516,0,1516,0,1516,0,1516,0,1516,0,1516,0,1516,0,1516,0,1516,0,1516,0,1516,0,1516,0,1516,0,1516,0,1516,0,1516,0,1516,0,1516,0,0,0,0,0,0,0,0,0,0,0,
0,0,0,0,0,0,0,0,0,0,0,0,0,0,0,0,0,0,0,0,0,0,0,0,0,0,0,0,0,0,0,0,0,0,0,0,0,0,0,0,0,0,0,0,0,0,0,0,0,0,0,0,0,0,0,0,0,0,0,0,0,0,0,0,0,0,0,0,0,0,0,0,0,0,0,0,0,0,0,0,0,0,0,0,0,0,0,0,0,0,0,0,0,0,0,0,0,0,0,0,0,0,0,0,0,0,0,0,0,0,0,0,0,0,0,0,0,0,0,0,0,0,0,0,0,0,0,0,0,0,0,0,0,0,0,0,0,0,0,0,
1516,0,1516,0,1516,0,1516,0,1516,0,1516,0,1516,0,1516,0,1516,0,1516,0,1516,0,1516,0,1516,0,1516,0,1516,0,1516,0,1516,0,1516,0,1516,0,1516,0,1516,0,1516,0,1516,0,1516,0,1516,0,1516,0,1565,0,1516,0,1516,0,1516,0,1516,0,1516,0,1516,0,1516,0,1516,0,1516,0,1516,0,1516,0,1516,0,1516,0,1516,0,1516,0,1516,0,1565,0,1516,0,1516,0,1516,0,1516,0,1516,0,1516,0,1516,0,1516,0,1516,0,1516,0,1516,0,1516,0,1516,0,1516,0,1516,0,1516,0,1516,0,1516,0,1516,0,1516,0,1516,0,0,0,0,0,0,0,0,0,0,0,
0,0,0,0,0,0,0,0,0,0,0,0,0,0,0,0,0,0,0,0,0,0,0,0,0,0,0,0,0,0,0,0,0,0,0,0,0,0,0,0,0,0,0,0,0,0,0,0,0,0,0,0,0,0,0,0,0,0,0,0,0,0,0,0,0,0,0,0,0,0,0,0,0,0,0,0,0,0,0,0,0,0,0,0,0,0,0,0,0,0,0,0,0,0,0,0,0,0,0,0,0,0,0,0,0,0,0,0,0,0,0,0,0,0,0,0,0,0,0,0,0,0,0,0,0,0,0,0,0,0,0,0,0,0,0,0,0,0,0,0,
1516,0,1516,0,1516,0,1516,0,1516,0,1516,0,1516,0,1516,0,1516,0,1516,0,1516,0,1516,0,1516,0,1516,0,1516,0,1516,0,1516,0,1516,0,1516,0,1516,0,1516,0,1516,0,1516,0,1516,0,1516,0,1516,0,1516,0,1516,0,1516,0,1558,0,1516,0,1516,0,1516,0,1516,0,1516,0,1516,0,1516,0,1516,0,1516,0,1516,0,1558,0,1516,0,1516,0,1516,0,1516,0,1516,0,1516,0,1516,0,1516,0,1516,0,1516,0,1516,0,1516,0,1516,0,1516,0,1516,0,1516,0,1516,0,1516,0,1516,0,1516,0,1516,0,1516,0,1516,0,1516,0,0,0,0,0,0,0,0,0,0,0,
0,0,0,0,0,0,0,0,0,0,0,0,0,0,0,0,0,0,0,0,0,0,0,0,0,0,0,0,0,0,0,0,0,0,0,0,0,0,0,0,0,0,0,0,0,0,0,0,0,0,0,0,0,0,0,0,0,0,0,0,0,0,0,0,0,0,0,0,0,0,0,0,0,0,0,0,0,0,0,0,0,0,0,0,0,0,0,0,0,0,0,0,0,0,0,0,0,0,0,0,0,0,0,0,0,0,0,0,0,0,0,0,0,0,0,0,0,0,0,0,0,0,0,0,0,0,0,0,0,0,0,0,0,0,0,0,0,0,0,0,
1516,0,1516,0,1516,0,1516,0,1516,0,1516,0,1516,0,1516,0,1516,0,1516,0,1516,0,1516,0,1516,0,1516,0,1516,0,1516,0,1516,0,1516,0,1516,0,1516,0,1516,0,1516,0,1516,0,1516,0,1516,0,1516,0,1557,0,1516,0,1516,0,1516,0,1516,0,1516,0,1516,0,1614,0,1614,0,1552,0,1614,0,1614,0,1516,0,1516,0,1516,0,1516,0,1516,0,1557,0,1516,0,1516,0,1516,0,1516,0,1516,0,1516,0,1516,0,1516,0,1516,0,1516,0,1516,0,1516,0,1516,0,1516,0,1516,0,1516,0,1516,0,1516,0,1516,0,1516,0,1516,0,0,0,0,0,0,0,0,0,0,0,
0,0,0,0,0,0,0,0,0,0,0,0,0,0,0,0,0,0,0,0,0,0,0,0,0,0,0,0,0,0,0,0,0,0,0,0,0,0,0,0,0,0,0,0,0,0,0,0,0,0,0,0,0,0,0,0,0,0,0,0,0,0,0,0,0,0,0,0,0,0,0,0,0,0,0,0,0,0,0,0,0,0,0,0,0,0,0,0,0,0,0,0,0,0,0,0,0,0,0,0,0,0,0,0,0,0,0,0,0,0,0,0,0,0,0,0,0,0,0,0,0,0,0,0,0,0,0,0,0,0,0,0,0,0,0,0,0,0,0,0,
0,0,1516,0,1516,0,1516,0,1516,0,1516,0,1516,0,1516,0,1516,0,1516,0,1516,0,1516,0,1516,0,1516,0,1516,0,1516,0,1516,0,1516,0,1516,0,1516,0,1516,0,1516,0,1516,0,1516,0,1516,0,1557,0,1533,0,1557,0,1516,0,1516,0,1516,0,1516,0,1614,0,1614,0,1614,0,1614,0,1614,0,1614,0,1516,0,1516,0,1516,0,1516,0,1557,0,1533,0,1557,0,1516,0,1516,0,1516,0,1516,0,1516,0,1516,0,1516,0,1516,0,1516,0,1516,0,1516,0,1516,0,1516,0,1516,0,1516,0,1516,0,1516,0,1516,0,1516,0,1516,0,0,0,0,0,0,0,0,0,0,0,
0,0,0,0,0,0,0,0,0,0,0,0,0,0,0,0,0,0,0,0,0,0,0,0,0,0,0,0,0,0,0,0,0,0,0,0,0,0,0,0,0,0,0,0,0,0,0,0,0,0,0,0,0,0,0,0,0,0,0,0,0,0,0,0,0,0,0,0,0,0,0,0,0,0,0,0,0,0,0,0,0,0,0,0,0,0,0,0,0,0,0,0,0,0,0,0,0,0,0,0,0,0,0,0,0,0,0,0,0,0,0,0,0,0,0,0,0,0,0,0,0,0,0,0,0,0,0,0,0,0,0,0,0,0,0,0,0,0,0,0,
0,0,1516,0,1516,0,1516,0,1516,0,1516,0,1516,0,1516,0,1516,0,1516,0,1516,0,1516,0,1516,0,1516,0,1516,0,1516,0,1516,0,1516,0,1516,0,1516,0,1516,0,1516,0,1516,0,1516,0,1516,0,1516,0,1557,0,1516,0,1516,0,1516,0,1516,0,1516,0,1516,0,1614,0,1614,0,1614,0,1614,0,1516,0,1516,0,1516,0,1516,0,1516,0,1516,0,1557,0,1516,0,1516,0,1516,0,1516,0,1516,0,1516,0,1516,0,1516,0,1516,0,1516,0,1516,0,1516,0,1516,0,1516,0,1516,0,1516,0,1516,0,1516,0,1516,0,1516,0,1516,0,0,0,0,0,0,0,0,0,0,0,
0,0,0,0,0,0,0,0,0,0,0,0,0,0,0,0,0,0,0,0,0,0,0,0,0,0,0,0,0,0,0,0,0,0,0,0,0,0,0,0,0,0,0,0,0,0,0,0,0,0,0,0,0,0,0,0,0,0,0,0,0,0,0,0,0,0,0,0,0,0,0,0,0,0,0,0,0,0,0,0,0,0,0,0,0,0,0,0,0,0,0,0,0,0,0,0,0,0,0,0,0,0,0,0,0,0,0,0,0,0,0,0,0,0,0,0,0,0,0,0,0,0,0,0,0,0,0,0,0,0,0,0,0,0,0,0,0,0,0,0,
0,0,1516,0,1516,0,1516,0,1516,0,1516,0,1516,0,1516,0,1516,0,1516,0,1516,0,1516,0,1516,0,1516,0,1516,0,1516,0,1516,0,1516,0,1516,0,1516,0,1516,0,1516,0,1516,0,1516,0,1516,0,1516,0,1516,0,1516,0,1516,0,1516,0,1516,0,1516,0,1516,0,1516,0,1516,0,1516,0,1516,0,1516,0,1516,0,1516,0,1516,0,1516,0,1516,0,1516,0,1516,0,1516,0,1516,0,1516,0,1516,0,1516,0,1516,0,1516,0,1516,0,1516,0,1516,0,1516,0,1516,0,1516,0,1516,0,1516,0,0,0,0,0,0,0,0,0,0,0,0,0,0,0,0,0,0,0,0,0,
0,0,0,0,0,0,0,0,0,0,0,0,0,0,0,0,0,0,0,0,0,0,0,0,0,0,0,0,0,0,0,0,0,0,0,0,0,0,0,0,0,0,0,0,0,0,0,0,0,0,0,0,0,0,0,0,0,0,0,0,0,0,0,0,0,0,0,0,0,0,0,0,0,0,0,0,0,0,0,0,0,0,0,0,0,0,0,0,0,0,0,0,0,0,0,0,0,0,0,0,0,0,0,0,0,0,0,0,0,0,0,0,0,0,0,0,0,0,0,0,0,0,0,0,0,0,0,0,0,0,0,0,0,0,0,0,0,0,0,0,
0,0,1516,0,1516,0,1516,0,1516,0,1516,0,1516,0,1516,0,1516,0,1516,0,1516,0,1516,0,1516,0,1516,0,1516,0,1516,0,1516,0,1516,0,1516,0,1516,0,1516,0,1516,0,1516,0,1516,0,1516,0,1516,0,1516,0,1516,0,1516,0,1516,0,1516,0,1516,0,1516,0,1516,0,1516,0,1516,0,1516,0,1516,0,1516,0,1516,0,1516,0,1516,0,1516,0,1516,0,1516,0,1516,0,1516,0,1516,0,1516,0,1516,0,1516,0,1516,0,1516,0,1516,0,1516,0,1516,0,1516,0,1516,0,1516,0,1516,0,0,0,0,0,0,0,0,0,0,0,0,0,0,0,0,0,0,0,0,0,
0,0,0,0,0,0,0,0,0,0,0,0,0,0,0,0,0,0,0,0,0,0,0,0,0,0,0,0,0,0,0,0,0,0,0,0,0,0,0,0,0,0,0,0,0,0,0,0,0,0,0,0,0,0,0,0,0,0,0,0,0,0,0,0,0,0,0,0,0,0,0,0,0,0,0,0,0,0,0,0,0,0,0,0,0,0,0,0,0,0,0,0,0,0,0,0,0,0,0,0,0,0,0,0,0,0,0,0,0,0,0,0,0,0,0,0,0,0,0,0,0,0,0,0,0,0,0,0,0,0,0,0,0,0,0,0,0,0,0,0,
0,0,1516,0,1516,0,1516,0,1516,0,1516,0,1516,0,1516,0,1516,0,1516,0,1516,0,1516,0,1516,0,1516,0,1516,0,1516,0,1516,0,1516,0,1516,0,1516,0,1516,0,1516,0,1516,0,1516,0,1516,0,1516,0,1516,0,1516,0,1516,0,1516,0,1516,0,1516,0,1516,0,1516,0,1516,0,1516,0,1516,0,1516,0,1516,0,1516,0,1516,0,1516,0,1516,0,1516,0,1516,0,1516,0,1516,0,1516,0,1516,0,1516,0,1516,0,1516,0,1516,0,1516,0,1516,0,1516,0,1516,0,1516,0,1516,0,1516,0,0,0,0,0,0,0,0,0,0,0,0,0,0,0,0,0,0,0,0,0,
0,0,0,0,0,0,0,0,0,0,0,0,0,0,0,0,0,0,0,0,0,0,0,0,0,0,0,0,0,0,0,0,0,0,0,0,0,0,0,0,0,0,0,0,0,0,0,0,0,0,0,0,0,0,0,0,0,0,0,0,0,0,0,0,0,0,0,0,0,0,0,0,0,0,0,0,0,0,0,0,0,0,0,0,0,0,0,0,0,0,0,0,0,0,0,0,0,0,0,0,0,0,0,0,0,0,0,0,0,0,0,0,0,0,0,0,0,0,0,0,0,0,0,0,0,0,0,0,0,0,0,0,0,0,0,0,0,0,0,0,
0,0,0,0,0,0,0,0,0,0,0,0,0,0,0,0,0,0,0,0,0,0,0,0,0,0,0,0,0,0,0,0,0,0,0,0,0,0,0,0,0,0,0,0,0,0,0,0,0,0,0,0,0,0,0,0,0,0,0,0,0,0,0,0,0,0,0,0,0,0,0,0,0,0,0,0,0,0,0,0,0,0,0,0,0,0,0,0,0,0,0,0,0,0,0,0,0,0,0,0,0,0,0,0,0,0,0,0,0,0,0,0,0,0,0,0,0,0,0,0,0,0,0,0,0,0,0,0,0,0,0,0,0,0,0,0,0,0,0,0,
0,0,0,0,0,0,0,0,0,0,0,0,0,0,0,0,0,0,0,0,0,0,0,0,0,0,0,0,0,0,0,0,0,0,0,0,0,0,0,0,0,0,0,0,0,0,0,0,0,0,0,0,0,0,0,0,0,0,0,0,0,0,0,0,0,0,0,0,0,0,0,0,0,0,0,0,0,0,0,0,0,0,0,0,0,0,0,0,0,0,0,0,0,0,0,0,0,0,0,0,0,0,0,0,0,0,0,0,0,0,0,0,0,0,0,0,0,0,0,0,0,0,0,0,0,0,0,0,0,0,0,0,0,0,0,0,0,0,0,0,
0,0,0,0,0,0,0,0,0,0,0,0,0,0,0,0,0,0,0,0,0,0,0,0,0,0,0,0,0,0,0,0,0,0,0,0,0,0,0,0,0,0,0,0,0,0,0,0,0,0,0,0,0,0,0,0,0,0,0,0,0,0,0,0,0,0,0,0,0,0,0,0,0,0,0,0,0,0,0,0,0,0,0,0,0,0,0,0,0,0,0,0,0,0,0,0,0,0,0,0,0,0,0,0,0,0,0,0,0,0,0,0,0,0,0,0,0,0,0,0,0,0,0,0,0,0,0,0,0,0,0,0,0,0,0,0,0,0,0,0,
0,0,0,0,0,0,0,0,0,0,0,0,0,0,0,0,0,0,0,0,0,0,0,0,0,0,0,0,0,0,0,0,0,0,0,0,0,0,0,0,0,0,0,0,0,0,0,0,0,0,0,0,0,0,0,0,0,0,0,0,0,0,0,0,0,0,0,0,0,0,0,0,0,0,0,0,0,0,0,0,0,0,0,0,0,0,0,0,0,0,0,0,0,0,0,0,0,0,0,0,0,0,0,0,0,0,0,0,0,0,0,0,0,0,0,0,0,0,0,0,0,0,0,0,0,0,0,0,0,0,0,0,0,0,0,0,0,0,0,0,
0,0,0,0,0,0,0,0,0,0,0,0,0,0,0,0,0,0,0,0,0,0,0,0,0,0,0,0,0,0,0,0,0,0,0,0,0,0,0,0,0,0,0,0,0,0,0,0,0,0,0,0,0,0,0,0,0,0,0,0,0,0,0,0,0,0,0,0,0,0,0,0,0,0,0,0,0,0,0,0,0,0,0,0,0,0,0,0,0,0,0,0,0,0,0,0,0,0,0,0,0,0,0,0,0,0,0,0,0,0,0,0,0,0,0,0,0,0,0,0,0,0,0,0,0,0,0,0,0,0,0,0,0,0,0,0,0,0,0,0,
0,0,0,0,0,0,0,0,0,0,0,0,0,0,0,0,0,0,0,0,0,0,0,0,0,0,0,0,0,0,0,0,0,0,0,0,0,0,0,0,0,0,0,0,0,0,0,0,0,0,0,0,0,0,0,0,0,0,0,0,0,0,0,0,0,0,0,0,0,0,0,0,0,0,0,0,0,0,0,0,0,0,0,0,0,0,0,0,0,0,0,0,0,0,0,0,0,0,0,0,0,0,0,0,0,0,0,0,0,0,0,0,0,0,0,0,0,0,0,0,0,0,0,0,0,0,0,0,0,0,0,0,0,0,0,0,0,0,0,0,
0,0,0,0,0,0,0,0,0,0,0,0,0,0,0,0,0,0,0,0,0,0,0,0,0,0,0,0,0,0,0,0,0,0,0,0,0,0,0,0,0,0,0,0,0,0,0,0,0,0,0,0,0,0,0,0,0,0,0,0,0,0,0,0,0,0,0,0,0,0,0,0,0,0,0,0,0,0,0,0,0,0,0,0,0,0,0,0,0,0,0,0,0,0,0,0,0,0,0,0,0,0,0,0,0,0,0,0,0,0,0,0,0,0,0,0,0,0,0,0,0,0,0,0,0,0,0,0,0,0,0,0,0,0,0,0,0,0,0,0,
0,0,0,0,0,0,0,0,0,0,0,0,0,0,0,0,0,0,0,0,0,0,0,0,0,0,0,0,0,0,0,0,0,0,0,0,0,0,0,0,0,0,0,0,0,0,0,0,0,0,0,0,0,0,0,0,0,0,0,0,0,0,0,0,0,0,0,0,0,0,0,0,0,0,0,0,0,0,0,0,0,0,0,0,0,0,0,0,0,0,0,0,0,0,0,0,0,0,0,0,0,0,0,0,0,0,0,0,0,0,0,0,0,0,0,0,0,0,0,0,0,0,0,0,0,0,0,0,0,0,0,0,0,0,0,0,0,0,0,0,
0,0,0,0,0,0,0,0,0,0,0,0,0,0,0,0,0,0,0,0,0,0,0,0,0,0,0,0,0,0,0,0,0,0,0,0,0,0,0,0,0,0,0,0,0,0,0,0,0,0,0,0,0,0,0,0,0,0,0,0,0,0,0,0,0,0,0,0,0,0,0,0,0,0,0,0,0,0,0,0,0,0,0,0,0,0,0,0,0,0,0,0,0,0,0,0,0,0,0,0,0,0,0,0,0,0,0,0,0,0,0,0,0,0,0,0,0,0,0,0,0,0,0,0,0,0,0,0,0,0,0,0,0,0,0,0,0,0,0,0,
0,0,0,0,0,0,0,0,0,0,0,0,0,0,0,0,0,0,0,0,0,0,0,0,0,0,0,0,0,0,0,0,0,0,0,0,0,0,0,0,0,0,0,0,0,0,0,0,0,0,0,0,0,0,0,0,0,0,0,0,0,0,0,0,0,0,0,0,0,0,0,0,0,0,0,0,0,0,0,0,0,0,0,0,0,0,0,0,0,0,0,0,0,0,0,0,0,0,0,0,0,0,0,0,0,0,0,0,0,0,0,0,0,0,0,0,0,0,0,0,0,0,0,0,0,0,0,0,0,0,0,0,0,0,0,0,0,0,0,0,
0,0,0,0,0,0,0,0,0,0,0,0,0,0,0,0,0,0,0,0,0,0,0,0,0,0,0,0,0,0,0,0,0,0,0,0,0,0,0,0,0,0,0,0,0,0,0,0,0,0,0,0,0,0,0,0,0,0,0,0,0,0,0,0,0,0,0,0,0,0,0,0,0,0,0,0,0,0,0,0,0,0,0,0,0,0,0,0,0,0,0,0,0,0,0,0,0,0,0,0,0,0,0,0,0,0,0,0,0,0,0,0,0,0,0,0,0,0,0,0,0,0,0,0,0,0,0,0,0,0,0,0,0,0,0,0,0,0,0,0,
0,0,0,0,0,0,0,0,0,0,0,0,0,0,0,0,0,0,0,0,0,0,0,0,0,0,0,0,0,0,0,0,0,0,0,0,0,0,0,0,0,0,0,0,0,0,0,0,0,0,0,0,0,0,0,0,0,0,0,0,0,0,0,0,0,0,0,0,0,0,0,0,0,0,0,0,0,0,0,0,0,0,0,0,0,0,0,0,0,0,0,0,0,0,0,0,0,0,0,0,0,0,0,0,0,0,0,0,0,0,0,0,0,0,0,0,0,0,0,0,0,0,0,0,0,0,0,0,0,0,0,0,0,0,0,0,0,0,0,0,
0,0,0,0,0,0,0,0,0,0,0,0,0,0,0,0,0,0,0,0,0,0,0,0,0,0,0,0,0,0,0,0,0,0,0,0,0,0,0,0,0,0,0,0,0,0,0,0,0,0,0,0,0,0,0,0,0,0,0,0,0,0,0,0,0,0,0,0,0,0,0,0,0,0,0,0,0,0,0,0,0,0,0,0,0,0,0,0,0,0,0,0,0,0,0,0,0,0,0,0,0,0,0,0,0,0,0,0,0,0,0,0,0,0,0,0,0,0,0,0,0,0,0,0,0,0,0,0,0,0,0,0,0,0,0,0,0,0,0,0,
0,0,0,0,0,0,0,0,0,0,0,0,0,0,0,0,0,0,0,0,0,0,0,0,0,0,0,0,0,0,0,0,0,0,0,0,0,0,0,0,0,0,0,0,0,0,0,0,0,0,0,0,0,0,0,0,0,0,0,0,0,0,0,0,0,0,0,0,0,0,0,0,0,0,0,0,0,0,0,0,0,0,0,0,0,0,0,0,0,0,0,0,0,0,0,0,0,0,0,0,0,0,0,0,0,0,0,0,0,0,0,0,0,0,0,0,0,0,0,0,0,0,0,0,0,0,0,0,0,0,0,0,0,0,0,0,0,0,0,0
</data>
 </layer>
 <objectgroup draworder="index" id="3" name="Impl_Standard"/>
 <objectgroup draworder="index" id="4" name="Instances">
  <object id="1" template="../../../templates/dungeon/obj_dungeon_ladder_up.tx" type="obj_dungeon_ladder_up" x="720" y="176"/>
 </objectgroup>
 <objectgroup draworder="index" id="5" name="Level_0_Assets">
  <object id="2" type="asset" gid="181" x="640" y="349" width="48" height="64"/>
  <object id="3" type="asset" gid="974" x="376" y="728" width="32" height="64"/>
  <object id="4" type="asset" gid="974" x="440" y="728" width="32" height="64"/>
  <object id="5" type="asset" gid="974" x="376" y="616" width="32" height="64"/>
  <object id="6" type="asset" gid="974" x="440" y="616" width="32" height="64"/>
  <object id="7" type="asset" gid="974" x="376" y="552" width="32" height="64"/>
  <object id="8" type="asset" gid="974" x="440" y="552" width="32" height="64"/>
  <object id="9" type="asset" gid="974" x="712" y="552" width="32" height="64"/>
  <object id="10" type="asset" gid="974" x="648" y="552" width="32" height="64"/>
  <object id="11" type="asset" gid="974" x="648" y="616" width="32" height="64"/>
  <object id="12" type="asset" gid="974" x="712" y="616" width="32" height="64"/>
  <object id="13" type="asset" gid="974" x="648" y="728" width="32" height="64"/>
  <object id="14" type="asset" gid="974" x="712" y="728" width="32" height="64"/>
  <object id="15" type="asset" gid="181" x="624" y="173" width="48" height="64"/>
  <object id="16" type="asset" gid="903" x="448" y="192" width="48" height="48"/>
  <object id="17" type="asset" gid="914" x="424" y="104" width="48" height="64"/>
  <object id="18" type="asset" gid="914" x="664" y="104" width="48" height="64"/>
  <object id="19" type="asset" gid="914" x="536" y="104" width="48" height="64"/>
  <object id="20" type="asset" gid="1017" x="696" y="104" width="48" height="64"/>
  <object id="21" type="asset" gid="1017" x="456" y="104" width="48" height="64"/>
  <object id="22" type="asset" gid="1017" x="584" y="104" width="48" height="64"/>
  <object id="23" type="asset" gid="1234" x="568" y="104" width="32" height="64"/>
  <object id="24" type="asset" gid="445" x="512" y="280" width="40" height="40"/>
  <object id="25" type="asset" gid="272" x="504" y="616" width="40" height="40"/>
  <object id="26" type="asset" gid="1486" x="584" y="360" width="32" height="32"/>
  <object id="27" type="asset" gid="869" x="584" y="568" width="32" height="32"/>
  <object id="28" type="asset" gid="862" x="512" y="96" width="16" height="48"/>
  <object id="29" type="asset" gid="862" x="640" y="96" width="16" height="48"/>
  <object id="30" type="asset" gid="862" x="752" y="96" width="16" height="48"/>
  <object id="31" type="asset" gid="862" x="400" y="96" width="16" height="48"/>
  <object id="32" type="asset" gid="163" x="496" y="160" width="24" height="24"/>
  <object id="33" type="asset" gid="687" x="512" y="160" width="24" height="24"/>
 </objectgroup>
</map>
