<?xml version="1.0" encoding="UTF-8"?>
<map version="1.10" tiledversion="1.11.2" class="Dungeon" orientation="orthogonal" renderorder="right-down" width="140" height="108" tilewidth="8" tileheight="8" infinite="0" backgroundcolor="#3a003a" nextlayerid="7" nextobjectid="24">
 <tileset firstgid="1" source="../../../__gm_import.tsx"/>
 <tileset firstgid="1504" source="../../../tile_sets/Dungeon/Prototype/tile_dungeon_prototype.tsx"/>
 <tileset firstgid="1516" source="../../../tile_sets/Dungeon/Prototype/tile_main_dungeon_tile_chance.tsx"/>
 <layer id="1" name="Prototype" width="140" height="108">
  <properties>
   <property name="maybe_animation_id" value="c523b4ebab90977e"/>
   <property name="maybe_tileset_id" value="1f279aa214066309"/>
   <property name="tile_size" type="int" value="16"/>
  </properties>
  <data encoding="csv">
0,0,0,0,0,0,0,0,0,0,0,0,0,0,0,0,0,0,0,0,0,0,1504,0,1504,0,1504,0,1504,0,1504,0,1504,0,1504,0,1504,0,1504,0,1504,0,1504,0,1504,0,1504,0,1504,0,1504,0,1504,0,1504,0,1504,0,1504,0,1504,0,1504,0,1504,0,1504,0,1504,0,1504,0,1504,0,1504,0,1504,0,1504,0,1504,0,1504,0,1504,0,1504,0,1504,0,1504,0,1504,0,1504,0,1504,0,1504,0,1504,0,1504,0,1504,0,1504,0,1504,0,1504,0,1504,0,1504,0,1504,0,1504,0,1504,0,1504,0,1504,0,0,0,0,0,0,0,0,0,0,0,0,0,0,0,
0,0,0,0,0,0,0,0,0,0,0,0,0,0,0,0,0,0,0,0,0,0,0,0,0,0,0,0,0,0,0,0,0,0,0,0,0,0,0,0,0,0,0,0,0,0,0,0,0,0,0,0,0,0,0,0,0,0,0,0,0,0,0,0,0,0,0,0,0,0,0,0,0,0,0,0,0,0,0,0,0,0,0,0,0,0,0,0,0,0,0,0,0,0,0,0,0,0,0,0,0,0,0,0,0,0,0,0,0,0,0,0,0,0,0,0,0,0,0,0,0,0,0,0,0,0,0,0,0,0,0,0,0,0,0,0,0,0,0,0,
0,0,0,0,0,0,0,0,0,0,0,0,0,0,0,0,0,0,0,0,0,0,1504,0,1504,0,1504,0,1504,0,1504,0,1504,0,1504,0,1504,0,1504,0,1504,0,1504,0,1504,0,1504,0,1504,0,1504,0,1504,0,1504,0,1504,0,1504,0,1504,0,1504,0,1504,0,1504,0,1504,0,1504,0,1504,0,1504,0,1504,0,1504,0,1504,0,1504,0,1504,0,1504,0,1504,0,1504,0,1504,0,1504,0,1504,0,1504,0,1504,0,1504,0,1504,0,1504,0,1504,0,1504,0,1504,0,1504,0,1504,0,1504,0,1504,0,1504,0,1504,0,0,0,0,0,0,0,0,0,0,0,0,0,0,0,
0,0,0,0,0,0,0,0,0,0,0,0,0,0,0,0,0,0,0,0,0,0,0,0,0,0,0,0,0,0,0,0,0,0,0,0,0,0,0,0,0,0,0,0,0,0,0,0,0,0,0,0,0,0,0,0,0,0,0,0,0,0,0,0,0,0,0,0,0,0,0,0,0,0,0,0,0,0,0,0,0,0,0,0,0,0,0,0,0,0,0,0,0,0,0,0,0,0,0,0,0,0,0,0,0,0,0,0,0,0,0,0,0,0,0,0,0,0,0,0,0,0,0,0,0,0,0,0,0,0,0,0,0,0,0,0,0,0,0,0,
0,0,0,0,1504,0,1504,0,1504,0,1504,0,1504,0,1504,0,1504,0,1504,0,1504,0,1504,0,1504,0,1504,0,1504,0,1504,0,1504,0,1504,0,1504,0,1504,0,1504,0,1504,0,1504,0,1504,0,1504,0,1504,0,1504,0,1504,0,1504,0,1504,0,1504,0,1504,0,1504,0,1504,0,1504,0,1504,0,1504,0,1504,0,1504,0,1504,0,1504,0,1504,0,1504,0,1504,0,1504,0,1504,0,1504,0,1504,0,1504,0,1504,0,1504,0,1504,0,1504,0,1504,0,1504,0,1504,0,1504,0,1504,0,1504,0,1504,0,1504,0,1504,0,1504,0,0,0,0,0,0,0,0,0,0,0,0,0,0,0,
0,0,0,0,0,0,0,0,0,0,0,0,0,0,0,0,0,0,0,0,0,0,0,0,0,0,0,0,0,0,0,0,0,0,0,0,0,0,0,0,0,0,0,0,0,0,0,0,0,0,0,0,0,0,0,0,0,0,0,0,0,0,0,0,0,0,0,0,0,0,0,0,0,0,0,0,0,0,0,0,0,0,0,0,0,0,0,0,0,0,0,0,0,0,0,0,0,0,0,0,0,0,0,0,0,0,0,0,0,0,0,0,0,0,0,0,0,0,0,0,0,0,0,0,0,0,0,0,0,0,0,0,0,0,0,0,0,0,0,0,
0,0,1504,0,1504,0,1504,0,1504,0,1504,0,1504,0,1504,0,1504,0,1504,0,1504,0,1504,0,1504,0,1504,0,1504,0,1504,0,1504,0,1504,0,1504,0,1504,0,1504,0,1504,0,1504,0,1504,0,1504,0,1504,0,1504,0,1504,0,1504,0,1504,0,1504,0,1504,0,1504,0,1504,0,1504,0,1504,0,1504,0,1504,0,1504,0,1504,0,1504,0,1504,0,1504,0,1504,0,1504,0,1504,0,1504,0,1504,0,1504,0,1504,0,1504,0,1504,0,1504,0,1504,0,1504,0,1504,0,1504,0,1504,0,1504,0,1504,0,1504,0,1504,0,1504,0,0,0,0,0,0,0,0,0,0,0,0,0,0,0,
0,0,0,0,0,0,0,0,0,0,0,0,0,0,0,0,0,0,0,0,0,0,0,0,0,0,0,0,0,0,0,0,0,0,0,0,0,0,0,0,0,0,0,0,0,0,0,0,0,0,0,0,0,0,0,0,0,0,0,0,0,0,0,0,0,0,0,0,0,0,0,0,0,0,0,0,0,0,0,0,0,0,0,0,0,0,0,0,0,0,0,0,0,0,0,0,0,0,0,0,0,0,0,0,0,0,0,0,0,0,0,0,0,0,0,0,0,0,0,0,0,0,0,0,0,0,0,0,0,0,0,0,0,0,0,0,0,0,0,0,
0,0,1504,0,1504,0,1504,0,1504,0,1504,0,1504,0,1504,0,1504,0,1504,0,1504,0,1504,0,1504,0,1504,0,1504,0,1504,0,1504,0,1504,0,1504,0,1504,0,1504,0,1504,0,1504,0,1504,0,1504,0,1504,0,1504,0,1504,0,1504,0,1504,0,1504,0,1504,0,1504,0,1504,0,1504,0,1504,0,1504,0,1504,0,1504,0,1504,0,1504,0,1504,0,1504,0,1504,0,1504,0,1504,0,1504,0,1504,0,1504,0,1504,0,1504,0,1504,0,1504,0,1504,0,1504,0,1504,0,1504,0,1504,0,1504,0,1504,0,1504,0,1504,0,1504,0,1504,0,1504,0,0,0,0,0,0,0,0,0,0,0,
0,0,0,0,0,0,0,0,0,0,0,0,0,0,0,0,0,0,0,0,0,0,0,0,0,0,0,0,0,0,0,0,0,0,0,0,0,0,0,0,0,0,0,0,0,0,0,0,0,0,0,0,0,0,0,0,0,0,0,0,0,0,0,0,0,0,0,0,0,0,0,0,0,0,0,0,0,0,0,0,0,0,0,0,0,0,0,0,0,0,0,0,0,0,0,0,0,0,0,0,0,0,0,0,0,0,0,0,0,0,0,0,0,0,0,0,0,0,0,0,0,0,0,0,0,0,0,0,0,0,0,0,0,0,0,0,0,0,0,0,
0,0,1504,0,1504,0,1504,0,1504,0,1504,0,1504,0,1504,0,1504,0,1504,0,1504,0,1504,0,1504,0,1504,0,1504,0,1504,0,1504,0,1504,0,1504,0,1504,0,1504,0,1504,0,1504,0,1504,0,1504,0,1504,0,1504,0,1504,0,1504,0,1504,0,1504,0,1504,0,1504,0,1504,0,1504,0,1504,0,1504,0,1504,0,1504,0,1504,0,1504,0,1504,0,1504,0,1504,0,1504,0,1504,0,1504,0,1504,0,1504,0,1504,0,1504,0,1504,0,1504,0,1504,0,1504,0,1504,0,1504,0,1504,0,1504,0,1504,0,1504,0,1504,0,1504,0,1504,0,1504,0,0,0,0,0,0,0,0,0,0,0,
0,0,0,0,0,0,0,0,0,0,0,0,0,0,0,0,0,0,0,0,0,0,0,0,0,0,0,0,0,0,0,0,0,0,0,0,0,0,0,0,0,0,0,0,0,0,0,0,0,0,0,0,0,0,0,0,0,0,0,0,0,0,0,0,0,0,0,0,0,0,0,0,0,0,0,0,0,0,0,0,0,0,0,0,0,0,0,0,0,0,0,0,0,0,0,0,0,0,0,0,0,0,0,0,0,0,0,0,0,0,0,0,0,0,0,0,0,0,0,0,0,0,0,0,0,0,0,0,0,0,0,0,0,0,0,0,0,0,0,0,
0,0,1504,0,1504,0,1504,0,1504,0,1504,0,1504,0,1504,0,1504,0,1504,0,1504,0,1504,0,1504,0,1504,0,1504,0,1504,0,1504,0,1504,0,1504,0,1504,0,1504,0,1504,0,1504,0,1504,0,1504,0,1504,0,1504,0,1504,0,1504,0,1504,0,1504,0,1504,0,1504,0,1504,0,1504,0,1504,0,1504,0,1504,0,1504,0,1504,0,1504,0,1504,0,1504,0,1504,0,1504,0,1504,0,1504,0,1504,0,1504,0,1504,0,1504,0,1504,0,1504,0,1504,0,1504,0,1504,0,1504,0,1504,0,1504,0,1504,0,1504,0,1504,0,1504,0,1504,0,1504,0,0,0,0,0,0,0,0,0,0,0,
0,0,0,0,0,0,0,0,0,0,0,0,0,0,0,0,0,0,0,0,0,0,0,0,0,0,0,0,0,0,0,0,0,0,0,0,0,0,0,0,0,0,0,0,0,0,0,0,0,0,0,0,0,0,0,0,0,0,0,0,0,0,0,0,0,0,0,0,0,0,0,0,0,0,0,0,0,0,0,0,0,0,0,0,0,0,0,0,0,0,0,0,0,0,0,0,0,0,0,0,0,0,0,0,0,0,0,0,0,0,0,0,0,0,0,0,0,0,0,0,0,0,0,0,0,0,0,0,0,0,0,0,0,0,0,0,0,0,0,0,
0,0,1504,0,1504,0,1504,0,1504,0,1504,0,1504,0,1504,0,1504,0,1504,0,1504,0,1504,0,1504,0,1504,0,1504,0,1504,0,1504,0,1504,0,1504,0,1504,0,1504,0,1504,0,1504,0,1504,0,1504,0,1504,0,1504,0,1504,0,1504,0,1504,0,1504,0,1504,0,1504,0,1504,0,1504,0,1504,0,1504,0,1504,0,1504,0,1504,0,1504,0,1504,0,1504,0,1504,0,1504,0,1504,0,1504,0,1504,0,1504,0,1504,0,1504,0,1504,0,1504,0,1504,0,1504,0,1504,0,1504,0,1504,0,1504,0,1504,0,1504,0,1504,0,1504,0,1504,0,1504,0,0,0,0,0,0,0,0,0,0,0,
0,0,0,0,0,0,0,0,0,0,0,0,0,0,0,0,0,0,0,0,0,0,0,0,0,0,0,0,0,0,0,0,0,0,0,0,0,0,0,0,0,0,0,0,0,0,0,0,0,0,0,0,0,0,0,0,0,0,0,0,0,0,0,0,0,0,0,0,0,0,0,0,0,0,0,0,0,0,0,0,0,0,0,0,0,0,0,0,0,0,0,0,0,0,0,0,0,0,0,0,0,0,0,0,0,0,0,0,0,0,0,0,0,0,0,0,0,0,0,0,0,0,0,0,0,0,0,0,0,0,0,0,0,0,0,0,0,0,0,0,
0,0,1504,0,1504,0,1504,0,1504,0,1504,0,1504,0,1504,0,1504,0,1504,0,1504,0,1504,0,1504,0,1504,0,1504,0,1504,0,1504,0,1504,0,1504,0,1504,0,1504,0,1504,0,1504,0,1504,0,1504,0,1504,0,1504,0,1504,0,1504,0,1504,0,1504,0,1504,0,1504,0,1504,0,1504,0,1504,0,1504,0,1504,0,1504,0,1504,0,1504,0,1504,0,1504,0,1504,0,1504,0,1504,0,1504,0,1504,0,1504,0,1504,0,1504,0,1504,0,1504,0,1504,0,1504,0,1504,0,1504,0,1504,0,1504,0,1504,0,1504,0,1504,0,1504,0,1504,0,1504,0,0,0,0,0,0,0,0,0,0,0,
0,0,0,0,0,0,0,0,0,0,0,0,0,0,0,0,0,0,0,0,0,0,0,0,0,0,0,0,0,0,0,0,0,0,0,0,0,0,0,0,0,0,0,0,0,0,0,0,0,0,0,0,0,0,0,0,0,0,0,0,0,0,0,0,0,0,0,0,0,0,0,0,0,0,0,0,0,0,0,0,0,0,0,0,0,0,0,0,0,0,0,0,0,0,0,0,0,0,0,0,0,0,0,0,0,0,0,0,0,0,0,0,0,0,0,0,0,0,0,0,0,0,0,0,0,0,0,0,0,0,0,0,0,0,0,0,0,0,0,0,
0,0,1504,0,1504,0,1504,0,1504,0,1504,0,1504,0,1504,0,1504,0,1504,0,1504,0,1504,0,1504,0,1504,0,1504,0,1504,0,1504,0,1504,0,1504,0,1504,0,1504,0,1504,0,1504,0,1504,0,1504,0,1504,0,1504,0,1504,0,1504,0,1504,0,1504,0,1504,0,1504,0,1504,0,1504,0,1504,0,1504,0,1504,0,1504,0,1504,0,1504,0,1504,0,1504,0,1504,0,1504,0,1504,0,1504,0,1504,0,1504,0,1504,0,1504,0,1504,0,1504,0,1504,0,1504,0,1504,0,1504,0,1504,0,1504,0,1504,0,1504,0,1504,0,1504,0,1504,0,1504,0,0,0,0,0,0,0,0,0,0,0,
0,0,0,0,0,0,0,0,0,0,0,0,0,0,0,0,0,0,0,0,0,0,0,0,0,0,0,0,0,0,0,0,0,0,0,0,0,0,0,0,0,0,0,0,0,0,0,0,0,0,0,0,0,0,0,0,0,0,0,0,0,0,0,0,0,0,0,0,0,0,0,0,0,0,0,0,0,0,0,0,0,0,0,0,0,0,0,0,0,0,0,0,0,0,0,0,0,0,0,0,0,0,0,0,0,0,0,0,0,0,0,0,0,0,0,0,0,0,0,0,0,0,0,0,0,0,0,0,0,0,0,0,0,0,0,0,0,0,0,0,
0,0,1504,0,1504,0,1504,0,1504,0,1504,0,1504,0,1504,0,1504,0,1504,0,1504,0,1504,0,1504,0,1504,0,1504,0,1504,0,1504,0,1504,0,1504,0,1504,0,1504,0,1504,0,1504,0,1504,0,1504,0,1504,0,1504,0,1504,0,1504,0,1504,0,1504,0,1504,0,1504,0,1504,0,1504,0,1504,0,1504,0,1504,0,1504,0,1504,0,1504,0,1504,0,1504,0,1504,0,1504,0,1504,0,1504,0,1504,0,1504,0,1504,0,1504,0,1504,0,1504,0,1504,0,1504,0,1504,0,1504,0,1504,0,1504,0,1504,0,1504,0,1504,0,1504,0,1504,0,1504,0,0,0,0,0,0,0,0,0,0,0,
0,0,0,0,0,0,0,0,0,0,0,0,0,0,0,0,0,0,0,0,0,0,0,0,0,0,0,0,0,0,0,0,0,0,0,0,0,0,0,0,0,0,0,0,0,0,0,0,0,0,0,0,0,0,0,0,0,0,0,0,0,0,0,0,0,0,0,0,0,0,0,0,0,0,0,0,0,0,0,0,0,0,0,0,0,0,0,0,0,0,0,0,0,0,0,0,0,0,0,0,0,0,0,0,0,0,0,0,0,0,0,0,0,0,0,0,0,0,0,0,0,0,0,0,0,0,0,0,0,0,0,0,0,0,0,0,0,0,0,0,
0,0,1504,0,1504,0,1504,0,1504,0,1504,0,1504,0,1504,0,1504,0,1504,0,1504,0,1504,0,1504,0,1504,0,1504,0,1504,0,1504,0,1504,0,1504,0,1504,0,1504,0,1504,0,1504,0,1504,0,1504,0,1504,0,1504,0,1504,0,1504,0,1504,0,1504,0,1504,0,1504,0,1504,0,1504,0,1504,0,1504,0,1504,0,1504,0,1504,0,1504,0,1504,0,1504,0,1504,0,1504,0,1504,0,1504,0,1504,0,1504,0,1504,0,1504,0,1504,0,1504,0,1504,0,1504,0,1504,0,1504,0,1504,0,1504,0,1504,0,1504,0,1504,0,1504,0,1504,0,1504,0,0,0,0,0,0,0,0,0,0,0,
0,0,0,0,0,0,0,0,0,0,0,0,0,0,0,0,0,0,0,0,0,0,0,0,0,0,0,0,0,0,0,0,0,0,0,0,0,0,0,0,0,0,0,0,0,0,0,0,0,0,0,0,0,0,0,0,0,0,0,0,0,0,0,0,0,0,0,0,0,0,0,0,0,0,0,0,0,0,0,0,0,0,0,0,0,0,0,0,0,0,0,0,0,0,0,0,0,0,0,0,0,0,0,0,0,0,0,0,0,0,0,0,0,0,0,0,0,0,0,0,0,0,0,0,0,0,0,0,0,0,0,0,0,0,0,0,0,0,0,0,
0,0,1504,0,1504,0,1504,0,1504,0,1504,0,1504,0,1504,0,1504,0,1504,0,1504,0,1504,0,1504,0,1504,0,1504,0,1504,0,1504,0,1504,0,1504,0,1504,0,1504,0,1504,0,1504,0,1504,0,1504,0,1504,0,1504,0,1504,0,1504,0,1504,0,1504,0,1504,0,1504,0,1504,0,1506,0,1506,0,1506,0,1506,0,1506,0,1504,0,1504,0,1504,0,1504,0,1504,0,1504,0,1504,0,1504,0,1504,0,1504,0,1504,0,1504,0,1504,0,1504,0,1504,0,1504,0,1504,0,1504,0,1504,0,1504,0,1504,0,1504,0,1504,0,1504,0,1504,0,1504,0,0,0,0,0,0,0,0,0,0,0,
0,0,0,0,0,0,0,0,0,0,0,0,0,0,0,0,0,0,0,0,0,0,0,0,0,0,0,0,0,0,0,0,0,0,0,0,0,0,0,0,0,0,0,0,0,0,0,0,0,0,0,0,0,0,0,0,0,0,0,0,0,0,0,0,0,0,0,0,0,0,0,0,0,0,0,0,0,0,0,0,0,0,0,0,0,0,0,0,0,0,0,0,0,0,0,0,0,0,0,0,0,0,0,0,0,0,0,0,0,0,0,0,0,0,0,0,0,0,0,0,0,0,0,0,0,0,0,0,0,0,0,0,0,0,0,0,0,0,0,0,
0,0,1504,0,1504,0,1504,0,1504,0,1504,0,1504,0,1504,0,1504,0,1504,0,1504,0,1504,0,1504,0,1504,0,1504,0,1504,0,1504,0,1504,0,1504,0,1504,0,1504,0,1504,0,1504,0,1504,0,1504,0,1504,0,1504,0,1504,0,1504,0,1504,0,1504,0,1504,0,1504,0,1504,0,1506,0,1508,0,1508,0,1508,0,1506,0,1504,0,1504,0,1504,0,1504,0,1504,0,1504,0,1504,0,1504,0,1504,0,1504,0,1504,0,1504,0,1504,0,1504,0,1504,0,1504,0,1504,0,1504,0,1504,0,1504,0,1504,0,1504,0,1504,0,1504,0,1504,0,1504,0,0,0,0,0,0,0,0,0,0,0,
0,0,0,0,0,0,0,0,0,0,0,0,0,0,0,0,0,0,0,0,0,0,0,0,0,0,0,0,0,0,0,0,0,0,0,0,0,0,0,0,0,0,0,0,0,0,0,0,0,0,0,0,0,0,0,0,0,0,0,0,0,0,0,0,0,0,0,0,0,0,0,0,0,0,0,0,0,0,0,0,0,0,0,0,0,0,0,0,0,0,0,0,0,0,0,0,0,0,0,0,0,0,0,0,0,0,0,0,0,0,0,0,0,0,0,0,0,0,0,0,0,0,0,0,0,0,0,0,0,0,0,0,0,0,0,0,0,0,0,0,
0,0,1504,0,1504,0,1504,0,1504,0,1504,0,1504,0,1504,0,1504,0,1504,0,1504,0,1504,0,1504,0,1504,0,1504,0,1504,0,1504,0,1504,0,1504,0,1504,0,1504,0,1504,0,1504,0,1504,0,1504,0,1506,0,1506,0,1506,0,1506,0,1506,0,1506,0,1506,0,1506,0,1506,0,1506,0,1508,0,1508,0,1508,0,1506,0,1506,0,1506,0,1506,0,1506,0,1506,0,1506,0,1506,0,1506,0,1506,0,1504,0,1504,0,1504,0,1504,0,1504,0,1504,0,1504,0,1504,0,1504,0,1504,0,1504,0,1504,0,1504,0,1504,0,1504,0,1504,0,1504,0,0,0,0,0,0,0,0,0,0,0,
0,0,0,0,0,0,0,0,0,0,0,0,0,0,0,0,0,0,0,0,0,0,0,0,0,0,0,0,0,0,0,0,0,0,0,0,0,0,0,0,0,0,0,0,0,0,0,0,0,0,0,0,0,0,0,0,0,0,0,0,0,0,0,0,0,0,0,0,0,0,0,0,0,0,0,0,0,0,0,0,0,0,0,0,0,0,0,0,0,0,0,0,0,0,0,0,0,0,0,0,0,0,0,0,0,0,0,0,0,0,0,0,0,0,0,0,0,0,0,0,0,0,0,0,0,0,0,0,0,0,0,0,0,0,0,0,0,0,0,0,
0,0,1504,0,1504,0,1504,0,1504,0,1504,0,1504,0,1504,0,1504,0,1504,0,1504,0,1504,0,1504,0,1504,0,1504,0,1504,0,1504,0,1504,0,1504,0,1504,0,1504,0,1504,0,1504,0,1504,0,1504,0,1506,0,1505,0,1505,0,1505,0,1505,0,1505,0,1512,0,1512,0,1505,0,1505,0,1508,0,1508,0,1508,0,1505,0,1505,0,1512,0,1512,0,1505,0,1505,0,1505,0,1505,0,1505,0,1506,0,1504,0,1504,0,1504,0,1504,0,1504,0,1504,0,1504,0,1504,0,1504,0,1504,0,1504,0,1504,0,1504,0,1504,0,1504,0,1504,0,1504,0,0,0,0,0,0,0,0,0,0,0,
0,0,0,0,0,0,0,0,0,0,0,0,0,0,0,0,0,0,0,0,0,0,0,0,0,0,0,0,0,0,0,0,0,0,0,0,0,0,0,0,0,0,0,0,0,0,0,0,0,0,0,0,0,0,0,0,0,0,0,0,0,0,0,0,0,0,0,0,0,0,0,0,0,0,0,0,0,0,0,0,0,0,0,0,0,0,0,0,0,0,0,0,0,0,0,0,0,0,0,0,0,0,0,0,0,0,0,0,0,0,0,0,0,0,0,0,0,0,0,0,0,0,0,0,0,0,0,0,0,0,0,0,0,0,0,0,0,0,0,0,
0,0,1504,0,1504,0,1504,0,1504,0,1504,0,1504,0,1504,0,1504,0,1504,0,1504,0,1504,0,1504,0,1504,0,1504,0,1504,0,1504,0,1504,0,1504,0,1504,0,1504,0,1504,0,1504,0,1504,0,1504,0,1506,0,1505,0,1508,0,1508,0,1508,0,1505,0,1512,0,1512,0,1505,0,1505,0,1505,0,1505,0,1505,0,1505,0,1505,0,1512,0,1512,0,1505,0,1508,0,1508,0,1508,0,1505,0,1506,0,1504,0,1504,0,1504,0,1504,0,1504,0,1504,0,1504,0,1504,0,1504,0,1504,0,1504,0,1504,0,1504,0,1504,0,1504,0,1504,0,1504,0,0,0,0,0,0,0,0,0,0,0,
0,0,0,0,0,0,0,0,0,0,0,0,0,0,0,0,0,0,0,0,0,0,0,0,0,0,0,0,0,0,0,0,0,0,0,0,0,0,0,0,0,0,0,0,0,0,0,0,0,0,0,0,0,0,0,0,0,0,0,0,0,0,0,0,0,0,0,0,0,0,0,0,0,0,0,0,0,0,0,0,0,0,0,0,0,0,0,0,0,0,0,0,0,0,0,0,0,0,0,0,0,0,0,0,0,0,0,0,0,0,0,0,0,0,0,0,0,0,0,0,0,0,0,0,0,0,0,0,0,0,0,0,0,0,0,0,0,0,0,0,
0,0,1504,0,1504,0,1504,0,1504,0,1504,0,1504,0,1504,0,1504,0,1504,0,1504,0,1504,0,1504,0,1504,0,1504,0,1504,0,1504,0,1504,0,1504,0,1504,0,1504,0,1504,0,1504,0,1504,0,1504,0,1506,0,1505,0,1508,0,1508,0,1508,0,1505,0,1512,0,1512,0,1505,0,1505,0,1505,0,1505,0,1505,0,1505,0,1505,0,1512,0,1512,0,1505,0,1508,0,1508,0,1508,0,1505,0,1506,0,1504,0,1504,0,1504,0,1504,0,1504,0,1504,0,1504,0,1504,0,1504,0,1504,0,1504,0,1504,0,1504,0,1504,0,1504,0,1504,0,1504,0,0,0,0,0,0,0,0,0,0,0,
0,0,0,0,0,0,0,0,0,0,0,0,0,0,0,0,0,0,0,0,0,0,0,0,0,0,0,0,0,0,0,0,0,0,0,0,0,0,0,0,0,0,0,0,0,0,0,0,0,0,0,0,0,0,0,0,0,0,0,0,0,0,0,0,0,0,0,0,0,0,0,0,0,0,0,0,0,0,0,0,0,0,0,0,0,0,0,0,0,0,0,0,0,0,0,0,0,0,0,0,0,0,0,0,0,0,0,0,0,0,0,0,0,0,0,0,0,0,0,0,0,0,0,0,0,0,0,0,0,0,0,0,0,0,0,0,0,0,0,0,
0,0,1504,0,1504,0,1504,0,1504,0,1504,0,1504,0,1504,0,1504,0,1504,0,1504,0,1504,0,1504,0,1504,0,1504,0,1504,0,1504,0,1504,0,1504,0,1504,0,1504,0,1504,0,1504,0,1504,0,1504,0,1506,0,1505,0,1508,0,1508,0,1508,0,1505,0,1512,0,1512,0,1505,0,1505,0,1505,0,1505,0,1505,0,1505,0,1505,0,1512,0,1512,0,1505,0,1508,0,1508,0,1508,0,1505,0,1506,0,1504,0,1504,0,1504,0,1504,0,1504,0,1504,0,1504,0,1504,0,1504,0,1504,0,1504,0,1504,0,1504,0,1504,0,1504,0,1504,0,1504,0,0,0,0,0,0,0,0,0,0,0,
0,0,0,0,0,0,0,0,0,0,0,0,0,0,0,0,0,0,0,0,0,0,0,0,0,0,0,0,0,0,0,0,0,0,0,0,0,0,0,0,0,0,0,0,0,0,0,0,0,0,0,0,0,0,0,0,0,0,0,0,0,0,0,0,0,0,0,0,0,0,0,0,0,0,0,0,0,0,0,0,0,0,0,0,0,0,0,0,0,0,0,0,0,0,0,0,0,0,0,0,0,0,0,0,0,0,0,0,0,0,0,0,0,0,0,0,0,0,0,0,0,0,0,0,0,0,0,0,0,0,0,0,0,0,0,0,0,0,0,0,
0,0,1504,0,1504,0,1504,0,1504,0,1504,0,1504,0,1504,0,1504,0,1504,0,1504,0,1504,0,1504,0,1504,0,1504,0,1504,0,1504,0,1504,0,1504,0,1504,0,1504,0,1504,0,1504,0,1504,0,1504,0,1506,0,1505,0,1505,0,1505,0,1505,0,1505,0,1512,0,1512,0,1505,0,1505,0,1505,0,1505,0,1505,0,1505,0,1505,0,1512,0,1512,0,1505,0,1505,0,1505,0,1505,0,1505,0,1506,0,1504,0,1504,0,1504,0,1504,0,1504,0,1504,0,1504,0,1504,0,1504,0,1504,0,1504,0,1504,0,1504,0,1504,0,1504,0,1504,0,1504,0,0,0,0,0,0,0,0,0,0,0,
0,0,0,0,0,0,0,0,0,0,0,0,0,0,0,0,0,0,0,0,0,0,0,0,0,0,0,0,0,0,0,0,0,0,0,0,0,0,0,0,0,0,0,0,0,0,0,0,0,0,0,0,0,0,0,0,0,0,0,0,0,0,0,0,0,0,0,0,0,0,0,0,0,0,0,0,0,0,0,0,0,0,0,0,0,0,0,0,0,0,0,0,0,0,0,0,0,0,0,0,0,0,0,0,0,0,0,0,0,0,0,0,0,0,0,0,0,0,0,0,0,0,0,0,0,0,0,0,0,0,0,0,0,0,0,0,0,0,0,0,
0,0,1504,0,1504,0,1504,0,1504,0,1504,0,1504,0,1504,0,1504,0,1504,0,1504,0,1504,0,1504,0,1504,0,1504,0,1504,0,1504,0,1504,0,1504,0,1504,0,1504,0,1504,0,1504,0,1504,0,1504,0,1506,0,1512,0,1512,0,1512,0,1512,0,1512,0,1512,0,1512,0,1505,0,1505,0,1505,0,1505,0,1505,0,1505,0,1505,0,1512,0,1512,0,1512,0,1512,0,1512,0,1512,0,1512,0,1506,0,1504,0,1504,0,1504,0,1504,0,1504,0,1504,0,1504,0,1504,0,1504,0,1504,0,1504,0,1504,0,1504,0,1504,0,1504,0,1504,0,1504,0,0,0,0,0,0,0,0,0,0,0,
0,0,0,0,0,0,0,0,0,0,0,0,0,0,0,0,0,0,0,0,0,0,0,0,0,0,0,0,0,0,0,0,0,0,0,0,0,0,0,0,0,0,0,0,0,0,0,0,0,0,0,0,0,0,0,0,0,0,0,0,0,0,0,0,0,0,0,0,0,0,0,0,0,0,0,0,0,0,0,0,0,0,0,0,0,0,0,0,0,0,0,0,0,0,0,0,0,0,0,0,0,0,0,0,0,0,0,0,0,0,0,0,0,0,0,0,0,0,0,0,0,0,0,0,0,0,0,0,0,0,0,0,0,0,0,0,0,0,0,0,
0,0,1504,0,1504,0,1504,0,1504,0,1504,0,1504,0,1504,0,1504,0,1504,0,1504,0,1504,0,1504,0,1504,0,1504,0,1504,0,1504,0,1504,0,1504,0,1504,0,1504,0,1504,0,1504,0,1504,0,1504,0,1506,0,1512,0,1512,0,1512,0,1512,0,1512,0,1512,0,1512,0,1505,0,1505,0,1505,0,1505,0,1505,0,1505,0,1505,0,1512,0,1512,0,1512,0,1512,0,1512,0,1512,0,1512,0,1506,0,1504,0,1504,0,1504,0,1504,0,1504,0,1504,0,1504,0,1504,0,1504,0,1504,0,1504,0,1504,0,1504,0,1504,0,1504,0,1504,0,1504,0,0,0,0,0,0,0,0,0,0,0,
0,0,0,0,0,0,0,0,0,0,0,0,0,0,0,0,0,0,0,0,0,0,0,0,0,0,0,0,0,0,0,0,0,0,0,0,0,0,0,0,0,0,0,0,0,0,0,0,0,0,0,0,0,0,0,0,0,0,0,0,0,0,0,0,0,0,0,0,0,0,0,0,0,0,0,0,0,0,0,0,0,0,0,0,0,0,0,0,0,0,0,0,0,0,0,0,0,0,0,0,0,0,0,0,0,0,0,0,0,0,0,0,0,0,0,0,0,0,0,0,0,0,0,0,0,0,0,0,0,0,0,0,0,0,0,0,0,0,0,0,
0,0,1504,0,1504,0,1504,0,1504,0,1504,0,1504,0,1504,0,1504,0,1504,0,1504,0,1504,0,1504,0,1504,0,1504,0,1504,0,1504,0,1504,0,1504,0,1504,0,1504,0,1504,0,1504,0,1504,0,1504,0,1506,0,1505,0,1505,0,1505,0,1505,0,1505,0,1505,0,1505,0,1505,0,1505,0,1505,0,1505,0,1505,0,1505,0,1505,0,1505,0,1505,0,1505,0,1505,0,1505,0,1505,0,1505,0,1506,0,1504,0,1504,0,1504,0,1504,0,1504,0,1504,0,1504,0,1504,0,1504,0,1504,0,1504,0,1504,0,1504,0,1504,0,1504,0,1504,0,1504,0,1504,0,1504,0,0,0,0,0,0,0,
0,0,0,0,0,0,0,0,0,0,0,0,0,0,0,0,0,0,0,0,0,0,0,0,0,0,0,0,0,0,0,0,0,0,0,0,0,0,0,0,0,0,0,0,0,0,0,0,0,0,0,0,0,0,0,0,0,0,0,0,0,0,0,0,0,0,0,0,0,0,0,0,0,0,0,0,0,0,0,0,0,0,0,0,0,0,0,0,0,0,0,0,0,0,0,0,0,0,0,0,0,0,0,0,0,0,0,0,0,0,0,0,0,0,0,0,0,0,0,0,0,0,0,0,0,0,0,0,0,0,0,0,0,0,0,0,0,0,0,0,
0,0,1504,0,1504,0,1504,0,1504,0,1504,0,1504,0,1504,0,1504,0,1504,0,1504,0,1504,0,1504,0,1504,0,1504,0,1504,0,1504,0,1504,0,1504,0,1504,0,1504,0,1504,0,1504,0,1504,0,1504,0,1506,0,1505,0,1505,0,1505,0,1505,0,1505,0,1505,0,1505,0,1505,0,1505,0,1508,0,1508,0,1508,0,1505,0,1505,0,1505,0,1505,0,1505,0,1505,0,1505,0,1505,0,1505,0,1506,0,1504,0,1504,0,1504,0,1504,0,1504,0,1504,0,1504,0,1504,0,1504,0,1504,0,1504,0,1504,0,1504,0,1504,0,1504,0,1504,0,1504,0,1504,0,1504,0,0,0,0,0,0,0,
0,0,0,0,0,0,0,0,0,0,0,0,0,0,0,0,0,0,0,0,0,0,0,0,0,0,0,0,0,0,0,0,0,0,0,0,0,0,0,0,0,0,0,0,0,0,0,0,0,0,0,0,0,0,0,0,0,0,0,0,0,0,0,0,0,0,0,0,0,0,0,0,0,0,0,0,0,0,0,0,0,0,0,0,0,0,0,0,0,0,0,0,0,0,0,0,0,0,0,0,0,0,0,0,0,0,0,0,0,0,0,0,0,0,0,0,0,0,0,0,0,0,0,0,0,0,0,0,0,0,0,0,0,0,0,0,0,0,0,0,
0,0,1504,0,1504,0,1504,0,1504,0,1504,0,1504,0,1504,0,1504,0,1504,0,1504,0,1504,0,1504,0,1504,0,1504,0,1504,0,1504,0,1504,0,1504,0,1504,0,1504,0,1504,0,1504,0,1504,0,1504,0,1506,0,1505,0,1505,0,1505,0,1505,0,1505,0,1505,0,1505,0,1505,0,1505,0,1508,0,1508,0,1508,0,1505,0,1505,0,1505,0,1505,0,1505,0,1505,0,1505,0,1505,0,1505,0,1506,0,1504,0,1504,0,1504,0,1504,0,1504,0,1504,0,1504,0,1504,0,1504,0,1504,0,1504,0,1504,0,1504,0,1504,0,1504,0,1504,0,1504,0,1504,0,1504,0,0,0,0,0,0,0,
0,0,0,0,0,0,0,0,0,0,0,0,0,0,0,0,0,0,0,0,0,0,0,0,0,0,0,0,0,0,0,0,0,0,0,0,0,0,0,0,0,0,0,0,0,0,0,0,0,0,0,0,0,0,0,0,0,0,0,0,0,0,0,0,0,0,0,0,0,0,0,0,0,0,0,0,0,0,0,0,0,0,0,0,0,0,0,0,0,0,0,0,0,0,0,0,0,0,0,0,0,0,0,0,0,0,0,0,0,0,0,0,0,0,0,0,0,0,0,0,0,0,0,0,0,0,0,0,0,0,0,0,0,0,0,0,0,0,0,0,
0,0,1504,0,1504,0,1504,0,1504,0,1504,0,1504,0,1504,0,1504,0,1504,0,1504,0,1504,0,1504,0,1504,0,1504,0,1504,0,1504,0,1504,0,1504,0,1504,0,1504,0,1504,0,1504,0,1504,0,1504,0,1506,0,1505,0,1505,0,1505,0,1505,0,1505,0,1505,0,1505,0,1505,0,1505,0,1508,0,1508,0,1508,0,1505,0,1505,0,1505,0,1505,0,1505,0,1505,0,1505,0,1505,0,1505,0,1506,0,1504,0,1504,0,1504,0,1504,0,1504,0,1504,0,1504,0,1504,0,1504,0,1504,0,1504,0,1504,0,1504,0,1504,0,1504,0,1504,0,1504,0,1504,0,1504,0,0,0,0,0,0,0,
0,0,0,0,0,0,0,0,0,0,0,0,0,0,0,0,0,0,0,0,0,0,0,0,0,0,0,0,0,0,0,0,0,0,0,0,0,0,0,0,0,0,0,0,0,0,0,0,0,0,0,0,0,0,0,0,0,0,0,0,0,0,0,0,0,0,0,0,0,0,0,0,0,0,0,0,0,0,0,0,0,0,0,0,0,0,0,0,0,0,0,0,0,0,0,0,0,0,0,0,0,0,0,0,0,0,0,0,0,0,0,0,0,0,0,0,0,0,0,0,0,0,0,0,0,0,0,0,0,0,0,0,0,0,0,0,0,0,0,0,
0,0,1504,0,1504,0,1504,0,1504,0,1504,0,1504,0,1504,0,1504,0,1504,0,1504,0,1504,0,1504,0,1504,0,1504,0,1504,0,1504,0,1504,0,1504,0,1504,0,1504,0,1504,0,1504,0,1504,0,1504,0,1506,0,1512,0,1512,0,1512,0,1512,0,1512,0,1512,0,1512,0,1505,0,1505,0,1505,0,1505,0,1505,0,1505,0,1505,0,1512,0,1512,0,1512,0,1512,0,1512,0,1512,0,1512,0,1506,0,1504,0,1504,0,1504,0,1504,0,1504,0,1504,0,1504,0,1504,0,1504,0,1504,0,1504,0,1504,0,1504,0,1504,0,1504,0,1504,0,1504,0,1504,0,1504,0,0,0,0,0,0,0,
0,0,0,0,0,0,0,0,0,0,0,0,0,0,0,0,0,0,0,0,0,0,0,0,0,0,0,0,0,0,0,0,0,0,0,0,0,0,0,0,0,0,0,0,0,0,0,0,0,0,0,0,0,0,0,0,0,0,0,0,0,0,0,0,0,0,0,0,0,0,0,0,0,0,0,0,0,0,0,0,0,0,0,0,0,0,0,0,0,0,0,0,0,0,0,0,0,0,0,0,0,0,0,0,0,0,0,0,0,0,0,0,0,0,0,0,0,0,0,0,0,0,0,0,0,0,0,0,0,0,0,0,0,0,0,0,0,0,0,0,
0,0,1504,0,1504,0,1504,0,1504,0,1504,0,1504,0,1504,0,1504,0,1504,0,1504,0,1504,0,1504,0,1504,0,1504,0,1504,0,1504,0,1504,0,1504,0,1504,0,1504,0,1504,0,1504,0,1504,0,1504,0,1506,0,1512,0,1512,0,1512,0,1512,0,1512,0,1512,0,1512,0,1505,0,1505,0,1505,0,1505,0,1505,0,1505,0,1505,0,1512,0,1512,0,1512,0,1512,0,1512,0,1512,0,1512,0,1506,0,1504,0,1504,0,1504,0,1504,0,1504,0,1504,0,1504,0,1504,0,1504,0,1504,0,1504,0,1504,0,1504,0,1504,0,1504,0,1504,0,1504,0,1504,0,1504,0,0,0,0,0,0,0,
0,0,0,0,0,0,0,0,0,0,0,0,0,0,0,0,0,0,0,0,0,0,0,0,0,0,0,0,0,0,0,0,0,0,0,0,0,0,0,0,0,0,0,0,0,0,0,0,0,0,0,0,0,0,0,0,0,0,0,0,0,0,0,0,0,0,0,0,0,0,0,0,0,0,0,0,0,0,0,0,0,0,0,0,0,0,0,0,0,0,0,0,0,0,0,0,0,0,0,0,0,0,0,0,0,0,0,0,0,0,0,0,0,0,0,0,0,0,0,0,0,0,0,0,0,0,0,0,0,0,0,0,0,0,0,0,0,0,0,0,
0,0,1504,0,1504,0,1504,0,1504,0,1504,0,1504,0,1504,0,1504,0,1504,0,1504,0,1504,0,1504,0,1504,0,1504,0,1504,0,1504,0,1504,0,1504,0,1504,0,1504,0,1504,0,1504,0,1504,0,1504,0,1506,0,1505,0,1505,0,1505,0,1505,0,1505,0,1512,0,1512,0,1505,0,1505,0,1505,0,1505,0,1505,0,1505,0,1505,0,1512,0,1512,0,1505,0,1505,0,1505,0,1505,0,1505,0,1506,0,1504,0,1504,0,1504,0,1504,0,1504,0,1504,0,1504,0,1504,0,1504,0,1504,0,1504,0,1504,0,1504,0,1504,0,1504,0,1504,0,1504,0,1504,0,1504,0,0,0,0,0,0,0,
0,0,0,0,0,0,0,0,0,0,0,0,0,0,0,0,0,0,0,0,0,0,0,0,0,0,0,0,0,0,0,0,0,0,0,0,0,0,0,0,0,0,0,0,0,0,0,0,0,0,0,0,0,0,0,0,0,0,0,0,0,0,0,0,0,0,0,0,0,0,0,0,0,0,0,0,0,0,0,0,0,0,0,0,0,0,0,0,0,0,0,0,0,0,0,0,0,0,0,0,0,0,0,0,0,0,0,0,0,0,0,0,0,0,0,0,0,0,0,0,0,0,0,0,0,0,0,0,0,0,0,0,0,0,0,0,0,0,0,0,
0,0,1504,0,1504,0,1504,0,1504,0,1504,0,1504,0,1504,0,1504,0,1504,0,1504,0,1504,0,1504,0,1504,0,1504,0,1504,0,1504,0,1504,0,1504,0,1504,0,1504,0,1504,0,1504,0,1504,0,1504,0,1506,0,1505,0,1508,0,1508,0,1508,0,1505,0,1512,0,1512,0,1505,0,1505,0,1505,0,1505,0,1505,0,1505,0,1505,0,1512,0,1512,0,1505,0,1508,0,1508,0,1508,0,1505,0,1506,0,1504,0,1504,0,1504,0,1504,0,1504,0,1504,0,1504,0,1504,0,1504,0,1504,0,1504,0,1504,0,1504,0,1504,0,1504,0,1504,0,1504,0,1504,0,1504,0,0,0,0,0,0,0,
0,0,0,0,0,0,0,0,0,0,0,0,0,0,0,0,0,0,0,0,0,0,0,0,0,0,0,0,0,0,0,0,0,0,0,0,0,0,0,0,0,0,0,0,0,0,0,0,0,0,0,0,0,0,0,0,0,0,0,0,0,0,0,0,0,0,0,0,0,0,0,0,0,0,0,0,0,0,0,0,0,0,0,0,0,0,0,0,0,0,0,0,0,0,0,0,0,0,0,0,0,0,0,0,0,0,0,0,0,0,0,0,0,0,0,0,0,0,0,0,0,0,0,0,0,0,0,0,0,0,0,0,0,0,0,0,0,0,0,0,
0,0,1504,0,1504,0,1504,0,1504,0,1504,0,1504,0,1504,0,1504,0,1504,0,1504,0,1504,0,1504,0,1504,0,1504,0,1504,0,1504,0,1504,0,1504,0,1504,0,1504,0,1504,0,1504,0,1504,0,1504,0,1506,0,1505,0,1508,0,1508,0,1508,0,1505,0,1512,0,1512,0,1505,0,1505,0,1505,0,1505,0,1505,0,1505,0,1505,0,1512,0,1512,0,1505,0,1508,0,1508,0,1508,0,1505,0,1506,0,1504,0,1504,0,1504,0,1504,0,1504,0,1504,0,1504,0,1504,0,1504,0,1504,0,1504,0,1504,0,1504,0,1504,0,1504,0,1504,0,1504,0,1504,0,1504,0,0,0,0,0,0,0,
0,0,0,0,0,0,0,0,0,0,0,0,0,0,0,0,0,0,0,0,0,0,0,0,0,0,0,0,0,0,0,0,0,0,0,0,0,0,0,0,0,0,0,0,0,0,0,0,0,0,0,0,0,0,0,0,0,0,0,0,0,0,0,0,0,0,0,0,0,0,0,0,0,0,0,0,0,0,0,0,0,0,0,0,0,0,0,0,0,0,0,0,0,0,0,0,0,0,0,0,0,0,0,0,0,0,0,0,0,0,0,0,0,0,0,0,0,0,0,0,0,0,0,0,0,0,0,0,0,0,0,0,0,0,0,0,0,0,0,0,
0,0,1504,0,1504,0,1504,0,1504,0,1504,0,1504,0,1504,0,1504,0,1504,0,1504,0,1504,0,1504,0,1504,0,1504,0,1504,0,1504,0,1504,0,1504,0,1504,0,1504,0,1504,0,1504,0,1504,0,1504,0,1506,0,1505,0,1508,0,1508,0,1508,0,1505,0,1512,0,1512,0,1505,0,1505,0,1505,0,1505,0,1505,0,1505,0,1505,0,1512,0,1512,0,1505,0,1508,0,1508,0,1508,0,1505,0,1506,0,1504,0,1504,0,1504,0,1504,0,1504,0,1504,0,1504,0,1504,0,1504,0,1504,0,1504,0,1504,0,1504,0,1504,0,1504,0,1504,0,1504,0,1504,0,1504,0,0,0,0,0,0,0,
0,0,0,0,0,0,0,0,0,0,0,0,0,0,0,0,0,0,0,0,0,0,0,0,0,0,0,0,0,0,0,0,0,0,0,0,0,0,0,0,0,0,0,0,0,0,0,0,0,0,0,0,0,0,0,0,0,0,0,0,0,0,0,0,0,0,0,0,0,0,0,0,0,0,0,0,0,0,0,0,0,0,0,0,0,0,0,0,0,0,0,0,0,0,0,0,0,0,0,0,0,0,0,0,0,0,0,0,0,0,0,0,0,0,0,0,0,0,0,0,0,0,0,0,0,0,0,0,0,0,0,0,0,0,0,0,0,0,0,0,
0,0,1504,0,1504,0,1504,0,1504,0,1504,0,1504,0,1504,0,1504,0,1504,0,1504,0,1504,0,1504,0,1504,0,1504,0,1504,0,1504,0,1504,0,1504,0,1504,0,1504,0,1504,0,1504,0,1504,0,1504,0,1506,0,1505,0,1505,0,1505,0,1505,0,1505,0,1512,0,1512,0,1505,0,1505,0,1508,0,1508,0,1508,0,1505,0,1505,0,1512,0,1512,0,1505,0,1505,0,1505,0,1505,0,1505,0,1506,0,1504,0,1504,0,1504,0,1504,0,1504,0,1504,0,1504,0,1504,0,1504,0,1504,0,1504,0,1504,0,1504,0,1504,0,1504,0,1504,0,1504,0,1504,0,1504,0,0,0,0,0,0,0,
0,0,0,0,0,0,0,0,0,0,0,0,0,0,0,0,0,0,0,0,0,0,0,0,0,0,0,0,0,0,0,0,0,0,0,0,0,0,0,0,0,0,0,0,0,0,0,0,0,0,0,0,0,0,0,0,0,0,0,0,0,0,0,0,0,0,0,0,0,0,0,0,0,0,0,0,0,0,0,0,0,0,0,0,0,0,0,0,0,0,0,0,0,0,0,0,0,0,0,0,0,0,0,0,0,0,0,0,0,0,0,0,0,0,0,0,0,0,0,0,0,0,0,0,0,0,0,0,0,0,0,0,0,0,0,0,0,0,0,0,
0,0,1504,0,1504,0,1504,0,1504,0,1504,0,1504,0,1504,0,1504,0,1504,0,1504,0,1504,0,1504,0,1504,0,1504,0,1504,0,1504,0,1504,0,1504,0,1504,0,1504,0,1504,0,1504,0,1504,0,1504,0,1506,0,1506,0,1506,0,1506,0,1506,0,1506,0,1506,0,1506,0,1506,0,1506,0,1508,0,1508,0,1508,0,1506,0,1506,0,1506,0,1506,0,1506,0,1506,0,1506,0,1506,0,1506,0,1506,0,1504,0,1504,0,1504,0,1504,0,1504,0,1504,0,1504,0,1504,0,1504,0,1504,0,1504,0,1504,0,1504,0,1504,0,1504,0,1504,0,1504,0,1504,0,1504,0,0,0,0,0,0,0,
0,0,0,0,0,0,0,0,0,0,0,0,0,0,0,0,0,0,0,0,0,0,0,0,0,0,0,0,0,0,0,0,0,0,0,0,0,0,0,0,0,0,0,0,0,0,0,0,0,0,0,0,0,0,0,0,0,0,0,0,0,0,0,0,0,0,0,0,0,0,0,0,0,0,0,0,0,0,0,0,0,0,0,0,0,0,0,0,0,0,0,0,0,0,0,0,0,0,0,0,0,0,0,0,0,0,0,0,0,0,0,0,0,0,0,0,0,0,0,0,0,0,0,0,0,0,0,0,0,0,0,0,0,0,0,0,0,0,0,0,
0,0,1504,0,1504,0,1504,0,1504,0,1504,0,1504,0,1504,0,1504,0,1504,0,1504,0,1504,0,1504,0,1504,0,1504,0,1504,0,1504,0,1504,0,1504,0,1504,0,1504,0,1504,0,1504,0,1504,0,1504,0,1504,0,1504,0,1504,0,1504,0,1504,0,1504,0,1504,0,1504,0,1504,0,1506,0,1508,0,1508,0,1508,0,1506,0,1504,0,1504,0,1504,0,1504,0,1504,0,1504,0,1504,0,1504,0,1504,0,1504,0,1504,0,1504,0,1504,0,1504,0,1504,0,1504,0,1504,0,1504,0,1504,0,1504,0,1504,0,1504,0,1504,0,1504,0,1504,0,1504,0,1504,0,1504,0,0,0,0,0,0,0,
0,0,0,0,0,0,0,0,0,0,0,0,0,0,0,0,0,0,0,0,0,0,0,0,0,0,0,0,0,0,0,0,0,0,0,0,0,0,0,0,0,0,0,0,0,0,0,0,0,0,0,0,0,0,0,0,0,0,0,0,0,0,0,0,0,0,0,0,0,0,0,0,0,0,0,0,0,0,0,0,0,0,0,0,0,0,0,0,0,0,0,0,0,0,0,0,0,0,0,0,0,0,0,0,0,0,0,0,0,0,0,0,0,0,0,0,0,0,0,0,0,0,0,0,0,0,0,0,0,0,0,0,0,0,0,0,0,0,0,0,
0,0,1504,0,1504,0,1504,0,1504,0,1504,0,1504,0,1504,0,1504,0,1504,0,1504,0,1504,0,1504,0,1504,0,1504,0,1504,0,1504,0,1504,0,1504,0,1504,0,1504,0,1504,0,1504,0,1504,0,1504,0,1504,0,1504,0,1504,0,1504,0,1504,0,1504,0,1504,0,1504,0,1504,0,1506,0,1508,0,1508,0,1508,0,1506,0,1504,0,1504,0,1504,0,1504,0,1504,0,1504,0,1504,0,1504,0,1504,0,1504,0,1504,0,1504,0,1504,0,1504,0,1504,0,1504,0,1504,0,1504,0,1504,0,1504,0,1504,0,1504,0,1504,0,1504,0,1504,0,1504,0,1504,0,1504,0,0,0,0,0,0,0,
0,0,0,0,0,0,0,0,0,0,0,0,0,0,0,0,0,0,0,0,0,0,0,0,0,0,0,0,0,0,0,0,0,0,0,0,0,0,0,0,0,0,0,0,0,0,0,0,0,0,0,0,0,0,0,0,0,0,0,0,0,0,0,0,0,0,0,0,0,0,0,0,0,0,0,0,0,0,0,0,0,0,0,0,0,0,0,0,0,0,0,0,0,0,0,0,0,0,0,0,0,0,0,0,0,0,0,0,0,0,0,0,0,0,0,0,0,0,0,0,0,0,0,0,0,0,0,0,0,0,0,0,0,0,0,0,0,0,0,0,
0,0,1504,0,1504,0,1504,0,1504,0,1504,0,1504,0,1504,0,1504,0,1504,0,1504,0,1504,0,1504,0,1504,0,1504,0,1504,0,1504,0,1504,0,1504,0,1504,0,1504,0,1504,0,1504,0,1504,0,1504,0,1504,0,1504,0,1504,0,1504,0,1504,0,1504,0,1504,0,1504,0,1504,0,1506,0,1506,0,1506,0,1506,0,1506,0,1504,0,1504,0,1504,0,1504,0,1504,0,1504,0,1504,0,1504,0,1504,0,1504,0,1504,0,1504,0,1504,0,1504,0,1504,0,1504,0,1504,0,1504,0,1504,0,1504,0,1504,0,1504,0,1504,0,1504,0,1504,0,1504,0,1504,0,1504,0,0,0,0,0,0,0,
0,0,0,0,0,0,0,0,0,0,0,0,0,0,0,0,0,0,0,0,0,0,0,0,0,0,0,0,0,0,0,0,0,0,0,0,0,0,0,0,0,0,0,0,0,0,0,0,0,0,0,0,0,0,0,0,0,0,0,0,0,0,0,0,0,0,0,0,0,0,0,0,0,0,0,0,0,0,0,0,0,0,0,0,0,0,0,0,0,0,0,0,0,0,0,0,0,0,0,0,0,0,0,0,0,0,0,0,0,0,0,0,0,0,0,0,0,0,0,0,0,0,0,0,0,0,0,0,0,0,0,0,0,0,0,0,0,0,0,0,
0,0,1504,0,1504,0,1504,0,1504,0,1504,0,1504,0,1504,0,1504,0,1504,0,1504,0,1504,0,1504,0,1504,0,1504,0,1504,0,1504,0,1504,0,1504,0,1504,0,1504,0,1504,0,1504,0,1504,0,1504,0,1504,0,1504,0,1504,0,1504,0,1504,0,1504,0,1504,0,1504,0,1504,0,1504,0,1504,0,1504,0,1504,0,1504,0,1504,0,1504,0,1504,0,1504,0,1504,0,1504,0,1504,0,1504,0,1504,0,1504,0,1504,0,1504,0,1504,0,1504,0,1504,0,1504,0,1504,0,1504,0,1504,0,1504,0,1504,0,1504,0,1504,0,1504,0,1504,0,1504,0,1504,0,1504,0,0,0,0,0,0,0,
0,0,0,0,0,0,0,0,0,0,0,0,0,0,0,0,0,0,0,0,0,0,0,0,0,0,0,0,0,0,0,0,0,0,0,0,0,0,0,0,0,0,0,0,0,0,0,0,0,0,0,0,0,0,0,0,0,0,0,0,0,0,0,0,0,0,0,0,0,0,0,0,0,0,0,0,0,0,0,0,0,0,0,0,0,0,0,0,0,0,0,0,0,0,0,0,0,0,0,0,0,0,0,0,0,0,0,0,0,0,0,0,0,0,0,0,0,0,0,0,0,0,0,0,0,0,0,0,0,0,0,0,0,0,0,0,0,0,0,0,
0,0,1504,0,1504,0,1504,0,1504,0,1504,0,1504,0,1504,0,1504,0,1504,0,1504,0,1504,0,1504,0,1504,0,1504,0,1504,0,1504,0,1504,0,1504,0,1504,0,1504,0,1504,0,1504,0,1504,0,1504,0,1504,0,1504,0,1504,0,1504,0,1504,0,1504,0,1504,0,1504,0,1504,0,1504,0,1504,0,1504,0,1504,0,1504,0,1504,0,1504,0,1504,0,1504,0,1504,0,1504,0,1504,0,1504,0,1504,0,1504,0,1504,0,1504,0,1504,0,1504,0,1504,0,1504,0,1504,0,1504,0,1504,0,1504,0,1504,0,1504,0,1504,0,1504,0,1504,0,1504,0,1504,0,1504,0,0,0,0,0,0,0,
0,0,0,0,0,0,0,0,0,0,0,0,0,0,0,0,0,0,0,0,0,0,0,0,0,0,0,0,0,0,0,0,0,0,0,0,0,0,0,0,0,0,0,0,0,0,0,0,0,0,0,0,0,0,0,0,0,0,0,0,0,0,0,0,0,0,0,0,0,0,0,0,0,0,0,0,0,0,0,0,0,0,0,0,0,0,0,0,0,0,0,0,0,0,0,0,0,0,0,0,0,0,0,0,0,0,0,0,0,0,0,0,0,0,0,0,0,0,0,0,0,0,0,0,0,0,0,0,0,0,0,0,0,0,0,0,0,0,0,0,
0,0,1504,0,1504,0,1504,0,1504,0,1504,0,1504,0,1504,0,1504,0,1504,0,1504,0,1504,0,1504,0,1504,0,1504,0,1504,0,1504,0,1504,0,1504,0,1504,0,1504,0,1504,0,1504,0,1504,0,1504,0,1504,0,1504,0,1504,0,1504,0,1504,0,1504,0,1504,0,1504,0,1504,0,1504,0,1504,0,1504,0,1504,0,1504,0,1504,0,1504,0,1504,0,1504,0,1504,0,1504,0,1504,0,1504,0,1504,0,1504,0,1504,0,1504,0,1504,0,1504,0,1504,0,1504,0,1504,0,1504,0,1504,0,1504,0,1504,0,1504,0,1504,0,1504,0,1504,0,1504,0,1504,0,1504,0,0,0,0,0,0,0,
0,0,0,0,0,0,0,0,0,0,0,0,0,0,0,0,0,0,0,0,0,0,0,0,0,0,0,0,0,0,0,0,0,0,0,0,0,0,0,0,0,0,0,0,0,0,0,0,0,0,0,0,0,0,0,0,0,0,0,0,0,0,0,0,0,0,0,0,0,0,0,0,0,0,0,0,0,0,0,0,0,0,0,0,0,0,0,0,0,0,0,0,0,0,0,0,0,0,0,0,0,0,0,0,0,0,0,0,0,0,0,0,0,0,0,0,0,0,0,0,0,0,0,0,0,0,0,0,0,0,0,0,0,0,0,0,0,0,0,0,
0,0,1504,0,1504,0,1504,0,1504,0,1504,0,1504,0,1504,0,1504,0,1504,0,1504,0,1504,0,1504,0,1504,0,1504,0,1504,0,1504,0,1504,0,1504,0,1504,0,1504,0,1504,0,1504,0,1504,0,1504,0,1504,0,1504,0,1504,0,1504,0,1504,0,1504,0,1504,0,1504,0,1504,0,1504,0,1504,0,1504,0,1504,0,1504,0,1504,0,1504,0,1504,0,1504,0,1504,0,1504,0,1504,0,1504,0,1504,0,1504,0,1504,0,1504,0,1504,0,1504,0,1504,0,1504,0,1504,0,1504,0,1504,0,1504,0,1504,0,1504,0,1504,0,1504,0,1504,0,1504,0,1504,0,1504,0,0,0,0,0,0,0,
0,0,0,0,0,0,0,0,0,0,0,0,0,0,0,0,0,0,0,0,0,0,0,0,0,0,0,0,0,0,0,0,0,0,0,0,0,0,0,0,0,0,0,0,0,0,0,0,0,0,0,0,0,0,0,0,0,0,0,0,0,0,0,0,0,0,0,0,0,0,0,0,0,0,0,0,0,0,0,0,0,0,0,0,0,0,0,0,0,0,0,0,0,0,0,0,0,0,0,0,0,0,0,0,0,0,0,0,0,0,0,0,0,0,0,0,0,0,0,0,0,0,0,0,0,0,0,0,0,0,0,0,0,0,0,0,0,0,0,0,
0,0,1504,0,1504,0,1504,0,1504,0,1504,0,1504,0,1504,0,1504,0,1504,0,1504,0,1504,0,1504,0,1504,0,1504,0,1504,0,1504,0,1504,0,1504,0,1504,0,1504,0,1504,0,1504,0,1504,0,1504,0,1504,0,1504,0,1504,0,1504,0,1504,0,1504,0,1504,0,1504,0,1504,0,1504,0,1504,0,1504,0,1504,0,1504,0,1504,0,1504,0,1504,0,1504,0,1504,0,1504,0,1504,0,1504,0,1504,0,1504,0,1504,0,1504,0,1504,0,1504,0,1504,0,1504,0,1504,0,1504,0,1504,0,1504,0,1504,0,1504,0,1504,0,1504,0,1504,0,1504,0,1504,0,1504,0,0,0,0,0,0,0,
0,0,0,0,0,0,0,0,0,0,0,0,0,0,0,0,0,0,0,0,0,0,0,0,0,0,0,0,0,0,0,0,0,0,0,0,0,0,0,0,0,0,0,0,0,0,0,0,0,0,0,0,0,0,0,0,0,0,0,0,0,0,0,0,0,0,0,0,0,0,0,0,0,0,0,0,0,0,0,0,0,0,0,0,0,0,0,0,0,0,0,0,0,0,0,0,0,0,0,0,0,0,0,0,0,0,0,0,0,0,0,0,0,0,0,0,0,0,0,0,0,0,0,0,0,0,0,0,0,0,0,0,0,0,0,0,0,0,0,0,
0,0,1504,0,1504,0,1504,0,1504,0,1504,0,1504,0,1504,0,1504,0,1504,0,1504,0,1504,0,1504,0,1504,0,1504,0,1504,0,1504,0,1504,0,1504,0,1504,0,1504,0,1504,0,1504,0,1504,0,1504,0,1504,0,1504,0,1504,0,1504,0,1504,0,1504,0,1504,0,1504,0,1504,0,1504,0,1504,0,1504,0,1504,0,1504,0,1504,0,1504,0,1504,0,1504,0,1504,0,1504,0,1504,0,1504,0,1504,0,1504,0,1504,0,1504,0,1504,0,1504,0,1504,0,1504,0,1504,0,1504,0,0,0,0,0,0,0,0,0,0,0,0,0,0,0,0,0,0,0,0,0,0,0,0,0,0,0,
0,0,0,0,0,0,0,0,0,0,0,0,0,0,0,0,0,0,0,0,0,0,0,0,0,0,0,0,0,0,0,0,0,0,0,0,0,0,0,0,0,0,0,0,0,0,0,0,0,0,0,0,0,0,0,0,0,0,0,0,0,0,0,0,0,0,0,0,0,0,0,0,0,0,0,0,0,0,0,0,0,0,0,0,0,0,0,0,0,0,0,0,0,0,0,0,0,0,0,0,0,0,0,0,0,0,0,0,0,0,0,0,0,0,0,0,0,0,0,0,0,0,0,0,0,0,0,0,0,0,0,0,0,0,0,0,0,0,0,0,
0,0,1504,0,1504,0,1504,0,1504,0,1504,0,1504,0,1504,0,1504,0,1504,0,1504,0,1504,0,1504,0,1504,0,1504,0,1504,0,1504,0,1504,0,1504,0,1504,0,1504,0,1504,0,1504,0,1504,0,1504,0,1504,0,1504,0,1504,0,1504,0,1504,0,1504,0,1504,0,1504,0,1504,0,1504,0,1504,0,1504,0,1504,0,1504,0,1504,0,1504,0,1504,0,1504,0,1504,0,1504,0,1504,0,1504,0,1504,0,1504,0,1504,0,1504,0,1504,0,1504,0,1504,0,1504,0,1504,0,1504,0,0,0,0,0,0,0,0,0,0,0,0,0,0,0,0,0,0,0,0,0,0,0,0,0,0,0,
0,0,0,0,0,0,0,0,0,0,0,0,0,0,0,0,0,0,0,0,0,0,0,0,0,0,0,0,0,0,0,0,0,0,0,0,0,0,0,0,0,0,0,0,0,0,0,0,0,0,0,0,0,0,0,0,0,0,0,0,0,0,0,0,0,0,0,0,0,0,0,0,0,0,0,0,0,0,0,0,0,0,0,0,0,0,0,0,0,0,0,0,0,0,0,0,0,0,0,0,0,0,0,0,0,0,0,0,0,0,0,0,0,0,0,0,0,0,0,0,0,0,0,0,0,0,0,0,0,0,0,0,0,0,0,0,0,0,0,0,
0,0,0,0,1504,0,1504,0,1504,0,1504,0,1504,0,1504,0,1504,0,1504,0,1504,0,1504,0,1504,0,1504,0,1504,0,1504,0,1504,0,1504,0,1504,0,1504,0,1504,0,1504,0,1504,0,1504,0,1504,0,1504,0,1504,0,1504,0,1504,0,1504,0,1504,0,1504,0,1504,0,1504,0,1504,0,1504,0,1504,0,1504,0,1504,0,1504,0,1504,0,1504,0,1504,0,1504,0,1504,0,1504,0,1504,0,1504,0,1504,0,1504,0,1504,0,1504,0,1504,0,1504,0,1504,0,1504,0,1504,0,0,0,0,0,0,0,0,0,0,0,0,0,0,0,0,0,0,0,0,0,0,0,0,0,0,0,
0,0,0,0,0,0,0,0,0,0,0,0,0,0,0,0,0,0,0,0,0,0,0,0,0,0,0,0,0,0,0,0,0,0,0,0,0,0,0,0,0,0,0,0,0,0,0,0,0,0,0,0,0,0,0,0,0,0,0,0,0,0,0,0,0,0,0,0,0,0,0,0,0,0,0,0,0,0,0,0,0,0,0,0,0,0,0,0,0,0,0,0,0,0,0,0,0,0,0,0,0,0,0,0,0,0,0,0,0,0,0,0,0,0,0,0,0,0,0,0,0,0,0,0,0,0,0,0,0,0,0,0,0,0,0,0,0,0,0,0,
0,0,0,0,1504,0,1504,0,1504,0,1504,0,1504,0,1504,0,1504,0,1504,0,1504,0,1504,0,1504,0,1504,0,1504,0,1504,0,1504,0,1504,0,1504,0,1504,0,1504,0,1504,0,1504,0,1504,0,1504,0,1504,0,1504,0,1504,0,1504,0,1504,0,1504,0,1504,0,1504,0,1504,0,1504,0,1504,0,1504,0,1504,0,1504,0,0,0,0,0,0,0,0,0,0,0,0,0,0,0,0,0,0,0,0,0,0,0,0,0,0,0,0,0,0,0,0,0,0,0,0,0,0,0,0,0,0,0,0,0,0,0,0,0,0,0,0,0,0,0,0,0,0,0,0,0,0,0,
0,0,0,0,0,0,0,0,0,0,0,0,0,0,0,0,0,0,0,0,0,0,0,0,0,0,0,0,0,0,0,0,0,0,0,0,0,0,0,0,0,0,0,0,0,0,0,0,0,0,0,0,0,0,0,0,0,0,0,0,0,0,0,0,0,0,0,0,0,0,0,0,0,0,0,0,0,0,0,0,0,0,0,0,0,0,0,0,0,0,0,0,0,0,0,0,0,0,0,0,0,0,0,0,0,0,0,0,0,0,0,0,0,0,0,0,0,0,0,0,0,0,0,0,0,0,0,0,0,0,0,0,0,0,0,0,0,0,0,0,
0,0,0,0,1504,0,1504,0,1504,0,1504,0,1504,0,1504,0,1504,0,1504,0,1504,0,1504,0,1504,0,1504,0,1504,0,1504,0,1504,0,1504,0,1504,0,1504,0,1504,0,1504,0,1504,0,1504,0,1504,0,1504,0,1504,0,1504,0,1504,0,1504,0,1504,0,1504,0,1504,0,1504,0,1504,0,1504,0,1504,0,1504,0,1504,0,0,0,0,0,0,0,0,0,0,0,0,0,0,0,0,0,0,0,0,0,0,0,0,0,0,0,0,0,0,0,0,0,0,0,0,0,0,0,0,0,0,0,0,0,0,0,0,0,0,0,0,0,0,0,0,0,0,0,0,0,0,0,
0,0,0,0,0,0,0,0,0,0,0,0,0,0,0,0,0,0,0,0,0,0,0,0,0,0,0,0,0,0,0,0,0,0,0,0,0,0,0,0,0,0,0,0,0,0,0,0,0,0,0,0,0,0,0,0,0,0,0,0,0,0,0,0,0,0,0,0,0,0,0,0,0,0,0,0,0,0,0,0,0,0,0,0,0,0,0,0,0,0,0,0,0,0,0,0,0,0,0,0,0,0,0,0,0,0,0,0,0,0,0,0,0,0,0,0,0,0,0,0,0,0,0,0,0,0,0,0,0,0,0,0,0,0,0,0,0,0,0,0,
0,0,0,0,0,0,0,0,0,0,0,0,0,0,0,0,0,0,0,0,0,0,0,0,0,0,0,0,0,0,0,0,0,0,0,0,0,0,0,0,0,0,0,0,0,0,0,0,0,0,0,0,0,0,0,0,0,0,0,0,0,0,0,0,0,0,0,0,0,0,0,0,0,0,0,0,0,0,0,0,0,0,0,0,0,0,0,0,0,0,0,0,0,0,0,0,0,0,0,0,0,0,0,0,0,0,0,0,0,0,0,0,0,0,0,0,0,0,0,0,0,0,0,0,0,0,0,0,0,0,0,0,0,0,0,0,0,0,0,0,
0,0,0,0,0,0,0,0,0,0,0,0,0,0,0,0,0,0,0,0,0,0,0,0,0,0,0,0,0,0,0,0,0,0,0,0,0,0,0,0,0,0,0,0,0,0,0,0,0,0,0,0,0,0,0,0,0,0,0,0,0,0,0,0,0,0,0,0,0,0,0,0,0,0,0,0,0,0,0,0,0,0,0,0,0,0,0,0,0,0,0,0,0,0,0,0,0,0,0,0,0,0,0,0,0,0,0,0,0,0,0,0,0,0,0,0,0,0,0,0,0,0,0,0,0,0,0,0,0,0,0,0,0,0,0,0,0,0,0,0,
0,0,0,0,0,0,0,0,0,0,0,0,0,0,0,0,0,0,0,0,0,0,0,0,0,0,0,0,0,0,0,0,0,0,0,0,0,0,0,0,0,0,0,0,0,0,0,0,0,0,0,0,0,0,0,0,0,0,0,0,0,0,0,0,0,0,0,0,0,0,0,0,0,0,0,0,0,0,0,0,0,0,0,0,0,0,0,0,0,0,0,0,0,0,0,0,0,0,0,0,0,0,0,0,0,0,0,0,0,0,0,0,0,0,0,0,0,0,0,0,0,0,0,0,0,0,0,0,0,0,0,0,0,0,0,0,0,0,0,0,
0,0,0,0,0,0,0,0,0,0,0,0,0,0,0,0,0,0,0,0,0,0,0,0,0,0,0,0,0,0,0,0,0,0,0,0,0,0,0,0,0,0,0,0,0,0,0,0,0,0,0,0,0,0,0,0,0,0,0,0,0,0,0,0,0,0,0,0,0,0,0,0,0,0,0,0,0,0,0,0,0,0,0,0,0,0,0,0,0,0,0,0,0,0,0,0,0,0,0,0,0,0,0,0,0,0,0,0,0,0,0,0,0,0,0,0,0,0,0,0,0,0,0,0,0,0,0,0,0,0,0,0,0,0,0,0,0,0,0,0,
0,0,0,0,0,0,0,0,0,0,0,0,0,0,0,0,0,0,0,0,0,0,0,0,0,0,0,0,0,0,0,0,0,0,0,0,0,0,0,0,0,0,0,0,0,0,0,0,0,0,0,0,0,0,0,0,0,0,0,0,0,0,0,0,0,0,0,0,0,0,0,0,0,0,0,0,0,0,0,0,0,0,0,0,0,0,0,0,0,0,0,0,0,0,0,0,0,0,0,0,0,0,0,0,0,0,0,0,0,0,0,0,0,0,0,0,0,0,0,0,0,0,0,0,0,0,0,0,0,0,0,0,0,0,0,0,0,0,0,0,
0,0,0,0,0,0,0,0,0,0,0,0,0,0,0,0,0,0,0,0,0,0,0,0,0,0,0,0,0,0,0,0,0,0,0,0,0,0,0,0,0,0,0,0,0,0,0,0,0,0,0,0,0,0,0,0,0,0,0,0,0,0,0,0,0,0,0,0,0,0,0,0,0,0,0,0,0,0,0,0,0,0,0,0,0,0,0,0,0,0,0,0,0,0,0,0,0,0,0,0,0,0,0,0,0,0,0,0,0,0,0,0,0,0,0,0,0,0,0,0,0,0,0,0,0,0,0,0,0,0,0,0,0,0,0,0,0,0,0,0,
0,0,0,0,0,0,0,0,0,0,0,0,0,0,0,0,0,0,0,0,0,0,0,0,0,0,0,0,0,0,0,0,0,0,0,0,0,0,0,0,0,0,0,0,0,0,0,0,0,0,0,0,0,0,0,0,0,0,0,0,0,0,0,0,0,0,0,0,0,0,0,0,0,0,0,0,0,0,0,0,0,0,0,0,0,0,0,0,0,0,0,0,0,0,0,0,0,0,0,0,0,0,0,0,0,0,0,0,0,0,0,0,0,0,0,0,0,0,0,0,0,0,0,0,0,0,0,0,0,0,0,0,0,0,0,0,0,0,0,0,
0,0,0,0,0,0,0,0,0,0,0,0,0,0,0,0,0,0,0,0,0,0,0,0,0,0,0,0,0,0,0,0,0,0,0,0,0,0,0,0,0,0,0,0,0,0,0,0,0,0,0,0,0,0,0,0,0,0,0,0,0,0,0,0,0,0,0,0,0,0,0,0,0,0,0,0,0,0,0,0,0,0,0,0,0,0,0,0,0,0,0,0,0,0,0,0,0,0,0,0,0,0,0,0,0,0,0,0,0,0,0,0,0,0,0,0,0,0,0,0,0,0,0,0,0,0,0,0,0,0,0,0,0,0,0,0,0,0,0,0,
0,0,0,0,0,0,0,0,0,0,0,0,0,0,0,0,0,0,0,0,0,0,0,0,0,0,0,0,0,0,0,0,0,0,0,0,0,0,0,0,0,0,0,0,0,0,0,0,0,0,0,0,0,0,0,0,0,0,0,0,0,0,0,0,0,0,0,0,0,0,0,0,0,0,0,0,0,0,0,0,0,0,0,0,0,0,0,0,0,0,0,0,0,0,0,0,0,0,0,0,0,0,0,0,0,0,0,0,0,0,0,0,0,0,0,0,0,0,0,0,0,0,0,0,0,0,0,0,0,0,0,0,0,0,0,0,0,0,0,0,
0,0,0,0,0,0,0,0,0,0,0,0,0,0,0,0,0,0,0,0,0,0,0,0,0,0,0,0,0,0,0,0,0,0,0,0,0,0,0,0,0,0,0,0,0,0,0,0,0,0,0,0,0,0,0,0,0,0,0,0,0,0,0,0,0,0,0,0,0,0,0,0,0,0,0,0,0,0,0,0,0,0,0,0,0,0,0,0,0,0,0,0,0,0,0,0,0,0,0,0,0,0,0,0,0,0,0,0,0,0,0,0,0,0,0,0,0,0,0,0,0,0,0,0,0,0,0,0,0,0,0,0,0,0,0,0,0,0,0,0,
0,0,0,0,0,0,0,0,0,0,0,0,0,0,0,0,0,0,0,0,0,0,0,0,0,0,0,0,0,0,0,0,0,0,0,0,0,0,0,0,0,0,0,0,0,0,0,0,0,0,0,0,0,0,0,0,0,0,0,0,0,0,0,0,0,0,0,0,0,0,0,0,0,0,0,0,0,0,0,0,0,0,0,0,0,0,0,0,0,0,0,0,0,0,0,0,0,0,0,0,0,0,0,0,0,0,0,0,0,0,0,0,0,0,0,0,0,0,0,0,0,0,0,0,0,0,0,0,0,0,0,0,0,0,0,0,0,0,0,0,
0,0,0,0,0,0,0,0,0,0,0,0,0,0,0,0,0,0,0,0,0,0,0,0,0,0,0,0,0,0,0,0,0,0,0,0,0,0,0,0,0,0,0,0,0,0,0,0,0,0,0,0,0,0,0,0,0,0,0,0,0,0,0,0,0,0,0,0,0,0,0,0,0,0,0,0,0,0,0,0,0,0,0,0,0,0,0,0,0,0,0,0,0,0,0,0,0,0,0,0,0,0,0,0,0,0,0,0,0,0,0,0,0,0,0,0,0,0,0,0,0,0,0,0,0,0,0,0,0,0,0,0,0,0,0,0,0,0,0,0,
0,0,0,0,0,0,0,0,0,0,0,0,0,0,0,0,0,0,0,0,0,0,0,0,0,0,0,0,0,0,0,0,0,0,0,0,0,0,0,0,0,0,0,0,0,0,0,0,0,0,0,0,0,0,0,0,0,0,0,0,0,0,0,0,0,0,0,0,0,0,0,0,0,0,0,0,0,0,0,0,0,0,0,0,0,0,0,0,0,0,0,0,0,0,0,0,0,0,0,0,0,0,0,0,0,0,0,0,0,0,0,0,0,0,0,0,0,0,0,0,0,0,0,0,0,0,0,0,0,0,0,0,0,0,0,0,0,0,0,0,
0,0,0,0,0,0,0,0,0,0,0,0,0,0,0,0,0,0,0,0,0,0,0,0,0,0,0,0,0,0,0,0,0,0,0,0,0,0,0,0,0,0,0,0,0,0,0,0,0,0,0,0,0,0,0,0,0,0,0,0,0,0,0,0,0,0,0,0,0,0,0,0,0,0,0,0,0,0,0,0,0,0,0,0,0,0,0,0,0,0,0,0,0,0,0,0,0,0,0,0,0,0,0,0,0,0,0,0,0,0,0,0,0,0,0,0,0,0,0,0,0,0,0,0,0,0,0,0,0,0,0,0,0,0,0,0,0,0,0,0
</data>
 </layer>
 <layer id="2" name="Chance" width="140" height="108">
  <properties>
   <property name="maybe_animation_id" value="818f0d7683463c1"/>
   <property name="maybe_tileset_id" value="fce7bba5e540ce43"/>
   <property name="tile_size" type="int" value="16"/>
  </properties>
  <data encoding="csv">
1516,0,1516,0,1516,0,1516,0,1516,0,1516,0,1516,0,1516,0,1516,0,1516,0,1516,0,1516,0,1516,0,1516,0,1516,0,1516,0,1516,0,1516,0,1516,0,1516,0,1516,0,1516,0,1516,0,1516,0,1516,0,1516,0,1516,0,1516,0,1516,0,1516,0,1516,0,1516,0,1516,0,1516,0,1516,0,1516,0,1516,0,1516,0,1516,0,1516,0,1516,0,1516,0,1516,0,1516,0,1516,0,1516,0,1516,0,1516,0,1516,0,1516,0,1516,0,1516,0,1516,0,1516,0,1516,0,1516,0,1516,0,1516,0,1516,0,1516,0,1516,0,1516,0,1516,0,1516,0,1516,0,0,0,0,0,0,0,0,0,0,0,
0,0,0,0,0,0,0,0,0,0,0,0,0,0,0,0,0,0,0,0,0,0,0,0,0,0,0,0,0,0,0,0,0,0,0,0,0,0,0,0,0,0,0,0,0,0,0,0,0,0,0,0,0,0,0,0,0,0,0,0,0,0,0,0,0,0,0,0,0,0,0,0,0,0,0,0,0,0,0,0,0,0,0,0,0,0,0,0,0,0,0,0,0,0,0,0,0,0,0,0,0,0,0,0,0,0,0,0,0,0,0,0,0,0,0,0,0,0,0,0,0,0,0,0,0,0,0,0,0,0,0,0,0,0,0,0,0,0,0,0,
1516,0,1516,0,1516,0,1516,0,1516,0,1516,0,1516,0,1516,0,1516,0,1516,0,1516,0,1516,0,1516,0,1516,0,1516,0,1516,0,1516,0,1516,0,1516,0,1516,0,1516,0,1516,0,1516,0,1516,0,1516,0,1516,0,1516,0,1516,0,1516,0,1516,0,1516,0,1516,0,1516,0,1516,0,1516,0,1516,0,1516,0,1516,0,1516,0,1516,0,1516,0,1516,0,1516,0,1516,0,1516,0,1516,0,1516,0,1516,0,1516,0,1516,0,1516,0,1516,0,1516,0,1516,0,1516,0,1516,0,1516,0,1516,0,1516,0,1516,0,1516,0,1516,0,1516,0,1516,0,1516,0,0,0,0,0,0,0,0,0,0,0,
0,0,0,0,0,0,0,0,0,0,0,0,0,0,0,0,0,0,0,0,0,0,0,0,0,0,0,0,0,0,0,0,0,0,0,0,0,0,0,0,0,0,0,0,0,0,0,0,0,0,0,0,0,0,0,0,0,0,0,0,0,0,0,0,0,0,0,0,0,0,0,0,0,0,0,0,0,0,0,0,0,0,0,0,0,0,0,0,0,0,0,0,0,0,0,0,0,0,0,0,0,0,0,0,0,0,0,0,0,0,0,0,0,0,0,0,0,0,0,0,0,0,0,0,0,0,0,0,0,0,0,0,0,0,0,0,0,0,0,0,
1516,0,1516,0,1516,0,1516,0,1516,0,1516,0,1516,0,1516,0,1516,0,1516,0,1516,0,1516,0,1516,0,1516,0,1516,0,1516,0,1516,0,1516,0,1516,0,1516,0,1516,0,1516,0,1516,0,1516,0,1516,0,1516,0,1516,0,1516,0,1516,0,1516,0,1516,0,1516,0,1516,0,1516,0,1516,0,1516,0,1516,0,1516,0,1516,0,1516,0,1516,0,1516,0,1516,0,1516,0,1516,0,1516,0,1516,0,1516,0,1516,0,1516,0,1516,0,1516,0,1516,0,1516,0,1516,0,1516,0,1516,0,1516,0,1516,0,1516,0,1516,0,1516,0,1516,0,1516,0,1516,0,0,0,0,0,0,0,0,0,0,0,
0,0,0,0,0,0,0,0,0,0,0,0,0,0,0,0,0,0,0,0,0,0,0,0,0,0,0,0,0,0,0,0,0,0,0,0,0,0,0,0,0,0,0,0,0,0,0,0,0,0,0,0,0,0,0,0,0,0,0,0,0,0,0,0,0,0,0,0,0,0,0,0,0,0,0,0,0,0,0,0,0,0,0,0,0,0,0,0,0,0,0,0,0,0,0,0,0,0,0,0,0,0,0,0,0,0,0,0,0,0,0,0,0,0,0,0,0,0,0,0,0,0,0,0,0,0,0,0,0,0,0,0,0,0,0,0,0,0,0,0,
1516,0,1516,0,1516,0,1516,0,1516,0,1516,0,1516,0,1516,0,1516,0,1516,0,1516,0,1516,0,1516,0,1516,0,1516,0,1516,0,1516,0,1516,0,1516,0,1516,0,1516,0,1516,0,1516,0,1516,0,1516,0,1516,0,1516,0,1516,0,1516,0,1516,0,1516,0,1516,0,1516,0,1516,0,1516,0,1516,0,1516,0,1516,0,1516,0,1516,0,1516,0,1516,0,1516,0,1516,0,1516,0,1516,0,1516,0,1516,0,1516,0,1516,0,1516,0,1516,0,1516,0,1516,0,1516,0,1516,0,1516,0,1516,0,1516,0,1516,0,1516,0,1516,0,1516,0,1516,0,1516,0,0,0,0,0,0,0,0,0,0,0,
0,0,0,0,0,0,0,0,0,0,0,0,0,0,0,0,0,0,0,0,0,0,0,0,0,0,0,0,0,0,0,0,0,0,0,0,0,0,0,0,0,0,0,0,0,0,0,0,0,0,0,0,0,0,0,0,0,0,0,0,0,0,0,0,0,0,0,0,0,0,0,0,0,0,0,0,0,0,0,0,0,0,0,0,0,0,0,0,0,0,0,0,0,0,0,0,0,0,0,0,0,0,0,0,0,0,0,0,0,0,0,0,0,0,0,0,0,0,0,0,0,0,0,0,0,0,0,0,0,0,0,0,0,0,0,0,0,0,0,0,
1516,0,1516,0,1516,0,1516,0,1516,0,1516,0,1516,0,1516,0,1516,0,1516,0,1516,0,1516,0,1516,0,1516,0,1516,0,1516,0,1516,0,1516,0,1516,0,1516,0,1516,0,1516,0,1516,0,1516,0,1516,0,1516,0,1516,0,1516,0,1516,0,1516,0,1516,0,1516,0,1516,0,1516,0,1516,0,1516,0,1516,0,1516,0,1516,0,1516,0,1516,0,1516,0,1516,0,1516,0,1516,0,1516,0,1516,0,1516,0,1516,0,1516,0,1516,0,1516,0,1516,0,1516,0,1516,0,1516,0,1516,0,1516,0,1516,0,1516,0,1516,0,1516,0,1516,0,1516,0,1516,0,0,0,0,0,0,0,0,0,0,0,
0,0,0,0,0,0,0,0,0,0,0,0,0,0,0,0,0,0,0,0,0,0,0,0,0,0,0,0,0,0,0,0,0,0,0,0,0,0,0,0,0,0,0,0,0,0,0,0,0,0,0,0,0,0,0,0,0,0,0,0,0,0,0,0,0,0,0,0,0,0,0,0,0,0,0,0,0,0,0,0,0,0,0,0,0,0,0,0,0,0,0,0,0,0,0,0,0,0,0,0,0,0,0,0,0,0,0,0,0,0,0,0,0,0,0,0,0,0,0,0,0,0,0,0,0,0,0,0,0,0,0,0,0,0,0,0,0,0,0,0,
1516,0,1516,0,1516,0,1516,0,1516,0,1516,0,1516,0,1516,0,1516,0,1516,0,1516,0,1516,0,1516,0,1516,0,1516,0,1516,0,1516,0,1516,0,1516,0,1516,0,1516,0,1516,0,1516,0,1516,0,1516,0,1516,0,1516,0,1516,0,1516,0,1516,0,1516,0,1516,0,1516,0,1516,0,1516,0,1516,0,1516,0,1516,0,1516,0,1516,0,1516,0,1516,0,1516,0,1516,0,1516,0,1516,0,1516,0,1516,0,1516,0,1516,0,1516,0,1516,0,1516,0,1516,0,1516,0,1516,0,1516,0,1516,0,1516,0,1516,0,1516,0,1516,0,1516,0,1516,0,1516,0,0,0,0,0,0,0,0,0,0,0,
0,0,0,0,0,0,0,0,0,0,0,0,0,0,0,0,0,0,0,0,0,0,0,0,0,0,0,0,0,0,0,0,0,0,0,0,0,0,0,0,0,0,0,0,0,0,0,0,0,0,0,0,0,0,0,0,0,0,0,0,0,0,0,0,0,0,0,0,0,0,0,0,0,0,0,0,0,0,0,0,0,0,0,0,0,0,0,0,0,0,0,0,0,0,0,0,0,0,0,0,0,0,0,0,0,0,0,0,0,0,0,0,0,0,0,0,0,0,0,0,0,0,0,0,0,0,0,0,0,0,0,0,0,0,0,0,0,0,0,0,
1516,0,1516,0,1516,0,1516,0,1516,0,1516,0,1516,0,1516,0,1516,0,1516,0,1516,0,1516,0,1516,0,1516,0,1516,0,1516,0,1516,0,1516,0,1516,0,1516,0,1516,0,1516,0,1516,0,1516,0,1516,0,1516,0,1516,0,1516,0,1516,0,1516,0,1516,0,1516,0,1516,0,1516,0,1516,0,1516,0,1516,0,1516,0,1516,0,1516,0,1516,0,1516,0,1516,0,1516,0,1516,0,1516,0,1516,0,1516,0,1516,0,1516,0,1516,0,1516,0,1516,0,1516,0,1516,0,1516,0,1516,0,1516,0,1516,0,1516,0,1516,0,1516,0,1516,0,1516,0,1516,0,0,0,0,0,0,0,0,0,0,0,
0,0,0,0,0,0,0,0,0,0,0,0,0,0,0,0,0,0,0,0,0,0,0,0,0,0,0,0,0,0,0,0,0,0,0,0,0,0,0,0,0,0,0,0,0,0,0,0,0,0,0,0,0,0,0,0,0,0,0,0,0,0,0,0,0,0,0,0,0,0,0,0,0,0,0,0,0,0,0,0,0,0,0,0,0,0,0,0,0,0,0,0,0,0,0,0,0,0,0,0,0,0,0,0,0,0,0,0,0,0,0,0,0,0,0,0,0,0,0,0,0,0,0,0,0,0,0,0,0,0,0,0,0,0,0,0,0,0,0,0,
1516,0,1516,0,1516,0,1516,0,1516,0,1516,0,1516,0,1516,0,1516,0,1516,0,1516,0,1516,0,1516,0,1516,0,1516,0,1516,0,1516,0,1516,0,1516,0,1516,0,1516,0,1516,0,1516,0,1516,0,1516,0,1516,0,1516,0,1516,0,1516,0,1516,0,1516,0,1516,0,1516,0,1516,0,1516,0,1516,0,1516,0,1516,0,1516,0,1516,0,1516,0,1516,0,1516,0,1516,0,1516,0,1516,0,1516,0,1516,0,1516,0,1516,0,1516,0,1516,0,1516,0,1516,0,1516,0,1516,0,1516,0,1516,0,1516,0,1516,0,1516,0,1516,0,1516,0,1516,0,1516,0,0,0,0,0,0,0,0,0,0,0,
0,0,0,0,0,0,0,0,0,0,0,0,0,0,0,0,0,0,0,0,0,0,0,0,0,0,0,0,0,0,0,0,0,0,0,0,0,0,0,0,0,0,0,0,0,0,0,0,0,0,0,0,0,0,0,0,0,0,0,0,0,0,0,0,0,0,0,0,0,0,0,0,0,0,0,0,0,0,0,0,0,0,0,0,0,0,0,0,0,0,0,0,0,0,0,0,0,0,0,0,0,0,0,0,0,0,0,0,0,0,0,0,0,0,0,0,0,0,0,0,0,0,0,0,0,0,0,0,0,0,0,0,0,0,0,0,0,0,0,0,
1516,0,1516,0,1516,0,1516,0,1516,0,1516,0,1516,0,1516,0,1516,0,1516,0,1516,0,1516,0,1516,0,1516,0,1516,0,1516,0,1516,0,1516,0,1516,0,1516,0,1516,0,1516,0,1516,0,1516,0,1516,0,1516,0,1516,0,1516,0,1516,0,1516,0,1516,0,1516,0,1516,0,1516,0,1516,0,1516,0,1516,0,1516,0,1516,0,1516,0,1516,0,1516,0,1516,0,1516,0,1516,0,1516,0,1516,0,1516,0,1516,0,1516,0,1516,0,1516,0,1516,0,1516,0,1516,0,1516,0,1516,0,1516,0,1516,0,1516,0,1516,0,1516,0,1516,0,1516,0,1516,0,0,0,0,0,0,0,0,0,0,0,
0,0,0,0,0,0,0,0,0,0,0,0,0,0,0,0,0,0,0,0,0,0,0,0,0,0,0,0,0,0,0,0,0,0,0,0,0,0,0,0,0,0,0,0,0,0,0,0,0,0,0,0,0,0,0,0,0,0,0,0,0,0,0,0,0,0,0,0,0,0,0,0,0,0,0,0,0,0,0,0,0,0,0,0,0,0,0,0,0,0,0,0,0,0,0,0,0,0,0,0,0,0,0,0,0,0,0,0,0,0,0,0,0,0,0,0,0,0,0,0,0,0,0,0,0,0,0,0,0,0,0,0,0,0,0,0,0,0,0,0,
1516,0,1516,0,1516,0,1516,0,1516,0,1516,0,1516,0,1516,0,1516,0,1516,0,1516,0,1516,0,1516,0,1516,0,1516,0,1516,0,1516,0,1516,0,1516,0,1516,0,1516,0,1516,0,1516,0,1516,0,1516,0,1516,0,1516,0,1516,0,1516,0,1516,0,1516,0,1516,0,1516,0,1516,0,1516,0,1516,0,1516,0,1516,0,1516,0,1516,0,1516,0,1516,0,1516,0,1516,0,1516,0,1516,0,1516,0,1516,0,1516,0,1516,0,1516,0,1516,0,1516,0,1516,0,1516,0,1516,0,1516,0,1516,0,1516,0,1516,0,1516,0,1516,0,1516,0,1516,0,1516,0,0,0,0,0,0,0,0,0,0,0,
0,0,0,0,0,0,0,0,0,0,0,0,0,0,0,0,0,0,0,0,0,0,0,0,0,0,0,0,0,0,0,0,0,0,0,0,0,0,0,0,0,0,0,0,0,0,0,0,0,0,0,0,0,0,0,0,0,0,0,0,0,0,0,0,0,0,0,0,0,0,0,0,0,0,0,0,0,0,0,0,0,0,0,0,0,0,0,0,0,0,0,0,0,0,0,0,0,0,0,0,0,0,0,0,0,0,0,0,0,0,0,0,0,0,0,0,0,0,0,0,0,0,0,0,0,0,0,0,0,0,0,0,0,0,0,0,0,0,0,0,
1516,0,1516,0,1516,0,1516,0,1516,0,1516,0,1516,0,1516,0,1516,0,1516,0,1516,0,1516,0,1516,0,1516,0,1516,0,1516,0,1516,0,1516,0,1516,0,1516,0,1516,0,1516,0,1516,0,1516,0,1516,0,1516,0,1516,0,1516,0,1516,0,1516,0,1516,0,1516,0,1516,0,1516,0,1516,0,1516,0,1516,0,1516,0,1516,0,1516,0,1516,0,1516,0,1516,0,1516,0,1516,0,1516,0,1516,0,1516,0,1516,0,1516,0,1516,0,1516,0,1516,0,1516,0,1516,0,1516,0,1516,0,1516,0,1516,0,1516,0,1516,0,1516,0,1516,0,1516,0,1516,0,0,0,0,0,0,0,0,0,0,0,
0,0,0,0,0,0,0,0,0,0,0,0,0,0,0,0,0,0,0,0,0,0,0,0,0,0,0,0,0,0,0,0,0,0,0,0,0,0,0,0,0,0,0,0,0,0,0,0,0,0,0,0,0,0,0,0,0,0,0,0,0,0,0,0,0,0,0,0,0,0,0,0,0,0,0,0,0,0,0,0,0,0,0,0,0,0,0,0,0,0,0,0,0,0,0,0,0,0,0,0,0,0,0,0,0,0,0,0,0,0,0,0,0,0,0,0,0,0,0,0,0,0,0,0,0,0,0,0,0,0,0,0,0,0,0,0,0,0,0,0,
1516,0,1516,0,1516,0,1516,0,1516,0,1516,0,1516,0,1516,0,1516,0,1516,0,1516,0,1516,0,1516,0,1516,0,1516,0,1516,0,1516,0,1516,0,1516,0,1516,0,1516,0,1516,0,1516,0,1516,0,1516,0,1516,0,1516,0,1516,0,1516,0,1516,0,1516,0,1516,0,1516,0,1516,0,1516,0,1516,0,1516,0,1516,0,1516,0,1516,0,1516,0,1516,0,1516,0,1516,0,1516,0,1516,0,1516,0,1516,0,1516,0,1516,0,1516,0,1516,0,1516,0,1516,0,1516,0,1516,0,1516,0,1516,0,1516,0,1516,0,1516,0,1516,0,1516,0,1516,0,1516,0,0,0,0,0,0,0,0,0,0,0,
0,0,0,0,0,0,0,0,0,0,0,0,0,0,0,0,0,0,0,0,0,0,0,0,0,0,0,0,0,0,0,0,0,0,0,0,0,0,0,0,0,0,0,0,0,0,0,0,0,0,0,0,0,0,0,0,0,0,0,0,0,0,0,0,0,0,0,0,0,0,0,0,0,0,0,0,0,0,0,0,0,0,0,0,0,0,0,0,0,0,0,0,0,0,0,0,0,0,0,0,0,0,0,0,0,0,0,0,0,0,0,0,0,0,0,0,0,0,0,0,0,0,0,0,0,0,0,0,0,0,0,0,0,0,0,0,0,0,0,0,
1516,0,1516,0,1516,0,1516,0,1516,0,1516,0,1516,0,1516,0,1516,0,1516,0,1516,0,1516,0,1516,0,1516,0,1516,0,1516,0,1516,0,1516,0,1516,0,1516,0,1516,0,1516,0,1516,0,1516,0,1516,0,1516,0,1516,0,1516,0,1516,0,1516,0,1516,0,1516,0,1516,0,1516,0,1516,0,1516,0,1516,0,1516,0,1516,0,1516,0,1516,0,1516,0,1516,0,1516,0,1516,0,1516,0,1516,0,1516,0,1516,0,1516,0,1516,0,1516,0,1516,0,1516,0,1516,0,1516,0,1516,0,1516,0,1516,0,1516,0,1516,0,1516,0,1516,0,1516,0,1516,0,0,0,0,0,0,0,0,0,0,0,
0,0,0,0,0,0,0,0,0,0,0,0,0,0,0,0,0,0,0,0,0,0,0,0,0,0,0,0,0,0,0,0,0,0,0,0,0,0,0,0,0,0,0,0,0,0,0,0,0,0,0,0,0,0,0,0,0,0,0,0,0,0,0,0,0,0,0,0,0,0,0,0,0,0,0,0,0,0,0,0,0,0,0,0,0,0,0,0,0,0,0,0,0,0,0,0,0,0,0,0,0,0,0,0,0,0,0,0,0,0,0,0,0,0,0,0,0,0,0,0,0,0,0,0,0,0,0,0,0,0,0,0,0,0,0,0,0,0,0,0,
1516,0,1516,0,1516,0,1516,0,1516,0,1516,0,1516,0,1516,0,1516,0,1516,0,1516,0,1516,0,1516,0,1516,0,1516,0,1516,0,1516,0,1516,0,1516,0,1516,0,1516,0,1516,0,1516,0,1516,0,1516,0,1516,0,1516,0,1516,0,1516,0,1516,0,1516,0,1516,0,1516,0,1516,0,1516,0,1516,0,1516,0,1516,0,1516,0,1516,0,1516,0,1516,0,1516,0,1516,0,1516,0,1516,0,1516,0,1516,0,1516,0,1516,0,1516,0,1516,0,1516,0,1516,0,1516,0,1516,0,1516,0,1516,0,1516,0,1516,0,1516,0,1516,0,1516,0,1516,0,1516,0,0,0,0,0,0,0,0,0,0,0,
0,0,0,0,0,0,0,0,0,0,0,0,0,0,0,0,0,0,0,0,0,0,0,0,0,0,0,0,0,0,0,0,0,0,0,0,0,0,0,0,0,0,0,0,0,0,0,0,0,0,0,0,0,0,0,0,0,0,0,0,0,0,0,0,0,0,0,0,0,0,0,0,0,0,0,0,0,0,0,0,0,0,0,0,0,0,0,0,0,0,0,0,0,0,0,0,0,0,0,0,0,0,0,0,0,0,0,0,0,0,0,0,0,0,0,0,0,0,0,0,0,0,0,0,0,0,0,0,0,0,0,0,0,0,0,0,0,0,0,0,
1516,0,1516,0,1516,0,1516,0,1516,0,1516,0,1516,0,1516,0,1516,0,1516,0,1516,0,1516,0,1516,0,1516,0,1516,0,1516,0,1516,0,1516,0,1516,0,1516,0,1516,0,1516,0,1516,0,1516,0,1516,0,1516,0,1516,0,1516,0,1516,0,1516,0,1516,0,1516,0,1516,0,1516,0,1516,0,1516,0,1516,0,1516,0,1516,0,1516,0,1516,0,1516,0,1516,0,1516,0,1516,0,1516,0,1516,0,1516,0,1516,0,1516,0,1516,0,1516,0,1516,0,1516,0,1516,0,1516,0,1516,0,1516,0,1516,0,1516,0,1516,0,1516,0,1516,0,1516,0,1516,0,0,0,0,0,0,0,0,0,0,0,
0,0,0,0,0,0,0,0,0,0,0,0,0,0,0,0,0,0,0,0,0,0,0,0,0,0,0,0,0,0,0,0,0,0,0,0,0,0,0,0,0,0,0,0,0,0,0,0,0,0,0,0,0,0,0,0,0,0,0,0,0,0,0,0,0,0,0,0,0,0,0,0,0,0,0,0,0,0,0,0,0,0,0,0,0,0,0,0,0,0,0,0,0,0,0,0,0,0,0,0,0,0,0,0,0,0,0,0,0,0,0,0,0,0,0,0,0,0,0,0,0,0,0,0,0,0,0,0,0,0,0,0,0,0,0,0,0,0,0,0,
1516,0,1516,0,1516,0,1516,0,1516,0,1516,0,1516,0,1516,0,1516,0,1516,0,1516,0,1516,0,1516,0,1516,0,1516,0,1516,0,1516,0,1516,0,1516,0,1516,0,1516,0,1516,0,1516,0,1516,0,1516,0,1516,0,1516,0,1516,0,1516,0,1516,0,1516,0,1516,0,1516,0,1516,0,1516,0,1516,0,1516,0,1516,0,1516,0,1516,0,1516,0,1516,0,1516,0,1516,0,1516,0,1516,0,1516,0,1516,0,1516,0,1516,0,1516,0,1516,0,1516,0,1516,0,1516,0,1516,0,1516,0,1516,0,1516,0,1516,0,1516,0,1516,0,1516,0,1516,0,1516,0,0,0,0,0,0,0,0,0,0,0,
0,0,0,0,0,0,0,0,0,0,0,0,0,0,0,0,0,0,0,0,0,0,0,0,0,0,0,0,0,0,0,0,0,0,0,0,0,0,0,0,0,0,0,0,0,0,0,0,0,0,0,0,0,0,0,0,0,0,0,0,0,0,0,0,0,0,0,0,0,0,0,0,0,0,0,0,0,0,0,0,0,0,0,0,0,0,0,0,0,0,0,0,0,0,0,0,0,0,0,0,0,0,0,0,0,0,0,0,0,0,0,0,0,0,0,0,0,0,0,0,0,0,0,0,0,0,0,0,0,0,0,0,0,0,0,0,0,0,0,0,
1516,0,1516,0,1516,0,1516,0,1516,0,1516,0,1516,0,1516,0,1516,0,1516,0,1516,0,1516,0,1516,0,1516,0,1516,0,1516,0,1516,0,1516,0,1516,0,1516,0,1516,0,1516,0,1516,0,1516,0,1516,0,1516,0,1516,0,1516,0,1516,0,1516,0,1516,0,1516,0,1516,0,1516,0,1516,0,1516,0,1516,0,1516,0,1516,0,1516,0,1516,0,1516,0,1516,0,1516,0,1516,0,1516,0,1516,0,1516,0,1516,0,1516,0,1516,0,1516,0,1516,0,1516,0,1516,0,1516,0,1516,0,1516,0,1516,0,1516,0,1516,0,1516,0,1516,0,1516,0,1516,0,0,0,0,0,0,0,0,0,0,0,
0,0,0,0,0,0,0,0,0,0,0,0,0,0,0,0,0,0,0,0,0,0,0,0,0,0,0,0,0,0,0,0,0,0,0,0,0,0,0,0,0,0,0,0,0,0,0,0,0,0,0,0,0,0,0,0,0,0,0,0,0,0,0,0,0,0,0,0,0,0,0,0,0,0,0,0,0,0,0,0,0,0,0,0,0,0,0,0,0,0,0,0,0,0,0,0,0,0,0,0,0,0,0,0,0,0,0,0,0,0,0,0,0,0,0,0,0,0,0,0,0,0,0,0,0,0,0,0,0,0,0,0,0,0,0,0,0,0,0,0,
1516,0,1516,0,1516,0,1516,0,1516,0,1516,0,1516,0,1516,0,1516,0,1516,0,1516,0,1516,0,1516,0,1516,0,1516,0,1516,0,1516,0,1516,0,1516,0,1516,0,1516,0,1516,0,1516,0,1516,0,1516,0,1516,0,1516,0,1516,0,1573,0,1516,0,1516,0,1516,0,1516,0,1516,0,1516,0,1516,0,1516,0,1516,0,1516,0,1516,0,1516,0,1516,0,1516,0,1516,0,1573,0,1516,0,1516,0,1516,0,1516,0,1516,0,1516,0,1516,0,1516,0,1516,0,1516,0,1516,0,1516,0,1516,0,1516,0,1516,0,1516,0,1516,0,1516,0,1516,0,1516,0,0,0,0,0,0,0,0,0,0,0,
0,0,0,0,0,0,0,0,0,0,0,0,0,0,0,0,0,0,0,0,0,0,0,0,0,0,0,0,0,0,0,0,0,0,0,0,0,0,0,0,0,0,0,0,0,0,0,0,0,0,0,0,0,0,0,0,0,0,0,0,0,0,0,0,0,0,0,0,0,0,0,0,0,0,0,0,0,0,0,0,0,0,0,0,0,0,0,0,0,0,0,0,0,0,0,0,0,0,0,0,0,0,0,0,0,0,0,0,0,0,0,0,0,0,0,0,0,0,0,0,0,0,0,0,0,0,0,0,0,0,0,0,0,0,0,0,0,0,0,0,
1516,0,1516,0,1516,0,1516,0,1516,0,1516,0,1516,0,1516,0,1516,0,1516,0,1516,0,1516,0,1516,0,1516,0,1516,0,1516,0,1516,0,1516,0,1516,0,1516,0,1516,0,1516,0,1516,0,1516,0,1516,0,1516,0,1516,0,1516,0,1516,0,1516,0,1516,0,1516,0,1516,0,1516,0,1516,0,1516,0,1573,0,1516,0,1516,0,1516,0,1516,0,1516,0,1516,0,1516,0,1516,0,1516,0,1516,0,1516,0,1516,0,1516,0,1516,0,1516,0,1516,0,1516,0,1516,0,1516,0,1516,0,1516,0,1516,0,1516,0,1516,0,1516,0,1516,0,1516,0,1516,0,0,0,0,0,0,0,0,0,0,0,
0,0,0,0,0,0,0,0,0,0,0,0,0,0,0,0,0,0,0,0,0,0,0,0,0,0,0,0,0,0,0,0,0,0,0,0,0,0,0,0,0,0,0,0,0,0,0,0,0,0,0,0,0,0,0,0,0,0,0,0,0,0,0,0,0,0,0,0,0,0,0,0,0,0,0,0,0,0,0,0,0,0,0,0,0,0,0,0,0,0,0,0,0,0,0,0,0,0,0,0,0,0,0,0,0,0,0,0,0,0,0,0,0,0,0,0,0,0,0,0,0,0,0,0,0,0,0,0,0,0,0,0,0,0,0,0,0,0,0,0,
1516,0,1516,0,1516,0,1516,0,1516,0,1516,0,1516,0,1516,0,1516,0,1516,0,1516,0,1516,0,1516,0,1516,0,1516,0,1516,0,1516,0,1516,0,1516,0,1516,0,1516,0,1516,0,1516,0,1516,0,1516,0,1516,0,1516,0,1516,0,1516,0,1516,0,1516,0,1516,0,1516,0,1516,0,1516,0,1516,0,1516,0,1516,0,1516,0,1516,0,1516,0,1516,0,1516,0,1516,0,1516,0,1516,0,1516,0,1516,0,1516,0,1516,0,1516,0,1516,0,1516,0,1516,0,1516,0,1516,0,1516,0,1516,0,1516,0,1516,0,1516,0,1516,0,1516,0,1516,0,1516,0,0,0,0,0,0,0,0,0,0,0,
0,0,0,0,0,0,0,0,0,0,0,0,0,0,0,0,0,0,0,0,0,0,0,0,0,0,0,0,0,0,0,0,0,0,0,0,0,0,0,0,0,0,0,0,0,0,0,0,0,0,0,0,0,0,0,0,0,0,0,0,0,0,0,0,0,0,0,0,0,0,0,0,0,0,0,0,0,0,0,0,0,0,0,0,0,0,0,0,0,0,0,0,0,0,0,0,0,0,0,0,0,0,0,0,0,0,0,0,0,0,0,0,0,0,0,0,0,0,0,0,0,0,0,0,0,0,0,0,0,0,0,0,0,0,0,0,0,0,0,0,
1516,0,1516,0,1516,0,1516,0,1516,0,1516,0,1516,0,1516,0,1516,0,1516,0,1516,0,1516,0,1516,0,1516,0,1516,0,1516,0,1516,0,1516,0,1516,0,1516,0,1516,0,1516,0,1516,0,1516,0,1516,0,1516,0,1516,0,1516,0,1516,0,1516,0,1516,0,1516,0,1516,0,1516,0,1516,0,1516,0,1516,0,1516,0,1516,0,1516,0,1516,0,1516,0,1516,0,1516,0,1516,0,1516,0,1516,0,1516,0,1516,0,1516,0,1516,0,1516,0,1516,0,1516,0,1516,0,1516,0,1516,0,1516,0,1516,0,1516,0,1516,0,1516,0,1516,0,1516,0,1516,0,0,0,0,0,0,0,0,0,0,0,
0,0,0,0,0,0,0,0,0,0,0,0,0,0,0,0,0,0,0,0,0,0,0,0,0,0,0,0,0,0,0,0,0,0,0,0,0,0,0,0,0,0,0,0,0,0,0,0,0,0,0,0,0,0,0,0,0,0,0,0,0,0,0,0,0,0,0,0,0,0,0,0,0,0,0,0,0,0,0,0,0,0,0,0,0,0,0,0,0,0,0,0,0,0,0,0,0,0,0,0,0,0,0,0,0,0,0,0,0,0,0,0,0,0,0,0,0,0,0,0,0,0,0,0,0,0,0,0,0,0,0,0,0,0,0,0,0,0,0,0,
1516,0,1516,0,1516,0,1516,0,1516,0,1516,0,1516,0,1516,0,1516,0,1516,0,1516,0,1516,0,1516,0,1516,0,1516,0,1516,0,1516,0,1516,0,1516,0,1516,0,1516,0,1516,0,1516,0,1516,0,1516,0,1516,0,1516,0,1516,0,1516,0,1516,0,1516,0,1516,0,1516,0,1516,0,1516,0,1516,0,1516,0,1516,0,1516,0,1516,0,1516,0,1516,0,1516,0,1516,0,1516,0,1516,0,1516,0,1516,0,1516,0,1516,0,1516,0,1516,0,1516,0,1516,0,1516,0,1516,0,1516,0,1516,0,1516,0,1516,0,1516,0,1516,0,1516,0,1516,0,1516,0,0,0,0,0,0,0,0,0,0,0,
0,0,0,0,0,0,0,0,0,0,0,0,0,0,0,0,0,0,0,0,0,0,0,0,0,0,0,0,0,0,0,0,0,0,0,0,0,0,0,0,0,0,0,0,0,0,0,0,0,0,0,0,0,0,0,0,0,0,0,0,0,0,0,0,0,0,0,0,0,0,0,0,0,0,0,0,0,0,0,0,0,0,0,0,0,0,0,0,0,0,0,0,0,0,0,0,0,0,0,0,0,0,0,0,0,0,0,0,0,0,0,0,0,0,0,0,0,0,0,0,0,0,0,0,0,0,0,0,0,0,0,0,0,0,0,0,0,0,0,0,
1516,0,1516,0,1516,0,1516,0,1516,0,1516,0,1516,0,1516,0,1516,0,1516,0,1516,0,1516,0,1516,0,1516,0,1516,0,1516,0,1516,0,1516,0,1516,0,1516,0,1516,0,1516,0,1516,0,1516,0,1516,0,1516,0,1516,0,1516,0,1516,0,1516,0,1516,0,1516,0,1516,0,1516,0,1516,0,1516,0,1516,0,1516,0,1516,0,1516,0,1516,0,1516,0,1516,0,1516,0,1516,0,1516,0,1516,0,1516,0,1516,0,1516,0,1516,0,1516,0,1516,0,1516,0,1516,0,1516,0,1516,0,1516,0,1516,0,1516,0,1516,0,1516,0,1516,0,1516,0,1516,0,0,0,0,0,0,0,0,0,0,0,
0,0,0,0,0,0,0,0,0,0,0,0,0,0,0,0,0,0,0,0,0,0,0,0,0,0,0,0,0,0,0,0,0,0,0,0,0,0,0,0,0,0,0,0,0,0,0,0,0,0,0,0,0,0,0,0,0,0,0,0,0,0,0,0,0,0,0,0,0,0,0,0,0,0,0,0,0,0,0,0,0,0,0,0,0,0,0,0,0,0,0,0,0,0,0,0,0,0,0,0,0,0,0,0,0,0,0,0,0,0,0,0,0,0,0,0,0,0,0,0,0,0,0,0,0,0,0,0,0,0,0,0,0,0,0,0,0,0,0,0,
1516,0,1516,0,1516,0,1516,0,1516,0,1516,0,1516,0,1516,0,1516,0,1516,0,1516,0,1516,0,1516,0,1516,0,1516,0,1516,0,1516,0,1516,0,1516,0,1516,0,1516,0,1516,0,1516,0,1516,0,1516,0,1516,0,1516,0,1516,0,1516,0,1516,0,1516,0,1516,0,1516,0,1516,0,1516,0,1516,0,1516,0,1516,0,1516,0,1516,0,1516,0,1516,0,1516,0,1516,0,1516,0,1516,0,1516,0,1516,0,1516,0,1516,0,1516,0,1516,0,1516,0,1516,0,1516,0,1516,0,1516,0,1516,0,1516,0,1516,0,1516,0,1516,0,1516,0,1516,0,1516,0,0,0,0,0,0,0,0,0,0,0,
0,0,0,0,0,0,0,0,0,0,0,0,0,0,0,0,0,0,0,0,0,0,0,0,0,0,0,0,0,0,0,0,0,0,0,0,0,0,0,0,0,0,0,0,0,0,0,0,0,0,0,0,0,0,0,0,0,0,0,0,0,0,0,0,0,0,0,0,0,0,0,0,0,0,0,0,0,0,0,0,0,0,0,0,0,0,0,0,0,0,0,0,0,0,0,0,0,0,0,0,0,0,0,0,0,0,0,0,0,0,0,0,0,0,0,0,0,0,0,0,0,0,0,0,0,0,0,0,0,0,0,0,0,0,0,0,0,0,0,0,
1516,0,1516,0,1516,0,1516,0,1516,0,1516,0,1516,0,1516,0,1516,0,1516,0,1516,0,1516,0,1516,0,1516,0,1516,0,1516,0,1516,0,1516,0,1516,0,1516,0,1516,0,1516,0,1516,0,1516,0,1516,0,1516,0,1516,0,1516,0,1516,0,1573,0,1516,0,1516,0,1516,0,1516,0,1516,0,1516,0,1516,0,1516,0,1516,0,1516,0,1516,0,1516,0,1516,0,1573,0,1516,0,1516,0,1516,0,1516,0,1516,0,1516,0,1516,0,1516,0,1516,0,1516,0,1516,0,1516,0,1516,0,1516,0,1516,0,1516,0,1516,0,1516,0,1516,0,1516,0,1516,0,0,0,0,0,0,0,0,0,0,0,
0,0,0,0,0,0,0,0,0,0,0,0,0,0,0,0,0,0,0,0,0,0,0,0,0,0,0,0,0,0,0,0,0,0,0,0,0,0,0,0,0,0,0,0,0,0,0,0,0,0,0,0,0,0,0,0,0,0,0,0,0,0,0,0,0,0,0,0,0,0,0,0,0,0,0,0,0,0,0,0,0,0,0,0,0,0,0,0,0,0,0,0,0,0,0,0,0,0,0,0,0,0,0,0,0,0,0,0,0,0,0,0,0,0,0,0,0,0,0,0,0,0,0,0,0,0,0,0,0,0,0,0,0,0,0,0,0,0,0,0,
1516,0,1516,0,1516,0,1516,0,1516,0,1516,0,1516,0,1516,0,1516,0,1516,0,1516,0,1516,0,1516,0,1516,0,1516,0,1516,0,1516,0,1516,0,1516,0,1516,0,1516,0,1516,0,1516,0,1516,0,1516,0,1516,0,1516,0,1516,0,1516,0,1516,0,1516,0,1516,0,1516,0,1516,0,1516,0,1516,0,1516,0,1516,0,1516,0,1516,0,1516,0,1516,0,1516,0,1516,0,1516,0,1516,0,1516,0,1516,0,1516,0,1516,0,1516,0,1516,0,1516,0,1516,0,1516,0,1516,0,1516,0,1516,0,1516,0,1516,0,1516,0,1516,0,1516,0,1516,0,1516,0,0,0,0,0,0,0,0,0,0,0,
0,0,0,0,0,0,0,0,0,0,0,0,0,0,0,0,0,0,0,0,0,0,0,0,0,0,0,0,0,0,0,0,0,0,0,0,0,0,0,0,0,0,0,0,0,0,0,0,0,0,0,0,0,0,0,0,0,0,0,0,0,0,0,0,0,0,0,0,0,0,0,0,0,0,0,0,0,0,0,0,0,0,0,0,0,0,0,0,0,0,0,0,0,0,0,0,0,0,0,0,0,0,0,0,0,0,0,0,0,0,0,0,0,0,0,0,0,0,0,0,0,0,0,0,0,0,0,0,0,0,0,0,0,0,0,0,0,0,0,0,
1516,0,1516,0,1516,0,1516,0,1516,0,1516,0,1516,0,1516,0,1516,0,1516,0,1516,0,1516,0,1516,0,1516,0,1516,0,1516,0,1516,0,1516,0,1516,0,1516,0,1516,0,1516,0,1516,0,1516,0,1516,0,1516,0,1516,0,1516,0,1516,0,1516,0,1516,0,1516,0,1516,0,1516,0,1516,0,1516,0,1516,0,1516,0,1516,0,1516,0,1516,0,1516,0,1516,0,1516,0,1516,0,1516,0,1516,0,1516,0,1516,0,1516,0,1516,0,1516,0,1516,0,1516,0,1516,0,1516,0,1516,0,1516,0,1516,0,1516,0,1516,0,1516,0,1516,0,1516,0,1516,0,0,0,0,0,0,0,0,0,0,0,
0,0,0,0,0,0,0,0,0,0,0,0,0,0,0,0,0,0,0,0,0,0,0,0,0,0,0,0,0,0,0,0,0,0,0,0,0,0,0,0,0,0,0,0,0,0,0,0,0,0,0,0,0,0,0,0,0,0,0,0,0,0,0,0,0,0,0,0,0,0,0,0,0,0,0,0,0,0,0,0,0,0,0,0,0,0,0,0,0,0,0,0,0,0,0,0,0,0,0,0,0,0,0,0,0,0,0,0,0,0,0,0,0,0,0,0,0,0,0,0,0,0,0,0,0,0,0,0,0,0,0,0,0,0,0,0,0,0,0,0,
1516,0,1516,0,1516,0,1516,0,1516,0,1516,0,1516,0,1516,0,1516,0,1516,0,1516,0,1516,0,1516,0,1516,0,1516,0,1516,0,1516,0,1516,0,1516,0,1516,0,1516,0,1516,0,1516,0,1516,0,1516,0,1516,0,1516,0,1516,0,1516,0,1516,0,1516,0,1516,0,1516,0,1516,0,1516,0,1516,0,1516,0,1516,0,1516,0,1516,0,1516,0,1516,0,1516,0,1516,0,1516,0,1516,0,1516,0,1516,0,1516,0,1516,0,1516,0,1516,0,1516,0,1516,0,1516,0,1516,0,1516,0,1516,0,1516,0,1516,0,1516,0,1516,0,1516,0,1516,0,1516,0,0,0,0,0,0,0,0,0,0,0,
0,0,0,0,0,0,0,0,0,0,0,0,0,0,0,0,0,0,0,0,0,0,0,0,0,0,0,0,0,0,0,0,0,0,0,0,0,0,0,0,0,0,0,0,0,0,0,0,0,0,0,0,0,0,0,0,0,0,0,0,0,0,0,0,0,0,0,0,0,0,0,0,0,0,0,0,0,0,0,0,0,0,0,0,0,0,0,0,0,0,0,0,0,0,0,0,0,0,0,0,0,0,0,0,0,0,0,0,0,0,0,0,0,0,0,0,0,0,0,0,0,0,0,0,0,0,0,0,0,0,0,0,0,0,0,0,0,0,0,0,
1516,0,1516,0,1516,0,1516,0,1516,0,1516,0,1516,0,1516,0,1516,0,1516,0,1516,0,1516,0,1516,0,1516,0,1516,0,1516,0,1516,0,1516,0,1516,0,1516,0,1516,0,1516,0,1516,0,1516,0,1516,0,1516,0,1516,0,1516,0,1516,0,1516,0,1516,0,1516,0,1516,0,1516,0,1516,0,1516,0,1516,0,1516,0,1516,0,1516,0,1516,0,1516,0,1516,0,1516,0,1516,0,1516,0,1516,0,1516,0,1516,0,1516,0,1516,0,1516,0,1516,0,1516,0,1516,0,1516,0,1516,0,1516,0,1516,0,1516,0,1516,0,1516,0,1516,0,1516,0,1516,0,0,0,0,0,0,0,0,0,0,0,
0,0,0,0,0,0,0,0,0,0,0,0,0,0,0,0,0,0,0,0,0,0,0,0,0,0,0,0,0,0,0,0,0,0,0,0,0,0,0,0,0,0,0,0,0,0,0,0,0,0,0,0,0,0,0,0,0,0,0,0,0,0,0,0,0,0,0,0,0,0,0,0,0,0,0,0,0,0,0,0,0,0,0,0,0,0,0,0,0,0,0,0,0,0,0,0,0,0,0,0,0,0,0,0,0,0,0,0,0,0,0,0,0,0,0,0,0,0,0,0,0,0,0,0,0,0,0,0,0,0,0,0,0,0,0,0,0,0,0,0,
1516,0,1516,0,1516,0,1516,0,1516,0,1516,0,1516,0,1516,0,1516,0,1516,0,1516,0,1516,0,1516,0,1516,0,1516,0,1516,0,1516,0,1516,0,1516,0,1516,0,1516,0,1516,0,1516,0,1516,0,1516,0,1516,0,1516,0,1516,0,1516,0,1516,0,1516,0,1516,0,1516,0,1516,0,1516,0,1516,0,1516,0,1516,0,1516,0,1516,0,1516,0,1516,0,1516,0,1516,0,1516,0,1516,0,1516,0,1516,0,1516,0,1516,0,1516,0,1516,0,1516,0,1516,0,1516,0,1516,0,1516,0,1516,0,1516,0,1516,0,1516,0,1516,0,1516,0,1516,0,1516,0,0,0,0,0,0,0,0,0,0,0,
0,0,0,0,0,0,0,0,0,0,0,0,0,0,0,0,0,0,0,0,0,0,0,0,0,0,0,0,0,0,0,0,0,0,0,0,0,0,0,0,0,0,0,0,0,0,0,0,0,0,0,0,0,0,0,0,0,0,0,0,0,0,0,0,0,0,0,0,0,0,0,0,0,0,0,0,0,0,0,0,0,0,0,0,0,0,0,0,0,0,0,0,0,0,0,0,0,0,0,0,0,0,0,0,0,0,0,0,0,0,0,0,0,0,0,0,0,0,0,0,0,0,0,0,0,0,0,0,0,0,0,0,0,0,0,0,0,0,0,0,
1516,0,1516,0,1516,0,1516,0,1516,0,1516,0,1516,0,1516,0,1516,0,1516,0,1516,0,1516,0,1516,0,1516,0,1516,0,1516,0,1516,0,1516,0,1516,0,1516,0,1516,0,1516,0,1516,0,1516,0,1516,0,1516,0,1516,0,1516,0,1573,0,1516,0,1516,0,1516,0,1516,0,1516,0,1516,0,1516,0,1573,0,1516,0,1516,0,1516,0,1516,0,1516,0,1516,0,1516,0,1573,0,1516,0,1516,0,1516,0,1516,0,1516,0,1516,0,1516,0,1516,0,1516,0,1516,0,1516,0,1516,0,1516,0,1516,0,1516,0,1516,0,1516,0,1516,0,1516,0,1516,0,0,0,0,0,0,0,0,0,0,0,
0,0,0,0,0,0,0,0,0,0,0,0,0,0,0,0,0,0,0,0,0,0,0,0,0,0,0,0,0,0,0,0,0,0,0,0,0,0,0,0,0,0,0,0,0,0,0,0,0,0,0,0,0,0,0,0,0,0,0,0,0,0,0,0,0,0,0,0,0,0,0,0,0,0,0,0,0,0,0,0,0,0,0,0,0,0,0,0,0,0,0,0,0,0,0,0,0,0,0,0,0,0,0,0,0,0,0,0,0,0,0,0,0,0,0,0,0,0,0,0,0,0,0,0,0,0,0,0,0,0,0,0,0,0,0,0,0,0,0,0,
1516,0,1516,0,1516,0,1516,0,1516,0,1516,0,1516,0,1516,0,1516,0,1516,0,1516,0,1516,0,1516,0,1516,0,1516,0,1516,0,1516,0,1516,0,1516,0,1516,0,1516,0,1516,0,1516,0,1516,0,1516,0,1516,0,1516,0,1516,0,1516,0,1516,0,1516,0,1516,0,1516,0,1516,0,1516,0,1516,0,1516,0,1516,0,1516,0,1516,0,1516,0,1516,0,1516,0,1516,0,1516,0,1516,0,1516,0,1516,0,1516,0,1516,0,1516,0,1516,0,1516,0,1516,0,1516,0,1516,0,1516,0,1516,0,1516,0,1516,0,1516,0,1516,0,1516,0,1516,0,1516,0,0,0,0,0,0,0,0,0,0,0,
0,0,0,0,0,0,0,0,0,0,0,0,0,0,0,0,0,0,0,0,0,0,0,0,0,0,0,0,0,0,0,0,0,0,0,0,0,0,0,0,0,0,0,0,0,0,0,0,0,0,0,0,0,0,0,0,0,0,0,0,0,0,0,0,0,0,0,0,0,0,0,0,0,0,0,0,0,0,0,0,0,0,0,0,0,0,0,0,0,0,0,0,0,0,0,0,0,0,0,0,0,0,0,0,0,0,0,0,0,0,0,0,0,0,0,0,0,0,0,0,0,0,0,0,0,0,0,0,0,0,0,0,0,0,0,0,0,0,0,0,
1516,0,1516,0,1516,0,1516,0,1516,0,1516,0,1516,0,1516,0,1516,0,1516,0,1516,0,1516,0,1516,0,1516,0,1516,0,1516,0,1516,0,1516,0,1516,0,1516,0,1516,0,1516,0,1516,0,1516,0,1516,0,1516,0,1516,0,1516,0,1516,0,1516,0,1516,0,1516,0,1516,0,1516,0,1516,0,1516,0,1516,0,1516,0,1516,0,1516,0,1516,0,1516,0,1516,0,1516,0,1516,0,1516,0,1516,0,1516,0,1516,0,1516,0,1516,0,1516,0,1516,0,1516,0,1516,0,1516,0,1516,0,1516,0,1516,0,1516,0,1516,0,1516,0,1516,0,1516,0,1516,0,0,0,0,0,0,0,0,0,0,0,
0,0,0,0,0,0,0,0,0,0,0,0,0,0,0,0,0,0,0,0,0,0,0,0,0,0,0,0,0,0,0,0,0,0,0,0,0,0,0,0,0,0,0,0,0,0,0,0,0,0,0,0,0,0,0,0,0,0,0,0,0,0,0,0,0,0,0,0,0,0,0,0,0,0,0,0,0,0,0,0,0,0,0,0,0,0,0,0,0,0,0,0,0,0,0,0,0,0,0,0,0,0,0,0,0,0,0,0,0,0,0,0,0,0,0,0,0,0,0,0,0,0,0,0,0,0,0,0,0,0,0,0,0,0,0,0,0,0,0,0,
1516,0,1516,0,1516,0,1516,0,1516,0,1516,0,1516,0,1516,0,1516,0,1516,0,1516,0,1516,0,1516,0,1516,0,1516,0,1516,0,1516,0,1516,0,1516,0,1516,0,1516,0,1516,0,1516,0,1516,0,1516,0,1516,0,1516,0,1516,0,1516,0,1516,0,1516,0,1516,0,1516,0,1516,0,1516,0,1516,0,1516,0,1516,0,1516,0,1516,0,1516,0,1516,0,1516,0,1516,0,1516,0,1516,0,1516,0,1516,0,1516,0,1516,0,1516,0,1516,0,1516,0,1516,0,1516,0,1516,0,1516,0,1516,0,1516,0,1516,0,1516,0,1516,0,1516,0,1516,0,1516,0,0,0,0,0,0,0,0,0,0,0,
0,0,0,0,0,0,0,0,0,0,0,0,0,0,0,0,0,0,0,0,0,0,0,0,0,0,0,0,0,0,0,0,0,0,0,0,0,0,0,0,0,0,0,0,0,0,0,0,0,0,0,0,0,0,0,0,0,0,0,0,0,0,0,0,0,0,0,0,0,0,0,0,0,0,0,0,0,0,0,0,0,0,0,0,0,0,0,0,0,0,0,0,0,0,0,0,0,0,0,0,0,0,0,0,0,0,0,0,0,0,0,0,0,0,0,0,0,0,0,0,0,0,0,0,0,0,0,0,0,0,0,0,0,0,0,0,0,0,0,0,
1516,0,1516,0,1516,0,1516,0,1516,0,1516,0,1516,0,1516,0,1516,0,1516,0,1516,0,1516,0,1516,0,1516,0,1516,0,1516,0,1516,0,1516,0,1516,0,1516,0,1516,0,1516,0,1516,0,1516,0,1516,0,1516,0,1516,0,1516,0,1516,0,1516,0,1516,0,1516,0,1516,0,1516,0,1516,0,1516,0,1516,0,1516,0,1516,0,1516,0,1516,0,1516,0,1516,0,1516,0,1516,0,1516,0,1516,0,1516,0,1516,0,1516,0,1516,0,1516,0,1516,0,1516,0,1516,0,1516,0,1516,0,1516,0,1516,0,1516,0,1516,0,1516,0,1516,0,1516,0,1516,0,0,0,0,0,0,0,0,0,0,0,
0,0,0,0,0,0,0,0,0,0,0,0,0,0,0,0,0,0,0,0,0,0,0,0,0,0,0,0,0,0,0,0,0,0,0,0,0,0,0,0,0,0,0,0,0,0,0,0,0,0,0,0,0,0,0,0,0,0,0,0,0,0,0,0,0,0,0,0,0,0,0,0,0,0,0,0,0,0,0,0,0,0,0,0,0,0,0,0,0,0,0,0,0,0,0,0,0,0,0,0,0,0,0,0,0,0,0,0,0,0,0,0,0,0,0,0,0,0,0,0,0,0,0,0,0,0,0,0,0,0,0,0,0,0,0,0,0,0,0,0,
1516,0,1516,0,1516,0,1516,0,1516,0,1516,0,1516,0,1516,0,1516,0,1516,0,1516,0,1516,0,1516,0,1516,0,1516,0,1516,0,1516,0,1516,0,1516,0,1516,0,1516,0,1516,0,1516,0,1516,0,1516,0,1516,0,1516,0,1516,0,1516,0,1516,0,1516,0,1516,0,1516,0,1516,0,1516,0,1516,0,1516,0,1516,0,1516,0,1516,0,1516,0,1516,0,1516,0,1516,0,1516,0,1516,0,1516,0,1516,0,1516,0,1516,0,1516,0,1516,0,1516,0,1516,0,1516,0,1516,0,1516,0,1516,0,1516,0,1516,0,1516,0,1516,0,1516,0,1516,0,1516,0,0,0,0,0,0,0,0,0,0,0,
0,0,0,0,0,0,0,0,0,0,0,0,0,0,0,0,0,0,0,0,0,0,0,0,0,0,0,0,0,0,0,0,0,0,0,0,0,0,0,0,0,0,0,0,0,0,0,0,0,0,0,0,0,0,0,0,0,0,0,0,0,0,0,0,0,0,0,0,0,0,0,0,0,0,0,0,0,0,0,0,0,0,0,0,0,0,0,0,0,0,0,0,0,0,0,0,0,0,0,0,0,0,0,0,0,0,0,0,0,0,0,0,0,0,0,0,0,0,0,0,0,0,0,0,0,0,0,0,0,0,0,0,0,0,0,0,0,0,0,0,
1516,0,1516,0,1516,0,1516,0,1516,0,1516,0,1516,0,1516,0,1516,0,1516,0,1516,0,1516,0,1516,0,1516,0,1516,0,1516,0,1516,0,1516,0,1516,0,1516,0,1516,0,1516,0,1516,0,1516,0,1516,0,1516,0,1516,0,1516,0,1516,0,1516,0,1516,0,1516,0,1516,0,1516,0,1516,0,1516,0,1516,0,1516,0,1516,0,1516,0,1516,0,1516,0,1516,0,1516,0,1516,0,1516,0,1516,0,1516,0,1516,0,1516,0,1516,0,1516,0,1516,0,1516,0,1516,0,1516,0,1516,0,1516,0,1516,0,1516,0,1516,0,1516,0,1516,0,1516,0,1516,0,0,0,0,0,0,0,0,0,0,0,
0,0,0,0,0,0,0,0,0,0,0,0,0,0,0,0,0,0,0,0,0,0,0,0,0,0,0,0,0,0,0,0,0,0,0,0,0,0,0,0,0,0,0,0,0,0,0,0,0,0,0,0,0,0,0,0,0,0,0,0,0,0,0,0,0,0,0,0,0,0,0,0,0,0,0,0,0,0,0,0,0,0,0,0,0,0,0,0,0,0,0,0,0,0,0,0,0,0,0,0,0,0,0,0,0,0,0,0,0,0,0,0,0,0,0,0,0,0,0,0,0,0,0,0,0,0,0,0,0,0,0,0,0,0,0,0,0,0,0,0,
1516,0,1516,0,1516,0,1516,0,1516,0,1516,0,1516,0,1516,0,1516,0,1516,0,1516,0,1516,0,1516,0,1516,0,1516,0,1516,0,1516,0,1516,0,1516,0,1516,0,1516,0,1516,0,1516,0,1516,0,1516,0,1516,0,1516,0,1516,0,1516,0,1516,0,1516,0,1516,0,1516,0,1516,0,1516,0,1516,0,1516,0,1516,0,1516,0,1516,0,1516,0,1516,0,1516,0,1516,0,1516,0,1516,0,1516,0,1516,0,1516,0,1516,0,1516,0,1516,0,1516,0,1516,0,1516,0,1516,0,1516,0,1516,0,1516,0,1516,0,1516,0,1516,0,1516,0,1516,0,1516,0,0,0,0,0,0,0,0,0,0,0,
0,0,0,0,0,0,0,0,0,0,0,0,0,0,0,0,0,0,0,0,0,0,0,0,0,0,0,0,0,0,0,0,0,0,0,0,0,0,0,0,0,0,0,0,0,0,0,0,0,0,0,0,0,0,0,0,0,0,0,0,0,0,0,0,0,0,0,0,0,0,0,0,0,0,0,0,0,0,0,0,0,0,0,0,0,0,0,0,0,0,0,0,0,0,0,0,0,0,0,0,0,0,0,0,0,0,0,0,0,0,0,0,0,0,0,0,0,0,0,0,0,0,0,0,0,0,0,0,0,0,0,0,0,0,0,0,0,0,0,0,
1516,0,1516,0,1516,0,1516,0,1516,0,1516,0,1516,0,1516,0,1516,0,1516,0,1516,0,1516,0,1516,0,1516,0,1516,0,1516,0,1516,0,1516,0,1516,0,1516,0,1516,0,1516,0,1516,0,1516,0,1516,0,1516,0,1516,0,1516,0,1516,0,1516,0,1516,0,1516,0,1516,0,1516,0,1516,0,1516,0,1516,0,1516,0,1516,0,1516,0,1516,0,1516,0,1516,0,1516,0,1516,0,1516,0,1516,0,1516,0,1516,0,1516,0,1516,0,1516,0,1516,0,1516,0,1516,0,1516,0,1516,0,1516,0,1516,0,1516,0,1516,0,1516,0,1516,0,1516,0,1516,0,0,0,0,0,0,0,0,0,0,0,
0,0,0,0,0,0,0,0,0,0,0,0,0,0,0,0,0,0,0,0,0,0,0,0,0,0,0,0,0,0,0,0,0,0,0,0,0,0,0,0,0,0,0,0,0,0,0,0,0,0,0,0,0,0,0,0,0,0,0,0,0,0,0,0,0,0,0,0,0,0,0,0,0,0,0,0,0,0,0,0,0,0,0,0,0,0,0,0,0,0,0,0,0,0,0,0,0,0,0,0,0,0,0,0,0,0,0,0,0,0,0,0,0,0,0,0,0,0,0,0,0,0,0,0,0,0,0,0,0,0,0,0,0,0,0,0,0,0,0,0,
1516,0,1516,0,1516,0,1516,0,1516,0,1516,0,1516,0,1516,0,1516,0,1516,0,1516,0,1516,0,1516,0,1516,0,1516,0,1516,0,1516,0,1516,0,1516,0,1516,0,1516,0,1516,0,1516,0,1516,0,1516,0,1516,0,1516,0,1516,0,1516,0,1516,0,1516,0,1516,0,1516,0,1516,0,1516,0,1516,0,1516,0,1516,0,1516,0,1516,0,1516,0,1516,0,1516,0,1516,0,1516,0,1516,0,1516,0,1516,0,1516,0,1516,0,1516,0,1516,0,1516,0,1516,0,1516,0,1516,0,1516,0,1516,0,1516,0,1516,0,1516,0,1516,0,1516,0,1516,0,1516,0,0,0,0,0,0,0,0,0,0,0,
0,0,0,0,0,0,0,0,0,0,0,0,0,0,0,0,0,0,0,0,0,0,0,0,0,0,0,0,0,0,0,0,0,0,0,0,0,0,0,0,0,0,0,0,0,0,0,0,0,0,0,0,0,0,0,0,0,0,0,0,0,0,0,0,0,0,0,0,0,0,0,0,0,0,0,0,0,0,0,0,0,0,0,0,0,0,0,0,0,0,0,0,0,0,0,0,0,0,0,0,0,0,0,0,0,0,0,0,0,0,0,0,0,0,0,0,0,0,0,0,0,0,0,0,0,0,0,0,0,0,0,0,0,0,0,0,0,0,0,0,
1516,0,1516,0,1516,0,1516,0,1516,0,1516,0,1516,0,1516,0,1516,0,1516,0,1516,0,1516,0,1516,0,1516,0,1516,0,1516,0,1516,0,1516,0,1516,0,1516,0,1516,0,1516,0,1516,0,1516,0,1516,0,1516,0,1516,0,1516,0,1516,0,1516,0,1516,0,1516,0,1516,0,1516,0,1516,0,1516,0,1516,0,1516,0,1516,0,1516,0,1516,0,1516,0,1516,0,1516,0,1516,0,1516,0,1516,0,1516,0,1516,0,1516,0,1516,0,1516,0,1516,0,1516,0,1516,0,1516,0,1516,0,1516,0,1516,0,1516,0,1516,0,1516,0,1516,0,1516,0,1516,0,0,0,0,0,0,0,0,0,0,0,
0,0,0,0,0,0,0,0,0,0,0,0,0,0,0,0,0,0,0,0,0,0,0,0,0,0,0,0,0,0,0,0,0,0,0,0,0,0,0,0,0,0,0,0,0,0,0,0,0,0,0,0,0,0,0,0,0,0,0,0,0,0,0,0,0,0,0,0,0,0,0,0,0,0,0,0,0,0,0,0,0,0,0,0,0,0,0,0,0,0,0,0,0,0,0,0,0,0,0,0,0,0,0,0,0,0,0,0,0,0,0,0,0,0,0,0,0,0,0,0,0,0,0,0,0,0,0,0,0,0,0,0,0,0,0,0,0,0,0,0,
1516,0,1516,0,1516,0,1516,0,1516,0,1516,0,1516,0,1516,0,1516,0,1516,0,1516,0,1516,0,1516,0,1516,0,1516,0,1516,0,1516,0,1516,0,1516,0,1516,0,1516,0,1516,0,1516,0,1516,0,1516,0,1516,0,1516,0,1516,0,1516,0,1516,0,1516,0,1516,0,1516,0,1516,0,1516,0,1516,0,1516,0,1516,0,1516,0,1516,0,1516,0,1516,0,1516,0,1516,0,1516,0,1516,0,1516,0,1516,0,1516,0,1516,0,1516,0,1516,0,1516,0,1516,0,1516,0,1516,0,1516,0,1516,0,1516,0,1516,0,1516,0,1516,0,1516,0,1516,0,1516,0,0,0,0,0,0,0,0,0,0,0,
0,0,0,0,0,0,0,0,0,0,0,0,0,0,0,0,0,0,0,0,0,0,0,0,0,0,0,0,0,0,0,0,0,0,0,0,0,0,0,0,0,0,0,0,0,0,0,0,0,0,0,0,0,0,0,0,0,0,0,0,0,0,0,0,0,0,0,0,0,0,0,0,0,0,0,0,0,0,0,0,0,0,0,0,0,0,0,0,0,0,0,0,0,0,0,0,0,0,0,0,0,0,0,0,0,0,0,0,0,0,0,0,0,0,0,0,0,0,0,0,0,0,0,0,0,0,0,0,0,0,0,0,0,0,0,0,0,0,0,0,
0,0,1516,0,1516,0,1516,0,1516,0,1516,0,1516,0,1516,0,1516,0,1516,0,1516,0,1516,0,1516,0,1516,0,1516,0,1516,0,1516,0,1516,0,1516,0,1516,0,1516,0,1516,0,1516,0,1516,0,1516,0,1516,0,1516,0,1516,0,1516,0,1516,0,1516,0,1516,0,1516,0,1516,0,1516,0,1516,0,1516,0,1516,0,1516,0,1516,0,1516,0,1516,0,1516,0,1516,0,1516,0,1516,0,1516,0,1516,0,1516,0,1516,0,1516,0,1516,0,1516,0,1516,0,1516,0,1516,0,1516,0,1516,0,1516,0,1516,0,1516,0,1516,0,1516,0,1516,0,1516,0,0,0,0,0,0,0,0,0,0,0,
0,0,0,0,0,0,0,0,0,0,0,0,0,0,0,0,0,0,0,0,0,0,0,0,0,0,0,0,0,0,0,0,0,0,0,0,0,0,0,0,0,0,0,0,0,0,0,0,0,0,0,0,0,0,0,0,0,0,0,0,0,0,0,0,0,0,0,0,0,0,0,0,0,0,0,0,0,0,0,0,0,0,0,0,0,0,0,0,0,0,0,0,0,0,0,0,0,0,0,0,0,0,0,0,0,0,0,0,0,0,0,0,0,0,0,0,0,0,0,0,0,0,0,0,0,0,0,0,0,0,0,0,0,0,0,0,0,0,0,0,
0,0,1516,0,1516,0,1516,0,1516,0,1516,0,1516,0,1516,0,1516,0,1516,0,1516,0,1516,0,1516,0,1516,0,1516,0,1516,0,1516,0,1516,0,1516,0,1516,0,1516,0,1516,0,1516,0,1516,0,1516,0,1516,0,1516,0,1516,0,1516,0,1516,0,1516,0,1516,0,1516,0,1516,0,1516,0,1516,0,1516,0,1516,0,1516,0,1516,0,1516,0,1516,0,1516,0,1516,0,1516,0,1516,0,1516,0,1516,0,1516,0,1516,0,1516,0,1516,0,1516,0,1516,0,1516,0,1516,0,1516,0,1516,0,1516,0,1516,0,1516,0,1516,0,1516,0,1516,0,1516,0,0,0,0,0,0,0,0,0,0,0,
0,0,0,0,0,0,0,0,0,0,0,0,0,0,0,0,0,0,0,0,0,0,0,0,0,0,0,0,0,0,0,0,0,0,0,0,0,0,0,0,0,0,0,0,0,0,0,0,0,0,0,0,0,0,0,0,0,0,0,0,0,0,0,0,0,0,0,0,0,0,0,0,0,0,0,0,0,0,0,0,0,0,0,0,0,0,0,0,0,0,0,0,0,0,0,0,0,0,0,0,0,0,0,0,0,0,0,0,0,0,0,0,0,0,0,0,0,0,0,0,0,0,0,0,0,0,0,0,0,0,0,0,0,0,0,0,0,0,0,0,
0,0,1516,0,1516,0,1516,0,1516,0,1516,0,1516,0,1516,0,1516,0,1516,0,1516,0,1516,0,1516,0,1516,0,1516,0,1516,0,1516,0,1516,0,1516,0,1516,0,1516,0,1516,0,1516,0,1516,0,1516,0,1516,0,1516,0,1516,0,1516,0,1516,0,1516,0,1516,0,1516,0,1516,0,1516,0,1516,0,1516,0,1516,0,1516,0,1516,0,1516,0,1516,0,1516,0,1516,0,1516,0,1516,0,1516,0,1516,0,1516,0,1516,0,1516,0,1516,0,1516,0,1516,0,1516,0,1516,0,1516,0,1516,0,1516,0,1516,0,0,0,0,0,0,0,0,0,0,0,0,0,0,0,0,0,0,0,0,0,
0,0,0,0,0,0,0,0,0,0,0,0,0,0,0,0,0,0,0,0,0,0,0,0,0,0,0,0,0,0,0,0,0,0,0,0,0,0,0,0,0,0,0,0,0,0,0,0,0,0,0,0,0,0,0,0,0,0,0,0,0,0,0,0,0,0,0,0,0,0,0,0,0,0,0,0,0,0,0,0,0,0,0,0,0,0,0,0,0,0,0,0,0,0,0,0,0,0,0,0,0,0,0,0,0,0,0,0,0,0,0,0,0,0,0,0,0,0,0,0,0,0,0,0,0,0,0,0,0,0,0,0,0,0,0,0,0,0,0,0,
0,0,1516,0,1516,0,1516,0,1516,0,1516,0,1516,0,1516,0,1516,0,1516,0,1516,0,1516,0,1516,0,1516,0,1516,0,1516,0,1516,0,1516,0,1516,0,1516,0,1516,0,1516,0,1516,0,1516,0,1516,0,1516,0,1516,0,1516,0,1516,0,1516,0,1516,0,1516,0,1516,0,1516,0,1516,0,1516,0,1516,0,1516,0,1516,0,1516,0,1516,0,1516,0,1516,0,1516,0,1516,0,1516,0,1516,0,1516,0,1516,0,1516,0,1516,0,1516,0,1516,0,1516,0,1516,0,1516,0,1516,0,1516,0,1516,0,1516,0,0,0,0,0,0,0,0,0,0,0,0,0,0,0,0,0,0,0,0,0,
0,0,0,0,0,0,0,0,0,0,0,0,0,0,0,0,0,0,0,0,0,0,0,0,0,0,0,0,0,0,0,0,0,0,0,0,0,0,0,0,0,0,0,0,0,0,0,0,0,0,0,0,0,0,0,0,0,0,0,0,0,0,0,0,0,0,0,0,0,0,0,0,0,0,0,0,0,0,0,0,0,0,0,0,0,0,0,0,0,0,0,0,0,0,0,0,0,0,0,0,0,0,0,0,0,0,0,0,0,0,0,0,0,0,0,0,0,0,0,0,0,0,0,0,0,0,0,0,0,0,0,0,0,0,0,0,0,0,0,0,
0,0,1516,0,1516,0,1516,0,1516,0,1516,0,1516,0,1516,0,1516,0,1516,0,1516,0,1516,0,1516,0,1516,0,1516,0,1516,0,1516,0,1516,0,1516,0,1516,0,1516,0,1516,0,1516,0,1516,0,1516,0,1516,0,1516,0,1516,0,1516,0,1516,0,1516,0,1516,0,1516,0,1516,0,1516,0,1516,0,1516,0,1516,0,1516,0,1516,0,1516,0,1516,0,1516,0,1516,0,1516,0,1516,0,1516,0,1516,0,1516,0,1516,0,1516,0,1516,0,1516,0,1516,0,1516,0,1516,0,1516,0,1516,0,1516,0,1516,0,0,0,0,0,0,0,0,0,0,0,0,0,0,0,0,0,0,0,0,0,
0,0,0,0,0,0,0,0,0,0,0,0,0,0,0,0,0,0,0,0,0,0,0,0,0,0,0,0,0,0,0,0,0,0,0,0,0,0,0,0,0,0,0,0,0,0,0,0,0,0,0,0,0,0,0,0,0,0,0,0,0,0,0,0,0,0,0,0,0,0,0,0,0,0,0,0,0,0,0,0,0,0,0,0,0,0,0,0,0,0,0,0,0,0,0,0,0,0,0,0,0,0,0,0,0,0,0,0,0,0,0,0,0,0,0,0,0,0,0,0,0,0,0,0,0,0,0,0,0,0,0,0,0,0,0,0,0,0,0,0,
0,0,0,0,0,0,0,0,0,0,0,0,0,0,0,0,0,0,0,0,0,0,0,0,0,0,0,0,0,0,0,0,0,0,0,0,0,0,0,0,0,0,0,0,0,0,0,0,0,0,0,0,0,0,0,0,0,0,0,0,0,0,0,0,0,0,0,0,0,0,0,0,0,0,0,0,0,0,0,0,0,0,0,0,0,0,0,0,0,0,0,0,0,0,0,0,0,0,0,0,0,0,0,0,0,0,0,0,0,0,0,0,0,0,0,0,0,0,0,0,0,0,0,0,0,0,0,0,0,0,0,0,0,0,0,0,0,0,0,0,
0,0,0,0,0,0,0,0,0,0,0,0,0,0,0,0,0,0,0,0,0,0,0,0,0,0,0,0,0,0,0,0,0,0,0,0,0,0,0,0,0,0,0,0,0,0,0,0,0,0,0,0,0,0,0,0,0,0,0,0,0,0,0,0,0,0,0,0,0,0,0,0,0,0,0,0,0,0,0,0,0,0,0,0,0,0,0,0,0,0,0,0,0,0,0,0,0,0,0,0,0,0,0,0,0,0,0,0,0,0,0,0,0,0,0,0,0,0,0,0,0,0,0,0,0,0,0,0,0,0,0,0,0,0,0,0,0,0,0,0,
0,0,0,0,0,0,0,0,0,0,0,0,0,0,0,0,0,0,0,0,0,0,0,0,0,0,0,0,0,0,0,0,0,0,0,0,0,0,0,0,0,0,0,0,0,0,0,0,0,0,0,0,0,0,0,0,0,0,0,0,0,0,0,0,0,0,0,0,0,0,0,0,0,0,0,0,0,0,0,0,0,0,0,0,0,0,0,0,0,0,0,0,0,0,0,0,0,0,0,0,0,0,0,0,0,0,0,0,0,0,0,0,0,0,0,0,0,0,0,0,0,0,0,0,0,0,0,0,0,0,0,0,0,0,0,0,0,0,0,0,
0,0,0,0,0,0,0,0,0,0,0,0,0,0,0,0,0,0,0,0,0,0,0,0,0,0,0,0,0,0,0,0,0,0,0,0,0,0,0,0,0,0,0,0,0,0,0,0,0,0,0,0,0,0,0,0,0,0,0,0,0,0,0,0,0,0,0,0,0,0,0,0,0,0,0,0,0,0,0,0,0,0,0,0,0,0,0,0,0,0,0,0,0,0,0,0,0,0,0,0,0,0,0,0,0,0,0,0,0,0,0,0,0,0,0,0,0,0,0,0,0,0,0,0,0,0,0,0,0,0,0,0,0,0,0,0,0,0,0,0,
0,0,0,0,0,0,0,0,0,0,0,0,0,0,0,0,0,0,0,0,0,0,0,0,0,0,0,0,0,0,0,0,0,0,0,0,0,0,0,0,0,0,0,0,0,0,0,0,0,0,0,0,0,0,0,0,0,0,0,0,0,0,0,0,0,0,0,0,0,0,0,0,0,0,0,0,0,0,0,0,0,0,0,0,0,0,0,0,0,0,0,0,0,0,0,0,0,0,0,0,0,0,0,0,0,0,0,0,0,0,0,0,0,0,0,0,0,0,0,0,0,0,0,0,0,0,0,0,0,0,0,0,0,0,0,0,0,0,0,0,
0,0,0,0,0,0,0,0,0,0,0,0,0,0,0,0,0,0,0,0,0,0,0,0,0,0,0,0,0,0,0,0,0,0,0,0,0,0,0,0,0,0,0,0,0,0,0,0,0,0,0,0,0,0,0,0,0,0,0,0,0,0,0,0,0,0,0,0,0,0,0,0,0,0,0,0,0,0,0,0,0,0,0,0,0,0,0,0,0,0,0,0,0,0,0,0,0,0,0,0,0,0,0,0,0,0,0,0,0,0,0,0,0,0,0,0,0,0,0,0,0,0,0,0,0,0,0,0,0,0,0,0,0,0,0,0,0,0,0,0,
0,0,0,0,0,0,0,0,0,0,0,0,0,0,0,0,0,0,0,0,0,0,0,0,0,0,0,0,0,0,0,0,0,0,0,0,0,0,0,0,0,0,0,0,0,0,0,0,0,0,0,0,0,0,0,0,0,0,0,0,0,0,0,0,0,0,0,0,0,0,0,0,0,0,0,0,0,0,0,0,0,0,0,0,0,0,0,0,0,0,0,0,0,0,0,0,0,0,0,0,0,0,0,0,0,0,0,0,0,0,0,0,0,0,0,0,0,0,0,0,0,0,0,0,0,0,0,0,0,0,0,0,0,0,0,0,0,0,0,0,
0,0,0,0,0,0,0,0,0,0,0,0,0,0,0,0,0,0,0,0,0,0,0,0,0,0,0,0,0,0,0,0,0,0,0,0,0,0,0,0,0,0,0,0,0,0,0,0,0,0,0,0,0,0,0,0,0,0,0,0,0,0,0,0,0,0,0,0,0,0,0,0,0,0,0,0,0,0,0,0,0,0,0,0,0,0,0,0,0,0,0,0,0,0,0,0,0,0,0,0,0,0,0,0,0,0,0,0,0,0,0,0,0,0,0,0,0,0,0,0,0,0,0,0,0,0,0,0,0,0,0,0,0,0,0,0,0,0,0,0,
0,0,0,0,0,0,0,0,0,0,0,0,0,0,0,0,0,0,0,0,0,0,0,0,0,0,0,0,0,0,0,0,0,0,0,0,0,0,0,0,0,0,0,0,0,0,0,0,0,0,0,0,0,0,0,0,0,0,0,0,0,0,0,0,0,0,0,0,0,0,0,0,0,0,0,0,0,0,0,0,0,0,0,0,0,0,0,0,0,0,0,0,0,0,0,0,0,0,0,0,0,0,0,0,0,0,0,0,0,0,0,0,0,0,0,0,0,0,0,0,0,0,0,0,0,0,0,0,0,0,0,0,0,0,0,0,0,0,0,0,
0,0,0,0,0,0,0,0,0,0,0,0,0,0,0,0,0,0,0,0,0,0,0,0,0,0,0,0,0,0,0,0,0,0,0,0,0,0,0,0,0,0,0,0,0,0,0,0,0,0,0,0,0,0,0,0,0,0,0,0,0,0,0,0,0,0,0,0,0,0,0,0,0,0,0,0,0,0,0,0,0,0,0,0,0,0,0,0,0,0,0,0,0,0,0,0,0,0,0,0,0,0,0,0,0,0,0,0,0,0,0,0,0,0,0,0,0,0,0,0,0,0,0,0,0,0,0,0,0,0,0,0,0,0,0,0,0,0,0,0,
0,0,0,0,0,0,0,0,0,0,0,0,0,0,0,0,0,0,0,0,0,0,0,0,0,0,0,0,0,0,0,0,0,0,0,0,0,0,0,0,0,0,0,0,0,0,0,0,0,0,0,0,0,0,0,0,0,0,0,0,0,0,0,0,0,0,0,0,0,0,0,0,0,0,0,0,0,0,0,0,0,0,0,0,0,0,0,0,0,0,0,0,0,0,0,0,0,0,0,0,0,0,0,0,0,0,0,0,0,0,0,0,0,0,0,0,0,0,0,0,0,0,0,0,0,0,0,0,0,0,0,0,0,0,0,0,0,0,0,0,
0,0,0,0,0,0,0,0,0,0,0,0,0,0,0,0,0,0,0,0,0,0,0,0,0,0,0,0,0,0,0,0,0,0,0,0,0,0,0,0,0,0,0,0,0,0,0,0,0,0,0,0,0,0,0,0,0,0,0,0,0,0,0,0,0,0,0,0,0,0,0,0,0,0,0,0,0,0,0,0,0,0,0,0,0,0,0,0,0,0,0,0,0,0,0,0,0,0,0,0,0,0,0,0,0,0,0,0,0,0,0,0,0,0,0,0,0,0,0,0,0,0,0,0,0,0,0,0,0,0,0,0,0,0,0,0,0,0,0,0,
0,0,0,0,0,0,0,0,0,0,0,0,0,0,0,0,0,0,0,0,0,0,0,0,0,0,0,0,0,0,0,0,0,0,0,0,0,0,0,0,0,0,0,0,0,0,0,0,0,0,0,0,0,0,0,0,0,0,0,0,0,0,0,0,0,0,0,0,0,0,0,0,0,0,0,0,0,0,0,0,0,0,0,0,0,0,0,0,0,0,0,0,0,0,0,0,0,0,0,0,0,0,0,0,0,0,0,0,0,0,0,0,0,0,0,0,0,0,0,0,0,0,0,0,0,0,0,0,0,0,0,0,0,0,0,0,0,0,0,0,
0,0,0,0,0,0,0,0,0,0,0,0,0,0,0,0,0,0,0,0,0,0,0,0,0,0,0,0,0,0,0,0,0,0,0,0,0,0,0,0,0,0,0,0,0,0,0,0,0,0,0,0,0,0,0,0,0,0,0,0,0,0,0,0,0,0,0,0,0,0,0,0,0,0,0,0,0,0,0,0,0,0,0,0,0,0,0,0,0,0,0,0,0,0,0,0,0,0,0,0,0,0,0,0,0,0,0,0,0,0,0,0,0,0,0,0,0,0,0,0,0,0,0,0,0,0,0,0,0,0,0,0,0,0,0,0,0,0,0,0
</data>
 </layer>
 <objectgroup draworder="index" id="3" name="Impl_Enemy"/>
 <objectgroup draworder="index" id="4" name="Instances">
  <object id="1" template="../../../templates/dungeon/obj_dungeon_ladder_up.tx" type="obj_dungeon_ladder_up" x="576" y="400"/>
  <object id="2" template="../../../templates/dungeon/obj_dungeon_ladder_down.tx" type="obj_dungeon_ladder_down" x="560" y="288">
   <properties>
    <property name="state" type="int" propertytype="LadderState" value="3"/>
   </properties>
  </object>
 </objectgroup>
 <objectgroup draworder="index" id="5" name="Level_0_Assets">
  <object id="3" type="asset" gid="974" x="536" y="264" width="32" height="64"/>
  <object id="4" type="asset" gid="974" x="600" y="264" width="32" height="64"/>
  <object id="5" type="asset" gid="181" x="560" y="237" width="48" height="64"/>
  <object id="6" type="asset" gid="181" x="560" y="573" width="48" height="64"/>
  <object id="7" type="asset" gid="974" x="520" y="536" width="32" height="64"/>
  <object id="8" type="asset" gid="974" x="616" y="536" width="32" height="64"/>
  <object id="9" type="asset" gid="974" x="408" y="376" width="32" height="64"/>
  <object id="10" type="asset" gid="974" x="728" y="376" width="32" height="64"/>
  <object id="11" type="asset" gid="1081" x="704" y="368" width="32" height="32"/>
  <object id="12" type="asset" gid="152" x="408" y="496" width="32" height="32"/>
  <object id="13" type="asset" gid="914" x="664" y="248" width="48" height="64"/>
  <object id="14" type="asset" gid="1017" x="712" y="248" width="48" height="64"/>
  <object id="15" type="asset" gid="914" x="408" y="248" width="48" height="64"/>
  <object id="16" type="asset" gid="1017" x="456" y="248" width="48" height="64"/>
  <object id="17" type="asset" gid="163" x="416" y="256" width="24" height="24"/>
  <object id="18" type="asset" gid="687" x="736" y="256" width="24" height="24"/>
  <object id="19" type="asset" gid="454" x="560" y="320" width="48" height="32"/>
  <object id="20" type="asset" gid="1234" x="440" y="248" width="32" height="64"/>
  <object id="21" type="asset" gid="1234" x="696" y="248" width="32" height="64"/>
  <object id="22" type="asset" gid="740" x="640" y="240" width="16" height="32"/>
  <object id="23" type="asset" gid="740" x="512" y="240" width="16" height="32"/>
 </objectgroup>
</map>
