<?xml version="1.0" encoding="UTF-8"?>
<map version="1.10" tiledversion="1.11.2" class="Dungeon" orientation="orthogonal" renderorder="right-down" width="140" height="108" tilewidth="8" tileheight="8" infinite="0" backgroundcolor="#3a003a" nextlayerid="7" nextobjectid="64">
 <tileset firstgid="1" source="../../../__gm_import.tsx"/>
 <tileset firstgid="1504" source="../../../tile_sets/Dungeon/Prototype/tile_dungeon_prototype.tsx"/>
 <tileset firstgid="1516" source="../../../tile_sets/Dungeon/Prototype/tile_main_dungeon_tile_chance.tsx"/>
 <layer id="1" name="Prototype" width="140" height="108">
  <properties>
   <property name="maybe_animation_id" value="c523b4ebab90977e"/>
   <property name="maybe_tileset_id" value="1f279aa214066309"/>
   <property name="tile_size" type="int" value="16"/>
  </properties>
  <data encoding="csv">
0,0,0,0,0,0,0,0,0,0,0,0,0,0,0,0,0,0,0,0,0,0,1504,0,1504,0,1504,0,1504,0,1504,0,1504,0,1504,0,1504,0,1504,0,1504,0,1504,0,1504,0,1504,0,1504,0,1504,0,1504,0,1504,0,1504,0,1504,0,1504,0,1504,0,1504,0,1504,0,1504,0,1504,0,1504,0,1504,0,1504,0,1504,0,1504,0,1504,0,1504,0,1504,0,1504,0,1504,0,1504,0,1504,0,1504,0,1504,0,1504,0,1504,0,1504,0,1504,0,1504,0,1504,0,1504,0,1504,0,1504,0,1504,0,1504,0,1504,0,1504,0,0,0,0,0,0,0,0,0,0,0,0,0,0,0,
0,0,0,0,0,0,0,0,0,0,0,0,0,0,0,0,0,0,0,0,0,0,0,0,0,0,0,0,0,0,0,0,0,0,0,0,0,0,0,0,0,0,0,0,0,0,0,0,0,0,0,0,0,0,0,0,0,0,0,0,0,0,0,0,0,0,0,0,0,0,0,0,0,0,0,0,0,0,0,0,0,0,0,0,0,0,0,0,0,0,0,0,0,0,0,0,0,0,0,0,0,0,0,0,0,0,0,0,0,0,0,0,0,0,0,0,0,0,0,0,0,0,0,0,0,0,0,0,0,0,0,0,0,0,0,0,0,0,0,0,
0,0,0,0,0,0,0,0,0,0,0,0,0,0,0,0,0,0,0,0,0,0,1504,0,1504,0,1504,0,1504,0,1504,0,1504,0,1504,0,1504,0,1504,0,1504,0,1504,0,1504,0,1504,0,1504,0,1504,0,1504,0,1504,0,1504,0,1504,0,1504,0,1504,0,1504,0,1504,0,1504,0,1504,0,1504,0,1504,0,1504,0,1504,0,1504,0,1504,0,1504,0,1504,0,1504,0,1504,0,1504,0,1504,0,1504,0,1504,0,1504,0,1504,0,1504,0,1504,0,1504,0,1504,0,1504,0,1504,0,1504,0,1504,0,1504,0,1504,0,1504,0,0,0,0,0,0,0,0,0,0,0,0,0,0,0,
0,0,0,0,0,0,0,0,0,0,0,0,0,0,0,0,0,0,0,0,0,0,0,0,0,0,0,0,0,0,0,0,0,0,0,0,0,0,0,0,0,0,0,0,0,0,0,0,0,0,0,0,0,0,0,0,0,0,0,0,0,0,0,0,0,0,0,0,0,0,0,0,0,0,0,0,0,0,0,0,0,0,0,0,0,0,0,0,0,0,0,0,0,0,0,0,0,0,0,0,0,0,0,0,0,0,0,0,0,0,0,0,0,0,0,0,0,0,0,0,0,0,0,0,0,0,0,0,0,0,0,0,0,0,0,0,0,0,0,0,
0,0,0,0,1504,0,1504,0,1504,0,1504,0,1504,0,1504,0,1504,0,1504,0,1504,0,1504,0,1504,0,1504,0,1504,0,1504,0,1504,0,1504,0,1504,0,1504,0,1504,0,1504,0,1504,0,1504,0,1504,0,1504,0,1504,0,1504,0,1504,0,1504,0,1504,0,1506,0,1506,0,1506,0,1506,0,1506,0,1506,0,1506,0,1506,0,1506,0,1506,0,1506,0,1506,0,1504,0,1504,0,1504,0,1504,0,1504,0,1504,0,1504,0,1504,0,1504,0,1504,0,1504,0,1504,0,1504,0,1504,0,1504,0,1504,0,1504,0,1504,0,1504,0,1504,0,0,0,0,0,0,0,0,0,0,0,0,0,0,0,
0,0,0,0,0,0,0,0,0,0,0,0,0,0,0,0,0,0,0,0,0,0,0,0,0,0,0,0,0,0,0,0,0,0,0,0,0,0,0,0,0,0,0,0,0,0,0,0,0,0,0,0,0,0,0,0,0,0,0,0,0,0,0,0,0,0,0,0,0,0,0,0,0,0,0,0,0,0,0,0,0,0,0,0,0,0,0,0,0,0,0,0,0,0,0,0,0,0,0,0,0,0,0,0,0,0,0,0,0,0,0,0,0,0,0,0,0,0,0,0,0,0,0,0,0,0,0,0,0,0,0,0,0,0,0,0,0,0,0,0,
0,0,1504,0,1504,0,1504,0,1504,0,1504,0,1504,0,1504,0,1504,0,1504,0,1504,0,1504,0,1504,0,1504,0,1504,0,1504,0,1504,0,1504,0,1504,0,1504,0,1504,0,1504,0,1504,0,1504,0,1504,0,1504,0,1504,0,1504,0,1504,0,1504,0,1504,0,1506,0,1505,0,1505,0,1505,0,1505,0,1505,0,1505,0,1505,0,1505,0,1505,0,1505,0,1506,0,1504,0,1504,0,1504,0,1504,0,1504,0,1504,0,1504,0,1504,0,1504,0,1504,0,1504,0,1504,0,1504,0,1504,0,1504,0,1504,0,1504,0,1504,0,1504,0,1504,0,0,0,0,0,0,0,0,0,0,0,0,0,0,0,
0,0,0,0,0,0,0,0,0,0,0,0,0,0,0,0,0,0,0,0,0,0,0,0,0,0,0,0,0,0,0,0,0,0,0,0,0,0,0,0,0,0,0,0,0,0,0,0,0,0,0,0,0,0,0,0,0,0,0,0,0,0,0,0,0,0,0,0,0,0,0,0,0,0,0,0,0,0,0,0,0,0,0,0,0,0,0,0,0,0,0,0,0,0,0,0,0,0,0,0,0,0,0,0,0,0,0,0,0,0,0,0,0,0,0,0,0,0,0,0,0,0,0,0,0,0,0,0,0,0,0,0,0,0,0,0,0,0,0,0,
0,0,1504,0,1504,0,1504,0,1504,0,1504,0,1504,0,1504,0,1504,0,1504,0,1504,0,1504,0,1504,0,1504,0,1504,0,1504,0,1504,0,1504,0,1504,0,1504,0,1504,0,1504,0,1504,0,1504,0,1504,0,1504,0,1504,0,1504,0,1504,0,1504,0,1504,0,1506,0,1505,0,1507,0,1507,0,1507,0,1507,0,1507,0,1507,0,1507,0,1507,0,1505,0,1506,0,1504,0,1504,0,1504,0,1504,0,1504,0,1504,0,1504,0,1504,0,1504,0,1504,0,1504,0,1504,0,1504,0,1504,0,1504,0,1504,0,1504,0,1504,0,1504,0,1504,0,1504,0,1504,0,0,0,0,0,0,0,0,0,0,0,
0,0,0,0,0,0,0,0,0,0,0,0,0,0,0,0,0,0,0,0,0,0,0,0,0,0,0,0,0,0,0,0,0,0,0,0,0,0,0,0,0,0,0,0,0,0,0,0,0,0,0,0,0,0,0,0,0,0,0,0,0,0,0,0,0,0,0,0,0,0,0,0,0,0,0,0,0,0,0,0,0,0,0,0,0,0,0,0,0,0,0,0,0,0,0,0,0,0,0,0,0,0,0,0,0,0,0,0,0,0,0,0,0,0,0,0,0,0,0,0,0,0,0,0,0,0,0,0,0,0,0,0,0,0,0,0,0,0,0,0,
0,0,1504,0,1504,0,1504,0,1504,0,1504,0,1504,0,1504,0,1504,0,1504,0,1504,0,1504,0,1504,0,1504,0,1504,0,1504,0,1504,0,1504,0,1504,0,1504,0,1504,0,1504,0,1504,0,1504,0,1504,0,1504,0,1504,0,1504,0,1504,0,1504,0,1504,0,1506,0,1505,0,1507,0,1508,0,1508,0,1508,0,1508,0,1508,0,1508,0,1507,0,1505,0,1506,0,1504,0,1504,0,1504,0,1504,0,1504,0,1504,0,1504,0,1504,0,1504,0,1504,0,1504,0,1504,0,1504,0,1504,0,1504,0,1504,0,1504,0,1504,0,1504,0,1504,0,1504,0,1504,0,0,0,0,0,0,0,0,0,0,0,
0,0,0,0,0,0,0,0,0,0,0,0,0,0,0,0,0,0,0,0,0,0,0,0,0,0,0,0,0,0,0,0,0,0,0,0,0,0,0,0,0,0,0,0,0,0,0,0,0,0,0,0,0,0,0,0,0,0,0,0,0,0,0,0,0,0,0,0,0,0,0,0,0,0,0,0,0,0,0,0,0,0,0,0,0,0,0,0,0,0,0,0,0,0,0,0,0,0,0,0,0,0,0,0,0,0,0,0,0,0,0,0,0,0,0,0,0,0,0,0,0,0,0,0,0,0,0,0,0,0,0,0,0,0,0,0,0,0,0,0,
0,0,1504,0,1504,0,1504,0,1504,0,1504,0,1504,0,1504,0,1504,0,1504,0,1504,0,1504,0,1504,0,1504,0,1504,0,1504,0,1504,0,1504,0,1504,0,1504,0,1504,0,1504,0,1504,0,1504,0,1504,0,1504,0,1504,0,1504,0,1504,0,1504,0,1504,0,1506,0,1505,0,1507,0,1508,0,1508,0,1508,0,1508,0,1508,0,1508,0,1507,0,1505,0,1506,0,1504,0,1504,0,1504,0,1504,0,1504,0,1504,0,1504,0,1504,0,1504,0,1504,0,1504,0,1504,0,1504,0,1504,0,1504,0,1504,0,1504,0,1504,0,1504,0,1504,0,1504,0,1504,0,0,0,0,0,0,0,0,0,0,0,
0,0,0,0,0,0,0,0,0,0,0,0,0,0,0,0,0,0,0,0,0,0,0,0,0,0,0,0,0,0,0,0,0,0,0,0,0,0,0,0,0,0,0,0,0,0,0,0,0,0,0,0,0,0,0,0,0,0,0,0,0,0,0,0,0,0,0,0,0,0,0,0,0,0,0,0,0,0,0,0,0,0,0,0,0,0,0,0,0,0,0,0,0,0,0,0,0,0,0,0,0,0,0,0,0,0,0,0,0,0,0,0,0,0,0,0,0,0,0,0,0,0,0,0,0,0,0,0,0,0,0,0,0,0,0,0,0,0,0,0,
0,0,1504,0,1504,0,1504,0,1504,0,1504,0,1504,0,1504,0,1504,0,1504,0,1504,0,1504,0,1504,0,1504,0,1504,0,1504,0,1504,0,1504,0,1504,0,1504,0,1504,0,1504,0,1504,0,1504,0,1504,0,1504,0,1504,0,1504,0,1504,0,1504,0,1504,0,1506,0,1505,0,1507,0,1508,0,1508,0,1508,0,1508,0,1508,0,1508,0,1507,0,1505,0,1506,0,1504,0,1504,0,1504,0,1504,0,1504,0,1504,0,1504,0,1504,0,1504,0,1504,0,1504,0,1504,0,1504,0,1504,0,1504,0,1504,0,1504,0,1504,0,1504,0,1504,0,1504,0,1504,0,0,0,0,0,0,0,0,0,0,0,
0,0,0,0,0,0,0,0,0,0,0,0,0,0,0,0,0,0,0,0,0,0,0,0,0,0,0,0,0,0,0,0,0,0,0,0,0,0,0,0,0,0,0,0,0,0,0,0,0,0,0,0,0,0,0,0,0,0,0,0,0,0,0,0,0,0,0,0,0,0,0,0,0,0,0,0,0,0,0,0,0,0,0,0,0,0,0,0,0,0,0,0,0,0,0,0,0,0,0,0,0,0,0,0,0,0,0,0,0,0,0,0,0,0,0,0,0,0,0,0,0,0,0,0,0,0,0,0,0,0,0,0,0,0,0,0,0,0,0,0,
0,0,1504,0,1504,0,1504,0,1504,0,1504,0,1504,0,1504,0,1504,0,1504,0,1504,0,1504,0,1504,0,1504,0,1504,0,1504,0,1504,0,1504,0,1504,0,1504,0,1504,0,1504,0,1504,0,1504,0,1504,0,1504,0,1504,0,1504,0,1504,0,1504,0,1504,0,1506,0,1505,0,1507,0,1507,0,1508,0,1508,0,1508,0,1508,0,1507,0,1507,0,1505,0,1506,0,1504,0,1504,0,1504,0,1504,0,1504,0,1504,0,1504,0,1504,0,1504,0,1504,0,1504,0,1504,0,1504,0,1504,0,1504,0,1504,0,1504,0,1504,0,1504,0,1504,0,1504,0,1504,0,0,0,0,0,0,0,0,0,0,0,
0,0,0,0,0,0,0,0,0,0,0,0,0,0,0,0,0,0,0,0,0,0,0,0,0,0,0,0,0,0,0,0,0,0,0,0,0,0,0,0,0,0,0,0,0,0,0,0,0,0,0,0,0,0,0,0,0,0,0,0,0,0,0,0,0,0,0,0,0,0,0,0,0,0,0,0,0,0,0,0,0,0,0,0,0,0,0,0,0,0,0,0,0,0,0,0,0,0,0,0,0,0,0,0,0,0,0,0,0,0,0,0,0,0,0,0,0,0,0,0,0,0,0,0,0,0,0,0,0,0,0,0,0,0,0,0,0,0,0,0,
0,0,1504,0,1504,0,1504,0,1504,0,1504,0,1504,0,1504,0,1504,0,1504,0,1504,0,1504,0,1504,0,1504,0,1504,0,1504,0,1504,0,1504,0,1504,0,1504,0,1504,0,1504,0,1504,0,1504,0,1504,0,1504,0,1504,0,1504,0,1504,0,1504,0,1504,0,1506,0,1505,0,1505,0,1507,0,1508,0,1508,0,1508,0,1508,0,1507,0,1505,0,1505,0,1506,0,1504,0,1504,0,1504,0,1504,0,1504,0,1504,0,1504,0,1504,0,1504,0,1504,0,1504,0,1504,0,1504,0,1504,0,1504,0,1504,0,1504,0,1504,0,1504,0,1504,0,1504,0,1504,0,0,0,0,0,0,0,0,0,0,0,
0,0,0,0,0,0,0,0,0,0,0,0,0,0,0,0,0,0,0,0,0,0,0,0,0,0,0,0,0,0,0,0,0,0,0,0,0,0,0,0,0,0,0,0,0,0,0,0,0,0,0,0,0,0,0,0,0,0,0,0,0,0,0,0,0,0,0,0,0,0,0,0,0,0,0,0,0,0,0,0,0,0,0,0,0,0,0,0,0,0,0,0,0,0,0,0,0,0,0,0,0,0,0,0,0,0,0,0,0,0,0,0,0,0,0,0,0,0,0,0,0,0,0,0,0,0,0,0,0,0,0,0,0,0,0,0,0,0,0,0,
0,0,1504,0,1504,0,1504,0,1504,0,1504,0,1504,0,1504,0,1504,0,1504,0,1504,0,1504,0,1504,0,1504,0,1504,0,1504,0,1504,0,1504,0,1504,0,1504,0,1504,0,1504,0,1504,0,1504,0,1504,0,1504,0,1504,0,1504,0,1504,0,1504,0,1504,0,1506,0,1505,0,1505,0,1507,0,1507,0,1507,0,1507,0,1507,0,1507,0,1505,0,1505,0,1506,0,1504,0,1504,0,1504,0,1504,0,1504,0,1504,0,1504,0,1504,0,1504,0,1504,0,1504,0,1504,0,1504,0,1504,0,1504,0,1504,0,1504,0,1504,0,1504,0,1504,0,1504,0,1504,0,0,0,0,0,0,0,0,0,0,0,
0,0,0,0,0,0,0,0,0,0,0,0,0,0,0,0,0,0,0,0,0,0,0,0,0,0,0,0,0,0,0,0,0,0,0,0,0,0,0,0,0,0,0,0,0,0,0,0,0,0,0,0,0,0,0,0,0,0,0,0,0,0,0,0,0,0,0,0,0,0,0,0,0,0,0,0,0,0,0,0,0,0,0,0,0,0,0,0,0,0,0,0,0,0,0,0,0,0,0,0,0,0,0,0,0,0,0,0,0,0,0,0,0,0,0,0,0,0,0,0,0,0,0,0,0,0,0,0,0,0,0,0,0,0,0,0,0,0,0,0,
0,0,1504,0,1504,0,1504,0,1504,0,1504,0,1504,0,1504,0,1504,0,1504,0,1504,0,1504,0,1504,0,1504,0,1504,0,1504,0,1504,0,1504,0,1504,0,1504,0,1504,0,1504,0,1504,0,1504,0,1504,0,1504,0,1504,0,1504,0,1504,0,1504,0,1504,0,1506,0,1505,0,1505,0,1505,0,1505,0,1505,0,1505,0,1505,0,1505,0,1505,0,1505,0,1506,0,1504,0,1504,0,1504,0,1504,0,1504,0,1504,0,1504,0,1504,0,1504,0,1504,0,1504,0,1504,0,1504,0,1504,0,1504,0,1504,0,1504,0,1504,0,1504,0,1504,0,1504,0,1504,0,0,0,0,0,0,0,0,0,0,0,
0,0,0,0,0,0,0,0,0,0,0,0,0,0,0,0,0,0,0,0,0,0,0,0,0,0,0,0,0,0,0,0,0,0,0,0,0,0,0,0,0,0,0,0,0,0,0,0,0,0,0,0,0,0,0,0,0,0,0,0,0,0,0,0,0,0,0,0,0,0,0,0,0,0,0,0,0,0,0,0,0,0,0,0,0,0,0,0,0,0,0,0,0,0,0,0,0,0,0,0,0,0,0,0,0,0,0,0,0,0,0,0,0,0,0,0,0,0,0,0,0,0,0,0,0,0,0,0,0,0,0,0,0,0,0,0,0,0,0,0,
0,0,1504,0,1504,0,1504,0,1504,0,1504,0,1504,0,1504,0,1504,0,1504,0,1504,0,1504,0,1504,0,1504,0,1504,0,1504,0,1504,0,1504,0,1504,0,1504,0,1504,0,1504,0,1504,0,1504,0,1504,0,1504,0,1504,0,1504,0,1504,0,1504,0,1504,0,1506,0,1506,0,1506,0,1506,0,1505,0,1505,0,1505,0,1505,0,1506,0,1506,0,1506,0,1506,0,1504,0,1504,0,1504,0,1504,0,1504,0,1504,0,1504,0,1504,0,1504,0,1504,0,1504,0,1504,0,1504,0,1504,0,1504,0,1504,0,1504,0,1504,0,1504,0,1504,0,1504,0,1504,0,0,0,0,0,0,0,0,0,0,0,
0,0,0,0,0,0,0,0,0,0,0,0,0,0,0,0,0,0,0,0,0,0,0,0,0,0,0,0,0,0,0,0,0,0,0,0,0,0,0,0,0,0,0,0,0,0,0,0,0,0,0,0,0,0,0,0,0,0,0,0,0,0,0,0,0,0,0,0,0,0,0,0,0,0,0,0,0,0,0,0,0,0,0,0,0,0,0,0,0,0,0,0,0,0,0,0,0,0,0,0,0,0,0,0,0,0,0,0,0,0,0,0,0,0,0,0,0,0,0,0,0,0,0,0,0,0,0,0,0,0,0,0,0,0,0,0,0,0,0,0,
0,0,1504,0,1504,0,1504,0,1504,0,1504,0,1504,0,1504,0,1504,0,1504,0,1504,0,1504,0,1504,0,1504,0,1504,0,1504,0,1504,0,1504,0,1504,0,1504,0,1504,0,1504,0,1504,0,1504,0,1504,0,1504,0,1504,0,1504,0,1504,0,1504,0,1504,0,1504,0,1504,0,1504,0,1506,0,1505,0,1505,0,1505,0,1505,0,1506,0,1504,0,1504,0,1504,0,1504,0,1504,0,1504,0,1504,0,1504,0,1504,0,1504,0,1504,0,1504,0,1504,0,1504,0,1504,0,1504,0,1504,0,1504,0,1504,0,1504,0,1504,0,1504,0,1504,0,1504,0,1504,0,0,0,0,0,0,0,0,0,0,0,
0,0,0,0,0,0,0,0,0,0,0,0,0,0,0,0,0,0,0,0,0,0,0,0,0,0,0,0,0,0,0,0,0,0,0,0,0,0,0,0,0,0,0,0,0,0,0,0,0,0,0,0,0,0,0,0,0,0,0,0,0,0,0,0,0,0,0,0,0,0,0,0,0,0,0,0,0,0,0,0,0,0,0,0,0,0,0,0,0,0,0,0,0,0,0,0,0,0,0,0,0,0,0,0,0,0,0,0,0,0,0,0,0,0,0,0,0,0,0,0,0,0,0,0,0,0,0,0,0,0,0,0,0,0,0,0,0,0,0,0,
0,0,1504,0,1504,0,1504,0,1504,0,1504,0,1504,0,1504,0,1504,0,1504,0,1504,0,1504,0,1504,0,1504,0,1504,0,1504,0,1504,0,1504,0,1504,0,1504,0,1504,0,1504,0,1504,0,1504,0,1504,0,1504,0,1506,0,1506,0,1506,0,1506,0,1506,0,1506,0,1506,0,1506,0,1506,0,1505,0,1505,0,1505,0,1505,0,1506,0,1506,0,1506,0,1506,0,1506,0,1506,0,1506,0,1506,0,1506,0,1504,0,1504,0,1504,0,1504,0,1504,0,1504,0,1504,0,1504,0,1504,0,1504,0,1504,0,1504,0,1504,0,1504,0,1504,0,1504,0,1504,0,0,0,0,0,0,0,0,0,0,0,
0,0,0,0,0,0,0,0,0,0,0,0,0,0,0,0,0,0,0,0,0,0,0,0,0,0,0,0,0,0,0,0,0,0,0,0,0,0,0,0,0,0,0,0,0,0,0,0,0,0,0,0,0,0,0,0,0,0,0,0,0,0,0,0,0,0,0,0,0,0,0,0,0,0,0,0,0,0,0,0,0,0,0,0,0,0,0,0,0,0,0,0,0,0,0,0,0,0,0,0,0,0,0,0,0,0,0,0,0,0,0,0,0,0,0,0,0,0,0,0,0,0,0,0,0,0,0,0,0,0,0,0,0,0,0,0,0,0,0,0,
0,0,1504,0,1504,0,1504,0,1504,0,1504,0,1504,0,1504,0,1504,0,1504,0,1504,0,1504,0,1504,0,1504,0,1504,0,1504,0,1504,0,1504,0,1504,0,1504,0,1504,0,1504,0,1504,0,1504,0,1504,0,1504,0,1506,0,1505,0,1505,0,1505,0,1505,0,1505,0,1505,0,1505,0,1505,0,1505,0,1505,0,1505,0,1505,0,1505,0,1505,0,1505,0,1505,0,1505,0,1505,0,1505,0,1505,0,1506,0,1504,0,1504,0,1504,0,1504,0,1504,0,1504,0,1504,0,1504,0,1504,0,1504,0,1504,0,1504,0,1504,0,1504,0,1504,0,1504,0,1504,0,0,0,0,0,0,0,0,0,0,0,
0,0,0,0,0,0,0,0,0,0,0,0,0,0,0,0,0,0,0,0,0,0,0,0,0,0,0,0,0,0,0,0,0,0,0,0,0,0,0,0,0,0,0,0,0,0,0,0,0,0,0,0,0,0,0,0,0,0,0,0,0,0,0,0,0,0,0,0,0,0,0,0,0,0,0,0,0,0,0,0,0,0,0,0,0,0,0,0,0,0,0,0,0,0,0,0,0,0,0,0,0,0,0,0,0,0,0,0,0,0,0,0,0,0,0,0,0,0,0,0,0,0,0,0,0,0,0,0,0,0,0,0,0,0,0,0,0,0,0,0,
0,0,1504,0,1504,0,1504,0,1504,0,1504,0,1504,0,1504,0,1504,0,1504,0,1504,0,1504,0,1504,0,1504,0,1504,0,1504,0,1504,0,1504,0,1504,0,1504,0,1504,0,1504,0,1504,0,1504,0,1504,0,1504,0,1506,0,1505,0,1505,0,1505,0,1505,0,1505,0,1505,0,1505,0,1505,0,1505,0,1505,0,1505,0,1505,0,1505,0,1505,0,1505,0,1505,0,1505,0,1505,0,1505,0,1505,0,1506,0,1504,0,1504,0,1504,0,1504,0,1504,0,1504,0,1504,0,1504,0,1504,0,1504,0,1504,0,1504,0,1504,0,1504,0,1504,0,1504,0,1504,0,0,0,0,0,0,0,0,0,0,0,
0,0,0,0,0,0,0,0,0,0,0,0,0,0,0,0,0,0,0,0,0,0,0,0,0,0,0,0,0,0,0,0,0,0,0,0,0,0,0,0,0,0,0,0,0,0,0,0,0,0,0,0,0,0,0,0,0,0,0,0,0,0,0,0,0,0,0,0,0,0,0,0,0,0,0,0,0,0,0,0,0,0,0,0,0,0,0,0,0,0,0,0,0,0,0,0,0,0,0,0,0,0,0,0,0,0,0,0,0,0,0,0,0,0,0,0,0,0,0,0,0,0,0,0,0,0,0,0,0,0,0,0,0,0,0,0,0,0,0,0,
0,0,1504,0,1504,0,1504,0,1504,0,1504,0,1504,0,1504,0,1504,0,1504,0,1504,0,1504,0,1504,0,1504,0,1504,0,1504,0,1504,0,1504,0,1504,0,1504,0,1504,0,1504,0,1504,0,1504,0,1504,0,1504,0,1506,0,1505,0,1507,0,1507,0,1507,0,1505,0,1505,0,1507,0,1507,0,1507,0,1507,0,1507,0,1507,0,1507,0,1507,0,1505,0,1505,0,1507,0,1507,0,1507,0,1505,0,1506,0,1504,0,1504,0,1504,0,1504,0,1504,0,1504,0,1504,0,1504,0,1504,0,1504,0,1504,0,1504,0,1504,0,1504,0,1504,0,1504,0,1504,0,0,0,0,0,0,0,0,0,0,0,
0,0,0,0,0,0,0,0,0,0,0,0,0,0,0,0,0,0,0,0,0,0,0,0,0,0,0,0,0,0,0,0,0,0,0,0,0,0,0,0,0,0,0,0,0,0,0,0,0,0,0,0,0,0,0,0,0,0,0,0,0,0,0,0,0,0,0,0,0,0,0,0,0,0,0,0,0,0,0,0,0,0,0,0,0,0,0,0,0,0,0,0,0,0,0,0,0,0,0,0,0,0,0,0,0,0,0,0,0,0,0,0,0,0,0,0,0,0,0,0,0,0,0,0,0,0,0,0,0,0,0,0,0,0,0,0,0,0,0,0,
0,0,1504,0,1504,0,1504,0,1504,0,1504,0,1504,0,1504,0,1504,0,1504,0,1504,0,1504,0,1504,0,1504,0,1504,0,1504,0,1504,0,1504,0,1504,0,1504,0,1504,0,1504,0,1504,0,1504,0,1504,0,1504,0,1506,0,1505,0,1507,0,1507,0,1507,0,1505,0,1505,0,1507,0,1508,0,1508,0,1508,0,1508,0,1508,0,1508,0,1507,0,1505,0,1505,0,1507,0,1507,0,1507,0,1505,0,1506,0,1504,0,1504,0,1504,0,1504,0,1504,0,1504,0,1504,0,1504,0,1504,0,1504,0,1504,0,1504,0,1504,0,1504,0,1504,0,1504,0,1504,0,0,0,0,0,0,0,0,0,0,0,
0,0,0,0,0,0,0,0,0,0,0,0,0,0,0,0,0,0,0,0,0,0,0,0,0,0,0,0,0,0,0,0,0,0,0,0,0,0,0,0,0,0,0,0,0,0,0,0,0,0,0,0,0,0,0,0,0,0,0,0,0,0,0,0,0,0,0,0,0,0,0,0,0,0,0,0,0,0,0,0,0,0,0,0,0,0,0,0,0,0,0,0,0,0,0,0,0,0,0,0,0,0,0,0,0,0,0,0,0,0,0,0,0,0,0,0,0,0,0,0,0,0,0,0,0,0,0,0,0,0,0,0,0,0,0,0,0,0,0,0,
0,0,1504,0,1504,0,1504,0,1504,0,1504,0,1504,0,1504,0,1504,0,1504,0,1504,0,1504,0,1504,0,1504,0,1504,0,1504,0,1504,0,1504,0,1504,0,1504,0,1504,0,1504,0,1504,0,1504,0,1504,0,1504,0,1506,0,1505,0,1507,0,1507,0,1507,0,1505,0,1505,0,1507,0,1508,0,1508,0,1508,0,1508,0,1508,0,1508,0,1507,0,1505,0,1505,0,1507,0,1507,0,1507,0,1505,0,1506,0,1504,0,1504,0,1504,0,1504,0,1504,0,1504,0,1504,0,1504,0,1504,0,1504,0,1504,0,1504,0,1504,0,1504,0,1504,0,1504,0,1504,0,0,0,0,0,0,0,0,0,0,0,
0,0,0,0,0,0,0,0,0,0,0,0,0,0,0,0,0,0,0,0,0,0,0,0,0,0,0,0,0,0,0,0,0,0,0,0,0,0,0,0,0,0,0,0,0,0,0,0,0,0,0,0,0,0,0,0,0,0,0,0,0,0,0,0,0,0,0,0,0,0,0,0,0,0,0,0,0,0,0,0,0,0,0,0,0,0,0,0,0,0,0,0,0,0,0,0,0,0,0,0,0,0,0,0,0,0,0,0,0,0,0,0,0,0,0,0,0,0,0,0,0,0,0,0,0,0,0,0,0,0,0,0,0,0,0,0,0,0,0,0,
0,0,1504,0,1504,0,1504,0,1504,0,1504,0,1504,0,1504,0,1504,0,1504,0,1504,0,1504,0,1504,0,1504,0,1504,0,1504,0,1504,0,1504,0,1504,0,1504,0,1504,0,1504,0,1504,0,1504,0,1504,0,1504,0,1506,0,1505,0,1505,0,1505,0,1505,0,1505,0,1505,0,1507,0,1508,0,1508,0,1508,0,1508,0,1508,0,1508,0,1507,0,1505,0,1505,0,1505,0,1505,0,1505,0,1505,0,1506,0,1504,0,1504,0,1504,0,1504,0,1504,0,1504,0,1504,0,1504,0,1504,0,1504,0,1504,0,1504,0,1504,0,1504,0,1504,0,1504,0,1504,0,0,0,0,0,0,0,0,0,0,0,
0,0,0,0,0,0,0,0,0,0,0,0,0,0,0,0,0,0,0,0,0,0,0,0,0,0,0,0,0,0,0,0,0,0,0,0,0,0,0,0,0,0,0,0,0,0,0,0,0,0,0,0,0,0,0,0,0,0,0,0,0,0,0,0,0,0,0,0,0,0,0,0,0,0,0,0,0,0,0,0,0,0,0,0,0,0,0,0,0,0,0,0,0,0,0,0,0,0,0,0,0,0,0,0,0,0,0,0,0,0,0,0,0,0,0,0,0,0,0,0,0,0,0,0,0,0,0,0,0,0,0,0,0,0,0,0,0,0,0,0,
0,0,1504,0,1504,0,1504,0,1504,0,1504,0,1504,0,1504,0,1504,0,1504,0,1504,0,1504,0,1504,0,1504,0,1504,0,1504,0,1504,0,1504,0,1504,0,1504,0,1504,0,1504,0,1504,0,1504,0,1504,0,1504,0,1506,0,1505,0,1505,0,1505,0,1505,0,1505,0,1505,0,1507,0,1507,0,1507,0,1507,0,1507,0,1507,0,1507,0,1507,0,1505,0,1505,0,1505,0,1505,0,1505,0,1505,0,1506,0,1504,0,1504,0,1504,0,1504,0,1504,0,1504,0,1504,0,1504,0,1504,0,1504,0,1504,0,1504,0,1504,0,1504,0,1504,0,1504,0,1504,0,0,0,0,0,0,0,0,0,0,0,
0,0,0,0,0,0,0,0,0,0,0,0,0,0,0,0,0,0,0,0,0,0,0,0,0,0,0,0,0,0,0,0,0,0,0,0,0,0,0,0,0,0,0,0,0,0,0,0,0,0,0,0,0,0,0,0,0,0,0,0,0,0,0,0,0,0,0,0,0,0,0,0,0,0,0,0,0,0,0,0,0,0,0,0,0,0,0,0,0,0,0,0,0,0,0,0,0,0,0,0,0,0,0,0,0,0,0,0,0,0,0,0,0,0,0,0,0,0,0,0,0,0,0,0,0,0,0,0,0,0,0,0,0,0,0,0,0,0,0,0,
0,0,1504,0,1504,0,1504,0,1504,0,1504,0,1504,0,1504,0,1504,0,1504,0,1504,0,1504,0,1504,0,1504,0,1504,0,1504,0,1504,0,1504,0,1504,0,1504,0,1504,0,1504,0,1504,0,1504,0,1504,0,1504,0,1506,0,1505,0,1505,0,1505,0,1505,0,1505,0,1505,0,1505,0,1505,0,1505,0,1505,0,1505,0,1505,0,1505,0,1505,0,1505,0,1505,0,1505,0,1505,0,1505,0,1505,0,1506,0,1504,0,1504,0,1504,0,1504,0,1504,0,1504,0,1504,0,1504,0,1504,0,1504,0,1504,0,1504,0,1504,0,1504,0,1504,0,1504,0,1504,0,0,0,0,0,0,0,0,0,0,0,
0,0,0,0,0,0,0,0,0,0,0,0,0,0,0,0,0,0,0,0,0,0,0,0,0,0,0,0,0,0,0,0,0,0,0,0,0,0,0,0,0,0,0,0,0,0,0,0,0,0,0,0,0,0,0,0,0,0,0,0,0,0,0,0,0,0,0,0,0,0,0,0,0,0,0,0,0,0,0,0,0,0,0,0,0,0,0,0,0,0,0,0,0,0,0,0,0,0,0,0,0,0,0,0,0,0,0,0,0,0,0,0,0,0,0,0,0,0,0,0,0,0,0,0,0,0,0,0,0,0,0,0,0,0,0,0,0,0,0,0,
0,0,1504,0,1504,0,1504,0,1504,0,1504,0,1504,0,1504,0,1504,0,1504,0,1504,0,1504,0,1504,0,1504,0,1504,0,1504,0,1504,0,1504,0,1504,0,1504,0,1504,0,1504,0,1504,0,1504,0,1504,0,1504,0,1506,0,1505,0,1505,0,1505,0,1505,0,1505,0,1505,0,1505,0,1505,0,1505,0,1505,0,1505,0,1505,0,1505,0,1505,0,1505,0,1505,0,1505,0,1505,0,1505,0,1505,0,1506,0,1504,0,1504,0,1504,0,1504,0,1504,0,1504,0,1504,0,1504,0,1504,0,1504,0,1504,0,1504,0,1504,0,1504,0,1504,0,1504,0,1504,0,1504,0,0,0,0,0,0,0,0,0,
0,0,0,0,0,0,0,0,0,0,0,0,0,0,0,0,0,0,0,0,0,0,0,0,0,0,0,0,0,0,0,0,0,0,0,0,0,0,0,0,0,0,0,0,0,0,0,0,0,0,0,0,0,0,0,0,0,0,0,0,0,0,0,0,0,0,0,0,0,0,0,0,0,0,0,0,0,0,0,0,0,0,0,0,0,0,0,0,0,0,0,0,0,0,0,0,0,0,0,0,0,0,0,0,0,0,0,0,0,0,0,0,0,0,0,0,0,0,0,0,0,0,0,0,0,0,0,0,0,0,0,0,0,0,0,0,0,0,0,0,
0,0,1504,0,1504,0,1504,0,1504,0,1504,0,1504,0,1504,0,1504,0,1504,0,1504,0,1504,0,1504,0,1504,0,1504,0,1504,0,1504,0,1504,0,1504,0,1504,0,1504,0,1504,0,1504,0,1504,0,1504,0,1504,0,1506,0,1505,0,1505,0,1505,0,1505,0,1505,0,1505,0,1505,0,1505,0,1505,0,1505,0,1505,0,1505,0,1505,0,1505,0,1505,0,1505,0,1505,0,1505,0,1505,0,1505,0,1506,0,1504,0,1504,0,1504,0,1504,0,1504,0,1504,0,1504,0,1504,0,1504,0,1504,0,1504,0,1504,0,1504,0,1504,0,1504,0,1504,0,1504,0,1504,0,0,0,0,0,0,0,0,0,
0,0,0,0,0,0,0,0,0,0,0,0,0,0,0,0,0,0,0,0,0,0,0,0,0,0,0,0,0,0,0,0,0,0,0,0,0,0,0,0,0,0,0,0,0,0,0,0,0,0,0,0,0,0,0,0,0,0,0,0,0,0,0,0,0,0,0,0,0,0,0,0,0,0,0,0,0,0,0,0,0,0,0,0,0,0,0,0,0,0,0,0,0,0,0,0,0,0,0,0,0,0,0,0,0,0,0,0,0,0,0,0,0,0,0,0,0,0,0,0,0,0,0,0,0,0,0,0,0,0,0,0,0,0,0,0,0,0,0,0,
0,0,1504,0,1504,0,1504,0,1504,0,1504,0,1504,0,1504,0,1504,0,1504,0,1504,0,1504,0,1506,0,1506,0,1506,0,1506,0,1506,0,1506,0,1506,0,1506,0,1506,0,1506,0,1506,0,1504,0,1504,0,1504,0,1506,0,1505,0,1505,0,1505,0,1505,0,1505,0,1505,0,1505,0,1505,0,1505,0,1505,0,1505,0,1505,0,1505,0,1505,0,1505,0,1505,0,1505,0,1505,0,1505,0,1505,0,1506,0,1504,0,1504,0,1504,0,1506,0,1506,0,1506,0,1506,0,1506,0,1506,0,1506,0,1506,0,1506,0,1506,0,1506,0,1504,0,1504,0,1504,0,1504,0,0,0,0,0,0,0,0,0,
0,0,0,0,0,0,0,0,0,0,0,0,0,0,0,0,0,0,0,0,0,0,0,0,0,0,0,0,0,0,0,0,0,0,0,0,0,0,0,0,0,0,0,0,0,0,0,0,0,0,0,0,0,0,0,0,0,0,0,0,0,0,0,0,0,0,0,0,0,0,0,0,0,0,0,0,0,0,0,0,0,0,0,0,0,0,0,0,0,0,0,0,0,0,0,0,0,0,0,0,0,0,0,0,0,0,0,0,0,0,0,0,0,0,0,0,0,0,0,0,0,0,0,0,0,0,0,0,0,0,0,0,0,0,0,0,0,0,0,0,
0,0,1504,0,1504,0,1504,0,1504,0,1504,0,1504,0,1504,0,1504,0,1504,0,1504,0,1504,0,1506,0,1505,0,1505,0,1505,0,1505,0,1505,0,1505,0,1505,0,1505,0,1505,0,1506,0,1504,0,1504,0,1504,0,1506,0,1505,0,1505,0,1505,0,1505,0,1505,0,1505,0,1510,0,1510,0,1510,0,1510,0,1510,0,1510,0,1510,0,1510,0,1505,0,1505,0,1505,0,1505,0,1505,0,1505,0,1506,0,1504,0,1504,0,1504,0,1506,0,1505,0,1505,0,1505,0,1505,0,1505,0,1505,0,1505,0,1505,0,1505,0,1506,0,1504,0,1504,0,1504,0,1504,0,0,0,0,0,0,0,0,0,
0,0,0,0,0,0,0,0,0,0,0,0,0,0,0,0,0,0,0,0,0,0,0,0,0,0,0,0,0,0,0,0,0,0,0,0,0,0,0,0,0,0,0,0,0,0,0,0,0,0,0,0,0,0,0,0,0,0,0,0,0,0,0,0,0,0,0,0,0,0,0,0,0,0,0,0,0,0,0,0,0,0,0,0,0,0,0,0,0,0,0,0,0,0,0,0,0,0,0,0,0,0,0,0,0,0,0,0,0,0,0,0,0,0,0,0,0,0,0,0,0,0,0,0,0,0,0,0,0,0,0,0,0,0,0,0,0,0,0,0,
0,0,1504,0,1504,0,1504,0,1504,0,1504,0,1504,0,1504,0,1504,0,1504,0,1504,0,1504,0,1506,0,1505,0,1505,0,1505,0,1505,0,1505,0,1505,0,1505,0,1505,0,1505,0,1506,0,1504,0,1504,0,1504,0,1506,0,1505,0,1505,0,1505,0,1505,0,1505,0,1505,0,1510,0,1510,0,1510,0,1510,0,1510,0,1510,0,1510,0,1510,0,1505,0,1505,0,1505,0,1505,0,1505,0,1505,0,1506,0,1504,0,1504,0,1504,0,1506,0,1505,0,1505,0,1505,0,1505,0,1505,0,1505,0,1505,0,1505,0,1505,0,1506,0,1504,0,1504,0,1504,0,1504,0,0,0,0,0,0,0,0,0,
0,0,0,0,0,0,0,0,0,0,0,0,0,0,0,0,0,0,0,0,0,0,0,0,0,0,0,0,0,0,0,0,0,0,0,0,0,0,0,0,0,0,0,0,0,0,0,0,0,0,0,0,0,0,0,0,0,0,0,0,0,0,0,0,0,0,0,0,0,0,0,0,0,0,0,0,0,0,0,0,0,0,0,0,0,0,0,0,0,0,0,0,0,0,0,0,0,0,0,0,0,0,0,0,0,0,0,0,0,0,0,0,0,0,0,0,0,0,0,0,0,0,0,0,0,0,0,0,0,0,0,0,0,0,0,0,0,0,0,0,
0,0,1504,0,1504,0,1504,0,1504,0,1504,0,1504,0,1504,0,1504,0,1504,0,1504,0,1504,0,1506,0,1505,0,1505,0,1509,0,1509,0,1509,0,1509,0,1509,0,1505,0,1505,0,1506,0,1504,0,1504,0,1504,0,1506,0,1505,0,1505,0,1505,0,1505,0,1505,0,1505,0,1510,0,1510,0,1510,0,1510,0,1510,0,1510,0,1510,0,1510,0,1505,0,1505,0,1505,0,1505,0,1505,0,1505,0,1506,0,1504,0,1504,0,1504,0,1506,0,1505,0,1505,0,1509,0,1509,0,1509,0,1509,0,1509,0,1505,0,1505,0,1506,0,1504,0,1504,0,1504,0,1504,0,0,0,0,0,0,0,0,0,
0,0,0,0,0,0,0,0,0,0,0,0,0,0,0,0,0,0,0,0,0,0,0,0,0,0,0,0,0,0,0,0,0,0,0,0,0,0,0,0,0,0,0,0,0,0,0,0,0,0,0,0,0,0,0,0,0,0,0,0,0,0,0,0,0,0,0,0,0,0,0,0,0,0,0,0,0,0,0,0,0,0,0,0,0,0,0,0,0,0,0,0,0,0,0,0,0,0,0,0,0,0,0,0,0,0,0,0,0,0,0,0,0,0,0,0,0,0,0,0,0,0,0,0,0,0,0,0,0,0,0,0,0,0,0,0,0,0,0,0,
0,0,1504,0,1504,0,1504,0,1504,0,1504,0,1504,0,1504,0,1504,0,1504,0,1504,0,1504,0,1506,0,1505,0,1505,0,1509,0,1507,0,1507,0,1507,0,1509,0,1505,0,1505,0,1506,0,1504,0,1504,0,1504,0,1506,0,1505,0,1505,0,1505,0,1505,0,1505,0,1505,0,1510,0,1510,0,1510,0,1510,0,1510,0,1510,0,1510,0,1510,0,1505,0,1505,0,1505,0,1505,0,1505,0,1505,0,1506,0,1504,0,1504,0,1504,0,1506,0,1505,0,1505,0,1509,0,1507,0,1507,0,1507,0,1509,0,1505,0,1505,0,1506,0,1504,0,1504,0,1504,0,1504,0,0,0,0,0,0,0,0,0,
0,0,0,0,0,0,0,0,0,0,0,0,0,0,0,0,0,0,0,0,0,0,0,0,0,0,0,0,0,0,0,0,0,0,0,0,0,0,0,0,0,0,0,0,0,0,0,0,0,0,0,0,0,0,0,0,0,0,0,0,0,0,0,0,0,0,0,0,0,0,0,0,0,0,0,0,0,0,0,0,0,0,0,0,0,0,0,0,0,0,0,0,0,0,0,0,0,0,0,0,0,0,0,0,0,0,0,0,0,0,0,0,0,0,0,0,0,0,0,0,0,0,0,0,0,0,0,0,0,0,0,0,0,0,0,0,0,0,0,0,
0,0,1504,0,1504,0,1504,0,1504,0,1504,0,1504,0,1504,0,1504,0,1504,0,1504,0,1504,0,1506,0,1505,0,1505,0,1509,0,1507,0,1507,0,1507,0,1509,0,1505,0,1505,0,1506,0,1504,0,1504,0,1504,0,1506,0,1505,0,1505,0,1509,0,1509,0,1509,0,1505,0,1505,0,1505,0,1505,0,1505,0,1505,0,1505,0,1505,0,1505,0,1505,0,1509,0,1509,0,1509,0,1505,0,1505,0,1506,0,1504,0,1504,0,1504,0,1506,0,1505,0,1505,0,1509,0,1507,0,1507,0,1507,0,1509,0,1505,0,1505,0,1506,0,1504,0,1504,0,1504,0,1504,0,0,0,0,0,0,0,0,0,
0,0,0,0,0,0,0,0,0,0,0,0,0,0,0,0,0,0,0,0,0,0,0,0,0,0,0,0,0,0,0,0,0,0,0,0,0,0,0,0,0,0,0,0,0,0,0,0,0,0,0,0,0,0,0,0,0,0,0,0,0,0,0,0,0,0,0,0,0,0,0,0,0,0,0,0,0,0,0,0,0,0,0,0,0,0,0,0,0,0,0,0,0,0,0,0,0,0,0,0,0,0,0,0,0,0,0,0,0,0,0,0,0,0,0,0,0,0,0,0,0,0,0,0,0,0,0,0,0,0,0,0,0,0,0,0,0,0,0,0,
0,0,1504,0,1504,0,1504,0,1504,0,1504,0,1504,0,1504,0,1504,0,1504,0,1504,0,1504,0,1506,0,1505,0,1505,0,1509,0,1507,0,1507,0,1507,0,1509,0,1505,0,1505,0,1506,0,1506,0,1506,0,1506,0,1506,0,1505,0,1505,0,1509,0,1509,0,1509,0,1505,0,1505,0,1505,0,1505,0,1505,0,1505,0,1505,0,1505,0,1505,0,1505,0,1509,0,1509,0,1509,0,1505,0,1505,0,1506,0,1506,0,1506,0,1506,0,1506,0,1505,0,1505,0,1509,0,1507,0,1507,0,1507,0,1509,0,1505,0,1505,0,1506,0,1504,0,1504,0,1504,0,1504,0,0,0,0,0,0,0,0,0,
0,0,0,0,0,0,0,0,0,0,0,0,0,0,0,0,0,0,0,0,0,0,0,0,0,0,0,0,0,0,0,0,0,0,0,0,0,0,0,0,0,0,0,0,0,0,0,0,0,0,0,0,0,0,0,0,0,0,0,0,0,0,0,0,0,0,0,0,0,0,0,0,0,0,0,0,0,0,0,0,0,0,0,0,0,0,0,0,0,0,0,0,0,0,0,0,0,0,0,0,0,0,0,0,0,0,0,0,0,0,0,0,0,0,0,0,0,0,0,0,0,0,0,0,0,0,0,0,0,0,0,0,0,0,0,0,0,0,0,0,
0,0,1504,0,1504,0,1504,0,1504,0,1504,0,1504,0,1504,0,1504,0,1504,0,1504,0,1504,0,1506,0,1505,0,1505,0,1509,0,1509,0,1509,0,1509,0,1509,0,1505,0,1505,0,1505,0,1505,0,1505,0,1505,0,1505,0,1505,0,1505,0,1509,0,1509,0,1509,0,1505,0,1505,0,1506,0,1506,0,1506,0,1506,0,1506,0,1506,0,1505,0,1505,0,1509,0,1509,0,1509,0,1505,0,1505,0,1505,0,1505,0,1505,0,1505,0,1505,0,1505,0,1505,0,1509,0,1509,0,1509,0,1509,0,1509,0,1505,0,1505,0,1506,0,1504,0,1504,0,1504,0,1504,0,0,0,0,0,0,0,0,0,
0,0,0,0,0,0,0,0,0,0,0,0,0,0,0,0,0,0,0,0,0,0,0,0,0,0,0,0,0,0,0,0,0,0,0,0,0,0,0,0,0,0,0,0,0,0,0,0,0,0,0,0,0,0,0,0,0,0,0,0,0,0,0,0,0,0,0,0,0,0,0,0,0,0,0,0,0,0,0,0,0,0,0,0,0,0,0,0,0,0,0,0,0,0,0,0,0,0,0,0,0,0,0,0,0,0,0,0,0,0,0,0,0,0,0,0,0,0,0,0,0,0,0,0,0,0,0,0,0,0,0,0,0,0,0,0,0,0,0,0,
0,0,1504,0,1504,0,1504,0,1504,0,1504,0,1504,0,1504,0,1504,0,1504,0,1504,0,1504,0,1506,0,1505,0,1505,0,1505,0,1505,0,1505,0,1505,0,1505,0,1505,0,1505,0,1505,0,1505,0,1505,0,1505,0,1505,0,1505,0,1505,0,1505,0,1505,0,1505,0,1505,0,1505,0,1506,0,1504,0,1504,0,1504,0,1504,0,1506,0,1505,0,1505,0,1505,0,1505,0,1505,0,1505,0,1505,0,1505,0,1505,0,1505,0,1505,0,1505,0,1505,0,1505,0,1505,0,1505,0,1505,0,1505,0,1505,0,1505,0,1505,0,1506,0,1504,0,1504,0,1504,0,1504,0,0,0,0,0,0,0,0,0,
0,0,0,0,0,0,0,0,0,0,0,0,0,0,0,0,0,0,0,0,0,0,0,0,0,0,0,0,0,0,0,0,0,0,0,0,0,0,0,0,0,0,0,0,0,0,0,0,0,0,0,0,0,0,0,0,0,0,0,0,0,0,0,0,0,0,0,0,0,0,0,0,0,0,0,0,0,0,0,0,0,0,0,0,0,0,0,0,0,0,0,0,0,0,0,0,0,0,0,0,0,0,0,0,0,0,0,0,0,0,0,0,0,0,0,0,0,0,0,0,0,0,0,0,0,0,0,0,0,0,0,0,0,0,0,0,0,0,0,0,
0,0,1504,0,1504,0,1504,0,1504,0,1504,0,1504,0,1504,0,1504,0,1504,0,1504,0,1504,0,1506,0,1505,0,1505,0,1505,0,1505,0,1505,0,1505,0,1505,0,1505,0,1505,0,1505,0,1505,0,1505,0,1505,0,1505,0,1505,0,1505,0,1505,0,1505,0,1505,0,1505,0,1505,0,1506,0,1504,0,1504,0,1504,0,1504,0,1506,0,1505,0,1505,0,1505,0,1505,0,1505,0,1505,0,1505,0,1505,0,1505,0,1505,0,1505,0,1505,0,1505,0,1505,0,1505,0,1505,0,1505,0,1505,0,1505,0,1505,0,1505,0,1506,0,1504,0,1504,0,1504,0,1504,0,0,0,0,0,0,0,0,0,
0,0,0,0,0,0,0,0,0,0,0,0,0,0,0,0,0,0,0,0,0,0,0,0,0,0,0,0,0,0,0,0,0,0,0,0,0,0,0,0,0,0,0,0,0,0,0,0,0,0,0,0,0,0,0,0,0,0,0,0,0,0,0,0,0,0,0,0,0,0,0,0,0,0,0,0,0,0,0,0,0,0,0,0,0,0,0,0,0,0,0,0,0,0,0,0,0,0,0,0,0,0,0,0,0,0,0,0,0,0,0,0,0,0,0,0,0,0,0,0,0,0,0,0,0,0,0,0,0,0,0,0,0,0,0,0,0,0,0,0,
0,0,1504,0,1504,0,1504,0,1504,0,1504,0,1504,0,1504,0,1504,0,1504,0,1504,0,1504,0,1506,0,1505,0,1505,0,1505,0,1505,0,1505,0,1505,0,1505,0,1505,0,1505,0,1505,0,1505,0,1505,0,1505,0,1505,0,1505,0,1505,0,1505,0,1505,0,1505,0,1505,0,1505,0,1506,0,1504,0,1504,0,1504,0,1504,0,1506,0,1505,0,1505,0,1505,0,1505,0,1505,0,1505,0,1505,0,1505,0,1505,0,1505,0,1505,0,1505,0,1505,0,1505,0,1505,0,1505,0,1505,0,1505,0,1505,0,1505,0,1505,0,1506,0,1504,0,1504,0,1504,0,1504,0,0,0,0,0,0,0,0,0,
0,0,0,0,0,0,0,0,0,0,0,0,0,0,0,0,0,0,0,0,0,0,0,0,0,0,0,0,0,0,0,0,0,0,0,0,0,0,0,0,0,0,0,0,0,0,0,0,0,0,0,0,0,0,0,0,0,0,0,0,0,0,0,0,0,0,0,0,0,0,0,0,0,0,0,0,0,0,0,0,0,0,0,0,0,0,0,0,0,0,0,0,0,0,0,0,0,0,0,0,0,0,0,0,0,0,0,0,0,0,0,0,0,0,0,0,0,0,0,0,0,0,0,0,0,0,0,0,0,0,0,0,0,0,0,0,0,0,0,0,
0,0,1504,0,1504,0,1504,0,1504,0,1504,0,1504,0,1504,0,1504,0,1504,0,1504,0,1504,0,1506,0,1505,0,1505,0,1505,0,1505,0,1505,0,1505,0,1505,0,1505,0,1505,0,1505,0,1505,0,1505,0,1505,0,1505,0,1505,0,1505,0,1505,0,1505,0,1505,0,1505,0,1505,0,1506,0,1504,0,1504,0,1504,0,1504,0,1506,0,1505,0,1505,0,1505,0,1505,0,1505,0,1505,0,1505,0,1505,0,1505,0,1505,0,1505,0,1505,0,1505,0,1505,0,1505,0,1505,0,1505,0,1505,0,1505,0,1505,0,1505,0,1506,0,1504,0,1504,0,1504,0,1504,0,1504,0,0,0,0,0,0,0,
0,0,0,0,0,0,0,0,0,0,0,0,0,0,0,0,0,0,0,0,0,0,0,0,0,0,0,0,0,0,0,0,0,0,0,0,0,0,0,0,0,0,0,0,0,0,0,0,0,0,0,0,0,0,0,0,0,0,0,0,0,0,0,0,0,0,0,0,0,0,0,0,0,0,0,0,0,0,0,0,0,0,0,0,0,0,0,0,0,0,0,0,0,0,0,0,0,0,0,0,0,0,0,0,0,0,0,0,0,0,0,0,0,0,0,0,0,0,0,0,0,0,0,0,0,0,0,0,0,0,0,0,0,0,0,0,0,0,0,0,
0,0,1504,0,1504,0,1504,0,1504,0,1504,0,1504,0,1504,0,1504,0,1504,0,1504,0,1504,0,1506,0,1506,0,1506,0,1506,0,1506,0,1506,0,1506,0,1506,0,1506,0,1506,0,1506,0,1506,0,1506,0,1506,0,1506,0,1506,0,1506,0,1506,0,1506,0,1506,0,1506,0,1506,0,1506,0,1504,0,1504,0,1504,0,1504,0,1506,0,1506,0,1506,0,1506,0,1506,0,1506,0,1506,0,1506,0,1506,0,1506,0,1506,0,1506,0,1506,0,1506,0,1506,0,1506,0,1506,0,1506,0,1506,0,1506,0,1506,0,1506,0,1506,0,1504,0,1504,0,1504,0,1504,0,1504,0,0,0,0,0,0,0,
0,0,0,0,0,0,0,0,0,0,0,0,0,0,0,0,0,0,0,0,0,0,0,0,0,0,0,0,0,0,0,0,0,0,0,0,0,0,0,0,0,0,0,0,0,0,0,0,0,0,0,0,0,0,0,0,0,0,0,0,0,0,0,0,0,0,0,0,0,0,0,0,0,0,0,0,0,0,0,0,0,0,0,0,0,0,0,0,0,0,0,0,0,0,0,0,0,0,0,0,0,0,0,0,0,0,0,0,0,0,0,0,0,0,0,0,0,0,0,0,0,0,0,0,0,0,0,0,0,0,0,0,0,0,0,0,0,0,0,0,
0,0,1504,0,1504,0,1504,0,1504,0,1504,0,1504,0,1504,0,1504,0,1504,0,1504,0,1504,0,1504,0,1504,0,1504,0,1504,0,1504,0,1504,0,1504,0,1504,0,1504,0,1504,0,1504,0,1504,0,1504,0,1504,0,1504,0,1504,0,1504,0,1504,0,1504,0,1504,0,1504,0,1504,0,1504,0,1504,0,1504,0,1504,0,1504,0,1504,0,1504,0,1504,0,1504,0,1504,0,1504,0,1504,0,1504,0,1504,0,1504,0,1504,0,1504,0,1504,0,1504,0,1504,0,1504,0,1504,0,1504,0,1504,0,1504,0,1504,0,1504,0,1504,0,1504,0,1504,0,1504,0,1504,0,1504,0,0,0,0,0,0,0,
0,0,0,0,0,0,0,0,0,0,0,0,0,0,0,0,0,0,0,0,0,0,0,0,0,0,0,0,0,0,0,0,0,0,0,0,0,0,0,0,0,0,0,0,0,0,0,0,0,0,0,0,0,0,0,0,0,0,0,0,0,0,0,0,0,0,0,0,0,0,0,0,0,0,0,0,0,0,0,0,0,0,0,0,0,0,0,0,0,0,0,0,0,0,0,0,0,0,0,0,0,0,0,0,0,0,0,0,0,0,0,0,0,0,0,0,0,0,0,0,0,0,0,0,0,0,0,0,0,0,0,0,0,0,0,0,0,0,0,0,
0,0,1504,0,1504,0,1504,0,1504,0,1504,0,1504,0,1504,0,1504,0,1504,0,1504,0,1504,0,1504,0,1504,0,1504,0,1504,0,1504,0,1504,0,1504,0,1504,0,1504,0,1504,0,1504,0,1504,0,1504,0,1504,0,1504,0,1504,0,1504,0,1504,0,1504,0,1504,0,1504,0,1504,0,1504,0,1504,0,1504,0,1504,0,1504,0,1504,0,1504,0,1504,0,1504,0,1504,0,1504,0,1504,0,1504,0,1504,0,1504,0,1504,0,1504,0,1504,0,1504,0,1504,0,1504,0,1504,0,1504,0,1504,0,1504,0,1504,0,1504,0,1504,0,1504,0,1504,0,1504,0,1504,0,1504,0,0,0,0,0,0,0,
0,0,0,0,0,0,0,0,0,0,0,0,0,0,0,0,0,0,0,0,0,0,0,0,0,0,0,0,0,0,0,0,0,0,0,0,0,0,0,0,0,0,0,0,0,0,0,0,0,0,0,0,0,0,0,0,0,0,0,0,0,0,0,0,0,0,0,0,0,0,0,0,0,0,0,0,0,0,0,0,0,0,0,0,0,0,0,0,0,0,0,0,0,0,0,0,0,0,0,0,0,0,0,0,0,0,0,0,0,0,0,0,0,0,0,0,0,0,0,0,0,0,0,0,0,0,0,0,0,0,0,0,0,0,0,0,0,0,0,0,
0,0,1504,0,1504,0,1504,0,1504,0,1504,0,1504,0,1504,0,1504,0,1504,0,1504,0,1504,0,1504,0,1504,0,1504,0,1504,0,1504,0,1504,0,1504,0,1504,0,1504,0,1504,0,1504,0,1504,0,1504,0,1504,0,1504,0,1504,0,1504,0,1504,0,1504,0,1504,0,1504,0,1504,0,1504,0,1504,0,1504,0,1504,0,1504,0,1504,0,1504,0,1504,0,1504,0,1504,0,1504,0,1504,0,1504,0,1504,0,1504,0,1504,0,1504,0,1504,0,1504,0,1504,0,1504,0,1504,0,1504,0,1504,0,1504,0,1504,0,1504,0,1504,0,1504,0,1504,0,1504,0,1504,0,1504,0,0,0,0,0,0,0,
0,0,0,0,0,0,0,0,0,0,0,0,0,0,0,0,0,0,0,0,0,0,0,0,0,0,0,0,0,0,0,0,0,0,0,0,0,0,0,0,0,0,0,0,0,0,0,0,0,0,0,0,0,0,0,0,0,0,0,0,0,0,0,0,0,0,0,0,0,0,0,0,0,0,0,0,0,0,0,0,0,0,0,0,0,0,0,0,0,0,0,0,0,0,0,0,0,0,0,0,0,0,0,0,0,0,0,0,0,0,0,0,0,0,0,0,0,0,0,0,0,0,0,0,0,0,0,0,0,0,0,0,0,0,0,0,0,0,0,0,
0,0,1504,0,1504,0,1504,0,1504,0,1504,0,1504,0,1504,0,1504,0,1504,0,1504,0,1504,0,1504,0,1504,0,1504,0,1504,0,1504,0,1504,0,1504,0,1504,0,1504,0,1504,0,1504,0,1504,0,1504,0,1504,0,1504,0,1504,0,1504,0,1504,0,1504,0,1504,0,1504,0,1504,0,1504,0,1504,0,1504,0,1504,0,1504,0,1504,0,1504,0,1504,0,1504,0,1504,0,1504,0,1504,0,1504,0,1504,0,1504,0,1504,0,1504,0,1504,0,1504,0,1504,0,1504,0,1504,0,1504,0,1504,0,1504,0,1504,0,1504,0,1504,0,1504,0,1504,0,1504,0,1504,0,1504,0,0,0,0,0,0,0,
0,0,0,0,0,0,0,0,0,0,0,0,0,0,0,0,0,0,0,0,0,0,0,0,0,0,0,0,0,0,0,0,0,0,0,0,0,0,0,0,0,0,0,0,0,0,0,0,0,0,0,0,0,0,0,0,0,0,0,0,0,0,0,0,0,0,0,0,0,0,0,0,0,0,0,0,0,0,0,0,0,0,0,0,0,0,0,0,0,0,0,0,0,0,0,0,0,0,0,0,0,0,0,0,0,0,0,0,0,0,0,0,0,0,0,0,0,0,0,0,0,0,0,0,0,0,0,0,0,0,0,0,0,0,0,0,0,0,0,0,
0,0,1504,0,1504,0,1504,0,1504,0,1504,0,1504,0,1504,0,1504,0,1504,0,1504,0,1504,0,1504,0,1504,0,1504,0,1504,0,1504,0,1504,0,1504,0,1504,0,1504,0,1504,0,1504,0,1504,0,1504,0,1504,0,1504,0,1504,0,1504,0,1504,0,1504,0,1504,0,1504,0,1504,0,1504,0,1504,0,1504,0,1504,0,1504,0,1504,0,1504,0,1504,0,1504,0,1504,0,1504,0,1504,0,1504,0,1504,0,1504,0,1504,0,1504,0,1504,0,1504,0,1504,0,1504,0,1504,0,1504,0,0,0,0,0,0,0,0,0,0,0,0,0,0,0,0,0,0,0,0,0,0,0,0,0,0,0,
0,0,0,0,0,0,0,0,0,0,0,0,0,0,0,0,0,0,0,0,0,0,0,0,0,0,0,0,0,0,0,0,0,0,0,0,0,0,0,0,0,0,0,0,0,0,0,0,0,0,0,0,0,0,0,0,0,0,0,0,0,0,0,0,0,0,0,0,0,0,0,0,0,0,0,0,0,0,0,0,0,0,0,0,0,0,0,0,0,0,0,0,0,0,0,0,0,0,0,0,0,0,0,0,0,0,0,0,0,0,0,0,0,0,0,0,0,0,0,0,0,0,0,0,0,0,0,0,0,0,0,0,0,0,0,0,0,0,0,0,
0,0,1504,0,1504,0,1504,0,1504,0,1504,0,1504,0,1504,0,1504,0,1504,0,1504,0,1504,0,1504,0,1504,0,1504,0,1504,0,1504,0,1504,0,1504,0,1504,0,1504,0,1504,0,1504,0,1504,0,1504,0,1504,0,1504,0,1504,0,1504,0,1504,0,1504,0,1504,0,1504,0,1504,0,1504,0,1504,0,1504,0,1504,0,1504,0,1504,0,1504,0,1504,0,1504,0,1504,0,1504,0,1504,0,1504,0,1504,0,1504,0,1504,0,1504,0,1504,0,1504,0,1504,0,1504,0,1504,0,1504,0,0,0,0,0,0,0,0,0,0,0,0,0,0,0,0,0,0,0,0,0,0,0,0,0,0,0,
0,0,0,0,0,0,0,0,0,0,0,0,0,0,0,0,0,0,0,0,0,0,0,0,0,0,0,0,0,0,0,0,0,0,0,0,0,0,0,0,0,0,0,0,0,0,0,0,0,0,0,0,0,0,0,0,0,0,0,0,0,0,0,0,0,0,0,0,0,0,0,0,0,0,0,0,0,0,0,0,0,0,0,0,0,0,0,0,0,0,0,0,0,0,0,0,0,0,0,0,0,0,0,0,0,0,0,0,0,0,0,0,0,0,0,0,0,0,0,0,0,0,0,0,0,0,0,0,0,0,0,0,0,0,0,0,0,0,0,0,
0,0,0,0,1504,0,1504,0,1504,0,1504,0,1504,0,1504,0,1504,0,1504,0,1504,0,1504,0,1504,0,1504,0,1504,0,1504,0,1504,0,1504,0,1504,0,1504,0,1504,0,1504,0,1504,0,1504,0,1504,0,1504,0,1504,0,1504,0,1504,0,1504,0,1504,0,1504,0,1504,0,1504,0,1504,0,1504,0,1504,0,1504,0,1504,0,1504,0,1504,0,1504,0,1504,0,1504,0,1504,0,1504,0,1504,0,1504,0,1504,0,1504,0,1504,0,1504,0,1504,0,1504,0,1504,0,1504,0,1504,0,0,0,0,0,0,0,0,0,0,0,0,0,0,0,0,0,0,0,0,0,0,0,0,0,0,0,
0,0,0,0,0,0,0,0,0,0,0,0,0,0,0,0,0,0,0,0,0,0,0,0,0,0,0,0,0,0,0,0,0,0,0,0,0,0,0,0,0,0,0,0,0,0,0,0,0,0,0,0,0,0,0,0,0,0,0,0,0,0,0,0,0,0,0,0,0,0,0,0,0,0,0,0,0,0,0,0,0,0,0,0,0,0,0,0,0,0,0,0,0,0,0,0,0,0,0,0,0,0,0,0,0,0,0,0,0,0,0,0,0,0,0,0,0,0,0,0,0,0,0,0,0,0,0,0,0,0,0,0,0,0,0,0,0,0,0,0,
0,0,0,0,1504,0,1504,0,1504,0,1504,0,1504,0,1504,0,1504,0,1504,0,1504,0,1504,0,1504,0,1504,0,1504,0,1504,0,1504,0,1504,0,1504,0,1504,0,1504,0,1504,0,1504,0,1504,0,1504,0,1504,0,1504,0,1504,0,1504,0,1504,0,1504,0,1504,0,1504,0,1504,0,1504,0,1504,0,1504,0,1504,0,1504,0,0,0,0,0,0,0,0,0,0,0,0,0,0,0,0,0,0,0,0,0,0,0,0,0,0,0,0,0,0,0,0,0,0,0,0,0,0,0,0,0,0,0,0,0,0,0,0,0,0,0,0,0,0,0,0,0,0,0,0,0,0,0,
0,0,0,0,0,0,0,0,0,0,0,0,0,0,0,0,0,0,0,0,0,0,0,0,0,0,0,0,0,0,0,0,0,0,0,0,0,0,0,0,0,0,0,0,0,0,0,0,0,0,0,0,0,0,0,0,0,0,0,0,0,0,0,0,0,0,0,0,0,0,0,0,0,0,0,0,0,0,0,0,0,0,0,0,0,0,0,0,0,0,0,0,0,0,0,0,0,0,0,0,0,0,0,0,0,0,0,0,0,0,0,0,0,0,0,0,0,0,0,0,0,0,0,0,0,0,0,0,0,0,0,0,0,0,0,0,0,0,0,0,
0,0,0,0,1504,0,1504,0,1504,0,1504,0,1504,0,1504,0,1504,0,1504,0,1504,0,1504,0,1504,0,1504,0,1504,0,1504,0,1504,0,1504,0,1504,0,1504,0,1504,0,1504,0,1504,0,1504,0,1504,0,1504,0,1504,0,1504,0,1504,0,1504,0,1504,0,1504,0,1504,0,1504,0,1504,0,1504,0,1504,0,1504,0,1504,0,0,0,0,0,0,0,0,0,0,0,0,0,0,0,0,0,0,0,0,0,0,0,0,0,0,0,0,0,0,0,0,0,0,0,0,0,0,0,0,0,0,0,0,0,0,0,0,0,0,0,0,0,0,0,0,0,0,0,0,0,0,0,
0,0,0,0,0,0,0,0,0,0,0,0,0,0,0,0,0,0,0,0,0,0,0,0,0,0,0,0,0,0,0,0,0,0,0,0,0,0,0,0,0,0,0,0,0,0,0,0,0,0,0,0,0,0,0,0,0,0,0,0,0,0,0,0,0,0,0,0,0,0,0,0,0,0,0,0,0,0,0,0,0,0,0,0,0,0,0,0,0,0,0,0,0,0,0,0,0,0,0,0,0,0,0,0,0,0,0,0,0,0,0,0,0,0,0,0,0,0,0,0,0,0,0,0,0,0,0,0,0,0,0,0,0,0,0,0,0,0,0,0,
0,0,0,0,0,0,0,0,0,0,0,0,0,0,0,0,0,0,0,0,0,0,0,0,0,0,0,0,0,0,0,0,0,0,0,0,0,0,0,0,0,0,0,0,0,0,0,0,0,0,0,0,0,0,0,0,0,0,0,0,0,0,0,0,0,0,0,0,0,0,0,0,0,0,0,0,0,0,0,0,0,0,0,0,0,0,0,0,0,0,0,0,0,0,0,0,0,0,0,0,0,0,0,0,0,0,0,0,0,0,0,0,0,0,0,0,0,0,0,0,0,0,0,0,0,0,0,0,0,0,0,0,0,0,0,0,0,0,0,0,
0,0,0,0,0,0,0,0,0,0,0,0,0,0,0,0,0,0,0,0,0,0,0,0,0,0,0,0,0,0,0,0,0,0,0,0,0,0,0,0,0,0,0,0,0,0,0,0,0,0,0,0,0,0,0,0,0,0,0,0,0,0,0,0,0,0,0,0,0,0,0,0,0,0,0,0,0,0,0,0,0,0,0,0,0,0,0,0,0,0,0,0,0,0,0,0,0,0,0,0,0,0,0,0,0,0,0,0,0,0,0,0,0,0,0,0,0,0,0,0,0,0,0,0,0,0,0,0,0,0,0,0,0,0,0,0,0,0,0,0,
0,0,0,0,0,0,0,0,0,0,0,0,0,0,0,0,0,0,0,0,0,0,0,0,0,0,0,0,0,0,0,0,0,0,0,0,0,0,0,0,0,0,0,0,0,0,0,0,0,0,0,0,0,0,0,0,0,0,0,0,0,0,0,0,0,0,0,0,0,0,0,0,0,0,0,0,0,0,0,0,0,0,0,0,0,0,0,0,0,0,0,0,0,0,0,0,0,0,0,0,0,0,0,0,0,0,0,0,0,0,0,0,0,0,0,0,0,0,0,0,0,0,0,0,0,0,0,0,0,0,0,0,0,0,0,0,0,0,0,0,
0,0,0,0,0,0,0,0,0,0,0,0,0,0,0,0,0,0,0,0,0,0,0,0,0,0,0,0,0,0,0,0,0,0,0,0,0,0,0,0,0,0,0,0,0,0,0,0,0,0,0,0,0,0,0,0,0,0,0,0,0,0,0,0,0,0,0,0,0,0,0,0,0,0,0,0,0,0,0,0,0,0,0,0,0,0,0,0,0,0,0,0,0,0,0,0,0,0,0,0,0,0,0,0,0,0,0,0,0,0,0,0,0,0,0,0,0,0,0,0,0,0,0,0,0,0,0,0,0,0,0,0,0,0,0,0,0,0,0,0,
0,0,0,0,0,0,0,0,0,0,0,0,0,0,0,0,0,0,0,0,0,0,0,0,0,0,0,0,0,0,0,0,0,0,0,0,0,0,0,0,0,0,0,0,0,0,0,0,0,0,0,0,0,0,0,0,0,0,0,0,0,0,0,0,0,0,0,0,0,0,0,0,0,0,0,0,0,0,0,0,0,0,0,0,0,0,0,0,0,0,0,0,0,0,0,0,0,0,0,0,0,0,0,0,0,0,0,0,0,0,0,0,0,0,0,0,0,0,0,0,0,0,0,0,0,0,0,0,0,0,0,0,0,0,0,0,0,0,0,0,
0,0,0,0,0,0,0,0,0,0,0,0,0,0,0,0,0,0,0,0,0,0,0,0,0,0,0,0,0,0,0,0,0,0,0,0,0,0,0,0,0,0,0,0,0,0,0,0,0,0,0,0,0,0,0,0,0,0,0,0,0,0,0,0,0,0,0,0,0,0,0,0,0,0,0,0,0,0,0,0,0,0,0,0,0,0,0,0,0,0,0,0,0,0,0,0,0,0,0,0,0,0,0,0,0,0,0,0,0,0,0,0,0,0,0,0,0,0,0,0,0,0,0,0,0,0,0,0,0,0,0,0,0,0,0,0,0,0,0,0,
0,0,0,0,0,0,0,0,0,0,0,0,0,0,0,0,0,0,0,0,0,0,0,0,0,0,0,0,0,0,0,0,0,0,0,0,0,0,0,0,0,0,0,0,0,0,0,0,0,0,0,0,0,0,0,0,0,0,0,0,0,0,0,0,0,0,0,0,0,0,0,0,0,0,0,0,0,0,0,0,0,0,0,0,0,0,0,0,0,0,0,0,0,0,0,0,0,0,0,0,0,0,0,0,0,0,0,0,0,0,0,0,0,0,0,0,0,0,0,0,0,0,0,0,0,0,0,0,0,0,0,0,0,0,0,0,0,0,0,0,
0,0,0,0,0,0,0,0,0,0,0,0,0,0,0,0,0,0,0,0,0,0,0,0,0,0,0,0,0,0,0,0,0,0,0,0,0,0,0,0,0,0,0,0,0,0,0,0,0,0,0,0,0,0,0,0,0,0,0,0,0,0,0,0,0,0,0,0,0,0,0,0,0,0,0,0,0,0,0,0,0,0,0,0,0,0,0,0,0,0,0,0,0,0,0,0,0,0,0,0,0,0,0,0,0,0,0,0,0,0,0,0,0,0,0,0,0,0,0,0,0,0,0,0,0,0,0,0,0,0,0,0,0,0,0,0,0,0,0,0,
0,0,0,0,0,0,0,0,0,0,0,0,0,0,0,0,0,0,0,0,0,0,0,0,0,0,0,0,0,0,0,0,0,0,0,0,0,0,0,0,0,0,0,0,0,0,0,0,0,0,0,0,0,0,0,0,0,0,0,0,0,0,0,0,0,0,0,0,0,0,0,0,0,0,0,0,0,0,0,0,0,0,0,0,0,0,0,0,0,0,0,0,0,0,0,0,0,0,0,0,0,0,0,0,0,0,0,0,0,0,0,0,0,0,0,0,0,0,0,0,0,0,0,0,0,0,0,0,0,0,0,0,0,0,0,0,0,0,0,0,
0,0,0,0,0,0,0,0,0,0,0,0,0,0,0,0,0,0,0,0,0,0,0,0,0,0,0,0,0,0,0,0,0,0,0,0,0,0,0,0,0,0,0,0,0,0,0,0,0,0,0,0,0,0,0,0,0,0,0,0,0,0,0,0,0,0,0,0,0,0,0,0,0,0,0,0,0,0,0,0,0,0,0,0,0,0,0,0,0,0,0,0,0,0,0,0,0,0,0,0,0,0,0,0,0,0,0,0,0,0,0,0,0,0,0,0,0,0,0,0,0,0,0,0,0,0,0,0,0,0,0,0,0,0,0,0,0,0,0,0,
0,0,0,0,0,0,0,0,0,0,0,0,0,0,0,0,0,0,0,0,0,0,0,0,0,0,0,0,0,0,0,0,0,0,0,0,0,0,0,0,0,0,0,0,0,0,0,0,0,0,0,0,0,0,0,0,0,0,0,0,0,0,0,0,0,0,0,0,0,0,0,0,0,0,0,0,0,0,0,0,0,0,0,0,0,0,0,0,0,0,0,0,0,0,0,0,0,0,0,0,0,0,0,0,0,0,0,0,0,0,0,0,0,0,0,0,0,0,0,0,0,0,0,0,0,0,0,0,0,0,0,0,0,0,0,0,0,0,0,0,
0,0,0,0,0,0,0,0,0,0,0,0,0,0,0,0,0,0,0,0,0,0,0,0,0,0,0,0,0,0,0,0,0,0,0,0,0,0,0,0,0,0,0,0,0,0,0,0,0,0,0,0,0,0,0,0,0,0,0,0,0,0,0,0,0,0,0,0,0,0,0,0,0,0,0,0,0,0,0,0,0,0,0,0,0,0,0,0,0,0,0,0,0,0,0,0,0,0,0,0,0,0,0,0,0,0,0,0,0,0,0,0,0,0,0,0,0,0,0,0,0,0,0,0,0,0,0,0,0,0,0,0,0,0,0,0,0,0,0,0,
0,0,0,0,0,0,0,0,0,0,0,0,0,0,0,0,0,0,0,0,0,0,0,0,0,0,0,0,0,0,0,0,0,0,0,0,0,0,0,0,0,0,0,0,0,0,0,0,0,0,0,0,0,0,0,0,0,0,0,0,0,0,0,0,0,0,0,0,0,0,0,0,0,0,0,0,0,0,0,0,0,0,0,0,0,0,0,0,0,0,0,0,0,0,0,0,0,0,0,0,0,0,0,0,0,0,0,0,0,0,0,0,0,0,0,0,0,0,0,0,0,0,0,0,0,0,0,0,0,0,0,0,0,0,0,0,0,0,0,0,
0,0,0,0,0,0,0,0,0,0,0,0,0,0,0,0,0,0,0,0,0,0,0,0,0,0,0,0,0,0,0,0,0,0,0,0,0,0,0,0,0,0,0,0,0,0,0,0,0,0,0,0,0,0,0,0,0,0,0,0,0,0,0,0,0,0,0,0,0,0,0,0,0,0,0,0,0,0,0,0,0,0,0,0,0,0,0,0,0,0,0,0,0,0,0,0,0,0,0,0,0,0,0,0,0,0,0,0,0,0,0,0,0,0,0,0,0,0,0,0,0,0,0,0,0,0,0,0,0,0,0,0,0,0,0,0,0,0,0,0
</data>
 </layer>
 <layer id="2" name="Chance" width="140" height="108">
  <properties>
   <property name="maybe_animation_id" value="818f0d7683463c1"/>
   <property name="maybe_tileset_id" value="fce7bba5e540ce43"/>
   <property name="tile_size" type="int" value="16"/>
  </properties>
  <data encoding="csv">
1516,0,1516,0,1516,0,1516,0,1516,0,1516,0,1516,0,1516,0,1516,0,1516,0,1516,0,1516,0,1516,0,1516,0,1516,0,1516,0,1516,0,1516,0,1516,0,1516,0,1516,0,1516,0,1516,0,1516,0,1516,0,1516,0,1516,0,1516,0,1516,0,1516,0,1516,0,1516,0,1516,0,1516,0,1516,0,1516,0,1516,0,1516,0,1516,0,1516,0,1516,0,1516,0,1516,0,1516,0,1516,0,1516,0,1516,0,1516,0,1516,0,1516,0,1516,0,1516,0,1516,0,1516,0,1516,0,1516,0,1516,0,1516,0,1516,0,1516,0,1516,0,1516,0,1516,0,1516,0,1516,0,0,0,0,0,0,0,0,0,0,0,
0,0,0,0,0,0,0,0,0,0,0,0,0,0,0,0,0,0,0,0,0,0,0,0,0,0,0,0,0,0,0,0,0,0,0,0,0,0,0,0,0,0,0,0,0,0,0,0,0,0,0,0,0,0,0,0,0,0,0,0,0,0,0,0,0,0,0,0,0,0,0,0,0,0,0,0,0,0,0,0,0,0,0,0,0,0,0,0,0,0,0,0,0,0,0,0,0,0,0,0,0,0,0,0,0,0,0,0,0,0,0,0,0,0,0,0,0,0,0,0,0,0,0,0,0,0,0,0,0,0,0,0,0,0,0,0,0,0,0,0,
1516,0,1516,0,1516,0,1516,0,1516,0,1516,0,1516,0,1516,0,1516,0,1516,0,1516,0,1516,0,1516,0,1516,0,1516,0,1516,0,1516,0,1516,0,1516,0,1516,0,1516,0,1516,0,1516,0,1516,0,1516,0,1516,0,1516,0,1516,0,1516,0,1516,0,1516,0,1516,0,1516,0,1516,0,1516,0,1516,0,1516,0,1516,0,1516,0,1516,0,1516,0,1516,0,1516,0,1516,0,1516,0,1516,0,1516,0,1516,0,1516,0,1516,0,1516,0,1516,0,1516,0,1516,0,1516,0,1516,0,1516,0,1516,0,1516,0,1516,0,1516,0,1516,0,1516,0,1516,0,1516,0,0,0,0,0,0,0,0,0,0,0,
0,0,0,0,0,0,0,0,0,0,0,0,0,0,0,0,0,0,0,0,0,0,0,0,0,0,0,0,0,0,0,0,0,0,0,0,0,0,0,0,0,0,0,0,0,0,0,0,0,0,0,0,0,0,0,0,0,0,0,0,0,0,0,0,0,0,0,0,0,0,0,0,0,0,0,0,0,0,0,0,0,0,0,0,0,0,0,0,0,0,0,0,0,0,0,0,0,0,0,0,0,0,0,0,0,0,0,0,0,0,0,0,0,0,0,0,0,0,0,0,0,0,0,0,0,0,0,0,0,0,0,0,0,0,0,0,0,0,0,0,
1516,0,1516,0,1516,0,1516,0,1516,0,1516,0,1516,0,1516,0,1516,0,1516,0,1516,0,1516,0,1516,0,1516,0,1516,0,1516,0,1516,0,1516,0,1516,0,1516,0,1516,0,1516,0,1516,0,1516,0,1516,0,1516,0,1516,0,1516,0,1516,0,1516,0,1516,0,1516,0,1516,0,1516,0,1516,0,1516,0,1516,0,1516,0,1516,0,1516,0,1516,0,1516,0,1516,0,1516,0,1516,0,1516,0,1516,0,1516,0,1516,0,1516,0,1516,0,1516,0,1516,0,1516,0,1516,0,1516,0,1516,0,1516,0,1516,0,1516,0,1516,0,1516,0,1516,0,1516,0,1516,0,0,0,0,0,0,0,0,0,0,0,
0,0,0,0,0,0,0,0,0,0,0,0,0,0,0,0,0,0,0,0,0,0,0,0,0,0,0,0,0,0,0,0,0,0,0,0,0,0,0,0,0,0,0,0,0,0,0,0,0,0,0,0,0,0,0,0,0,0,0,0,0,0,0,0,0,0,0,0,0,0,0,0,0,0,0,0,0,0,0,0,0,0,0,0,0,0,0,0,0,0,0,0,0,0,0,0,0,0,0,0,0,0,0,0,0,0,0,0,0,0,0,0,0,0,0,0,0,0,0,0,0,0,0,0,0,0,0,0,0,0,0,0,0,0,0,0,0,0,0,0,
1516,0,1516,0,1516,0,1516,0,1516,0,1516,0,1516,0,1516,0,1516,0,1516,0,1516,0,1516,0,1516,0,1516,0,1516,0,1516,0,1516,0,1516,0,1516,0,1516,0,1516,0,1516,0,1516,0,1516,0,1516,0,1516,0,1516,0,1516,0,1516,0,1516,0,1516,0,1516,0,1516,0,1517,0,1516,0,1517,0,1613,0,1613,0,1517,0,1516,0,1557,0,1516,0,1516,0,1516,0,1516,0,1516,0,1516,0,1516,0,1516,0,1516,0,1516,0,1516,0,1516,0,1516,0,1516,0,1516,0,1516,0,1516,0,1516,0,1516,0,1516,0,1516,0,1516,0,1516,0,1516,0,0,0,0,0,0,0,0,0,0,0,
0,0,0,0,0,0,0,0,0,0,0,0,0,0,0,0,0,0,0,0,0,0,0,0,0,0,0,0,0,0,0,0,0,0,0,0,0,0,0,0,0,0,0,0,0,0,0,0,0,0,0,0,0,0,0,0,0,0,0,0,0,0,0,0,0,0,0,0,0,0,0,0,0,0,0,0,0,0,0,0,0,0,0,0,0,0,0,0,0,0,0,0,0,0,0,0,0,0,0,0,0,0,0,0,0,0,0,0,0,0,0,0,0,0,0,0,0,0,0,0,0,0,0,0,0,0,0,0,0,0,0,0,0,0,0,0,0,0,0,0,
1516,0,1516,0,1516,0,1516,0,1516,0,1516,0,1516,0,1516,0,1516,0,1516,0,1516,0,1516,0,1516,0,1516,0,1516,0,1516,0,1516,0,1516,0,1516,0,1516,0,1516,0,1516,0,1516,0,1516,0,1516,0,1516,0,1516,0,1516,0,1516,0,1516,0,1516,0,1516,0,1516,0,1516,0,1516,0,1516,0,1516,0,1516,0,1516,0,1516,0,1516,0,1536,0,1516,0,1516,0,1516,0,1516,0,1516,0,1516,0,1516,0,1516,0,1516,0,1516,0,1516,0,1516,0,1516,0,1516,0,1516,0,1516,0,1516,0,1516,0,1516,0,1516,0,1516,0,1516,0,1516,0,0,0,0,0,0,0,0,0,0,0,
0,0,0,0,0,0,0,0,0,0,0,0,0,0,0,0,0,0,0,0,0,0,0,0,0,0,0,0,0,0,0,0,0,0,0,0,0,0,0,0,0,0,0,0,0,0,0,0,0,0,0,0,0,0,0,0,0,0,0,0,0,0,0,0,0,0,0,0,0,0,0,0,0,0,0,0,0,0,0,0,0,0,0,0,0,0,0,0,0,0,0,0,0,0,0,0,0,0,0,0,0,0,0,0,0,0,0,0,0,0,0,0,0,0,0,0,0,0,0,0,0,0,0,0,0,0,0,0,0,0,0,0,0,0,0,0,0,0,0,0,
1516,0,1516,0,1516,0,1516,0,1516,0,1516,0,1516,0,1516,0,1516,0,1516,0,1516,0,1516,0,1516,0,1516,0,1516,0,1516,0,1516,0,1516,0,1516,0,1516,0,1516,0,1516,0,1516,0,1516,0,1516,0,1516,0,1516,0,1516,0,1516,0,1516,0,1516,0,1516,0,1516,0,1516,0,1516,0,1516,0,1516,0,1516,0,1516,0,1516,0,1516,0,1516,0,1516,0,1516,0,1516,0,1516,0,1516,0,1516,0,1516,0,1516,0,1516,0,1516,0,1516,0,1516,0,1516,0,1516,0,1516,0,1516,0,1516,0,1516,0,1516,0,1516,0,1516,0,1516,0,1516,0,0,0,0,0,0,0,0,0,0,0,
0,0,0,0,0,0,0,0,0,0,0,0,0,0,0,0,0,0,0,0,0,0,0,0,0,0,0,0,0,0,0,0,0,0,0,0,0,0,0,0,0,0,0,0,0,0,0,0,0,0,0,0,0,0,0,0,0,0,0,0,0,0,0,0,0,0,0,0,0,0,0,0,0,0,0,0,0,0,0,0,0,0,0,0,0,0,0,0,0,0,0,0,0,0,0,0,0,0,0,0,0,0,0,0,0,0,0,0,0,0,0,0,0,0,0,0,0,0,0,0,0,0,0,0,0,0,0,0,0,0,0,0,0,0,0,0,0,0,0,0,
1516,0,1516,0,1516,0,1516,0,1516,0,1516,0,1516,0,1516,0,1516,0,1516,0,1516,0,1516,0,1516,0,1516,0,1516,0,1516,0,1516,0,1516,0,1516,0,1516,0,1516,0,1516,0,1516,0,1516,0,1516,0,1516,0,1516,0,1516,0,1516,0,1516,0,1516,0,1516,0,1516,0,1516,0,1516,0,1516,0,1516,0,1516,0,1516,0,1516,0,1516,0,1516,0,1516,0,1516,0,1516,0,1516,0,1516,0,1516,0,1516,0,1516,0,1516,0,1516,0,1516,0,1516,0,1516,0,1516,0,1516,0,1516,0,1516,0,1516,0,1516,0,1516,0,1516,0,1516,0,1516,0,0,0,0,0,0,0,0,0,0,0,
0,0,0,0,0,0,0,0,0,0,0,0,0,0,0,0,0,0,0,0,0,0,0,0,0,0,0,0,0,0,0,0,0,0,0,0,0,0,0,0,0,0,0,0,0,0,0,0,0,0,0,0,0,0,0,0,0,0,0,0,0,0,0,0,0,0,0,0,0,0,0,0,0,0,0,0,0,0,0,0,0,0,0,0,0,0,0,0,0,0,0,0,0,0,0,0,0,0,0,0,0,0,0,0,0,0,0,0,0,0,0,0,0,0,0,0,0,0,0,0,0,0,0,0,0,0,0,0,0,0,0,0,0,0,0,0,0,0,0,0,
1516,0,1516,0,1516,0,1516,0,1516,0,1516,0,1516,0,1516,0,1516,0,1516,0,1516,0,1516,0,1516,0,1516,0,1516,0,1516,0,1516,0,1516,0,1516,0,1516,0,1516,0,1516,0,1516,0,1516,0,1516,0,1516,0,1516,0,1516,0,1516,0,1516,0,1516,0,1516,0,1516,0,1516,0,1516,0,1516,0,1516,0,1516,0,1516,0,1516,0,1516,0,1516,0,1516,0,1516,0,1516,0,1516,0,1516,0,1516,0,1516,0,1516,0,1516,0,1516,0,1516,0,1516,0,1516,0,1516,0,1516,0,1516,0,1516,0,1516,0,1516,0,1516,0,1516,0,1516,0,1516,0,0,0,0,0,0,0,0,0,0,0,
0,0,0,0,0,0,0,0,0,0,0,0,0,0,0,0,0,0,0,0,0,0,0,0,0,0,0,0,0,0,0,0,0,0,0,0,0,0,0,0,0,0,0,0,0,0,0,0,0,0,0,0,0,0,0,0,0,0,0,0,0,0,0,0,0,0,0,0,0,0,0,0,0,0,0,0,0,0,0,0,0,0,0,0,0,0,0,0,0,0,0,0,0,0,0,0,0,0,0,0,0,0,0,0,0,0,0,0,0,0,0,0,0,0,0,0,0,0,0,0,0,0,0,0,0,0,0,0,0,0,0,0,0,0,0,0,0,0,0,0,
1516,0,1516,0,1516,0,1516,0,1516,0,1516,0,1516,0,1516,0,1516,0,1516,0,1516,0,1516,0,1516,0,1516,0,1516,0,1516,0,1516,0,1516,0,1516,0,1516,0,1516,0,1516,0,1516,0,1516,0,1516,0,1516,0,1516,0,1516,0,1516,0,1516,0,1516,0,1516,0,1557,0,1516,0,1516,0,1516,0,1516,0,1516,0,1516,0,1516,0,1516,0,1516,0,1516,0,1516,0,1516,0,1516,0,1516,0,1516,0,1516,0,1516,0,1516,0,1516,0,1516,0,1516,0,1516,0,1516,0,1516,0,1516,0,1516,0,1516,0,1516,0,1516,0,1516,0,1516,0,1516,0,0,0,0,0,0,0,0,0,0,0,
0,0,0,0,0,0,0,0,0,0,0,0,0,0,0,0,0,0,0,0,0,0,0,0,0,0,0,0,0,0,0,0,0,0,0,0,0,0,0,0,0,0,0,0,0,0,0,0,0,0,0,0,0,0,0,0,0,0,0,0,0,0,0,0,0,0,0,0,0,0,0,0,0,0,0,0,0,0,0,0,0,0,0,0,0,0,0,0,0,0,0,0,0,0,0,0,0,0,0,0,0,0,0,0,0,0,0,0,0,0,0,0,0,0,0,0,0,0,0,0,0,0,0,0,0,0,0,0,0,0,0,0,0,0,0,0,0,0,0,0,
1516,0,1516,0,1516,0,1516,0,1516,0,1516,0,1516,0,1516,0,1516,0,1516,0,1516,0,1516,0,1516,0,1516,0,1516,0,1516,0,1516,0,1516,0,1516,0,1516,0,1516,0,1516,0,1516,0,1516,0,1516,0,1516,0,1516,0,1516,0,1516,0,1516,0,1516,0,1516,0,1516,0,1516,0,1516,0,1516,0,1516,0,1516,0,1516,0,1516,0,1557,0,1516,0,1516,0,1516,0,1516,0,1516,0,1516,0,1516,0,1516,0,1516,0,1516,0,1516,0,1516,0,1516,0,1516,0,1516,0,1516,0,1516,0,1516,0,1516,0,1516,0,1516,0,1516,0,1516,0,1516,0,0,0,0,0,0,0,0,0,0,0,
0,0,0,0,0,0,0,0,0,0,0,0,0,0,0,0,0,0,0,0,0,0,0,0,0,0,0,0,0,0,0,0,0,0,0,0,0,0,0,0,0,0,0,0,0,0,0,0,0,0,0,0,0,0,0,0,0,0,0,0,0,0,0,0,0,0,0,0,0,0,0,0,0,0,0,0,0,0,0,0,0,0,0,0,0,0,0,0,0,0,0,0,0,0,0,0,0,0,0,0,0,0,0,0,0,0,0,0,0,0,0,0,0,0,0,0,0,0,0,0,0,0,0,0,0,0,0,0,0,0,0,0,0,0,0,0,0,0,0,0,
1516,0,1516,0,1516,0,1516,0,1516,0,1516,0,1516,0,1516,0,1516,0,1516,0,1516,0,1516,0,1516,0,1516,0,1516,0,1516,0,1516,0,1516,0,1516,0,1516,0,1516,0,1516,0,1516,0,1516,0,1516,0,1516,0,1516,0,1516,0,1516,0,1516,0,1516,0,1516,0,1516,0,1516,0,1516,0,1516,0,1516,0,1565,0,1516,0,1516,0,1516,0,1516,0,1516,0,1516,0,1516,0,1516,0,1516,0,1516,0,1516,0,1516,0,1516,0,1516,0,1516,0,1516,0,1516,0,1516,0,1516,0,1516,0,1516,0,1516,0,1516,0,1516,0,1516,0,1516,0,1516,0,0,0,0,0,0,0,0,0,0,0,
0,0,0,0,0,0,0,0,0,0,0,0,0,0,0,0,0,0,0,0,0,0,0,0,0,0,0,0,0,0,0,0,0,0,0,0,0,0,0,0,0,0,0,0,0,0,0,0,0,0,0,0,0,0,0,0,0,0,0,0,0,0,0,0,0,0,0,0,0,0,0,0,0,0,0,0,0,0,0,0,0,0,0,0,0,0,0,0,0,0,0,0,0,0,0,0,0,0,0,0,0,0,0,0,0,0,0,0,0,0,0,0,0,0,0,0,0,0,0,0,0,0,0,0,0,0,0,0,0,0,0,0,0,0,0,0,0,0,0,0,
1516,0,1516,0,1516,0,1516,0,1516,0,1516,0,1516,0,1516,0,1516,0,1516,0,1516,0,1516,0,1516,0,1516,0,1516,0,1516,0,1516,0,1516,0,1516,0,1516,0,1516,0,1516,0,1516,0,1516,0,1516,0,1516,0,1516,0,1516,0,1516,0,1516,0,1516,0,1516,0,1516,0,1516,0,1516,0,1516,0,1516,0,1516,0,1516,0,1516,0,1516,0,1516,0,1516,0,1516,0,1516,0,1516,0,1516,0,1516,0,1516,0,1516,0,1516,0,1516,0,1516,0,1516,0,1516,0,1516,0,1516,0,1516,0,1516,0,1516,0,1516,0,1516,0,1516,0,1516,0,1516,0,0,0,0,0,0,0,0,0,0,0,
0,0,0,0,0,0,0,0,0,0,0,0,0,0,0,0,0,0,0,0,0,0,0,0,0,0,0,0,0,0,0,0,0,0,0,0,0,0,0,0,0,0,0,0,0,0,0,0,0,0,0,0,0,0,0,0,0,0,0,0,0,0,0,0,0,0,0,0,0,0,0,0,0,0,0,0,0,0,0,0,0,0,0,0,0,0,0,0,0,0,0,0,0,0,0,0,0,0,0,0,0,0,0,0,0,0,0,0,0,0,0,0,0,0,0,0,0,0,0,0,0,0,0,0,0,0,0,0,0,0,0,0,0,0,0,0,0,0,0,0,
1516,0,1516,0,1516,0,1516,0,1516,0,1516,0,1516,0,1516,0,1516,0,1516,0,1516,0,1516,0,1516,0,1516,0,1516,0,1516,0,1516,0,1516,0,1516,0,1516,0,1516,0,1516,0,1516,0,1516,0,1516,0,1516,0,1516,0,1516,0,1516,0,1516,0,1516,0,1516,0,1516,0,1516,0,1516,0,1516,0,1516,0,1516,0,1516,0,1516,0,1516,0,1516,0,1516,0,1516,0,1516,0,1516,0,1516,0,1516,0,1516,0,1516,0,1516,0,1516,0,1516,0,1516,0,1516,0,1516,0,1516,0,1516,0,1516,0,1516,0,1516,0,1516,0,1516,0,1516,0,1516,0,0,0,0,0,0,0,0,0,0,0,
0,0,0,0,0,0,0,0,0,0,0,0,0,0,0,0,0,0,0,0,0,0,0,0,0,0,0,0,0,0,0,0,0,0,0,0,0,0,0,0,0,0,0,0,0,0,0,0,0,0,0,0,0,0,0,0,0,0,0,0,0,0,0,0,0,0,0,0,0,0,0,0,0,0,0,0,0,0,0,0,0,0,0,0,0,0,0,0,0,0,0,0,0,0,0,0,0,0,0,0,0,0,0,0,0,0,0,0,0,0,0,0,0,0,0,0,0,0,0,0,0,0,0,0,0,0,0,0,0,0,0,0,0,0,0,0,0,0,0,0,
1516,0,1516,0,1516,0,1516,0,1516,0,1516,0,1516,0,1516,0,1516,0,1516,0,1516,0,1516,0,1516,0,1516,0,1516,0,1516,0,1516,0,1516,0,1516,0,1516,0,1516,0,1516,0,1516,0,1516,0,1516,0,1516,0,1516,0,1516,0,1516,0,1516,0,1516,0,1516,0,1516,0,1516,0,1516,0,1516,0,1516,0,1516,0,1516,0,1516,0,1516,0,1516,0,1516,0,1516,0,1516,0,1516,0,1516,0,1516,0,1516,0,1516,0,1516,0,1516,0,1516,0,1516,0,1516,0,1516,0,1516,0,1516,0,1516,0,1516,0,1516,0,1516,0,1516,0,1516,0,1516,0,0,0,0,0,0,0,0,0,0,0,
0,0,0,0,0,0,0,0,0,0,0,0,0,0,0,0,0,0,0,0,0,0,0,0,0,0,0,0,0,0,0,0,0,0,0,0,0,0,0,0,0,0,0,0,0,0,0,0,0,0,0,0,0,0,0,0,0,0,0,0,0,0,0,0,0,0,0,0,0,0,0,0,0,0,0,0,0,0,0,0,0,0,0,0,0,0,0,0,0,0,0,0,0,0,0,0,0,0,0,0,0,0,0,0,0,0,0,0,0,0,0,0,0,0,0,0,0,0,0,0,0,0,0,0,0,0,0,0,0,0,0,0,0,0,0,0,0,0,0,0,
1516,0,1516,0,1516,0,1516,0,1516,0,1516,0,1516,0,1516,0,1516,0,1516,0,1516,0,1516,0,1516,0,1516,0,1516,0,1516,0,1516,0,1516,0,1516,0,1516,0,1516,0,1516,0,1516,0,1516,0,1516,0,1516,0,1516,0,1516,0,1516,0,1516,0,1516,0,1516,0,1516,0,1516,0,1516,0,1517,0,1517,0,1525,0,1516,0,1516,0,1516,0,1516,0,1516,0,1516,0,1516,0,1516,0,1516,0,1516,0,1516,0,1516,0,1516,0,1516,0,1516,0,1516,0,1516,0,1516,0,1516,0,1516,0,1516,0,1516,0,1516,0,1516,0,1516,0,1516,0,1516,0,0,0,0,0,0,0,0,0,0,0,
0,0,0,0,0,0,0,0,0,0,0,0,0,0,0,0,0,0,0,0,0,0,0,0,0,0,0,0,0,0,0,0,0,0,0,0,0,0,0,0,0,0,0,0,0,0,0,0,0,0,0,0,0,0,0,0,0,0,0,0,0,0,0,0,0,0,0,0,0,0,0,0,0,0,0,0,0,0,0,0,0,0,0,0,0,0,0,0,0,0,0,0,0,0,0,0,0,0,0,0,0,0,0,0,0,0,0,0,0,0,0,0,0,0,0,0,0,0,0,0,0,0,0,0,0,0,0,0,0,0,0,0,0,0,0,0,0,0,0,0,
1516,0,1516,0,1516,0,1516,0,1516,0,1516,0,1516,0,1516,0,1516,0,1516,0,1516,0,1516,0,1516,0,1516,0,1516,0,1516,0,1516,0,1516,0,1516,0,1516,0,1516,0,1516,0,1516,0,1516,0,1516,0,1516,0,1516,0,1516,0,1557,0,1557,0,1516,0,1516,0,1536,0,1517,0,1525,0,1516,0,1517,0,1516,0,1516,0,1517,0,1517,0,1517,0,1516,0,1516,0,1557,0,1557,0,1516,0,1516,0,1516,0,1516,0,1516,0,1516,0,1516,0,1516,0,1516,0,1516,0,1516,0,1516,0,1516,0,1516,0,1516,0,1516,0,1516,0,1516,0,1516,0,0,0,0,0,0,0,0,0,0,0,
0,0,0,0,0,0,0,0,0,0,0,0,0,0,0,0,0,0,0,0,0,0,0,0,0,0,0,0,0,0,0,0,0,0,0,0,0,0,0,0,0,0,0,0,0,0,0,0,0,0,0,0,0,0,0,0,0,0,0,0,0,0,0,0,0,0,0,0,0,0,0,0,0,0,0,0,0,0,0,0,0,0,0,0,0,0,0,0,0,0,0,0,0,0,0,0,0,0,0,0,0,0,0,0,0,0,0,0,0,0,0,0,0,0,0,0,0,0,0,0,0,0,0,0,0,0,0,0,0,0,0,0,0,0,0,0,0,0,0,0,
1516,0,1516,0,1516,0,1516,0,1516,0,1516,0,1516,0,1516,0,1516,0,1516,0,1516,0,1516,0,1516,0,1516,0,1516,0,1516,0,1516,0,1516,0,1516,0,1516,0,1516,0,1516,0,1516,0,1516,0,1516,0,1516,0,1516,0,1557,0,1557,0,1516,0,1516,0,1516,0,1516,0,1516,0,1516,0,1516,0,1517,0,1517,0,1517,0,1517,0,1516,0,1516,0,1516,0,1516,0,1516,0,1557,0,1557,0,1516,0,1516,0,1516,0,1516,0,1516,0,1516,0,1516,0,1516,0,1516,0,1516,0,1516,0,1516,0,1516,0,1516,0,1516,0,1516,0,1516,0,1516,0,0,0,0,0,0,0,0,0,0,0,
0,0,0,0,0,0,0,0,0,0,0,0,0,0,0,0,0,0,0,0,0,0,0,0,0,0,0,0,0,0,0,0,0,0,0,0,0,0,0,0,0,0,0,0,0,0,0,0,0,0,0,0,0,0,0,0,0,0,0,0,0,0,0,0,0,0,0,0,0,0,0,0,0,0,0,0,0,0,0,0,0,0,0,0,0,0,0,0,0,0,0,0,0,0,0,0,0,0,0,0,0,0,0,0,0,0,0,0,0,0,0,0,0,0,0,0,0,0,0,0,0,0,0,0,0,0,0,0,0,0,0,0,0,0,0,0,0,0,0,0,
1516,0,1516,0,1516,0,1516,0,1516,0,1516,0,1516,0,1516,0,1516,0,1516,0,1516,0,1516,0,1516,0,1516,0,1516,0,1516,0,1516,0,1516,0,1516,0,1516,0,1516,0,1516,0,1516,0,1516,0,1516,0,1516,0,1516,0,1516,0,1516,0,1516,0,1516,0,1516,0,1516,0,1516,0,1516,0,1516,0,1516,0,1516,0,1516,0,1516,0,1516,0,1516,0,1516,0,1516,0,1516,0,1516,0,1516,0,1516,0,1516,0,1516,0,1516,0,1516,0,1516,0,1516,0,1516,0,1516,0,1516,0,1516,0,1516,0,1516,0,1516,0,1516,0,1516,0,1516,0,1516,0,0,0,0,0,0,0,0,0,0,0,
0,0,0,0,0,0,0,0,0,0,0,0,0,0,0,0,0,0,0,0,0,0,0,0,0,0,0,0,0,0,0,0,0,0,0,0,0,0,0,0,0,0,0,0,0,0,0,0,0,0,0,0,0,0,0,0,0,0,0,0,0,0,0,0,0,0,0,0,0,0,0,0,0,0,0,0,0,0,0,0,0,0,0,0,0,0,0,0,0,0,0,0,0,0,0,0,0,0,0,0,0,0,0,0,0,0,0,0,0,0,0,0,0,0,0,0,0,0,0,0,0,0,0,0,0,0,0,0,0,0,0,0,0,0,0,0,0,0,0,0,
1516,0,1516,0,1516,0,1516,0,1516,0,1516,0,1516,0,1516,0,1516,0,1516,0,1516,0,1516,0,1516,0,1516,0,1516,0,1516,0,1516,0,1516,0,1516,0,1516,0,1516,0,1516,0,1516,0,1516,0,1516,0,1516,0,1516,0,1516,0,1516,0,1516,0,1516,0,1516,0,1516,0,1516,0,1516,0,1516,0,1516,0,1516,0,1516,0,1516,0,1516,0,1516,0,1516,0,1516,0,1516,0,1516,0,1516,0,1516,0,1516,0,1516,0,1516,0,1516,0,1516,0,1516,0,1516,0,1516,0,1516,0,1516,0,1516,0,1516,0,1516,0,1516,0,1516,0,1516,0,1516,0,0,0,0,0,0,0,0,0,0,0,
0,0,0,0,0,0,0,0,0,0,0,0,0,0,0,0,0,0,0,0,0,0,0,0,0,0,0,0,0,0,0,0,0,0,0,0,0,0,0,0,0,0,0,0,0,0,0,0,0,0,0,0,0,0,0,0,0,0,0,0,0,0,0,0,0,0,0,0,0,0,0,0,0,0,0,0,0,0,0,0,0,0,0,0,0,0,0,0,0,0,0,0,0,0,0,0,0,0,0,0,0,0,0,0,0,0,0,0,0,0,0,0,0,0,0,0,0,0,0,0,0,0,0,0,0,0,0,0,0,0,0,0,0,0,0,0,0,0,0,0,
1516,0,1516,0,1516,0,1516,0,1516,0,1516,0,1516,0,1516,0,1516,0,1516,0,1516,0,1516,0,1516,0,1516,0,1516,0,1516,0,1516,0,1516,0,1516,0,1516,0,1516,0,1516,0,1516,0,1516,0,1516,0,1516,0,1516,0,1516,0,1516,0,1516,0,1516,0,1516,0,1516,0,1516,0,1516,0,1516,0,1516,0,1516,0,1516,0,1516,0,1516,0,1516,0,1516,0,1516,0,1516,0,1516,0,1516,0,1516,0,1516,0,1516,0,1516,0,1516,0,1516,0,1516,0,1516,0,1516,0,1516,0,1516,0,1516,0,1516,0,1516,0,1516,0,1516,0,1516,0,1516,0,0,0,0,0,0,0,0,0,0,0,
0,0,0,0,0,0,0,0,0,0,0,0,0,0,0,0,0,0,0,0,0,0,0,0,0,0,0,0,0,0,0,0,0,0,0,0,0,0,0,0,0,0,0,0,0,0,0,0,0,0,0,0,0,0,0,0,0,0,0,0,0,0,0,0,0,0,0,0,0,0,0,0,0,0,0,0,0,0,0,0,0,0,0,0,0,0,0,0,0,0,0,0,0,0,0,0,0,0,0,0,0,0,0,0,0,0,0,0,0,0,0,0,0,0,0,0,0,0,0,0,0,0,0,0,0,0,0,0,0,0,0,0,0,0,0,0,0,0,0,0,
1516,0,1516,0,1516,0,1516,0,1516,0,1516,0,1516,0,1516,0,1516,0,1516,0,1516,0,1516,0,1516,0,1516,0,1516,0,1516,0,1516,0,1516,0,1516,0,1516,0,1516,0,1516,0,1516,0,1516,0,1516,0,1516,0,1516,0,1536,0,1516,0,1516,0,1565,0,1516,0,1516,0,1516,0,1516,0,1516,0,1516,0,1516,0,1516,0,1516,0,1516,0,1516,0,1516,0,1565,0,1516,0,1516,0,1517,0,1516,0,1516,0,1516,0,1516,0,1516,0,1516,0,1516,0,1516,0,1516,0,1516,0,1516,0,1516,0,1516,0,1516,0,1516,0,1516,0,1516,0,1516,0,0,0,0,0,0,0,0,0,0,0,
0,0,0,0,0,0,0,0,0,0,0,0,0,0,0,0,0,0,0,0,0,0,0,0,0,0,0,0,0,0,0,0,0,0,0,0,0,0,0,0,0,0,0,0,0,0,0,0,0,0,0,0,0,0,0,0,0,0,0,0,0,0,0,0,0,0,0,0,0,0,0,0,0,0,0,0,0,0,0,0,0,0,0,0,0,0,0,0,0,0,0,0,0,0,0,0,0,0,0,0,0,0,0,0,0,0,0,0,0,0,0,0,0,0,0,0,0,0,0,0,0,0,0,0,0,0,0,0,0,0,0,0,0,0,0,0,0,0,0,0,
1516,0,1516,0,1516,0,1516,0,1516,0,1516,0,1516,0,1516,0,1516,0,1516,0,1516,0,1516,0,1516,0,1516,0,1516,0,1516,0,1516,0,1516,0,1516,0,1516,0,1516,0,1516,0,1516,0,1516,0,1516,0,1516,0,1516,0,1517,0,1516,0,1516,0,1516,0,1516,0,1516,0,1516,0,1516,0,1516,0,1516,0,1516,0,1516,0,1516,0,1516,0,1516,0,1516,0,1516,0,1516,0,1517,0,1517,0,1516,0,1516,0,1516,0,1516,0,1516,0,1516,0,1516,0,1516,0,1516,0,1516,0,1516,0,1516,0,1516,0,1516,0,1516,0,1516,0,1516,0,1516,0,0,0,0,0,0,0,0,0,0,0,
0,0,0,0,0,0,0,0,0,0,0,0,0,0,0,0,0,0,0,0,0,0,0,0,0,0,0,0,0,0,0,0,0,0,0,0,0,0,0,0,0,0,0,0,0,0,0,0,0,0,0,0,0,0,0,0,0,0,0,0,0,0,0,0,0,0,0,0,0,0,0,0,0,0,0,0,0,0,0,0,0,0,0,0,0,0,0,0,0,0,0,0,0,0,0,0,0,0,0,0,0,0,0,0,0,0,0,0,0,0,0,0,0,0,0,0,0,0,0,0,0,0,0,0,0,0,0,0,0,0,0,0,0,0,0,0,0,0,0,0,
1516,0,1516,0,1516,0,1516,0,1516,0,1516,0,1516,0,1516,0,1516,0,1516,0,1516,0,1516,0,1516,0,1516,0,1516,0,1516,0,1516,0,1516,0,1516,0,1516,0,1516,0,1516,0,1516,0,1516,0,1516,0,1516,0,1516,0,1516,0,1517,0,1516,0,1516,0,1516,0,1516,0,1517,0,1516,0,1516,0,1516,0,1516,0,1516,0,1516,0,1517,0,1516,0,1516,0,1516,0,1516,0,1516,0,1516,0,1516,0,1516,0,1516,0,1516,0,1516,0,1516,0,1516,0,1516,0,1516,0,1516,0,1516,0,1516,0,1516,0,1516,0,1516,0,1516,0,1516,0,1516,0,0,0,0,0,0,0,0,0,0,0,
0,0,0,0,0,0,0,0,0,0,0,0,0,0,0,0,0,0,0,0,0,0,0,0,0,0,0,0,0,0,0,0,0,0,0,0,0,0,0,0,0,0,0,0,0,0,0,0,0,0,0,0,0,0,0,0,0,0,0,0,0,0,0,0,0,0,0,0,0,0,0,0,0,0,0,0,0,0,0,0,0,0,0,0,0,0,0,0,0,0,0,0,0,0,0,0,0,0,0,0,0,0,0,0,0,0,0,0,0,0,0,0,0,0,0,0,0,0,0,0,0,0,0,0,0,0,0,0,0,0,0,0,0,0,0,0,0,0,0,0,
1516,0,1516,0,1516,0,1516,0,1516,0,1516,0,1516,0,1516,0,1516,0,1516,0,1516,0,1516,0,1516,0,1516,0,1516,0,1516,0,1516,0,1516,0,1516,0,1516,0,1516,0,1516,0,1516,0,1516,0,1516,0,1516,0,1516,0,1517,0,1516,0,1516,0,1516,0,1516,0,1516,0,1517,0,1517,0,1517,0,1516,0,1516,0,1516,0,1516,0,1517,0,1536,0,1516,0,1516,0,1516,0,1516,0,1516,0,1516,0,1516,0,1516,0,1516,0,1516,0,1516,0,1516,0,1516,0,1516,0,1516,0,1516,0,1516,0,1516,0,1516,0,1516,0,1516,0,1516,0,1516,0,0,0,0,0,0,0,0,0,0,0,
0,0,0,0,0,0,0,0,0,0,0,0,0,0,0,0,0,0,0,0,0,0,0,0,0,0,0,0,0,0,0,0,0,0,0,0,0,0,0,0,0,0,0,0,0,0,0,0,0,0,0,0,0,0,0,0,0,0,0,0,0,0,0,0,0,0,0,0,0,0,0,0,0,0,0,0,0,0,0,0,0,0,0,0,0,0,0,0,0,0,0,0,0,0,0,0,0,0,0,0,0,0,0,0,0,0,0,0,0,0,0,0,0,0,0,0,0,0,0,0,0,0,0,0,0,0,0,0,0,0,0,0,0,0,0,0,0,0,0,0,
1516,0,1516,0,1516,0,1516,0,1516,0,1516,0,1516,0,1516,0,1516,0,1516,0,1516,0,1516,0,1516,0,1516,0,1516,0,1516,0,1516,0,1516,0,1516,0,1516,0,1516,0,1516,0,1516,0,1516,0,1516,0,1516,0,1516,0,1516,0,1516,0,1516,0,1516,0,1516,0,1516,0,1516,0,1516,0,1517,0,1516,0,1516,0,1517,0,1517,0,1516,0,1516,0,1516,0,1516,0,1516,0,1516,0,1516,0,1516,0,1516,0,1516,0,1516,0,1516,0,1516,0,1516,0,1516,0,1516,0,1516,0,1516,0,1516,0,1516,0,1516,0,1516,0,1516,0,1516,0,1516,0,0,0,0,0,0,0,0,0,0,0,
0,0,0,0,0,0,0,0,0,0,0,0,0,0,0,0,0,0,0,0,0,0,0,0,0,0,0,0,0,0,0,0,0,0,0,0,0,0,0,0,0,0,0,0,0,0,0,0,0,0,0,0,0,0,0,0,0,0,0,0,0,0,0,0,0,0,0,0,0,0,0,0,0,0,0,0,0,0,0,0,0,0,0,0,0,0,0,0,0,0,0,0,0,0,0,0,0,0,0,0,0,0,0,0,0,0,0,0,0,0,0,0,0,0,0,0,0,0,0,0,0,0,0,0,0,0,0,0,0,0,0,0,0,0,0,0,0,0,0,0,
1516,0,1516,0,1516,0,1516,0,1516,0,1516,0,1516,0,1516,0,1516,0,1516,0,1516,0,1516,0,1516,0,1516,0,1516,0,1516,0,1516,0,1516,0,1516,0,1516,0,1516,0,1516,0,1516,0,1516,0,1516,0,1516,0,1516,0,1516,0,1516,0,1516,0,1516,0,1516,0,1516,0,1516,0,1516,0,1516,0,1516,0,1516,0,1516,0,1516,0,1516,0,1516,0,1516,0,1516,0,1516,0,1516,0,1516,0,1516,0,1516,0,1516,0,1516,0,1516,0,1516,0,1516,0,1516,0,1516,0,1516,0,1516,0,1516,0,1516,0,1516,0,1516,0,1516,0,1516,0,1516,0,0,0,0,0,0,0,0,0,0,0,
0,0,0,0,0,0,0,0,0,0,0,0,0,0,0,0,0,0,0,0,0,0,0,0,0,0,0,0,0,0,0,0,0,0,0,0,0,0,0,0,0,0,0,0,0,0,0,0,0,0,0,0,0,0,0,0,0,0,0,0,0,0,0,0,0,0,0,0,0,0,0,0,0,0,0,0,0,0,0,0,0,0,0,0,0,0,0,0,0,0,0,0,0,0,0,0,0,0,0,0,0,0,0,0,0,0,0,0,0,0,0,0,0,0,0,0,0,0,0,0,0,0,0,0,0,0,0,0,0,0,0,0,0,0,0,0,0,0,0,0,
1516,0,1516,0,1516,0,1516,0,1516,0,1516,0,1516,0,1516,0,1516,0,1516,0,1516,0,1516,0,1516,0,1516,0,1517,0,1516,0,1516,0,1516,0,1516,0,1516,0,1557,0,1516,0,1516,0,1516,0,1516,0,1516,0,1516,0,1516,0,1516,0,1516,0,1516,0,1516,0,1516,0,1516,0,1516,0,1516,0,1516,0,1516,0,1516,0,1516,0,1516,0,1516,0,1516,0,1516,0,1516,0,1516,0,1516,0,1516,0,1516,0,1516,0,1516,0,1516,0,1516,0,1557,0,1516,0,1516,0,1516,0,1516,0,1536,0,1517,0,1516,0,1516,0,1516,0,1516,0,1516,0,0,0,0,0,0,0,0,0,0,0,
0,0,0,0,0,0,0,0,0,0,0,0,0,0,0,0,0,0,0,0,0,0,0,0,0,0,0,0,0,0,0,0,0,0,0,0,0,0,0,0,0,0,0,0,0,0,0,0,0,0,0,0,0,0,0,0,0,0,0,0,0,0,0,0,0,0,0,0,0,0,0,0,0,0,0,0,0,0,0,0,0,0,0,0,0,0,0,0,0,0,0,0,0,0,0,0,0,0,0,0,0,0,0,0,0,0,0,0,0,0,0,0,0,0,0,0,0,0,0,0,0,0,0,0,0,0,0,0,0,0,0,0,0,0,0,0,0,0,0,0,
1516,0,1516,0,1516,0,1516,0,1516,0,1516,0,1516,0,1516,0,1516,0,1516,0,1516,0,1516,0,1516,0,1517,0,1613,0,1516,0,1565,0,1516,0,1516,0,1516,0,1613,0,1557,0,1516,0,1516,0,1516,0,1516,0,1516,0,1516,0,1516,0,1516,0,1516,0,1516,0,1516,0,1516,0,1516,0,1516,0,1516,0,1516,0,1516,0,1516,0,1516,0,1516,0,1516,0,1516,0,1516,0,1516,0,1516,0,1516,0,1516,0,1516,0,1516,0,1516,0,1557,0,1517,0,1516,0,1565,0,1516,0,1516,0,1516,0,1517,0,1517,0,1516,0,1516,0,1516,0,1516,0,0,0,0,0,0,0,0,0,0,0,
0,0,0,0,0,0,0,0,0,0,0,0,0,0,0,0,0,0,0,0,0,0,0,0,0,0,0,0,0,0,0,0,0,0,0,0,0,0,0,0,0,0,0,0,0,0,0,0,0,0,0,0,0,0,0,0,0,0,0,0,0,0,0,0,0,0,0,0,0,0,0,0,0,0,0,0,0,0,0,0,0,0,0,0,0,0,0,0,0,0,0,0,0,0,0,0,0,0,0,0,0,0,0,0,0,0,0,0,0,0,0,0,0,0,0,0,0,0,0,0,0,0,0,0,0,0,0,0,0,0,0,0,0,0,0,0,0,0,0,0,
1516,0,1516,0,1516,0,1516,0,1516,0,1516,0,1516,0,1516,0,1516,0,1516,0,1516,0,1516,0,1516,0,1516,0,1516,0,1516,0,1516,0,1516,0,1516,0,1516,0,1516,0,1516,0,1516,0,1516,0,1516,0,1516,0,1516,0,1516,0,1516,0,1516,0,1516,0,1516,0,1516,0,1516,0,1516,0,1516,0,1516,0,1516,0,1516,0,1516,0,1516,0,1516,0,1516,0,1516,0,1516,0,1516,0,1516,0,1516,0,1516,0,1516,0,1516,0,1516,0,1516,0,1516,0,1516,0,1516,0,1516,0,1516,0,1516,0,1516,0,1516,0,1516,0,1516,0,1516,0,1516,0,0,0,0,0,0,0,0,0,0,0,
0,0,0,0,0,0,0,0,0,0,0,0,0,0,0,0,0,0,0,0,0,0,0,0,0,0,0,0,0,0,0,0,0,0,0,0,0,0,0,0,0,0,0,0,0,0,0,0,0,0,0,0,0,0,0,0,0,0,0,0,0,0,0,0,0,0,0,0,0,0,0,0,0,0,0,0,0,0,0,0,0,0,0,0,0,0,0,0,0,0,0,0,0,0,0,0,0,0,0,0,0,0,0,0,0,0,0,0,0,0,0,0,0,0,0,0,0,0,0,0,0,0,0,0,0,0,0,0,0,0,0,0,0,0,0,0,0,0,0,0,
1516,0,1516,0,1516,0,1516,0,1516,0,1516,0,1516,0,1516,0,1516,0,1516,0,1516,0,1516,0,1516,0,1516,0,1516,0,1516,0,1525,0,1516,0,1517,0,1516,0,1516,0,1516,0,1516,0,1516,0,1516,0,1516,0,1516,0,1516,0,1516,0,1516,0,1516,0,1516,0,1516,0,1516,0,1516,0,1516,0,1516,0,1516,0,1516,0,1516,0,1516,0,1516,0,1516,0,1516,0,1516,0,1516,0,1516,0,1516,0,1516,0,1516,0,1516,0,1516,0,1516,0,1516,0,1516,0,1516,0,1516,0,1517,0,1516,0,1516,0,1516,0,1516,0,1516,0,1516,0,1516,0,0,0,0,0,0,0,0,0,0,0,
0,0,0,0,0,0,0,0,0,0,0,0,0,0,0,0,0,0,0,0,0,0,0,0,0,0,0,0,0,0,0,0,0,0,0,0,0,0,0,0,0,0,0,0,0,0,0,0,0,0,0,0,0,0,0,0,0,0,0,0,0,0,0,0,0,0,0,0,0,0,0,0,0,0,0,0,0,0,0,0,0,0,0,0,0,0,0,0,0,0,0,0,0,0,0,0,0,0,0,0,0,0,0,0,0,0,0,0,0,0,0,0,0,0,0,0,0,0,0,0,0,0,0,0,0,0,0,0,0,0,0,0,0,0,0,0,0,0,0,0,
1516,0,1516,0,1516,0,1516,0,1516,0,1516,0,1516,0,1516,0,1516,0,1516,0,1516,0,1516,0,1516,0,1516,0,1516,0,1516,0,1516,0,1516,0,1516,0,1516,0,1516,0,1516,0,1516,0,1516,0,1516,0,1516,0,1516,0,1516,0,1516,0,1516,0,1516,0,1516,0,1516,0,1516,0,1516,0,1516,0,1516,0,1516,0,1516,0,1516,0,1516,0,1516,0,1516,0,1517,0,1516,0,1516,0,1516,0,1516,0,1516,0,1516,0,1516,0,1516,0,1516,0,1516,0,1516,0,1517,0,1525,0,1516,0,1516,0,1516,0,1516,0,1516,0,1516,0,1516,0,1516,0,0,0,0,0,0,0,0,0,0,0,
0,0,0,0,0,0,0,0,0,0,0,0,0,0,0,0,0,0,0,0,0,0,0,0,0,0,0,0,0,0,0,0,0,0,0,0,0,0,0,0,0,0,0,0,0,0,0,0,0,0,0,0,0,0,0,0,0,0,0,0,0,0,0,0,0,0,0,0,0,0,0,0,0,0,0,0,0,0,0,0,0,0,0,0,0,0,0,0,0,0,0,0,0,0,0,0,0,0,0,0,0,0,0,0,0,0,0,0,0,0,0,0,0,0,0,0,0,0,0,0,0,0,0,0,0,0,0,0,0,0,0,0,0,0,0,0,0,0,0,0,
1516,0,1516,0,1516,0,1516,0,1516,0,1516,0,1516,0,1516,0,1516,0,1516,0,1516,0,1516,0,1516,0,1516,0,1516,0,1516,0,1517,0,1516,0,1516,0,1516,0,1516,0,1516,0,1516,0,1516,0,1516,0,1516,0,1516,0,1516,0,1516,0,1516,0,1517,0,1517,0,1516,0,1516,0,1516,0,1516,0,1516,0,1516,0,1516,0,1516,0,1516,0,1516,0,1516,0,1517,0,1517,0,1516,0,1516,0,1516,0,1516,0,1516,0,1516,0,1516,0,1516,0,1516,0,1516,0,1517,0,1516,0,1516,0,1516,0,1516,0,1516,0,1516,0,1516,0,1516,0,1516,0,0,0,0,0,0,0,0,0,0,0,
0,0,0,0,0,0,0,0,0,0,0,0,0,0,0,0,0,0,0,0,0,0,0,0,0,0,0,0,0,0,0,0,0,0,0,0,0,0,0,0,0,0,0,0,0,0,0,0,0,0,0,0,0,0,0,0,0,0,0,0,0,0,0,0,0,0,0,0,0,0,0,0,0,0,0,0,0,0,0,0,0,0,0,0,0,0,0,0,0,0,0,0,0,0,0,0,0,0,0,0,0,0,0,0,0,0,0,0,0,0,0,0,0,0,0,0,0,0,0,0,0,0,0,0,0,0,0,0,0,0,0,0,0,0,0,0,0,0,0,0,
1516,0,1516,0,1516,0,1516,0,1516,0,1516,0,1516,0,1516,0,1516,0,1516,0,1516,0,1516,0,1516,0,1516,0,1516,0,1516,0,1516,0,1516,0,1516,0,1516,0,1516,0,1516,0,1517,0,1525,0,1516,0,1517,0,1517,0,1516,0,1516,0,1516,0,1517,0,1516,0,1516,0,1516,0,1516,0,1516,0,1516,0,1516,0,1516,0,1516,0,1516,0,1516,0,1516,0,1516,0,1516,0,1516,0,1516,0,1516,0,1516,0,1536,0,1517,0,1517,0,1516,0,1516,0,1516,0,1516,0,1516,0,1516,0,1565,0,1516,0,1516,0,1516,0,1516,0,1516,0,1516,0,0,0,0,0,0,0,0,0,0,0,
0,0,0,0,0,0,0,0,0,0,0,0,0,0,0,0,0,0,0,0,0,0,0,0,0,0,0,0,0,0,0,0,0,0,0,0,0,0,0,0,0,0,0,0,0,0,0,0,0,0,0,0,0,0,0,0,0,0,0,0,0,0,0,0,0,0,0,0,0,0,0,0,0,0,0,0,0,0,0,0,0,0,0,0,0,0,0,0,0,0,0,0,0,0,0,0,0,0,0,0,0,0,0,0,0,0,0,0,0,0,0,0,0,0,0,0,0,0,0,0,0,0,0,0,0,0,0,0,0,0,0,0,0,0,0,0,0,0,0,0,
1516,0,1516,0,1516,0,1516,0,1516,0,1516,0,1516,0,1516,0,1516,0,1516,0,1516,0,1516,0,1516,0,1517,0,1516,0,1516,0,1516,0,1516,0,1565,0,1516,0,1516,0,1516,0,1517,0,1516,0,1516,0,1517,0,1516,0,1516,0,1516,0,1516,0,1516,0,1516,0,1516,0,1516,0,1516,0,1516,0,1516,0,1516,0,1516,0,1516,0,1516,0,1516,0,1516,0,1516,0,1516,0,1516,0,1516,0,1517,0,1517,0,1525,0,1516,0,1516,0,1516,0,1516,0,1516,0,1516,0,1516,0,1516,0,1516,0,1516,0,1557,0,1516,0,1516,0,1516,0,1516,0,0,0,0,0,0,0,0,0,0,0,
0,0,0,0,0,0,0,0,0,0,0,0,0,0,0,0,0,0,0,0,0,0,0,0,0,0,0,0,0,0,0,0,0,0,0,0,0,0,0,0,0,0,0,0,0,0,0,0,0,0,0,0,0,0,0,0,0,0,0,0,0,0,0,0,0,0,0,0,0,0,0,0,0,0,0,0,0,0,0,0,0,0,0,0,0,0,0,0,0,0,0,0,0,0,0,0,0,0,0,0,0,0,0,0,0,0,0,0,0,0,0,0,0,0,0,0,0,0,0,0,0,0,0,0,0,0,0,0,0,0,0,0,0,0,0,0,0,0,0,0,
1516,0,1516,0,1516,0,1516,0,1516,0,1516,0,1516,0,1516,0,1516,0,1516,0,1516,0,1516,0,1516,0,1536,0,1517,0,1516,0,1516,0,1516,0,1516,0,1516,0,1516,0,1516,0,1516,0,1517,0,1517,0,1536,0,1517,0,1516,0,1516,0,1516,0,1565,0,1516,0,1516,0,1517,0,1516,0,1516,0,1516,0,1516,0,1516,0,1516,0,1517,0,1516,0,1516,0,1516,0,1565,0,1516,0,1516,0,1516,0,1517,0,1516,0,1516,0,1536,0,1516,0,1516,0,1516,0,1516,0,1516,0,1516,0,1516,0,1557,0,1557,0,1516,0,1516,0,1516,0,1516,0,0,0,0,0,0,0,0,0,0,0,
0,0,0,0,0,0,0,0,0,0,0,0,0,0,0,0,0,0,0,0,0,0,0,0,0,0,0,0,0,0,0,0,0,0,0,0,0,0,0,0,0,0,0,0,0,0,0,0,0,0,0,0,0,0,0,0,0,0,0,0,0,0,0,0,0,0,0,0,0,0,0,0,0,0,0,0,0,0,0,0,0,0,0,0,0,0,0,0,0,0,0,0,0,0,0,0,0,0,0,0,0,0,0,0,0,0,0,0,0,0,0,0,0,0,0,0,0,0,0,0,0,0,0,0,0,0,0,0,0,0,0,0,0,0,0,0,0,0,0,0,
1516,0,1516,0,1516,0,1516,0,1516,0,1516,0,1516,0,1516,0,1516,0,1516,0,1516,0,1516,0,1516,0,1516,0,1516,0,1516,0,1516,0,1516,0,1516,0,1516,0,1516,0,1516,0,1517,0,1516,0,1517,0,1517,0,1516,0,1516,0,1516,0,1516,0,1516,0,1516,0,1517,0,1517,0,1516,0,1516,0,1516,0,1516,0,1516,0,1516,0,1517,0,1517,0,1516,0,1516,0,1516,0,1516,0,1516,0,1517,0,1517,0,1516,0,1517,0,1517,0,1516,0,1516,0,1516,0,1516,0,1516,0,1516,0,1516,0,1516,0,1516,0,1516,0,1516,0,1516,0,1516,0,0,0,0,0,0,0,0,0,0,0,
0,0,0,0,0,0,0,0,0,0,0,0,0,0,0,0,0,0,0,0,0,0,0,0,0,0,0,0,0,0,0,0,0,0,0,0,0,0,0,0,0,0,0,0,0,0,0,0,0,0,0,0,0,0,0,0,0,0,0,0,0,0,0,0,0,0,0,0,0,0,0,0,0,0,0,0,0,0,0,0,0,0,0,0,0,0,0,0,0,0,0,0,0,0,0,0,0,0,0,0,0,0,0,0,0,0,0,0,0,0,0,0,0,0,0,0,0,0,0,0,0,0,0,0,0,0,0,0,0,0,0,0,0,0,0,0,0,0,0,0,
1516,0,1516,0,1516,0,1516,0,1516,0,1516,0,1516,0,1516,0,1516,0,1516,0,1516,0,1516,0,1516,0,1516,0,1516,0,1516,0,1516,0,1516,0,1516,0,1516,0,1516,0,1516,0,1516,0,1516,0,1516,0,1516,0,1516,0,1516,0,1516,0,1516,0,1516,0,1516,0,1516,0,1516,0,1516,0,1516,0,1516,0,1516,0,1516,0,1516,0,1516,0,1516,0,1516,0,1516,0,1516,0,1516,0,1516,0,1516,0,1516,0,1516,0,1516,0,1516,0,1516,0,1516,0,1516,0,1516,0,1516,0,1516,0,1516,0,1516,0,1516,0,1516,0,1516,0,1516,0,1516,0,0,0,0,0,0,0,0,0,0,0,
0,0,0,0,0,0,0,0,0,0,0,0,0,0,0,0,0,0,0,0,0,0,0,0,0,0,0,0,0,0,0,0,0,0,0,0,0,0,0,0,0,0,0,0,0,0,0,0,0,0,0,0,0,0,0,0,0,0,0,0,0,0,0,0,0,0,0,0,0,0,0,0,0,0,0,0,0,0,0,0,0,0,0,0,0,0,0,0,0,0,0,0,0,0,0,0,0,0,0,0,0,0,0,0,0,0,0,0,0,0,0,0,0,0,0,0,0,0,0,0,0,0,0,0,0,0,0,0,0,0,0,0,0,0,0,0,0,0,0,0,
1516,0,1516,0,1516,0,1516,0,1516,0,1516,0,1516,0,1516,0,1516,0,1516,0,1516,0,1516,0,1516,0,1516,0,1516,0,1516,0,1516,0,1516,0,1516,0,1516,0,1516,0,1516,0,1516,0,1516,0,1516,0,1516,0,1516,0,1516,0,1516,0,1516,0,1516,0,1516,0,1516,0,1516,0,1516,0,1516,0,1516,0,1516,0,1516,0,1516,0,1516,0,1516,0,1516,0,1516,0,1516,0,1516,0,1516,0,1516,0,1516,0,1516,0,1516,0,1516,0,1516,0,1516,0,1516,0,1516,0,1516,0,1516,0,1516,0,1516,0,1516,0,1516,0,1516,0,1516,0,1516,0,0,0,0,0,0,0,0,0,0,0,
0,0,0,0,0,0,0,0,0,0,0,0,0,0,0,0,0,0,0,0,0,0,0,0,0,0,0,0,0,0,0,0,0,0,0,0,0,0,0,0,0,0,0,0,0,0,0,0,0,0,0,0,0,0,0,0,0,0,0,0,0,0,0,0,0,0,0,0,0,0,0,0,0,0,0,0,0,0,0,0,0,0,0,0,0,0,0,0,0,0,0,0,0,0,0,0,0,0,0,0,0,0,0,0,0,0,0,0,0,0,0,0,0,0,0,0,0,0,0,0,0,0,0,0,0,0,0,0,0,0,0,0,0,0,0,0,0,0,0,0,
1516,0,1516,0,1516,0,1516,0,1516,0,1516,0,1516,0,1516,0,1516,0,1516,0,1516,0,1516,0,1516,0,1516,0,1516,0,1516,0,1516,0,1516,0,1516,0,1516,0,1516,0,1516,0,1516,0,1516,0,1516,0,1516,0,1516,0,1516,0,1516,0,1516,0,1516,0,1516,0,1516,0,1516,0,1516,0,1516,0,1516,0,1516,0,1516,0,1516,0,1516,0,1516,0,1516,0,1516,0,1516,0,1516,0,1516,0,1516,0,1516,0,1516,0,1516,0,1516,0,1516,0,1516,0,1516,0,1516,0,1516,0,1516,0,1516,0,1516,0,1516,0,1516,0,1516,0,1516,0,1516,0,0,0,0,0,0,0,0,0,0,0,
0,0,0,0,0,0,0,0,0,0,0,0,0,0,0,0,0,0,0,0,0,0,0,0,0,0,0,0,0,0,0,0,0,0,0,0,0,0,0,0,0,0,0,0,0,0,0,0,0,0,0,0,0,0,0,0,0,0,0,0,0,0,0,0,0,0,0,0,0,0,0,0,0,0,0,0,0,0,0,0,0,0,0,0,0,0,0,0,0,0,0,0,0,0,0,0,0,0,0,0,0,0,0,0,0,0,0,0,0,0,0,0,0,0,0,0,0,0,0,0,0,0,0,0,0,0,0,0,0,0,0,0,0,0,0,0,0,0,0,0,
1516,0,1516,0,1516,0,1516,0,1516,0,1516,0,1516,0,1516,0,1516,0,1516,0,1516,0,1516,0,1516,0,1516,0,1516,0,1516,0,1516,0,1516,0,1516,0,1516,0,1516,0,1516,0,1516,0,1516,0,1516,0,1516,0,1516,0,1516,0,1516,0,1516,0,1516,0,1516,0,1516,0,1516,0,1516,0,1516,0,1516,0,1516,0,1516,0,1516,0,1516,0,1516,0,1516,0,1516,0,1516,0,1516,0,1516,0,1516,0,1516,0,1516,0,1516,0,1516,0,1516,0,1516,0,1516,0,1516,0,1516,0,1516,0,1516,0,1516,0,1516,0,1516,0,1516,0,1516,0,1516,0,0,0,0,0,0,0,0,0,0,0,
0,0,0,0,0,0,0,0,0,0,0,0,0,0,0,0,0,0,0,0,0,0,0,0,0,0,0,0,0,0,0,0,0,0,0,0,0,0,0,0,0,0,0,0,0,0,0,0,0,0,0,0,0,0,0,0,0,0,0,0,0,0,0,0,0,0,0,0,0,0,0,0,0,0,0,0,0,0,0,0,0,0,0,0,0,0,0,0,0,0,0,0,0,0,0,0,0,0,0,0,0,0,0,0,0,0,0,0,0,0,0,0,0,0,0,0,0,0,0,0,0,0,0,0,0,0,0,0,0,0,0,0,0,0,0,0,0,0,0,0,
1516,0,1516,0,1516,0,1516,0,1516,0,1516,0,1516,0,1516,0,1516,0,1516,0,1516,0,1516,0,1516,0,1516,0,1516,0,1516,0,1516,0,1516,0,1516,0,1516,0,1516,0,1516,0,1516,0,1516,0,1516,0,1516,0,1516,0,1516,0,1516,0,1516,0,1516,0,1516,0,1516,0,1516,0,1516,0,1516,0,1516,0,1516,0,1516,0,1516,0,1516,0,1516,0,1516,0,1516,0,1516,0,1516,0,1516,0,1516,0,1516,0,1516,0,1516,0,1516,0,1516,0,1516,0,1516,0,1516,0,1516,0,1516,0,1516,0,1516,0,1516,0,1516,0,1516,0,1516,0,1516,0,0,0,0,0,0,0,0,0,0,0,
0,0,0,0,0,0,0,0,0,0,0,0,0,0,0,0,0,0,0,0,0,0,0,0,0,0,0,0,0,0,0,0,0,0,0,0,0,0,0,0,0,0,0,0,0,0,0,0,0,0,0,0,0,0,0,0,0,0,0,0,0,0,0,0,0,0,0,0,0,0,0,0,0,0,0,0,0,0,0,0,0,0,0,0,0,0,0,0,0,0,0,0,0,0,0,0,0,0,0,0,0,0,0,0,0,0,0,0,0,0,0,0,0,0,0,0,0,0,0,0,0,0,0,0,0,0,0,0,0,0,0,0,0,0,0,0,0,0,0,0,
1516,0,1516,0,1516,0,1516,0,1516,0,1516,0,1516,0,1516,0,1516,0,1516,0,1516,0,1516,0,1516,0,1516,0,1516,0,1516,0,1516,0,1516,0,1516,0,1516,0,1516,0,1516,0,1516,0,1516,0,1516,0,1516,0,1516,0,1516,0,1516,0,1516,0,1516,0,1516,0,1516,0,1516,0,1516,0,1516,0,1516,0,1516,0,1516,0,1516,0,1516,0,1516,0,1516,0,1516,0,1516,0,1516,0,1516,0,1516,0,1516,0,1516,0,1516,0,1516,0,1516,0,1516,0,1516,0,1516,0,1516,0,1516,0,1516,0,1516,0,1516,0,1516,0,1516,0,1516,0,1516,0,0,0,0,0,0,0,0,0,0,0,
0,0,0,0,0,0,0,0,0,0,0,0,0,0,0,0,0,0,0,0,0,0,0,0,0,0,0,0,0,0,0,0,0,0,0,0,0,0,0,0,0,0,0,0,0,0,0,0,0,0,0,0,0,0,0,0,0,0,0,0,0,0,0,0,0,0,0,0,0,0,0,0,0,0,0,0,0,0,0,0,0,0,0,0,0,0,0,0,0,0,0,0,0,0,0,0,0,0,0,0,0,0,0,0,0,0,0,0,0,0,0,0,0,0,0,0,0,0,0,0,0,0,0,0,0,0,0,0,0,0,0,0,0,0,0,0,0,0,0,0,
0,0,1516,0,1516,0,1516,0,1516,0,1516,0,1516,0,1516,0,1516,0,1516,0,1516,0,1516,0,1516,0,1516,0,1516,0,1516,0,1516,0,1516,0,1516,0,1516,0,1516,0,1516,0,1516,0,1516,0,1516,0,1516,0,1516,0,1516,0,1516,0,1516,0,1516,0,1516,0,1516,0,1516,0,1516,0,1516,0,1516,0,1516,0,1516,0,1516,0,1516,0,1516,0,1516,0,1516,0,1516,0,1516,0,1516,0,1516,0,1516,0,1516,0,1516,0,1516,0,1516,0,1516,0,1516,0,1516,0,1516,0,1516,0,1516,0,1516,0,1516,0,1516,0,1516,0,1516,0,1516,0,0,0,0,0,0,0,0,0,0,0,
0,0,0,0,0,0,0,0,0,0,0,0,0,0,0,0,0,0,0,0,0,0,0,0,0,0,0,0,0,0,0,0,0,0,0,0,0,0,0,0,0,0,0,0,0,0,0,0,0,0,0,0,0,0,0,0,0,0,0,0,0,0,0,0,0,0,0,0,0,0,0,0,0,0,0,0,0,0,0,0,0,0,0,0,0,0,0,0,0,0,0,0,0,0,0,0,0,0,0,0,0,0,0,0,0,0,0,0,0,0,0,0,0,0,0,0,0,0,0,0,0,0,0,0,0,0,0,0,0,0,0,0,0,0,0,0,0,0,0,0,
0,0,1516,0,1516,0,1516,0,1516,0,1516,0,1516,0,1516,0,1516,0,1516,0,1516,0,1516,0,1516,0,1516,0,1516,0,1516,0,1516,0,1516,0,1516,0,1516,0,1516,0,1516,0,1516,0,1516,0,1516,0,1516,0,1516,0,1516,0,1516,0,1516,0,1516,0,1516,0,1516,0,1516,0,1516,0,1516,0,1516,0,1516,0,1516,0,1516,0,1516,0,1516,0,1516,0,1516,0,1516,0,1516,0,1516,0,1516,0,1516,0,1516,0,1516,0,1516,0,1516,0,1516,0,1516,0,1516,0,1516,0,1516,0,1516,0,1516,0,1516,0,1516,0,1516,0,1516,0,1516,0,0,0,0,0,0,0,0,0,0,0,
0,0,0,0,0,0,0,0,0,0,0,0,0,0,0,0,0,0,0,0,0,0,0,0,0,0,0,0,0,0,0,0,0,0,0,0,0,0,0,0,0,0,0,0,0,0,0,0,0,0,0,0,0,0,0,0,0,0,0,0,0,0,0,0,0,0,0,0,0,0,0,0,0,0,0,0,0,0,0,0,0,0,0,0,0,0,0,0,0,0,0,0,0,0,0,0,0,0,0,0,0,0,0,0,0,0,0,0,0,0,0,0,0,0,0,0,0,0,0,0,0,0,0,0,0,0,0,0,0,0,0,0,0,0,0,0,0,0,0,0,
0,0,1516,0,1516,0,1516,0,1516,0,1516,0,1516,0,1516,0,1516,0,1516,0,1516,0,1516,0,1516,0,1516,0,1516,0,1516,0,1516,0,1516,0,1516,0,1516,0,1516,0,1516,0,1516,0,1516,0,1516,0,1516,0,1516,0,1516,0,1516,0,1516,0,1516,0,1516,0,1516,0,1516,0,1516,0,1516,0,1516,0,1516,0,1516,0,1516,0,1516,0,1516,0,1516,0,1516,0,1516,0,1516,0,1516,0,1516,0,1516,0,1516,0,1516,0,1516,0,1516,0,1516,0,1516,0,1516,0,1516,0,1516,0,1516,0,1516,0,0,0,0,0,0,0,0,0,0,0,0,0,0,0,0,0,0,0,0,0,
0,0,0,0,0,0,0,0,0,0,0,0,0,0,0,0,0,0,0,0,0,0,0,0,0,0,0,0,0,0,0,0,0,0,0,0,0,0,0,0,0,0,0,0,0,0,0,0,0,0,0,0,0,0,0,0,0,0,0,0,0,0,0,0,0,0,0,0,0,0,0,0,0,0,0,0,0,0,0,0,0,0,0,0,0,0,0,0,0,0,0,0,0,0,0,0,0,0,0,0,0,0,0,0,0,0,0,0,0,0,0,0,0,0,0,0,0,0,0,0,0,0,0,0,0,0,0,0,0,0,0,0,0,0,0,0,0,0,0,0,
0,0,1516,0,1516,0,1516,0,1516,0,1516,0,1516,0,1516,0,1516,0,1516,0,1516,0,1516,0,1516,0,1516,0,1516,0,1516,0,1516,0,1516,0,1516,0,1516,0,1516,0,1516,0,1516,0,1516,0,1516,0,1516,0,1516,0,1516,0,1516,0,1516,0,1516,0,1516,0,1516,0,1516,0,1516,0,1516,0,1516,0,1516,0,1516,0,1516,0,1516,0,1516,0,1516,0,1516,0,1516,0,1516,0,1516,0,1516,0,1516,0,1516,0,1516,0,1516,0,1516,0,1516,0,1516,0,1516,0,1516,0,1516,0,1516,0,1516,0,0,0,0,0,0,0,0,0,0,0,0,0,0,0,0,0,0,0,0,0,
0,0,0,0,0,0,0,0,0,0,0,0,0,0,0,0,0,0,0,0,0,0,0,0,0,0,0,0,0,0,0,0,0,0,0,0,0,0,0,0,0,0,0,0,0,0,0,0,0,0,0,0,0,0,0,0,0,0,0,0,0,0,0,0,0,0,0,0,0,0,0,0,0,0,0,0,0,0,0,0,0,0,0,0,0,0,0,0,0,0,0,0,0,0,0,0,0,0,0,0,0,0,0,0,0,0,0,0,0,0,0,0,0,0,0,0,0,0,0,0,0,0,0,0,0,0,0,0,0,0,0,0,0,0,0,0,0,0,0,0,
0,0,1516,0,1516,0,1516,0,1516,0,1516,0,1516,0,1516,0,1516,0,1516,0,1516,0,1516,0,1516,0,1516,0,1516,0,1516,0,1516,0,1516,0,1516,0,1516,0,1516,0,1516,0,1516,0,1516,0,1516,0,1516,0,1516,0,1516,0,1516,0,1516,0,1516,0,1516,0,1516,0,1516,0,1516,0,1516,0,1516,0,1516,0,1516,0,1516,0,1516,0,1516,0,1516,0,1516,0,1516,0,1516,0,1516,0,1516,0,1516,0,1516,0,1516,0,1516,0,1516,0,1516,0,1516,0,1516,0,1516,0,1516,0,1516,0,1516,0,0,0,0,0,0,0,0,0,0,0,0,0,0,0,0,0,0,0,0,0,
0,0,0,0,0,0,0,0,0,0,0,0,0,0,0,0,0,0,0,0,0,0,0,0,0,0,0,0,0,0,0,0,0,0,0,0,0,0,0,0,0,0,0,0,0,0,0,0,0,0,0,0,0,0,0,0,0,0,0,0,0,0,0,0,0,0,0,0,0,0,0,0,0,0,0,0,0,0,0,0,0,0,0,0,0,0,0,0,0,0,0,0,0,0,0,0,0,0,0,0,0,0,0,0,0,0,0,0,0,0,0,0,0,0,0,0,0,0,0,0,0,0,0,0,0,0,0,0,0,0,0,0,0,0,0,0,0,0,0,0,
0,0,0,0,0,0,0,0,0,0,0,0,0,0,0,0,0,0,0,0,0,0,0,0,0,0,0,0,0,0,0,0,0,0,0,0,0,0,0,0,0,0,0,0,0,0,0,0,0,0,0,0,0,0,0,0,0,0,0,0,0,0,0,0,0,0,0,0,0,0,0,0,0,0,0,0,0,0,0,0,0,0,0,0,0,0,0,0,0,0,0,0,0,0,0,0,0,0,0,0,0,0,0,0,0,0,0,0,0,0,0,0,0,0,0,0,0,0,0,0,0,0,0,0,0,0,0,0,0,0,0,0,0,0,0,0,0,0,0,0,
0,0,0,0,0,0,0,0,0,0,0,0,0,0,0,0,0,0,0,0,0,0,0,0,0,0,0,0,0,0,0,0,0,0,0,0,0,0,0,0,0,0,0,0,0,0,0,0,0,0,0,0,0,0,0,0,0,0,0,0,0,0,0,0,0,0,0,0,0,0,0,0,0,0,0,0,0,0,0,0,0,0,0,0,0,0,0,0,0,0,0,0,0,0,0,0,0,0,0,0,0,0,0,0,0,0,0,0,0,0,0,0,0,0,0,0,0,0,0,0,0,0,0,0,0,0,0,0,0,0,0,0,0,0,0,0,0,0,0,0,
0,0,0,0,0,0,0,0,0,0,0,0,0,0,0,0,0,0,0,0,0,0,0,0,0,0,0,0,0,0,0,0,0,0,0,0,0,0,0,0,0,0,0,0,0,0,0,0,0,0,0,0,0,0,0,0,0,0,0,0,0,0,0,0,0,0,0,0,0,0,0,0,0,0,0,0,0,0,0,0,0,0,0,0,0,0,0,0,0,0,0,0,0,0,0,0,0,0,0,0,0,0,0,0,0,0,0,0,0,0,0,0,0,0,0,0,0,0,0,0,0,0,0,0,0,0,0,0,0,0,0,0,0,0,0,0,0,0,0,0,
0,0,0,0,0,0,0,0,0,0,0,0,0,0,0,0,0,0,0,0,0,0,0,0,0,0,0,0,0,0,0,0,0,0,0,0,0,0,0,0,0,0,0,0,0,0,0,0,0,0,0,0,0,0,0,0,0,0,0,0,0,0,0,0,0,0,0,0,0,0,0,0,0,0,0,0,0,0,0,0,0,0,0,0,0,0,0,0,0,0,0,0,0,0,0,0,0,0,0,0,0,0,0,0,0,0,0,0,0,0,0,0,0,0,0,0,0,0,0,0,0,0,0,0,0,0,0,0,0,0,0,0,0,0,0,0,0,0,0,0,
0,0,0,0,0,0,0,0,0,0,0,0,0,0,0,0,0,0,0,0,0,0,0,0,0,0,0,0,0,0,0,0,0,0,0,0,0,0,0,0,0,0,0,0,0,0,0,0,0,0,0,0,0,0,0,0,0,0,0,0,0,0,0,0,0,0,0,0,0,0,0,0,0,0,0,0,0,0,0,0,0,0,0,0,0,0,0,0,0,0,0,0,0,0,0,0,0,0,0,0,0,0,0,0,0,0,0,0,0,0,0,0,0,0,0,0,0,0,0,0,0,0,0,0,0,0,0,0,0,0,0,0,0,0,0,0,0,0,0,0,
0,0,0,0,0,0,0,0,0,0,0,0,0,0,0,0,0,0,0,0,0,0,0,0,0,0,0,0,0,0,0,0,0,0,0,0,0,0,0,0,0,0,0,0,0,0,0,0,0,0,0,0,0,0,0,0,0,0,0,0,0,0,0,0,0,0,0,0,0,0,0,0,0,0,0,0,0,0,0,0,0,0,0,0,0,0,0,0,0,0,0,0,0,0,0,0,0,0,0,0,0,0,0,0,0,0,0,0,0,0,0,0,0,0,0,0,0,0,0,0,0,0,0,0,0,0,0,0,0,0,0,0,0,0,0,0,0,0,0,0,
0,0,0,0,0,0,0,0,0,0,0,0,0,0,0,0,0,0,0,0,0,0,0,0,0,0,0,0,0,0,0,0,0,0,0,0,0,0,0,0,0,0,0,0,0,0,0,0,0,0,0,0,0,0,0,0,0,0,0,0,0,0,0,0,0,0,0,0,0,0,0,0,0,0,0,0,0,0,0,0,0,0,0,0,0,0,0,0,0,0,0,0,0,0,0,0,0,0,0,0,0,0,0,0,0,0,0,0,0,0,0,0,0,0,0,0,0,0,0,0,0,0,0,0,0,0,0,0,0,0,0,0,0,0,0,0,0,0,0,0,
0,0,0,0,0,0,0,0,0,0,0,0,0,0,0,0,0,0,0,0,0,0,0,0,0,0,0,0,0,0,0,0,0,0,0,0,0,0,0,0,0,0,0,0,0,0,0,0,0,0,0,0,0,0,0,0,0,0,0,0,0,0,0,0,0,0,0,0,0,0,0,0,0,0,0,0,0,0,0,0,0,0,0,0,0,0,0,0,0,0,0,0,0,0,0,0,0,0,0,0,0,0,0,0,0,0,0,0,0,0,0,0,0,0,0,0,0,0,0,0,0,0,0,0,0,0,0,0,0,0,0,0,0,0,0,0,0,0,0,0,
0,0,0,0,0,0,0,0,0,0,0,0,0,0,0,0,0,0,0,0,0,0,0,0,0,0,0,0,0,0,0,0,0,0,0,0,0,0,0,0,0,0,0,0,0,0,0,0,0,0,0,0,0,0,0,0,0,0,0,0,0,0,0,0,0,0,0,0,0,0,0,0,0,0,0,0,0,0,0,0,0,0,0,0,0,0,0,0,0,0,0,0,0,0,0,0,0,0,0,0,0,0,0,0,0,0,0,0,0,0,0,0,0,0,0,0,0,0,0,0,0,0,0,0,0,0,0,0,0,0,0,0,0,0,0,0,0,0,0,0,
0,0,0,0,0,0,0,0,0,0,0,0,0,0,0,0,0,0,0,0,0,0,0,0,0,0,0,0,0,0,0,0,0,0,0,0,0,0,0,0,0,0,0,0,0,0,0,0,0,0,0,0,0,0,0,0,0,0,0,0,0,0,0,0,0,0,0,0,0,0,0,0,0,0,0,0,0,0,0,0,0,0,0,0,0,0,0,0,0,0,0,0,0,0,0,0,0,0,0,0,0,0,0,0,0,0,0,0,0,0,0,0,0,0,0,0,0,0,0,0,0,0,0,0,0,0,0,0,0,0,0,0,0,0,0,0,0,0,0,0,
0,0,0,0,0,0,0,0,0,0,0,0,0,0,0,0,0,0,0,0,0,0,0,0,0,0,0,0,0,0,0,0,0,0,0,0,0,0,0,0,0,0,0,0,0,0,0,0,0,0,0,0,0,0,0,0,0,0,0,0,0,0,0,0,0,0,0,0,0,0,0,0,0,0,0,0,0,0,0,0,0,0,0,0,0,0,0,0,0,0,0,0,0,0,0,0,0,0,0,0,0,0,0,0,0,0,0,0,0,0,0,0,0,0,0,0,0,0,0,0,0,0,0,0,0,0,0,0,0,0,0,0,0,0,0,0,0,0,0,0,
0,0,0,0,0,0,0,0,0,0,0,0,0,0,0,0,0,0,0,0,0,0,0,0,0,0,0,0,0,0,0,0,0,0,0,0,0,0,0,0,0,0,0,0,0,0,0,0,0,0,0,0,0,0,0,0,0,0,0,0,0,0,0,0,0,0,0,0,0,0,0,0,0,0,0,0,0,0,0,0,0,0,0,0,0,0,0,0,0,0,0,0,0,0,0,0,0,0,0,0,0,0,0,0,0,0,0,0,0,0,0,0,0,0,0,0,0,0,0,0,0,0,0,0,0,0,0,0,0,0,0,0,0,0,0,0,0,0,0,0,
0,0,0,0,0,0,0,0,0,0,0,0,0,0,0,0,0,0,0,0,0,0,0,0,0,0,0,0,0,0,0,0,0,0,0,0,0,0,0,0,0,0,0,0,0,0,0,0,0,0,0,0,0,0,0,0,0,0,0,0,0,0,0,0,0,0,0,0,0,0,0,0,0,0,0,0,0,0,0,0,0,0,0,0,0,0,0,0,0,0,0,0,0,0,0,0,0,0,0,0,0,0,0,0,0,0,0,0,0,0,0,0,0,0,0,0,0,0,0,0,0,0,0,0,0,0,0,0,0,0,0,0,0,0,0,0,0,0,0,0,
0,0,0,0,0,0,0,0,0,0,0,0,0,0,0,0,0,0,0,0,0,0,0,0,0,0,0,0,0,0,0,0,0,0,0,0,0,0,0,0,0,0,0,0,0,0,0,0,0,0,0,0,0,0,0,0,0,0,0,0,0,0,0,0,0,0,0,0,0,0,0,0,0,0,0,0,0,0,0,0,0,0,0,0,0,0,0,0,0,0,0,0,0,0,0,0,0,0,0,0,0,0,0,0,0,0,0,0,0,0,0,0,0,0,0,0,0,0,0,0,0,0,0,0,0,0,0,0,0,0,0,0,0,0,0,0,0,0,0,0
</data>
 </layer>
 <objectgroup draworder="index" id="3" name="Impl_Standard"/>
 <objectgroup draworder="index" id="4" name="Instances">
  <object id="1" template="../../../templates/dungeon/obj_dungeon_ladder_up.tx" type="obj_dungeon_ladder_up" x="608" y="112"/>
  <object id="2" template="../../../templates/dungeon/obj_dungeon_elevator.tx" type="obj_dungeon_elevator" x="560" y="112"/>
 </objectgroup>
 <objectgroup draworder="index" id="5" name="Level_0_Assets">
  <object id="3" type="asset" gid="974" x="504" y="376" width="32" height="64"/>
  <object id="4" type="asset" gid="974" x="648" y="376" width="32" height="64"/>
  <object id="5" type="asset" gid="181" x="448" y="317" width="48" height="64"/>
  <object id="6" type="asset" gid="181" x="688" y="317" width="48" height="64"/>
  <object id="7" type="asset" gid="974" x="424" y="264" width="32" height="64"/>
  <object id="8" type="asset" gid="974" x="728" y="264" width="32" height="64"/>
  <object id="9" type="asset" gid="974" x="328" y="440" width="32" height="64"/>
  <object id="10" type="asset" gid="974" x="200" y="440" width="32" height="64"/>
  <object id="11" type="asset" gid="974" x="824" y="440" width="32" height="64"/>
  <object id="12" type="asset" gid="974" x="952" y="440" width="32" height="64"/>
  <object id="13" type="asset" gid="974" x="504" y="72" width="32" height="64"/>
  <object id="14" type="asset" gid="974" x="648" y="72" width="32" height="64"/>
  <object id="15" type="asset" gid="974" x="728" y="520" width="32" height="64"/>
  <object id="16" type="asset" gid="974" x="424" y="520" width="32" height="64"/>
  <object id="17" type="asset" gid="454" x="464" y="464" width="48" height="32"/>
  <object id="18" type="asset" gid="1252" x="480" y="432" width="16" height="16"/>
  <object id="19" type="asset" gid="454" x="672" y="464" width="48" height="32"/>
  <object id="20" type="asset" gid="1252" x="688" y="432" width="16" height="16"/>
  <object id="21" type="asset" gid="525" x="576" y="144" width="16" height="16"/>
  <object id="22" type="asset" gid="1252" x="592" y="144" width="16" height="16"/>
  <object id="23" type="asset" gid="1252" x="608" y="144" width="16" height="16"/>
  <object id="24" type="asset" gid="1252" x="560" y="144" width="16" height="16"/>
  <object id="25" type="asset" gid="1252" x="576" y="160" width="16" height="16"/>
  <object id="26" type="asset" gid="525" x="592" y="160" width="16" height="16"/>
  <object id="27" type="asset" gid="914" x="536" y="56" width="48" height="64"/>
  <object id="28" type="asset" gid="1017" x="600" y="56" width="48" height="64"/>
  <object id="29" type="asset" gid="1017" x="280" y="424" width="48" height="64"/>
  <object id="30" type="asset" gid="1234" x="264" y="424" width="32" height="64"/>
  <object id="31" type="asset" gid="914" x="232" y="424" width="48" height="64"/>
  <object id="32" type="asset" gid="914" x="856" y="424" width="48" height="64"/>
  <object id="33" type="asset" gid="1234" x="888" y="424" width="32" height="64"/>
  <object id="34" type="asset" gid="1017" x="904" y="424" width="48" height="64"/>
  <object id="35" type="asset" gid="1234" x="568" y="56" width="32" height="64"/>
  <object id="36" type="asset" gid="1234" x="584" y="56" width="32" height="64"/>
  <object id="37" type="asset" gid="862" x="528" y="240" width="16" height="48"/>
  <object id="38" type="asset" gid="862" x="384" y="512" width="16" height="48"/>
  <object id="39" type="asset" gid="862" x="640" y="240" width="16" height="48"/>
  <object id="40" type="asset" gid="862" x="784" y="512" width="16" height="48"/>
  <object id="41" type="asset" gid="152" x="504" y="176" width="32" height="32"/>
  <object id="42" type="asset" gid="687" x="656" y="160" width="24" height="24"/>
  <object id="43" type="asset" gid="272" x="536" y="456" width="40" height="40"/>
  <object id="44" type="asset" gid="869" x="616" y="472" width="32" height="32"/>
  <object id="45" type="asset" gid="454" x="256" y="448" width="48" height="32"/>
  <object id="46" type="asset" gid="454" x="880" y="448" width="48" height="32"/>
  <object id="47" type="asset" gid="687" x="432" y="368" width="24" height="24"/>
  <object id="48" type="asset" gid="163" x="736" y="368" width="24" height="24"/>
  <object id="49" type="asset" gid="454" x="560" y="336" width="48" height="32"/>
  <object id="50" type="asset" gid="1252" x="608" y="320" width="16" height="16"/>
  <object id="51" type="asset" gid="1252" x="576" y="304" width="16" height="16"/>
  <object id="52" type="asset" gid="1252" x="592" y="304" width="16" height="16"/>
  <object id="53" type="asset" gid="1252" x="592" y="336" width="16" height="16"/>
  <object id="54" type="asset" gid="1252" x="896" y="560" width="16" height="16"/>
  <object id="55" type="asset" gid="1252" x="880" y="560" width="16" height="16"/>
  <object id="56" type="asset" gid="1252" x="912" y="560" width="16" height="16"/>
  <object id="57" type="asset" gid="1252" x="896" y="544" width="16" height="16"/>
  <object id="58" type="asset" gid="1252" x="272" y="560" width="16" height="16"/>
  <object id="59" type="asset" gid="1252" x="256" y="560" width="16" height="16"/>
  <object id="60" type="asset" gid="1252" x="288" y="560" width="16" height="16"/>
  <object id="61" type="asset" gid="1252" x="272" y="544" width="16" height="16"/>
  <object id="62" type="asset" gid="1081" x="272" y="512" width="32" height="32"/>
  <object id="63" type="asset" gid="1081" x="880" y="480" width="32" height="32"/>
 </objectgroup>
</map>
