<?xml version="1.0" encoding="UTF-8"?>
<map version="1.10" tiledversion="1.11.2" class="Dungeon" orientation="orthogonal" renderorder="right-down" width="50" height="66" tilewidth="8" tileheight="8" infinite="0" backgroundcolor="#3a003a" nextlayerid="7" nextobjectid="19">
 <tileset firstgid="1" source="../../../__gm_import.tsx"/>
 <tileset firstgid="1504" source="../../../tile_sets/Dungeon/Prototype/tile_dungeon_prototype.tsx"/>
 <tileset firstgid="1516" source="../../../tile_sets/Dungeon/Prototype/tile_main_dungeon_tile_chance.tsx"/>
 <layer id="1" name="Prototype" width="50" height="66">
  <properties>
   <property name="maybe_animation_id" value="c523b4ebab90977e"/>
   <property name="maybe_tileset_id" value="1f279aa214066309"/>
   <property name="tile_size" type="int" value="16"/>
  </properties>
  <data encoding="csv">
0,0,0,0,0,0,0,0,0,0,0,0,0,0,0,0,0,0,0,0,0,0,0,0,0,0,0,0,0,0,0,0,0,0,0,0,0,0,0,0,0,0,0,0,0,0,0,0,0,0,
0,0,0,0,0,0,0,0,0,0,0,0,0,0,0,0,0,0,0,0,0,0,0,0,0,0,0,0,0,0,0,0,0,0,0,0,0,0,0,0,0,0,0,0,0,0,0,0,0,0,
1504,0,1504,0,1504,0,1504,0,1504,0,1504,0,1504,0,1504,0,1504,0,1504,0,1504,0,1504,0,1504,0,1504,0,1504,0,1504,0,1504,0,1504,0,1504,0,1504,0,1504,0,0,0,0,0,0,0,0,0,
0,0,0,0,0,0,0,0,0,0,0,0,0,0,0,0,0,0,0,0,0,0,0,0,0,0,0,0,0,0,0,0,0,0,0,0,0,0,0,0,0,0,0,0,0,0,0,0,0,0,
1504,0,1504,0,1504,0,1504,0,1504,0,1504,0,1504,0,1504,0,1504,0,1504,0,1504,0,1504,0,1504,0,1504,0,1504,0,1504,0,1504,0,1504,0,1504,0,1504,0,1504,0,0,0,0,0,0,0,0,0,
0,0,0,0,0,0,0,0,0,0,0,0,0,0,0,0,0,0,0,0,0,0,0,0,0,0,0,0,0,0,0,0,0,0,0,0,0,0,0,0,0,0,0,0,0,0,0,0,0,0,
1504,0,1504,0,1504,0,1504,0,1504,0,1504,0,1504,0,1504,0,1504,0,1504,0,1504,0,1504,0,1504,0,1504,0,1504,0,1504,0,1504,0,1504,0,1504,0,1504,0,1504,0,0,0,0,0,0,0,0,0,
0,0,0,0,0,0,0,0,0,0,0,0,0,0,0,0,0,0,0,0,0,0,0,0,0,0,0,0,0,0,0,0,0,0,0,0,0,0,0,0,0,0,0,0,0,0,0,0,0,0,
1504,0,1504,0,1504,0,1504,0,1504,0,1504,0,1504,0,1504,0,1504,0,1504,0,1504,0,1504,0,1504,0,1504,0,1504,0,1504,0,1504,0,1504,0,1504,0,1504,0,1504,0,0,0,0,0,0,0,0,0,
0,0,0,0,0,0,0,0,0,0,0,0,0,0,0,0,0,0,0,0,0,0,0,0,0,0,0,0,0,0,0,0,0,0,0,0,0,0,0,0,0,0,0,0,0,0,0,0,0,0,
1504,0,1504,0,1504,0,1504,0,1504,0,1504,0,1504,0,1504,0,1504,0,1504,0,1504,0,1504,0,1504,0,1504,0,1504,0,1504,0,1504,0,1504,0,1504,0,1504,0,1504,0,0,0,0,0,0,0,0,0,
0,0,0,0,0,0,0,0,0,0,0,0,0,0,0,0,0,0,0,0,0,0,0,0,0,0,0,0,0,0,0,0,0,0,0,0,0,0,0,0,0,0,0,0,0,0,0,0,0,0,
1504,0,1504,0,1504,0,1504,0,1504,0,1504,0,1504,0,1504,0,1506,0,1506,0,1506,0,1506,0,1506,0,1506,0,1506,0,1506,0,1506,0,1504,0,1504,0,1504,0,1504,0,0,0,0,0,0,0,0,0,
0,0,0,0,0,0,0,0,0,0,0,0,0,0,0,0,0,0,0,0,0,0,0,0,0,0,0,0,0,0,0,0,0,0,0,0,0,0,0,0,0,0,0,0,0,0,0,0,0,0,
1504,0,1504,0,1504,0,1504,0,1504,0,1504,0,1504,0,1506,0,1505,0,1505,0,1508,0,1508,0,1508,0,1508,0,1508,0,1505,0,1505,0,1506,0,1504,0,1504,0,1504,0,0,0,0,0,0,0,0,0,
0,0,0,0,0,0,0,0,0,0,0,0,0,0,0,0,0,0,0,0,0,0,0,0,0,0,0,0,0,0,0,0,0,0,0,0,0,0,0,0,0,0,0,0,0,0,0,0,0,0,
1504,0,1504,0,1504,0,1504,0,1504,0,1504,0,1506,0,1505,0,1505,0,1505,0,1508,0,1508,0,1508,0,1508,0,1508,0,1505,0,1505,0,1505,0,1506,0,1504,0,1504,0,0,0,0,0,0,0,0,0,
0,0,0,0,0,0,0,0,0,0,0,0,0,0,0,0,0,0,0,0,0,0,0,0,0,0,0,0,0,0,0,0,0,0,0,0,0,0,0,0,0,0,0,0,0,0,0,0,0,0,
1504,0,1504,0,1504,0,1504,0,1504,0,1506,0,1505,0,1505,0,1505,0,1505,0,1505,0,1508,0,1508,0,1508,0,1505,0,1505,0,1505,0,1505,0,1505,0,1506,0,1504,0,0,0,0,0,0,0,0,0,
0,0,0,0,0,0,0,0,0,0,0,0,0,0,0,0,0,0,0,0,0,0,0,0,0,0,0,0,0,0,0,0,0,0,0,0,0,0,0,0,0,0,0,0,0,0,0,0,0,0,
1504,0,1504,0,1504,0,1504,0,1506,0,1505,0,1505,0,1505,0,1505,0,1505,0,1507,0,1507,0,1507,0,1507,0,1507,0,1505,0,1505,0,1505,0,1505,0,1505,0,1506,0,0,0,0,0,0,0,0,0,
0,0,0,0,0,0,0,0,0,0,0,0,0,0,0,0,0,0,0,0,0,0,0,0,0,0,0,0,0,0,0,0,0,0,0,0,0,0,0,0,0,0,0,0,0,0,0,0,0,0,
1504,0,1504,0,1504,0,1506,0,1505,0,1505,0,1505,0,1505,0,1505,0,1507,0,1507,0,1509,0,1509,0,1509,0,1507,0,1507,0,1505,0,1505,0,1505,0,1505,0,1505,0,1506,0,0,0,0,0,0,0,
0,0,0,0,0,0,0,0,0,0,0,0,0,0,0,0,0,0,0,0,0,0,0,0,0,0,0,0,0,0,0,0,0,0,0,0,0,0,0,0,0,0,0,0,0,0,0,0,0,0,
1504,0,1504,0,1504,0,1506,0,1505,0,1505,0,1505,0,1505,0,1507,0,1507,0,1509,0,1509,0,1509,0,1509,0,1509,0,1507,0,1507,0,1505,0,1505,0,1505,0,1505,0,1506,0,0,0,0,0,0,0,
0,0,0,0,0,0,0,0,0,0,0,0,0,0,0,0,0,0,0,0,0,0,0,0,0,0,0,0,0,0,0,0,0,0,0,0,0,0,0,0,0,0,0,0,0,0,0,0,0,0,
1504,0,1504,0,1504,0,1506,0,1508,0,1508,0,1508,0,1505,0,1507,0,1509,0,1509,0,1509,0,1509,0,1509,0,1509,0,1509,0,1507,0,1505,0,1508,0,1508,0,1508,0,1506,0,0,0,0,0,0,0,
0,0,0,0,0,0,0,0,0,0,0,0,0,0,0,0,0,0,0,0,0,0,0,0,0,0,0,0,0,0,0,0,0,0,0,0,0,0,0,0,0,0,0,0,0,0,0,0,0,0,
1504,0,1504,0,1504,0,1506,0,1508,0,1508,0,1508,0,1508,0,1507,0,1509,0,1509,0,1509,0,1509,0,1509,0,1509,0,1509,0,1507,0,1508,0,1508,0,1508,0,1508,0,1506,0,0,0,0,0,0,0,
0,0,0,0,0,0,0,0,0,0,0,0,0,0,0,0,0,0,0,0,0,0,0,0,0,0,0,0,0,0,0,0,0,0,0,0,0,0,0,0,0,0,0,0,0,0,0,0,0,0,
1504,0,1504,0,1504,0,1506,0,1508,0,1508,0,1508,0,1508,0,1507,0,1509,0,1509,0,1509,0,1509,0,1509,0,1509,0,1509,0,1507,0,1508,0,1508,0,1508,0,1508,0,1506,0,0,0,0,0,0,0,
0,0,0,0,0,0,0,0,0,0,0,0,0,0,0,0,0,0,0,0,0,0,0,0,0,0,0,0,0,0,0,0,0,0,0,0,0,0,0,0,0,0,0,0,0,0,0,0,0,0,
1504,0,1504,0,1504,0,1506,0,1508,0,1508,0,1508,0,1505,0,1507,0,1509,0,1509,0,1509,0,1509,0,1509,0,1509,0,1509,0,1507,0,1505,0,1508,0,1508,0,1508,0,1506,0,0,0,0,0,0,0,
0,0,0,0,0,0,0,0,0,0,0,0,0,0,0,0,0,0,0,0,0,0,0,0,0,0,0,0,0,0,0,0,0,0,0,0,0,0,0,0,0,0,0,0,0,0,0,0,0,0,
1504,0,1504,0,1504,0,1506,0,1505,0,1505,0,1505,0,1505,0,1507,0,1507,0,1509,0,1509,0,1509,0,1509,0,1509,0,1507,0,1507,0,1505,0,1505,0,1505,0,1505,0,1506,0,0,0,0,0,0,0,
0,0,0,0,0,0,0,0,0,0,0,0,0,0,0,0,0,0,0,0,0,0,0,0,0,0,0,0,0,0,0,0,0,0,0,0,0,0,0,0,0,0,0,0,0,0,0,0,0,0,
1504,0,1504,0,1504,0,1506,0,1505,0,1505,0,1505,0,1505,0,1505,0,1507,0,1507,0,1509,0,1509,0,1509,0,1507,0,1507,0,1505,0,1505,0,1505,0,1505,0,1505,0,1506,0,0,0,0,0,0,0,
0,0,0,0,0,0,0,0,0,0,0,0,0,0,0,0,0,0,0,0,0,0,0,0,0,0,0,0,0,0,0,0,0,0,0,0,0,0,0,0,0,0,0,0,0,0,0,0,0,0,
1504,0,1504,0,1504,0,1506,0,1505,0,1505,0,1505,0,1505,0,1505,0,1505,0,1507,0,1507,0,1507,0,1507,0,1507,0,1505,0,1505,0,1505,0,1505,0,1505,0,1505,0,1506,0,0,0,0,0,0,0,
0,0,0,0,0,0,0,0,0,0,0,0,0,0,0,0,0,0,0,0,0,0,0,0,0,0,0,0,0,0,0,0,0,0,0,0,0,0,0,0,0,0,0,0,0,0,0,0,0,0,
1504,0,1504,0,1504,0,1504,0,1506,0,1505,0,1505,0,1505,0,1505,0,1505,0,1505,0,1508,0,1508,0,1508,0,1505,0,1505,0,1505,0,1505,0,1505,0,1505,0,1506,0,1504,0,0,0,0,0,0,0,
0,0,0,0,0,0,0,0,0,0,0,0,0,0,0,0,0,0,0,0,0,0,0,0,0,0,0,0,0,0,0,0,0,0,0,0,0,0,0,0,0,0,0,0,0,0,0,0,0,0,
1504,0,1504,0,1504,0,1504,0,1504,0,1506,0,1505,0,1505,0,1505,0,1505,0,1508,0,1508,0,1508,0,1508,0,1508,0,1505,0,1505,0,1505,0,1505,0,1506,0,1504,0,0,0,0,0,0,0,0,0,
0,0,0,0,0,0,0,0,0,0,0,0,0,0,0,0,0,0,0,0,0,0,0,0,0,0,0,0,0,0,0,0,0,0,0,0,0,0,0,0,0,0,0,0,0,0,0,0,0,0,
1504,0,1504,0,1504,0,1504,0,1504,0,1504,0,1506,0,1505,0,1505,0,1505,0,1508,0,1508,0,1508,0,1508,0,1508,0,1505,0,1505,0,1505,0,1506,0,1504,0,1504,0,0,0,0,0,0,0,0,0,
0,0,0,0,0,0,0,0,0,0,0,0,0,0,0,0,0,0,0,0,0,0,0,0,0,0,0,0,0,0,0,0,0,0,0,0,0,0,0,0,0,0,0,0,0,0,0,0,0,0,
1504,0,1504,0,1504,0,1504,0,1504,0,1504,0,1504,0,1506,0,1505,0,1505,0,1508,0,1508,0,1508,0,1508,0,1508,0,1505,0,1505,0,1506,0,1504,0,1504,0,1504,0,0,0,0,0,0,0,0,0,
0,0,0,0,0,0,0,0,0,0,0,0,0,0,0,0,0,0,0,0,0,0,0,0,0,0,0,0,0,0,0,0,0,0,0,0,0,0,0,0,0,0,0,0,0,0,0,0,0,0,
1504,0,1504,0,1504,0,1504,0,1504,0,1504,0,1504,0,1504,0,1506,0,1506,0,1506,0,1506,0,1506,0,1506,0,1506,0,1506,0,1506,0,1504,0,1504,0,1504,0,1504,0,0,0,0,0,0,0,0,0,
0,0,0,0,0,0,0,0,0,0,0,0,0,0,0,0,0,0,0,0,0,0,0,0,0,0,0,0,0,0,0,0,0,0,0,0,0,0,0,0,0,0,0,0,0,0,0,0,0,0,
1504,0,1504,0,1504,0,1504,0,1504,0,1504,0,1504,0,1504,0,1504,0,1504,0,1504,0,1504,0,1504,0,1504,0,1504,0,1504,0,1504,0,1504,0,1504,0,1504,0,1504,0,0,0,0,0,0,0,0,0,
0,0,0,0,0,0,0,0,0,0,0,0,0,0,0,0,0,0,0,0,0,0,0,0,0,0,0,0,0,0,0,0,0,0,0,0,0,0,0,0,0,0,0,0,0,0,0,0,0,0,
1504,0,1504,0,1504,0,1504,0,1504,0,1504,0,1504,0,1504,0,1504,0,1504,0,1504,0,1504,0,1504,0,1504,0,1504,0,1504,0,1504,0,1504,0,1504,0,1504,0,1504,0,0,0,0,0,0,0,0,0,
0,0,0,0,0,0,0,0,0,0,0,0,0,0,0,0,0,0,0,0,0,0,0,0,0,0,0,0,0,0,0,0,0,0,0,0,0,0,0,0,0,0,0,0,0,0,0,0,0,0,
1504,0,1504,0,1504,0,1504,0,1504,0,1504,0,1504,0,1504,0,1504,0,1504,0,1504,0,1504,0,1504,0,1504,0,1504,0,1504,0,1504,0,1504,0,1504,0,1504,0,1504,0,0,0,0,0,0,0,0,0,
0,0,0,0,0,0,0,0,0,0,0,0,0,0,0,0,0,0,0,0,0,0,0,0,0,0,0,0,0,0,0,0,0,0,0,0,0,0,0,0,0,0,0,0,0,0,0,0,0,0,
1504,0,1504,0,1504,0,1504,0,1504,0,1504,0,1504,0,1504,0,1504,0,1504,0,1504,0,1504,0,1504,0,1504,0,1504,0,1504,0,1504,0,1504,0,1504,0,1504,0,1504,0,0,0,0,0,0,0,0,0,
0,0,0,0,0,0,0,0,0,0,0,0,0,0,0,0,0,0,0,0,0,0,0,0,0,0,0,0,0,0,0,0,0,0,0,0,0,0,0,0,0,0,0,0,0,0,0,0,0,0,
0,0,0,0,0,0,0,0,0,0,0,0,0,0,0,0,0,0,0,0,0,0,0,0,0,0,0,0,0,0,0,0,0,0,0,0,0,0,0,0,0,0,0,0,0,0,0,0,0,0,
0,0,0,0,0,0,0,0,0,0,0,0,0,0,0,0,0,0,0,0,0,0,0,0,0,0,0,0,0,0,0,0,0,0,0,0,0,0,0,0,0,0,0,0,0,0,0,0,0,0,
0,0,0,0,0,0,0,0,0,0,0,0,0,0,0,0,0,0,0,0,0,0,0,0,0,0,0,0,0,0,0,0,0,0,0,0,0,0,0,0,0,0,0,0,0,0,0,0,0,0,
0,0,0,0,0,0,0,0,0,0,0,0,0,0,0,0,0,0,0,0,0,0,0,0,0,0,0,0,0,0,0,0,0,0,0,0,0,0,0,0,0,0,0,0,0,0,0,0,0,0,
0,0,0,0,0,0,0,0,0,0,0,0,0,0,0,0,0,0,0,0,0,0,0,0,0,0,0,0,0,0,0,0,0,0,0,0,0,0,0,0,0,0,0,0,0,0,0,0,0,0,
0,0,0,0,0,0,0,0,0,0,0,0,0,0,0,0,0,0,0,0,0,0,0,0,0,0,0,0,0,0,0,0,0,0,0,0,0,0,0,0,0,0,0,0,0,0,0,0,0,0,
0,0,0,0,0,0,0,0,0,0,0,0,0,0,0,0,0,0,0,0,0,0,0,0,0,0,0,0,0,0,0,0,0,0,0,0,0,0,0,0,0,0,0,0,0,0,0,0,0,0,
0,0,0,0,0,0,0,0,0,0,0,0,0,0,0,0,0,0,0,0,0,0,0,0,0,0,0,0,0,0,0,0,0,0,0,0,0,0,0,0,0,0,0,0,0,0,0,0,0,0
</data>
 </layer>
 <layer id="2" name="Chance" width="50" height="66">
  <properties>
   <property name="maybe_animation_id" value="818f0d7683463c1"/>
   <property name="maybe_tileset_id" value="fce7bba5e540ce43"/>
   <property name="tile_size" type="int" value="16"/>
  </properties>
  <data encoding="csv">
1516,0,1516,0,1516,0,1516,0,1516,0,1516,0,1516,0,1516,0,1516,0,1516,0,1516,0,1516,0,1516,0,1516,0,1516,0,1516,0,1516,0,1516,0,1516,0,1516,0,1516,0,0,0,0,0,0,0,0,0,
0,0,0,0,0,0,0,0,0,0,0,0,0,0,0,0,0,0,0,0,0,0,0,0,0,0,0,0,0,0,0,0,0,0,0,0,0,0,0,0,0,0,0,0,0,0,0,0,0,0,
1516,0,1516,0,1516,0,1516,0,1516,0,1516,0,1516,0,1516,0,1516,0,1516,0,1516,0,1516,0,1516,0,1516,0,1516,0,1516,0,1516,0,1516,0,1516,0,1516,0,1516,0,0,0,0,0,0,0,0,0,
0,0,0,0,0,0,0,0,0,0,0,0,0,0,0,0,0,0,0,0,0,0,0,0,0,0,0,0,0,0,0,0,0,0,0,0,0,0,0,0,0,0,0,0,0,0,0,0,0,0,
1516,0,1516,0,1516,0,1516,0,1516,0,1516,0,1516,0,1516,0,1516,0,1516,0,1516,0,1516,0,1516,0,1516,0,1516,0,1516,0,1516,0,1516,0,1516,0,1516,0,1516,0,0,0,0,0,0,0,0,0,
0,0,0,0,0,0,0,0,0,0,0,0,0,0,0,0,0,0,0,0,0,0,0,0,0,0,0,0,0,0,0,0,0,0,0,0,0,0,0,0,0,0,0,0,0,0,0,0,0,0,
1516,0,1516,0,1516,0,1516,0,1516,0,1516,0,1516,0,1516,0,1516,0,1516,0,1516,0,1516,0,1516,0,1516,0,1516,0,1516,0,1516,0,1516,0,1516,0,1516,0,1516,0,0,0,0,0,0,0,0,0,
0,0,0,0,0,0,0,0,0,0,0,0,0,0,0,0,0,0,0,0,0,0,0,0,0,0,0,0,0,0,0,0,0,0,0,0,0,0,0,0,0,0,0,0,0,0,0,0,0,0,
1516,0,1516,0,1516,0,1516,0,1516,0,1516,0,1516,0,1516,0,1516,0,1516,0,1516,0,1516,0,1516,0,1516,0,1516,0,1516,0,1516,0,1516,0,1516,0,1516,0,1516,0,0,0,0,0,0,0,0,0,
0,0,0,0,0,0,0,0,0,0,0,0,0,0,0,0,0,0,0,0,0,0,0,0,0,0,0,0,0,0,0,0,0,0,0,0,0,0,0,0,0,0,0,0,0,0,0,0,0,0,
1516,0,1516,0,1516,0,1516,0,1516,0,1516,0,1516,0,1516,0,1516,0,1516,0,1516,0,1516,0,1516,0,1516,0,1516,0,1516,0,1516,0,1516,0,1516,0,1516,0,1516,0,0,0,0,0,0,0,0,0,
0,0,0,0,0,0,0,0,0,0,0,0,0,0,0,0,0,0,0,0,0,0,0,0,0,0,0,0,0,0,0,0,0,0,0,0,0,0,0,0,0,0,0,0,0,0,0,0,0,0,
1516,0,1516,0,1516,0,1516,0,1516,0,1516,0,1516,0,1516,0,1516,0,1516,0,1516,0,1516,0,1516,0,1516,0,1516,0,1516,0,1516,0,1516,0,1516,0,1516,0,1516,0,0,0,0,0,0,0,0,0,
0,0,0,0,0,0,0,0,0,0,0,0,0,0,0,0,0,0,0,0,0,0,0,0,0,0,0,0,0,0,0,0,0,0,0,0,0,0,0,0,0,0,0,0,0,0,0,0,0,0,
1516,0,1516,0,1516,0,1516,0,1516,0,1516,0,1516,0,1516,0,1516,0,1533,0,1516,0,1516,0,1516,0,1516,0,1516,0,1533,0,1516,0,1516,0,1516,0,1516,0,1516,0,0,0,0,0,0,0,0,0,
0,0,0,0,0,0,0,0,0,0,0,0,0,0,0,0,0,0,0,0,0,0,0,0,0,0,0,0,0,0,0,0,0,0,0,0,0,0,0,0,0,0,0,0,0,0,0,0,0,0,
1516,0,1516,0,1516,0,1516,0,1516,0,1516,0,1516,0,1516,0,1516,0,1516,0,1516,0,1516,0,1516,0,1516,0,1516,0,1516,0,1516,0,1516,0,1516,0,1516,0,1516,0,0,0,0,0,0,0,0,0,
0,0,0,0,0,0,0,0,0,0,0,0,0,0,0,0,0,0,0,0,0,0,0,0,0,0,0,0,0,0,0,0,0,0,0,0,0,0,0,0,0,0,0,0,0,0,0,0,0,0,
1516,0,1516,0,1516,0,1516,0,1516,0,1516,0,1516,0,1516,0,1516,0,1516,0,1516,0,1516,0,1516,0,1516,0,1516,0,1516,0,1516,0,1516,0,1516,0,1516,0,1516,0,0,0,0,0,0,0,0,0,
0,0,0,0,0,0,0,0,0,0,0,0,0,0,0,0,0,0,0,0,0,0,0,0,0,0,0,0,0,0,0,0,0,0,0,0,0,0,0,0,0,0,0,0,0,0,0,0,0,0,
1516,0,1516,0,1516,0,1516,0,1516,0,1516,0,1516,0,1516,0,1516,0,1516,0,1516,0,1516,0,1516,0,1516,0,1516,0,1516,0,1516,0,1516,0,1516,0,1516,0,1516,0,0,0,0,0,0,0,0,0,
0,0,0,0,0,0,0,0,0,0,0,0,0,0,0,0,0,0,0,0,0,0,0,0,0,0,0,0,0,0,0,0,0,0,0,0,0,0,0,0,0,0,0,0,0,0,0,0,0,0,
1516,0,1516,0,1516,0,1516,0,1516,0,1516,0,1516,0,1516,0,1516,0,1516,0,1516,0,1516,0,1516,0,1516,0,1516,0,1516,0,1516,0,1516,0,1516,0,1516,0,1516,0,0,0,0,0,0,0,0,0,
0,0,0,0,0,0,0,0,0,0,0,0,0,0,0,0,0,0,0,0,0,0,0,0,0,0,0,0,0,0,0,0,0,0,0,0,0,0,0,0,0,0,0,0,0,0,0,0,0,0,
1516,0,1516,0,1516,0,1516,0,1516,0,1516,0,1516,0,1516,0,1516,0,1516,0,1516,0,1516,0,1516,0,1516,0,1516,0,1516,0,1516,0,1516,0,1516,0,1516,0,1516,0,0,0,0,0,0,0,0,0,
0,0,0,0,0,0,0,0,0,0,0,0,0,0,0,0,0,0,0,0,0,0,0,0,0,0,0,0,0,0,0,0,0,0,0,0,0,0,0,0,0,0,0,0,0,0,0,0,0,0,
1516,0,1516,0,1516,0,1516,0,1516,0,1516,0,1516,0,1516,0,1516,0,1516,0,1516,0,1516,0,1516,0,1516,0,1516,0,1516,0,1516,0,1516,0,1516,0,1516,0,1516,0,0,0,0,0,0,0,0,0,
0,0,0,0,0,0,0,0,0,0,0,0,0,0,0,0,0,0,0,0,0,0,0,0,0,0,0,0,0,0,0,0,0,0,0,0,0,0,0,0,0,0,0,0,0,0,0,0,0,0,
1516,0,1516,0,1516,0,1516,0,1516,0,1516,0,1516,0,1516,0,1516,0,1516,0,1516,0,1516,0,1516,0,1516,0,1516,0,1516,0,1516,0,1516,0,1516,0,1516,0,1516,0,0,0,0,0,0,0,0,0,
0,0,0,0,0,0,0,0,0,0,0,0,0,0,0,0,0,0,0,0,0,0,0,0,0,0,0,0,0,0,0,0,0,0,0,0,0,0,0,0,0,0,0,0,0,0,0,0,0,0,
1516,0,1516,0,1516,0,1516,0,1516,0,1516,0,1516,0,1516,0,1516,0,1516,0,1516,0,1516,0,1516,0,1516,0,1516,0,1516,0,1516,0,1516,0,1516,0,1516,0,1516,0,0,0,0,0,0,0,0,0,
0,0,0,0,0,0,0,0,0,0,0,0,0,0,0,0,0,0,0,0,0,0,0,0,0,0,0,0,0,0,0,0,0,0,0,0,0,0,0,0,0,0,0,0,0,0,0,0,0,0,
1516,0,1516,0,1516,0,1516,0,1516,0,1516,0,1516,0,1516,0,1516,0,1516,0,1516,0,1516,0,1516,0,1516,0,1516,0,1516,0,1516,0,1516,0,1516,0,1516,0,1516,0,0,0,0,0,0,0,0,0,
0,0,0,0,0,0,0,0,0,0,0,0,0,0,0,0,0,0,0,0,0,0,0,0,0,0,0,0,0,0,0,0,0,0,0,0,0,0,0,0,0,0,0,0,0,0,0,0,0,0,
1516,0,1516,0,1516,0,1516,0,1516,0,1516,0,1516,0,1516,0,1516,0,1516,0,1516,0,1516,0,1516,0,1516,0,1516,0,1516,0,1516,0,1516,0,1516,0,1516,0,1516,0,0,0,0,0,0,0,0,0,
0,0,0,0,0,0,0,0,0,0,0,0,0,0,0,0,0,0,0,0,0,0,0,0,0,0,0,0,0,0,0,0,0,0,0,0,0,0,0,0,0,0,0,0,0,0,0,0,0,0,
1516,0,1516,0,1516,0,1516,0,1516,0,1516,0,1516,0,1516,0,1516,0,1516,0,1516,0,1516,0,1516,0,1516,0,1516,0,1516,0,1516,0,1516,0,1516,0,1516,0,1516,0,0,0,0,0,0,0,0,0,
0,0,0,0,0,0,0,0,0,0,0,0,0,0,0,0,0,0,0,0,0,0,0,0,0,0,0,0,0,0,0,0,0,0,0,0,0,0,0,0,0,0,0,0,0,0,0,0,0,0,
1516,0,1516,0,1516,0,1516,0,1516,0,1516,0,1516,0,1516,0,1516,0,1516,0,1516,0,1516,0,1516,0,1516,0,1516,0,1516,0,1516,0,1516,0,1516,0,1516,0,1516,0,0,0,0,0,0,0,0,0,
0,0,0,0,0,0,0,0,0,0,0,0,0,0,0,0,0,0,0,0,0,0,0,0,0,0,0,0,0,0,0,0,0,0,0,0,0,0,0,0,0,0,0,0,0,0,0,0,0,0,
1516,0,1516,0,1516,0,1516,0,1516,0,1516,0,1516,0,1516,0,1516,0,1516,0,1516,0,1516,0,1516,0,1516,0,1516,0,1516,0,1516,0,1516,0,1516,0,1516,0,1516,0,0,0,0,0,0,0,0,0,
0,0,0,0,0,0,0,0,0,0,0,0,0,0,0,0,0,0,0,0,0,0,0,0,0,0,0,0,0,0,0,0,0,0,0,0,0,0,0,0,0,0,0,0,0,0,0,0,0,0,
1516,0,1516,0,1516,0,1516,0,1516,0,1516,0,1516,0,1516,0,1516,0,1516,0,1516,0,1516,0,1516,0,1516,0,1516,0,1516,0,1516,0,1516,0,1516,0,1516,0,1516,0,0,0,0,0,0,0,0,0,
0,0,0,0,0,0,0,0,0,0,0,0,0,0,0,0,0,0,0,0,0,0,0,0,0,0,0,0,0,0,0,0,0,0,0,0,0,0,0,0,0,0,0,0,0,0,0,0,0,0,
1516,0,1516,0,1516,0,1516,0,1516,0,1516,0,1516,0,1516,0,1516,0,1516,0,1516,0,1516,0,1516,0,1516,0,1516,0,1516,0,1516,0,1516,0,1516,0,1516,0,1516,0,0,0,0,0,0,0,0,0,
0,0,0,0,0,0,0,0,0,0,0,0,0,0,0,0,0,0,0,0,0,0,0,0,0,0,0,0,0,0,0,0,0,0,0,0,0,0,0,0,0,0,0,0,0,0,0,0,0,0,
1516,0,1516,0,1516,0,1516,0,1516,0,1516,0,1516,0,1516,0,1516,0,1516,0,1516,0,1516,0,1516,0,1516,0,1516,0,1516,0,1516,0,1516,0,1516,0,1516,0,1516,0,0,0,0,0,0,0,0,0,
0,0,0,0,0,0,0,0,0,0,0,0,0,0,0,0,0,0,0,0,0,0,0,0,0,0,0,0,0,0,0,0,0,0,0,0,0,0,0,0,0,0,0,0,0,0,0,0,0,0,
1516,0,1516,0,1516,0,1516,0,1516,0,1516,0,1516,0,1516,0,1516,0,1516,0,1516,0,1516,0,1516,0,1516,0,1516,0,1516,0,1516,0,1516,0,1516,0,1516,0,1516,0,0,0,0,0,0,0,0,0,
0,0,0,0,0,0,0,0,0,0,0,0,0,0,0,0,0,0,0,0,0,0,0,0,0,0,0,0,0,0,0,0,0,0,0,0,0,0,0,0,0,0,0,0,0,0,0,0,0,0,
1516,0,1516,0,1516,0,1516,0,1516,0,1516,0,1516,0,1516,0,1516,0,1516,0,1516,0,1516,0,1516,0,1516,0,1516,0,1516,0,1516,0,1516,0,1516,0,1516,0,1516,0,0,0,0,0,0,0,0,0,
0,0,0,0,0,0,0,0,0,0,0,0,0,0,0,0,0,0,0,0,0,0,0,0,0,0,0,0,0,0,0,0,0,0,0,0,0,0,0,0,0,0,0,0,0,0,0,0,0,0,
1516,0,1516,0,1516,0,1516,0,1516,0,1516,0,1516,0,1516,0,1516,0,1516,0,1516,0,1516,0,1516,0,1516,0,1516,0,1516,0,1516,0,1516,0,1516,0,1516,0,1516,0,0,0,0,0,0,0,0,0,
0,0,0,0,0,0,0,0,0,0,0,0,0,0,0,0,0,0,0,0,0,0,0,0,0,0,0,0,0,0,0,0,0,0,0,0,0,0,0,0,0,0,0,0,0,0,0,0,0,0,
1516,0,1516,0,1516,0,1516,0,1516,0,1516,0,1516,0,1516,0,1516,0,1516,0,1516,0,1516,0,1516,0,1516,0,1516,0,1516,0,1516,0,1516,0,1516,0,1516,0,1516,0,0,0,0,0,0,0,0,0,
0,0,0,0,0,0,0,0,0,0,0,0,0,0,0,0,0,0,0,0,0,0,0,0,0,0,0,0,0,0,0,0,0,0,0,0,0,0,0,0,0,0,0,0,0,0,0,0,0,0,
1516,0,1516,0,1516,0,1516,0,1516,0,1516,0,1516,0,1516,0,1516,0,1516,0,1516,0,1516,0,1516,0,1516,0,1516,0,1516,0,1516,0,1516,0,1516,0,1516,0,1516,0,0,0,0,0,0,0,0,0,
0,0,0,0,0,0,0,0,0,0,0,0,0,0,0,0,0,0,0,0,0,0,0,0,0,0,0,0,0,0,0,0,0,0,0,0,0,0,0,0,0,0,0,0,0,0,0,0,0,0,
0,0,0,0,0,0,0,0,0,0,0,0,0,0,0,0,0,0,0,0,0,0,0,0,0,0,0,0,0,0,0,0,0,0,0,0,0,0,0,0,0,0,0,0,0,0,0,0,0,0,
0,0,0,0,0,0,0,0,0,0,0,0,0,0,0,0,0,0,0,0,0,0,0,0,0,0,0,0,0,0,0,0,0,0,0,0,0,0,0,0,0,0,0,0,0,0,0,0,0,0,
0,0,0,0,0,0,0,0,0,0,0,0,0,0,0,0,0,0,0,0,0,0,0,0,0,0,0,0,0,0,0,0,0,0,0,0,0,0,0,0,0,0,0,0,0,0,0,0,0,0,
0,0,0,0,0,0,0,0,0,0,0,0,0,0,0,0,0,0,0,0,0,0,0,0,0,0,0,0,0,0,0,0,0,0,0,0,0,0,0,0,0,0,0,0,0,0,0,0,0,0,
0,0,0,0,0,0,0,0,0,0,0,0,0,0,0,0,0,0,0,0,0,0,0,0,0,0,0,0,0,0,0,0,0,0,0,0,0,0,0,0,0,0,0,0,0,0,0,0,0,0,
0,0,0,0,0,0,0,0,0,0,0,0,0,0,0,0,0,0,0,0,0,0,0,0,0,0,0,0,0,0,0,0,0,0,0,0,0,0,0,0,0,0,0,0,0,0,0,0,0,0,
0,0,0,0,0,0,0,0,0,0,0,0,0,0,0,0,0,0,0,0,0,0,0,0,0,0,0,0,0,0,0,0,0,0,0,0,0,0,0,0,0,0,0,0,0,0,0,0,0,0,
0,0,0,0,0,0,0,0,0,0,0,0,0,0,0,0,0,0,0,0,0,0,0,0,0,0,0,0,0,0,0,0,0,0,0,0,0,0,0,0,0,0,0,0,0,0,0,0,0,0
</data>
 </layer>
 <objectgroup draworder="index" id="3" name="Impl_Ritual">
  <object id="1" template="../../../templates/dungeon/obj_dungeon_ritual_altar.tx" type="obj_dungeon_ritual_altar" x="168" y="247"/>
 </objectgroup>
 <objectgroup draworder="index" id="4" name="Instances">
  <object id="2" template="../../../templates/dungeon/obj_dungeon_ladder_up.tx" type="obj_dungeon_ladder_up" x="192" y="352"/>
 </objectgroup>
 <objectgroup draworder="index" id="5" name="Level_0_Assets">
  <object id="3" type="asset" gid="181" x="96" y="189" width="48" height="64"/>
  <object id="4" type="asset" gid="974" x="120" y="136" width="32" height="64"/>
  <object id="5" type="asset" gid="974" x="56" y="200" width="32" height="64"/>
  <object id="6" type="asset" gid="974" x="56" y="312" width="32" height="64"/>
  <object id="7" type="asset" gid="974" x="120" y="376" width="32" height="64"/>
  <object id="8" type="asset" gid="181" x="96" y="333" width="48" height="64"/>
  <object id="9" type="asset" gid="974" x="248" y="136" width="32" height="64"/>
  <object id="10" type="asset" gid="974" x="312" y="200" width="32" height="64"/>
  <object id="11" type="asset" gid="974" x="312" y="312" width="32" height="64"/>
  <object id="12" type="asset" gid="974" x="248" y="376" width="32" height="64"/>
  <object id="13" type="asset" gid="181" x="256" y="189" width="48" height="64"/>
  <object id="14" type="asset" gid="181" x="256" y="333" width="48" height="64"/>
  <object id="15" type="asset" gid="454" x="176" y="272" width="48" height="32"/>
  <object id="16" type="asset" gid="914" x="152" y="120" width="48" height="64"/>
  <object id="17" type="asset" gid="1017" x="200" y="120" width="48" height="64"/>
  <object id="18" type="asset" gid="1234" x="184" y="120" width="32" height="64"/>
 </objectgroup>
</map>
