<?xml version="1.0" encoding="UTF-8"?>
<map version="1.10" tiledversion="1.11.2" class="Dungeon" orientation="orthogonal" renderorder="right-down" width="74" height="108" tilewidth="8" tileheight="8" infinite="0" backgroundcolor="#3a003a" nextlayerid="8" nextobjectid="16">
 <tileset firstgid="1" source="../../../__gm_import.tsx"/>
 <tileset firstgid="1504" source="../../../tile_sets/Dungeon/Prototype/tile_dungeon_prototype.tsx"/>
 <tileset firstgid="1516" source="../../../tile_sets/Dungeon/Prototype/tile_main_dungeon_tile_chance.tsx"/>
 <layer id="1" name="Prototype" width="74" height="108">
  <properties>
   <property name="maybe_animation_id" value="c523b4ebab90977e"/>
   <property name="maybe_tileset_id" value="1f279aa214066309"/>
   <property name="tile_size" type="int" value="16"/>
  </properties>
  <data encoding="csv">
1504,0,1504,0,1504,0,1504,0,1504,0,1504,0,1504,0,1504,0,1504,0,1504,0,1504,0,1504,0,1504,0,1504,0,1504,0,1504,0,1504,0,1504,0,1504,0,1504,0,1504,0,1504,0,1504,0,1504,0,1504,0,1504,0,1504,0,1504,0,1504,0,1504,0,1504,0,1504,0,1504,0,1504,0,1504,0,1504,0,1504,0,
0,0,0,0,0,0,0,0,0,0,0,0,0,0,0,0,0,0,0,0,0,0,0,0,0,0,0,0,0,0,0,0,0,0,0,0,0,0,0,0,0,0,0,0,0,0,0,0,0,0,0,0,0,0,0,0,0,0,0,0,0,0,0,0,0,0,0,0,0,0,0,0,0,0,
1504,0,1504,0,1504,0,1504,0,1504,0,1504,0,1504,0,1504,0,1504,0,1504,0,1504,0,1504,0,1504,0,1504,0,1504,0,1504,0,1504,0,1504,0,1504,0,1504,0,1504,0,1504,0,1504,0,1504,0,1504,0,1504,0,1504,0,1504,0,1504,0,1504,0,1504,0,1504,0,1504,0,1504,0,1504,0,1504,0,1504,0,
0,0,0,0,0,0,0,0,0,0,0,0,0,0,0,0,0,0,0,0,0,0,0,0,0,0,0,0,0,0,0,0,0,0,0,0,0,0,0,0,0,0,0,0,0,0,0,0,0,0,0,0,0,0,0,0,0,0,0,0,0,0,0,0,0,0,0,0,0,0,0,0,0,0,
1504,0,1504,0,1504,0,1504,0,1504,0,1504,0,1504,0,1504,0,1504,0,1504,0,1504,0,1504,0,1504,0,1504,0,1504,0,1504,0,1504,0,1504,0,1504,0,1504,0,1504,0,1504,0,1504,0,1504,0,1504,0,1504,0,1504,0,1504,0,1504,0,1504,0,1504,0,1504,0,1504,0,1504,0,1504,0,1504,0,1504,0,
0,0,0,0,0,0,0,0,0,0,0,0,0,0,0,0,0,0,0,0,0,0,0,0,0,0,0,0,0,0,0,0,0,0,0,0,0,0,0,0,0,0,0,0,0,0,0,0,0,0,0,0,0,0,0,0,0,0,0,0,0,0,0,0,0,0,0,0,0,0,0,0,0,0,
1504,0,1504,0,1504,0,1504,0,1504,0,1504,0,1504,0,1504,0,1504,0,1504,0,1504,0,1504,0,1504,0,1504,0,1504,0,1504,0,1504,0,1504,0,1504,0,1504,0,1504,0,1504,0,1504,0,1504,0,1504,0,1504,0,1504,0,1504,0,1504,0,1504,0,1504,0,1504,0,1504,0,1504,0,1504,0,1504,0,1504,0,
0,0,0,0,0,0,0,0,0,0,0,0,0,0,0,0,0,0,0,0,0,0,0,0,0,0,0,0,0,0,0,0,0,0,0,0,0,0,0,0,0,0,0,0,0,0,0,0,0,0,0,0,0,0,0,0,0,0,0,0,0,0,0,0,0,0,0,0,0,0,0,0,0,0,
1504,0,1504,0,1504,0,1504,0,1504,0,1504,0,1504,0,1504,0,1504,0,1504,0,1504,0,1504,0,1504,0,1504,0,1504,0,1504,0,1504,0,1504,0,1504,0,1504,0,1504,0,1504,0,1504,0,1504,0,1504,0,1504,0,1504,0,1504,0,1504,0,1504,0,1504,0,1504,0,1504,0,1504,0,1504,0,1504,0,1504,0,
0,0,0,0,0,0,0,0,0,0,0,0,0,0,0,0,0,0,0,0,0,0,0,0,0,0,0,0,0,0,0,0,0,0,0,0,0,0,0,0,0,0,0,0,0,0,0,0,0,0,0,0,0,0,0,0,0,0,0,0,0,0,0,0,0,0,0,0,0,0,0,0,0,0,
1504,0,1504,0,1504,0,1504,0,1504,0,1504,0,1504,0,1504,0,1504,0,1504,0,1504,0,1504,0,1504,0,1504,0,1504,0,1504,0,1504,0,1504,0,1504,0,1504,0,1504,0,1504,0,1504,0,1504,0,1504,0,1504,0,1504,0,1504,0,1504,0,1504,0,1504,0,1504,0,1504,0,1504,0,1504,0,1504,0,1504,0,
0,0,0,0,0,0,0,0,0,0,0,0,0,0,0,0,0,0,0,0,0,0,0,0,0,0,0,0,0,0,0,0,0,0,0,0,0,0,0,0,0,0,0,0,0,0,0,0,0,0,0,0,0,0,0,0,0,0,0,0,0,0,0,0,0,0,0,0,0,0,0,0,0,0,
1504,0,1504,0,1504,0,1504,0,1504,0,1504,0,1504,0,1504,0,1504,0,1504,0,1504,0,1504,0,1504,0,1504,0,1504,0,1504,0,1504,0,1504,0,1504,0,1504,0,1504,0,1504,0,1504,0,1504,0,1504,0,1504,0,1504,0,1504,0,1504,0,1504,0,1504,0,1504,0,1504,0,1504,0,1504,0,1504,0,1504,0,
0,0,0,0,0,0,0,0,0,0,0,0,0,0,0,0,0,0,0,0,0,0,0,0,0,0,0,0,0,0,0,0,0,0,0,0,0,0,0,0,0,0,0,0,0,0,0,0,0,0,0,0,0,0,0,0,0,0,0,0,0,0,0,0,0,0,0,0,0,0,0,0,0,0,
1504,0,1504,0,1504,0,1504,0,1504,0,1504,0,1504,0,1504,0,1504,0,1504,0,1504,0,1504,0,1504,0,1504,0,1504,0,1504,0,1504,0,1504,0,1504,0,1504,0,1504,0,1504,0,1504,0,1504,0,1504,0,1504,0,1504,0,1504,0,1504,0,1504,0,1504,0,1504,0,1504,0,1504,0,1504,0,1504,0,1504,0,
0,0,0,0,0,0,0,0,0,0,0,0,0,0,0,0,0,0,0,0,0,0,0,0,0,0,0,0,0,0,0,0,0,0,0,0,0,0,0,0,0,0,0,0,0,0,0,0,0,0,0,0,0,0,0,0,0,0,0,0,0,0,0,0,0,0,0,0,0,0,0,0,0,0,
1504,0,1504,0,1504,0,1504,0,1504,0,1504,0,1504,0,1504,0,1504,0,1504,0,1504,0,1504,0,1504,0,1504,0,1504,0,1504,0,1504,0,1504,0,1504,0,1504,0,1504,0,1504,0,1504,0,1504,0,1504,0,1504,0,1504,0,1504,0,1504,0,1504,0,1504,0,1504,0,1504,0,1504,0,1504,0,1504,0,1504,0,
0,0,0,0,0,0,0,0,0,0,0,0,0,0,0,0,0,0,0,0,0,0,0,0,0,0,0,0,0,0,0,0,0,0,0,0,0,0,0,0,0,0,0,0,0,0,0,0,0,0,0,0,0,0,0,0,0,0,0,0,0,0,0,0,0,0,0,0,0,0,0,0,0,0,
1504,0,1504,0,1504,0,1504,0,1504,0,1504,0,1504,0,1504,0,1504,0,1504,0,1504,0,1504,0,1504,0,1504,0,1504,0,1504,0,1504,0,1504,0,1504,0,1504,0,1504,0,1504,0,1504,0,1504,0,1504,0,1504,0,1504,0,1504,0,1504,0,1504,0,1504,0,1504,0,1504,0,1504,0,1504,0,1504,0,1504,0,
0,0,0,0,0,0,0,0,0,0,0,0,0,0,0,0,0,0,0,0,0,0,0,0,0,0,0,0,0,0,0,0,0,0,0,0,0,0,0,0,0,0,0,0,0,0,0,0,0,0,0,0,0,0,0,0,0,0,0,0,0,0,0,0,0,0,0,0,0,0,0,0,0,0,
1504,0,1504,0,1504,0,1504,0,1504,0,1504,0,1504,0,1504,0,1504,0,1504,0,1504,0,1504,0,1504,0,1504,0,1504,0,1504,0,1504,0,1504,0,1504,0,1504,0,1504,0,1504,0,1504,0,1504,0,1504,0,1504,0,1504,0,1504,0,1504,0,1504,0,1504,0,1504,0,1504,0,1504,0,1504,0,1504,0,1504,0,
0,0,0,0,0,0,0,0,0,0,0,0,0,0,0,0,0,0,0,0,0,0,0,0,0,0,0,0,0,0,0,0,0,0,0,0,0,0,0,0,0,0,0,0,0,0,0,0,0,0,0,0,0,0,0,0,0,0,0,0,0,0,0,0,0,0,0,0,0,0,0,0,0,0,
1504,0,1504,0,1504,0,1504,0,1504,0,1504,0,1506,0,1506,0,1506,0,1506,0,1504,0,1504,0,1504,0,1504,0,1504,0,1504,0,1504,0,1504,0,1504,0,1504,0,1504,0,1504,0,1504,0,1504,0,1504,0,1504,0,1504,0,1504,0,1504,0,1504,0,1504,0,1504,0,1504,0,1504,0,1504,0,1504,0,1504,0,
0,0,0,0,0,0,0,0,0,0,0,0,0,0,0,0,0,0,0,0,0,0,0,0,0,0,0,0,0,0,0,0,0,0,0,0,0,0,0,0,0,0,0,0,0,0,0,0,0,0,0,0,0,0,0,0,0,0,0,0,0,0,0,0,0,0,0,0,0,0,0,0,0,0,
1504,0,1504,0,1504,0,1504,0,1504,0,1506,0,1505,0,1505,0,1505,0,1505,0,1506,0,1506,0,1506,0,1504,0,1504,0,1504,0,1504,0,1504,0,1504,0,1504,0,1504,0,1504,0,1504,0,1504,0,1504,0,1504,0,1504,0,1504,0,1504,0,1504,0,1504,0,1504,0,1504,0,1504,0,1504,0,1504,0,1504,0,
0,0,0,0,0,0,0,0,0,0,0,0,0,0,0,0,0,0,0,0,0,0,0,0,0,0,0,0,0,0,0,0,0,0,0,0,0,0,0,0,0,0,0,0,0,0,0,0,0,0,0,0,0,0,0,0,0,0,0,0,0,0,0,0,0,0,0,0,0,0,0,0,0,0,
1504,0,1504,0,1504,0,1504,0,1504,0,1506,0,1505,0,1505,0,1505,0,1510,0,1510,0,1505,0,1505,0,1506,0,1506,0,1504,0,1504,0,1504,0,1504,0,1504,0,1504,0,1504,0,1504,0,1504,0,1504,0,1504,0,1504,0,1504,0,1504,0,1504,0,1504,0,1504,0,1504,0,1504,0,1504,0,1504,0,1504,0,
0,0,0,0,0,0,0,0,0,0,0,0,0,0,0,0,0,0,0,0,0,0,0,0,0,0,0,0,0,0,0,0,0,0,0,0,0,0,0,0,0,0,0,0,0,0,0,0,0,0,0,0,0,0,0,0,0,0,0,0,0,0,0,0,0,0,0,0,0,0,0,0,0,0,
1504,0,1504,0,1504,0,1504,0,1504,0,1506,0,1505,0,1505,0,1510,0,1510,0,1510,0,1505,0,1505,0,1505,0,1505,0,1506,0,1504,0,1504,0,1504,0,1504,0,1504,0,1504,0,1504,0,1504,0,1504,0,1504,0,1504,0,1504,0,1504,0,1504,0,1504,0,1504,0,1504,0,1504,0,1504,0,1504,0,1504,0,
0,0,0,0,0,0,0,0,0,0,0,0,0,0,0,0,0,0,0,0,0,0,0,0,0,0,0,0,0,0,0,0,0,0,0,0,0,0,0,0,0,0,0,0,0,0,0,0,0,0,0,0,0,0,0,0,0,0,0,0,0,0,0,0,0,0,0,0,0,0,0,0,0,0,
1504,0,1504,0,1504,0,1504,0,1504,0,1506,0,1510,0,1510,0,1510,0,1510,0,1510,0,1505,0,1505,0,1505,0,1505,0,1505,0,1506,0,1504,0,1504,0,1504,0,1504,0,1504,0,1504,0,1504,0,1504,0,1504,0,1504,0,1504,0,1504,0,1504,0,1504,0,1504,0,1504,0,1504,0,1504,0,1504,0,1504,0,
0,0,0,0,0,0,0,0,0,0,0,0,0,0,0,0,0,0,0,0,0,0,0,0,0,0,0,0,0,0,0,0,0,0,0,0,0,0,0,0,0,0,0,0,0,0,0,0,0,0,0,0,0,0,0,0,0,0,0,0,0,0,0,0,0,0,0,0,0,0,0,0,0,0,
1504,0,1504,0,1504,0,1504,0,1504,0,1506,0,1510,0,1510,0,1510,0,1510,0,1510,0,1505,0,1505,0,1508,0,1505,0,1505,0,1506,0,1504,0,1504,0,1504,0,1504,0,1504,0,1504,0,1504,0,1504,0,1504,0,1506,0,1506,0,1506,0,1506,0,1506,0,1504,0,1504,0,1504,0,1504,0,1504,0,1504,0,
0,0,0,0,0,0,0,0,0,0,0,0,0,0,0,0,0,0,0,0,0,0,0,0,0,0,0,0,0,0,0,0,0,0,0,0,0,0,0,0,0,0,0,0,0,0,0,0,0,0,0,0,0,0,0,0,0,0,0,0,0,0,0,0,0,0,0,0,0,0,0,0,0,0,
1504,0,1504,0,1504,0,1504,0,1506,0,1510,0,1510,0,1510,0,1510,0,1510,0,1510,0,1510,0,1505,0,1505,0,1505,0,1505,0,1506,0,1504,0,1504,0,1504,0,1504,0,1504,0,1504,0,1504,0,1504,0,1506,0,1505,0,1505,0,1509,0,1509,0,1509,0,1506,0,1504,0,1504,0,1504,0,1504,0,1504,0,
0,0,0,0,0,0,0,0,0,0,0,0,0,0,0,0,0,0,0,0,0,0,0,0,0,0,0,0,0,0,0,0,0,0,0,0,0,0,0,0,0,0,0,0,0,0,0,0,0,0,0,0,0,0,0,0,0,0,0,0,0,0,0,0,0,0,0,0,0,0,0,0,0,0,
1504,0,1504,0,1504,0,1504,0,1506,0,1510,0,1510,0,1510,0,1510,0,1510,0,1510,0,1510,0,1505,0,1505,0,1505,0,1505,0,1506,0,1504,0,1504,0,1504,0,1504,0,1504,0,1504,0,1504,0,1504,0,1506,0,1505,0,1509,0,1509,0,1509,0,1509,0,1506,0,1504,0,1504,0,1504,0,1504,0,1504,0,
0,0,0,0,0,0,0,0,0,0,0,0,0,0,0,0,0,0,0,0,0,0,0,0,0,0,0,0,0,0,0,0,0,0,0,0,0,0,0,0,0,0,0,0,0,0,0,0,0,0,0,0,0,0,0,0,0,0,0,0,0,0,0,0,0,0,0,0,0,0,0,0,0,0,
1504,0,1504,0,1504,0,1504,0,1506,0,1510,0,1510,0,1510,0,1510,0,1510,0,1510,0,1510,0,1505,0,1505,0,1505,0,1505,0,1506,0,1504,0,1504,0,1504,0,1504,0,1504,0,1504,0,1504,0,1504,0,1506,0,1505,0,1509,0,1509,0,1509,0,1509,0,1506,0,1504,0,1504,0,1504,0,1504,0,1504,0,
0,0,0,0,0,0,0,0,0,0,0,0,0,0,0,0,0,0,0,0,0,0,0,0,0,0,0,0,0,0,0,0,0,0,0,0,0,0,0,0,0,0,0,0,0,0,0,0,0,0,0,0,0,0,0,0,0,0,0,0,0,0,0,0,0,0,0,0,0,0,0,0,0,0,
1504,0,1504,0,1504,0,1504,0,1506,0,1510,0,1510,0,1510,0,1510,0,1510,0,1510,0,1505,0,1505,0,1508,0,1505,0,1505,0,1505,0,1506,0,1504,0,1504,0,1504,0,1504,0,1504,0,1504,0,1504,0,1506,0,1505,0,1509,0,1509,0,1509,0,1509,0,1505,0,1506,0,1504,0,1504,0,1504,0,1504,0,
0,0,0,0,0,0,0,0,0,0,0,0,0,0,0,0,0,0,0,0,0,0,0,0,0,0,0,0,0,0,0,0,0,0,0,0,0,0,0,0,0,0,0,0,0,0,0,0,0,0,0,0,0,0,0,0,0,0,0,0,0,0,0,0,0,0,0,0,0,0,0,0,0,0,
1504,0,1504,0,1504,0,1504,0,1504,0,1506,0,1510,0,1510,0,1510,0,1510,0,1510,0,1505,0,1505,0,1505,0,1505,0,1505,0,1505,0,1505,0,1506,0,1504,0,1504,0,1504,0,1504,0,1504,0,1504,0,1506,0,1505,0,1505,0,1509,0,1505,0,1505,0,1505,0,1505,0,1506,0,1504,0,1504,0,1504,0,
0,0,0,0,0,0,0,0,0,0,0,0,0,0,0,0,0,0,0,0,0,0,0,0,0,0,0,0,0,0,0,0,0,0,0,0,0,0,0,0,0,0,0,0,0,0,0,0,0,0,0,0,0,0,0,0,0,0,0,0,0,0,0,0,0,0,0,0,0,0,0,0,0,0,
1504,0,1504,0,1504,0,1504,0,1504,0,1506,0,1505,0,1505,0,1505,0,1505,0,1505,0,1505,0,1505,0,1505,0,1505,0,1505,0,1505,0,1505,0,1505,0,1506,0,1504,0,1504,0,1504,0,1504,0,1506,0,1506,0,1505,0,1505,0,1505,0,1505,0,1505,0,1505,0,1505,0,1506,0,1504,0,1504,0,1504,0,
0,0,0,0,0,0,0,0,0,0,0,0,0,0,0,0,0,0,0,0,0,0,0,0,0,0,0,0,0,0,0,0,0,0,0,0,0,0,0,0,0,0,0,0,0,0,0,0,0,0,0,0,0,0,0,0,0,0,0,0,0,0,0,0,0,0,0,0,0,0,0,0,0,0,
1504,0,1504,0,1504,0,1504,0,1504,0,1506,0,1505,0,1505,0,1505,0,1505,0,1505,0,1505,0,1505,0,1505,0,1505,0,1505,0,1505,0,1505,0,1505,0,1505,0,1506,0,1506,0,1506,0,1506,0,1512,0,1512,0,1505,0,1505,0,1505,0,1505,0,1505,0,1505,0,1505,0,1505,0,1506,0,1504,0,1504,0,
0,0,0,0,0,0,0,0,0,0,0,0,0,0,0,0,0,0,0,0,0,0,0,0,0,0,0,0,0,0,0,0,0,0,0,0,0,0,0,0,0,0,0,0,0,0,0,0,0,0,0,0,0,0,0,0,0,0,0,0,0,0,0,0,0,0,0,0,0,0,0,0,0,0,
1504,0,1504,0,1504,0,1506,0,1506,0,1505,0,1505,0,1507,0,1507,0,1507,0,1505,0,1505,0,1505,0,1505,0,1505,0,1505,0,1505,0,1508,0,1505,0,1505,0,1505,0,1505,0,1505,0,1505,0,1512,0,1512,0,1505,0,1505,0,1505,0,1505,0,1505,0,1505,0,1505,0,1505,0,1506,0,1504,0,1504,0,
0,0,0,0,0,0,0,0,0,0,0,0,0,0,0,0,0,0,0,0,0,0,0,0,0,0,0,0,0,0,0,0,0,0,0,0,0,0,0,0,0,0,0,0,0,0,0,0,0,0,0,0,0,0,0,0,0,0,0,0,0,0,0,0,0,0,0,0,0,0,0,0,0,0,
1504,0,1504,0,1504,0,1506,0,1505,0,1505,0,1507,0,1507,0,1507,0,1507,0,1505,0,1505,0,1505,0,1505,0,1505,0,1505,0,1508,0,1508,0,1508,0,1505,0,1505,0,1505,0,1505,0,1505,0,1512,0,1512,0,1512,0,1505,0,1505,0,1505,0,1505,0,1505,0,1505,0,1505,0,1506,0,1504,0,1504,0,
0,0,0,0,0,0,0,0,0,0,0,0,0,0,0,0,0,0,0,0,0,0,0,0,0,0,0,0,0,0,0,0,0,0,0,0,0,0,0,0,0,0,0,0,0,0,0,0,0,0,0,0,0,0,0,0,0,0,0,0,0,0,0,0,0,0,0,0,0,0,0,0,0,0,
1504,0,1504,0,1504,0,1506,0,1505,0,1507,0,1507,0,1507,0,1507,0,1507,0,1505,0,1505,0,1505,0,1505,0,1505,0,1508,0,1508,0,1508,0,1508,0,1508,0,1505,0,1505,0,1505,0,1505,0,1505,0,1512,0,1512,0,1505,0,1505,0,1505,0,1505,0,1505,0,1505,0,1505,0,1506,0,1504,0,1504,0,
0,0,0,0,0,0,0,0,0,0,0,0,0,0,0,0,0,0,0,0,0,0,0,0,0,0,0,0,0,0,0,0,0,0,0,0,0,0,0,0,0,0,0,0,0,0,0,0,0,0,0,0,0,0,0,0,0,0,0,0,0,0,0,0,0,0,0,0,0,0,0,0,0,0,
1504,0,1504,0,1504,0,1506,0,1505,0,1507,0,1507,0,1507,0,1507,0,1505,0,1505,0,1505,0,1505,0,1505,0,1505,0,1508,0,1508,0,1508,0,1508,0,1505,0,1505,0,1505,0,1505,0,1505,0,1505,0,1512,0,1512,0,1505,0,1505,0,1505,0,1505,0,1505,0,1505,0,1505,0,1506,0,1504,0,1504,0,
0,0,0,0,0,0,0,0,0,0,0,0,0,0,0,0,0,0,0,0,0,0,0,0,0,0,0,0,0,0,0,0,0,0,0,0,0,0,0,0,0,0,0,0,0,0,0,0,0,0,0,0,0,0,0,0,0,0,0,0,0,0,0,0,0,0,0,0,0,0,0,0,0,0,
1504,0,1504,0,1504,0,1506,0,1507,0,1507,0,1507,0,1507,0,1505,0,1505,0,1505,0,1505,0,1505,0,1505,0,1508,0,1508,0,1508,0,1508,0,1505,0,1505,0,1505,0,1505,0,1505,0,1505,0,1505,0,1512,0,1512,0,1505,0,1505,0,1505,0,1505,0,1505,0,1505,0,1505,0,1506,0,1504,0,1504,0,
0,0,0,0,0,0,0,0,0,0,0,0,0,0,0,0,0,0,0,0,0,0,0,0,0,0,0,0,0,0,0,0,0,0,0,0,0,0,0,0,0,0,0,0,0,0,0,0,0,0,0,0,0,0,0,0,0,0,0,0,0,0,0,0,0,0,0,0,0,0,0,0,0,0,
1504,0,1504,0,1504,0,1506,0,1505,0,1507,0,1505,0,1505,0,1505,0,1505,0,1505,0,1505,0,1505,0,1505,0,1505,0,1508,0,1508,0,1505,0,1505,0,1505,0,1505,0,1505,0,1505,0,1505,0,1505,0,1512,0,1512,0,1512,0,1505,0,1505,0,1505,0,1505,0,1505,0,1505,0,1506,0,1504,0,1504,0,
0,0,0,0,0,0,0,0,0,0,0,0,0,0,0,0,0,0,0,0,0,0,0,0,0,0,0,0,0,0,0,0,0,0,0,0,0,0,0,0,0,0,0,0,0,0,0,0,0,0,0,0,0,0,0,0,0,0,0,0,0,0,0,0,0,0,0,0,0,0,0,0,0,0,
1504,0,1504,0,1504,0,1506,0,1505,0,1505,0,1505,0,1505,0,1505,0,1505,0,1505,0,1505,0,1505,0,1505,0,1505,0,1505,0,1506,0,1506,0,1506,0,1506,0,1505,0,1505,0,1505,0,1508,0,1505,0,1505,0,1512,0,1512,0,1512,0,1512,0,1512,0,1506,0,1506,0,1506,0,1504,0,1504,0,1504,0,
0,0,0,0,0,0,0,0,0,0,0,0,0,0,0,0,0,0,0,0,0,0,0,0,0,0,0,0,0,0,0,0,0,0,0,0,0,0,0,0,0,0,0,0,0,0,0,0,0,0,0,0,0,0,0,0,0,0,0,0,0,0,0,0,0,0,0,0,0,0,0,0,0,0,
1504,0,1504,0,1506,0,1505,0,1505,0,1505,0,1505,0,1505,0,1505,0,1505,0,1505,0,1505,0,1505,0,1505,0,1505,0,1506,0,1504,0,1504,0,1504,0,1504,0,1506,0,1505,0,1505,0,1505,0,1505,0,1505,0,1512,0,1512,0,1512,0,1512,0,1506,0,1504,0,1504,0,1504,0,1504,0,1504,0,1504,0,
0,0,0,0,0,0,0,0,0,0,0,0,0,0,0,0,0,0,0,0,0,0,0,0,0,0,0,0,0,0,0,0,0,0,0,0,0,0,0,0,0,0,0,0,0,0,0,0,0,0,0,0,0,0,0,0,0,0,0,0,0,0,0,0,0,0,0,0,0,0,0,0,0,0,
1504,0,1504,0,1506,0,1505,0,1505,0,1505,0,1505,0,1505,0,1505,0,1505,0,1505,0,1505,0,1505,0,1505,0,1506,0,1504,0,1504,0,1504,0,1504,0,1504,0,1504,0,1506,0,1505,0,1505,0,1505,0,1505,0,1505,0,1505,0,1512,0,1512,0,1506,0,1504,0,1504,0,1504,0,1504,0,1504,0,1504,0,
0,0,0,0,0,0,0,0,0,0,0,0,0,0,0,0,0,0,0,0,0,0,0,0,0,0,0,0,0,0,0,0,0,0,0,0,0,0,0,0,0,0,0,0,0,0,0,0,0,0,0,0,0,0,0,0,0,0,0,0,0,0,0,0,0,0,0,0,0,0,0,0,0,0,
1504,0,1504,0,1506,0,1505,0,1505,0,1508,0,1505,0,1505,0,1505,0,1505,0,1505,0,1505,0,1505,0,1506,0,1504,0,1504,0,1504,0,1504,0,1504,0,1504,0,1504,0,1504,0,1506,0,1505,0,1505,0,1505,0,1505,0,1505,0,1505,0,1506,0,1506,0,1504,0,1504,0,1504,0,1504,0,1504,0,1504,0,
0,0,0,0,0,0,0,0,0,0,0,0,0,0,0,0,0,0,0,0,0,0,0,0,0,0,0,0,0,0,0,0,0,0,0,0,0,0,0,0,0,0,0,0,0,0,0,0,0,0,0,0,0,0,0,0,0,0,0,0,0,0,0,0,0,0,0,0,0,0,0,0,0,0,
1504,0,1504,0,1506,0,1505,0,1505,0,1505,0,1505,0,1505,0,1508,0,1505,0,1505,0,1505,0,1505,0,1506,0,1504,0,1504,0,1504,0,1504,0,1504,0,1504,0,1504,0,1504,0,1506,0,1505,0,1505,0,1505,0,1505,0,1505,0,1506,0,1506,0,1504,0,1504,0,1504,0,1504,0,1504,0,1504,0,1504,0,
0,0,0,0,0,0,0,0,0,0,0,0,0,0,0,0,0,0,0,0,0,0,0,0,0,0,0,0,0,0,0,0,0,0,0,0,0,0,0,0,0,0,0,0,0,0,0,0,0,0,0,0,0,0,0,0,0,0,0,0,0,0,0,0,0,0,0,0,0,0,0,0,0,0,
1504,0,1504,0,1506,0,1505,0,1505,0,1505,0,1505,0,1505,0,1505,0,1505,0,1505,0,1505,0,1505,0,1506,0,1504,0,1504,0,1504,0,1504,0,1504,0,1504,0,1504,0,1504,0,1506,0,1505,0,1505,0,1508,0,1505,0,1505,0,1506,0,1504,0,1504,0,1504,0,1504,0,1504,0,1504,0,1504,0,1504,0,
0,0,0,0,0,0,0,0,0,0,0,0,0,0,0,0,0,0,0,0,0,0,0,0,0,0,0,0,0,0,0,0,0,0,0,0,0,0,0,0,0,0,0,0,0,0,0,0,0,0,0,0,0,0,0,0,0,0,0,0,0,0,0,0,0,0,0,0,0,0,0,0,0,0,
1504,0,1504,0,1504,0,1506,0,1506,0,1505,0,1505,0,1505,0,1505,0,1505,0,1505,0,1505,0,1505,0,1506,0,1504,0,1504,0,1504,0,1504,0,1504,0,1504,0,1504,0,1504,0,1506,0,1505,0,1505,0,1505,0,1505,0,1505,0,1506,0,1504,0,1504,0,1504,0,1504,0,1504,0,1504,0,1504,0,1504,0,
0,0,0,0,0,0,0,0,0,0,0,0,0,0,0,0,0,0,0,0,0,0,0,0,0,0,0,0,0,0,0,0,0,0,0,0,0,0,0,0,0,0,0,0,0,0,0,0,0,0,0,0,0,0,0,0,0,0,0,0,0,0,0,0,0,0,0,0,0,0,0,0,0,0,
1504,0,1504,0,1504,0,1504,0,1504,0,1506,0,1505,0,1505,0,1505,0,1505,0,1505,0,1505,0,1505,0,1505,0,1506,0,1506,0,1504,0,1504,0,1504,0,1504,0,1504,0,1506,0,1505,0,1505,0,1505,0,1505,0,1505,0,1505,0,1506,0,1504,0,1504,0,1504,0,1504,0,1504,0,1504,0,1504,0,1504,0,
0,0,0,0,0,0,0,0,0,0,0,0,0,0,0,0,0,0,0,0,0,0,0,0,0,0,0,0,0,0,0,0,0,0,0,0,0,0,0,0,0,0,0,0,0,0,0,0,0,0,0,0,0,0,0,0,0,0,0,0,0,0,0,0,0,0,0,0,0,0,0,0,0,0,
1504,0,1504,0,1504,0,1504,0,1504,0,1504,0,1506,0,1505,0,1505,0,1505,0,1505,0,1505,0,1505,0,1505,0,1505,0,1505,0,1506,0,1506,0,1506,0,1506,0,1506,0,1505,0,1505,0,1505,0,1505,0,1505,0,1505,0,1505,0,1506,0,1504,0,1504,0,1504,0,1504,0,1504,0,1504,0,1504,0,1504,0,
0,0,0,0,0,0,0,0,0,0,0,0,0,0,0,0,0,0,0,0,0,0,0,0,0,0,0,0,0,0,0,0,0,0,0,0,0,0,0,0,0,0,0,0,0,0,0,0,0,0,0,0,0,0,0,0,0,0,0,0,0,0,0,0,0,0,0,0,0,0,0,0,0,0,
1504,0,1504,0,1504,0,1504,0,1504,0,1504,0,1504,0,1506,0,1506,0,1505,0,1505,0,1505,0,1505,0,1505,0,1505,0,1505,0,1505,0,1505,0,1505,0,1505,0,1505,0,1505,0,1505,0,1505,0,1505,0,1505,0,1505,0,1505,0,1506,0,1504,0,1504,0,1504,0,1504,0,1504,0,1504,0,1504,0,1504,0,
0,0,0,0,0,0,0,0,0,0,0,0,0,0,0,0,0,0,0,0,0,0,0,0,0,0,0,0,0,0,0,0,0,0,0,0,0,0,0,0,0,0,0,0,0,0,0,0,0,0,0,0,0,0,0,0,0,0,0,0,0,0,0,0,0,0,0,0,0,0,0,0,0,0,
1504,0,1504,0,1504,0,1504,0,1504,0,1504,0,1504,0,1504,0,1506,0,1506,0,1505,0,1505,0,1505,0,1505,0,1505,0,1505,0,1505,0,1505,0,1505,0,1505,0,1505,0,1505,0,1505,0,1505,0,1505,0,1505,0,1506,0,1506,0,1506,0,1504,0,1504,0,1504,0,1504,0,1504,0,1504,0,1504,0,1504,0,
0,0,0,0,0,0,0,0,0,0,0,0,0,0,0,0,0,0,0,0,0,0,0,0,0,0,0,0,0,0,0,0,0,0,0,0,0,0,0,0,0,0,0,0,0,0,0,0,0,0,0,0,0,0,0,0,0,0,0,0,0,0,0,0,0,0,0,0,0,0,0,0,0,0,
1504,0,1504,0,1504,0,1504,0,1504,0,1504,0,1504,0,1504,0,1504,0,1504,0,1506,0,1506,0,1505,0,1505,0,1505,0,1505,0,1505,0,1505,0,1508,0,1505,0,1505,0,1505,0,1505,0,1505,0,1505,0,1506,0,1506,0,1504,0,1504,0,1504,0,1504,0,1504,0,1504,0,1504,0,1504,0,1504,0,1504,0,
0,0,0,0,0,0,0,0,0,0,0,0,0,0,0,0,0,0,0,0,0,0,0,0,0,0,0,0,0,0,0,0,0,0,0,0,0,0,0,0,0,0,0,0,0,0,0,0,0,0,0,0,0,0,0,0,0,0,0,0,0,0,0,0,0,0,0,0,0,0,0,0,0,0,
1504,0,1504,0,1504,0,1504,0,1504,0,1504,0,1504,0,1504,0,1504,0,1504,0,1504,0,1504,0,1506,0,1505,0,1505,0,1505,0,1505,0,1508,0,1508,0,1508,0,1505,0,1505,0,1505,0,1505,0,1506,0,1506,0,1504,0,1504,0,1504,0,1504,0,1504,0,1504,0,1504,0,1504,0,1504,0,1504,0,1504,0,
0,0,0,0,0,0,0,0,0,0,0,0,0,0,0,0,0,0,0,0,0,0,0,0,0,0,0,0,0,0,0,0,0,0,0,0,0,0,0,0,0,0,0,0,0,0,0,0,0,0,0,0,0,0,0,0,0,0,0,0,0,0,0,0,0,0,0,0,0,0,0,0,0,0,
1504,0,1504,0,1504,0,1504,0,1504,0,1504,0,1504,0,1504,0,1504,0,1504,0,1504,0,1504,0,1504,0,1506,0,1505,0,1505,0,1508,0,1508,0,1508,0,1508,0,1508,0,1505,0,1505,0,1506,0,1504,0,1504,0,1504,0,1504,0,1504,0,1504,0,1504,0,1504,0,1504,0,1504,0,1504,0,1504,0,1504,0,
0,0,0,0,0,0,0,0,0,0,0,0,0,0,0,0,0,0,0,0,0,0,0,0,0,0,0,0,0,0,0,0,0,0,0,0,0,0,0,0,0,0,0,0,0,0,0,0,0,0,0,0,0,0,0,0,0,0,0,0,0,0,0,0,0,0,0,0,0,0,0,0,0,0,
1504,0,1504,0,1504,0,1504,0,1504,0,1504,0,1504,0,1504,0,1504,0,1504,0,1504,0,1504,0,1504,0,1506,0,1505,0,1505,0,1505,0,1508,0,1508,0,1508,0,1505,0,1505,0,1505,0,1506,0,1504,0,1504,0,1504,0,1504,0,1504,0,1504,0,1504,0,1504,0,1504,0,1504,0,1504,0,1504,0,1504,0,
0,0,0,0,0,0,0,0,0,0,0,0,0,0,0,0,0,0,0,0,0,0,0,0,0,0,0,0,0,0,0,0,0,0,0,0,0,0,0,0,0,0,0,0,0,0,0,0,0,0,0,0,0,0,0,0,0,0,0,0,0,0,0,0,0,0,0,0,0,0,0,0,0,0,
1504,0,1504,0,1504,0,1504,0,1504,0,1504,0,1504,0,1504,0,1504,0,1504,0,1504,0,1504,0,1504,0,1506,0,1505,0,1505,0,1505,0,1505,0,1508,0,1505,0,1505,0,1505,0,1505,0,1506,0,1504,0,1504,0,1504,0,1504,0,1504,0,1504,0,1504,0,1504,0,1504,0,1504,0,1504,0,1504,0,1504,0,
0,0,0,0,0,0,0,0,0,0,0,0,0,0,0,0,0,0,0,0,0,0,0,0,0,0,0,0,0,0,0,0,0,0,0,0,0,0,0,0,0,0,0,0,0,0,0,0,0,0,0,0,0,0,0,0,0,0,0,0,0,0,0,0,0,0,0,0,0,0,0,0,0,0,
1504,0,1504,0,1504,0,1504,0,1504,0,1504,0,1504,0,1504,0,1504,0,1504,0,1504,0,1504,0,1504,0,1506,0,1505,0,1505,0,1505,0,1505,0,1505,0,1505,0,1505,0,1505,0,1506,0,1506,0,1504,0,1504,0,1504,0,1504,0,1504,0,1504,0,1504,0,1504,0,1504,0,1504,0,1504,0,1504,0,1504,0,
0,0,0,0,0,0,0,0,0,0,0,0,0,0,0,0,0,0,0,0,0,0,0,0,0,0,0,0,0,0,0,0,0,0,0,0,0,0,0,0,0,0,0,0,0,0,0,0,0,0,0,0,0,0,0,0,0,0,0,0,0,0,0,0,0,0,0,0,0,0,0,0,0,0,
1504,0,1504,0,1504,0,1504,0,1504,0,1504,0,1504,0,1504,0,1504,0,1504,0,1504,0,1504,0,1504,0,1506,0,1505,0,1505,0,1505,0,1505,0,1505,0,1505,0,1505,0,1505,0,1506,0,1504,0,1504,0,1504,0,1504,0,1504,0,1504,0,1504,0,1504,0,1504,0,1504,0,1504,0,1504,0,1504,0,1504,0,
0,0,0,0,0,0,0,0,0,0,0,0,0,0,0,0,0,0,0,0,0,0,0,0,0,0,0,0,0,0,0,0,0,0,0,0,0,0,0,0,0,0,0,0,0,0,0,0,0,0,0,0,0,0,0,0,0,0,0,0,0,0,0,0,0,0,0,0,0,0,0,0,0,0,
1504,0,1504,0,1504,0,1504,0,1504,0,1504,0,1504,0,1504,0,1504,0,1504,0,1504,0,1504,0,1504,0,1506,0,1506,0,1505,0,1505,0,1505,0,1505,0,1505,0,1505,0,1505,0,1506,0,1504,0,1504,0,1504,0,1504,0,1504,0,1504,0,1504,0,1504,0,1504,0,1504,0,1504,0,1504,0,1504,0,1504,0,
0,0,0,0,0,0,0,0,0,0,0,0,0,0,0,0,0,0,0,0,0,0,0,0,0,0,0,0,0,0,0,0,0,0,0,0,0,0,0,0,0,0,0,0,0,0,0,0,0,0,0,0,0,0,0,0,0,0,0,0,0,0,0,0,0,0,0,0,0,0,0,0,0,0,
1504,0,1504,0,1504,0,1504,0,1504,0,1504,0,1504,0,1504,0,1504,0,1504,0,1504,0,1504,0,1504,0,1504,0,1506,0,1506,0,1506,0,1506,0,1506,0,1506,0,1506,0,1506,0,1506,0,1504,0,1504,0,1504,0,1504,0,1504,0,1504,0,1504,0,1504,0,1504,0,1504,0,1504,0,1504,0,1504,0,1504,0,
0,0,0,0,0,0,0,0,0,0,0,0,0,0,0,0,0,0,0,0,0,0,0,0,0,0,0,0,0,0,0,0,0,0,0,0,0,0,0,0,0,0,0,0,0,0,0,0,0,0,0,0,0,0,0,0,0,0,0,0,0,0,0,0,0,0,0,0,0,0,0,0,0,0,
1504,0,1504,0,1504,0,1504,0,1504,0,1504,0,1504,0,1504,0,1504,0,1504,0,1504,0,1504,0,1504,0,1504,0,1504,0,1504,0,1504,0,1504,0,1504,0,1504,0,1504,0,1504,0,1504,0,1504,0,1504,0,1504,0,1504,0,1504,0,1504,0,1504,0,1504,0,1504,0,1504,0,1504,0,1504,0,1504,0,1504,0,
0,0,0,0,0,0,0,0,0,0,0,0,0,0,0,0,0,0,0,0,0,0,0,0,0,0,0,0,0,0,0,0,0,0,0,0,0,0,0,0,0,0,0,0,0,0,0,0,0,0,0,0,0,0,0,0,0,0,0,0,0,0,0,0,0,0,0,0,0,0,0,0,0,0,
1504,0,1504,0,1504,0,1504,0,1504,0,1504,0,1504,0,1504,0,1504,0,1504,0,1504,0,1504,0,1504,0,1504,0,1504,0,1504,0,1504,0,1504,0,1504,0,1504,0,1504,0,1504,0,1504,0,1504,0,1504,0,1504,0,1504,0,1504,0,1504,0,1504,0,1504,0,1504,0,1504,0,1504,0,1504,0,1504,0,1504,0,
0,0,0,0,0,0,0,0,0,0,0,0,0,0,0,0,0,0,0,0,0,0,0,0,0,0,0,0,0,0,0,0,0,0,0,0,0,0,0,0,0,0,0,0,0,0,0,0,0,0,0,0,0,0,0,0,0,0,0,0,0,0,0,0,0,0,0,0,0,0,0,0,0,0,
1504,0,1504,0,1504,0,1504,0,1504,0,1504,0,1504,0,1504,0,1504,0,1504,0,1504,0,1504,0,1504,0,1504,0,1504,0,1504,0,1504,0,1504,0,1504,0,1504,0,1504,0,1504,0,1504,0,1504,0,1504,0,1504,0,1504,0,1504,0,1504,0,1504,0,1504,0,1504,0,1504,0,1504,0,1504,0,1504,0,1504,0,
0,0,0,0,0,0,0,0,0,0,0,0,0,0,0,0,0,0,0,0,0,0,0,0,0,0,0,0,0,0,0,0,0,0,0,0,0,0,0,0,0,0,0,0,0,0,0,0,0,0,0,0,0,0,0,0,0,0,0,0,0,0,0,0,0,0,0,0,0,0,0,0,0,0,
0,0,0,0,0,0,0,0,0,0,0,0,0,0,0,0,0,0,0,0,0,0,0,0,0,0,0,0,0,0,0,0,0,0,0,0,0,0,0,0,0,0,0,0,0,0,0,0,0,0,0,0,0,0,0,0,0,0,0,0,0,0,0,0,0,0,0,0,0,0,0,0,0,0,
0,0,0,0,0,0,0,0,0,0,0,0,0,0,0,0,0,0,0,0,0,0,0,0,0,0,0,0,0,0,0,0,0,0,0,0,0,0,0,0,0,0,0,0,0,0,0,0,0,0,0,0,0,0,0,0,0,0,0,0,0,0,0,0,0,0,0,0,0,0,0,0,0,0
</data>
 </layer>
 <layer id="2" name="Chance" width="74" height="108">
  <properties>
   <property name="maybe_animation_id" value="818f0d7683463c1"/>
   <property name="maybe_tileset_id" value="fce7bba5e540ce43"/>
   <property name="tile_size" type="int" value="16"/>
  </properties>
  <data encoding="csv">
1516,0,1516,0,1516,0,1516,0,1516,0,1516,0,1516,0,1516,0,1516,0,1516,0,1516,0,1516,0,1516,0,1516,0,1516,0,1516,0,1516,0,1516,0,1516,0,1516,0,1516,0,1516,0,1516,0,1516,0,1516,0,1516,0,1516,0,1516,0,1516,0,1516,0,1516,0,1516,0,1516,0,1516,0,1516,0,1516,0,1516,0,
0,0,0,0,0,0,0,0,0,0,0,0,0,0,0,0,0,0,0,0,0,0,0,0,0,0,0,0,0,0,0,0,0,0,0,0,0,0,0,0,0,0,0,0,0,0,0,0,0,0,0,0,0,0,0,0,0,0,0,0,0,0,0,0,0,0,0,0,0,0,0,0,0,0,
1516,0,1516,0,1516,0,1516,0,1516,0,1516,0,1516,0,1516,0,1516,0,1516,0,1516,0,1516,0,1516,0,1516,0,1516,0,1516,0,1516,0,1516,0,1516,0,1516,0,1516,0,1516,0,1516,0,1516,0,1516,0,1516,0,1516,0,1516,0,1516,0,1516,0,1516,0,1516,0,1516,0,1516,0,1516,0,1516,0,1516,0,
0,0,0,0,0,0,0,0,0,0,0,0,0,0,0,0,0,0,0,0,0,0,0,0,0,0,0,0,0,0,0,0,0,0,0,0,0,0,0,0,0,0,0,0,0,0,0,0,0,0,0,0,0,0,0,0,0,0,0,0,0,0,0,0,0,0,0,0,0,0,0,0,0,0,
1516,0,1516,0,1516,0,1516,0,1516,0,1516,0,1516,0,1516,0,1516,0,1516,0,1516,0,1516,0,1516,0,1516,0,1516,0,1516,0,1516,0,1516,0,1516,0,1516,0,1516,0,1516,0,1516,0,1516,0,1516,0,1516,0,1516,0,1516,0,1516,0,1516,0,1516,0,1516,0,1516,0,1516,0,1516,0,1516,0,1516,0,
0,0,0,0,0,0,0,0,0,0,0,0,0,0,0,0,0,0,0,0,0,0,0,0,0,0,0,0,0,0,0,0,0,0,0,0,0,0,0,0,0,0,0,0,0,0,0,0,0,0,0,0,0,0,0,0,0,0,0,0,0,0,0,0,0,0,0,0,0,0,0,0,0,0,
1516,0,1516,0,1516,0,1516,0,1516,0,1516,0,1516,0,1516,0,1516,0,1516,0,1516,0,1516,0,1516,0,1516,0,1516,0,1516,0,1516,0,1516,0,1516,0,1516,0,1516,0,1516,0,1516,0,1516,0,1516,0,1516,0,1516,0,1516,0,1516,0,1516,0,1516,0,1516,0,1516,0,1516,0,1516,0,1516,0,1516,0,
0,0,0,0,0,0,0,0,0,0,0,0,0,0,0,0,0,0,0,0,0,0,0,0,0,0,0,0,0,0,0,0,0,0,0,0,0,0,0,0,0,0,0,0,0,0,0,0,0,0,0,0,0,0,0,0,0,0,0,0,0,0,0,0,0,0,0,0,0,0,0,0,0,0,
1516,0,1516,0,1516,0,1516,0,1516,0,1516,0,1516,0,1516,0,1516,0,1516,0,1516,0,1516,0,1516,0,1516,0,1516,0,1516,0,1516,0,1516,0,1516,0,1516,0,1516,0,1516,0,1516,0,1516,0,1516,0,1516,0,1516,0,1516,0,1516,0,1516,0,1516,0,1516,0,1516,0,1516,0,1516,0,1516,0,1516,0,
0,0,0,0,0,0,0,0,0,0,0,0,0,0,0,0,0,0,0,0,0,0,0,0,0,0,0,0,0,0,0,0,0,0,0,0,0,0,0,0,0,0,0,0,0,0,0,0,0,0,0,0,0,0,0,0,0,0,0,0,0,0,0,0,0,0,0,0,0,0,0,0,0,0,
1516,0,1516,0,1516,0,1516,0,1516,0,1516,0,1516,0,1516,0,1516,0,1516,0,1516,0,1516,0,1516,0,1516,0,1516,0,1516,0,1516,0,1516,0,1516,0,1516,0,1516,0,1516,0,1516,0,1516,0,1516,0,1516,0,1516,0,1516,0,1516,0,1516,0,1516,0,1516,0,1516,0,1516,0,1516,0,1516,0,1516,0,
0,0,0,0,0,0,0,0,0,0,0,0,0,0,0,0,0,0,0,0,0,0,0,0,0,0,0,0,0,0,0,0,0,0,0,0,0,0,0,0,0,0,0,0,0,0,0,0,0,0,0,0,0,0,0,0,0,0,0,0,0,0,0,0,0,0,0,0,0,0,0,0,0,0,
1516,0,1516,0,1516,0,1516,0,1516,0,1516,0,1516,0,1516,0,1516,0,1516,0,1516,0,1516,0,1516,0,1516,0,1516,0,1516,0,1516,0,1516,0,1516,0,1516,0,1516,0,1516,0,1516,0,1516,0,1516,0,1516,0,1516,0,1516,0,1516,0,1516,0,1516,0,1516,0,1516,0,1516,0,1516,0,1516,0,1516,0,
0,0,0,0,0,0,0,0,0,0,0,0,0,0,0,0,0,0,0,0,0,0,0,0,0,0,0,0,0,0,0,0,0,0,0,0,0,0,0,0,0,0,0,0,0,0,0,0,0,0,0,0,0,0,0,0,0,0,0,0,0,0,0,0,0,0,0,0,0,0,0,0,0,0,
1516,0,1516,0,1516,0,1516,0,1516,0,1516,0,1516,0,1516,0,1516,0,1516,0,1516,0,1516,0,1516,0,1516,0,1516,0,1516,0,1516,0,1516,0,1516,0,1516,0,1516,0,1516,0,1516,0,1516,0,1516,0,1516,0,1516,0,1516,0,1516,0,1516,0,1516,0,1516,0,1516,0,1516,0,1516,0,1516,0,1516,0,
0,0,0,0,0,0,0,0,0,0,0,0,0,0,0,0,0,0,0,0,0,0,0,0,0,0,0,0,0,0,0,0,0,0,0,0,0,0,0,0,0,0,0,0,0,0,0,0,0,0,0,0,0,0,0,0,0,0,0,0,0,0,0,0,0,0,0,0,0,0,0,0,0,0,
1516,0,1516,0,1516,0,1516,0,1516,0,1516,0,1516,0,1516,0,1516,0,1516,0,1516,0,1516,0,1516,0,1516,0,1516,0,1516,0,1516,0,1516,0,1516,0,1516,0,1516,0,1516,0,1516,0,1516,0,1516,0,1516,0,1516,0,1516,0,1516,0,1516,0,1516,0,1516,0,1516,0,1516,0,1516,0,1516,0,1516,0,
0,0,0,0,0,0,0,0,0,0,0,0,0,0,0,0,0,0,0,0,0,0,0,0,0,0,0,0,0,0,0,0,0,0,0,0,0,0,0,0,0,0,0,0,0,0,0,0,0,0,0,0,0,0,0,0,0,0,0,0,0,0,0,0,0,0,0,0,0,0,0,0,0,0,
1516,0,1516,0,1516,0,1516,0,1516,0,1516,0,1516,0,1516,0,1516,0,1516,0,1516,0,1516,0,1516,0,1516,0,1516,0,1516,0,1516,0,1516,0,1516,0,1516,0,1516,0,1516,0,1516,0,1516,0,1516,0,1516,0,1516,0,1516,0,1516,0,1516,0,1516,0,1516,0,1516,0,1516,0,1516,0,1516,0,1516,0,
0,0,0,0,0,0,0,0,0,0,0,0,0,0,0,0,0,0,0,0,0,0,0,0,0,0,0,0,0,0,0,0,0,0,0,0,0,0,0,0,0,0,0,0,0,0,0,0,0,0,0,0,0,0,0,0,0,0,0,0,0,0,0,0,0,0,0,0,0,0,0,0,0,0,
1516,0,1516,0,1516,0,1516,0,1516,0,1516,0,1516,0,1516,0,1516,0,1516,0,1516,0,1516,0,1516,0,1516,0,1516,0,1516,0,1516,0,1516,0,1516,0,1516,0,1516,0,1516,0,1516,0,1516,0,1516,0,1516,0,1516,0,1516,0,1516,0,1516,0,1516,0,1516,0,1516,0,1516,0,1516,0,1516,0,1516,0,
0,0,0,0,0,0,0,0,0,0,0,0,0,0,0,0,0,0,0,0,0,0,0,0,0,0,0,0,0,0,0,0,0,0,0,0,0,0,0,0,0,0,0,0,0,0,0,0,0,0,0,0,0,0,0,0,0,0,0,0,0,0,0,0,0,0,0,0,0,0,0,0,0,0,
1516,0,1516,0,1516,0,1516,0,1516,0,1516,0,1516,0,1516,0,1516,0,1516,0,1516,0,1516,0,1516,0,1516,0,1516,0,1516,0,1516,0,1516,0,1516,0,1516,0,1516,0,1516,0,1516,0,1516,0,1516,0,1516,0,1516,0,1516,0,1516,0,1516,0,1516,0,1516,0,1516,0,1516,0,1516,0,1516,0,1516,0,
0,0,0,0,0,0,0,0,0,0,0,0,0,0,0,0,0,0,0,0,0,0,0,0,0,0,0,0,0,0,0,0,0,0,0,0,0,0,0,0,0,0,0,0,0,0,0,0,0,0,0,0,0,0,0,0,0,0,0,0,0,0,0,0,0,0,0,0,0,0,0,0,0,0,
1516,0,1516,0,1516,0,1516,0,1516,0,1516,0,1517,0,1517,0,1533,0,1516,0,1516,0,1516,0,1516,0,1516,0,1516,0,1516,0,1516,0,1516,0,1516,0,1516,0,1516,0,1516,0,1516,0,1516,0,1516,0,1516,0,1516,0,1516,0,1516,0,1516,0,1516,0,1516,0,1516,0,1516,0,1516,0,1516,0,1516,0,
0,0,0,0,0,0,0,0,0,0,0,0,0,0,0,0,0,0,0,0,0,0,0,0,0,0,0,0,0,0,0,0,0,0,0,0,0,0,0,0,0,0,0,0,0,0,0,0,0,0,0,0,0,0,0,0,0,0,0,0,0,0,0,0,0,0,0,0,0,0,0,0,0,0,
1516,0,1516,0,1516,0,1516,0,1516,0,1516,0,1533,0,1608,0,1516,0,1516,0,1516,0,1516,0,1613,0,1516,0,1516,0,1516,0,1516,0,1516,0,1516,0,1516,0,1516,0,1516,0,1516,0,1516,0,1516,0,1516,0,1516,0,1516,0,1516,0,1516,0,1516,0,1516,0,1516,0,1516,0,1516,0,1516,0,1516,0,
0,0,0,0,0,0,0,0,0,0,0,0,0,0,0,0,0,0,0,0,0,0,0,0,0,0,0,0,0,0,0,0,0,0,0,0,0,0,0,0,0,0,0,0,0,0,0,0,0,0,0,0,0,0,0,0,0,0,0,0,0,0,0,0,0,0,0,0,0,0,0,0,0,0,
1516,0,1516,0,1516,0,1516,0,1516,0,1516,0,1516,0,1516,0,1516,0,1516,0,1516,0,1516,0,1516,0,1517,0,1517,0,1516,0,1516,0,1516,0,1516,0,1516,0,1516,0,1516,0,1516,0,1516,0,1516,0,1516,0,1516,0,1516,0,1516,0,1516,0,1516,0,1516,0,1516,0,1516,0,1516,0,1516,0,1516,0,
0,0,0,0,0,0,0,0,0,0,0,0,0,0,0,0,0,0,0,0,0,0,0,0,0,0,0,0,0,0,0,0,0,0,0,0,0,0,0,0,0,0,0,0,0,0,0,0,0,0,0,0,0,0,0,0,0,0,0,0,0,0,0,0,0,0,0,0,0,0,0,0,0,0,
1516,0,1516,0,1516,0,1516,0,1516,0,1516,0,1516,0,1516,0,1516,0,1516,0,1516,0,1516,0,1516,0,1516,0,1516,0,1517,0,1516,0,1516,0,1516,0,1516,0,1516,0,1516,0,1516,0,1516,0,1516,0,1516,0,1516,0,1516,0,1516,0,1516,0,1516,0,1516,0,1516,0,1516,0,1516,0,1516,0,1516,0,
0,0,0,0,0,0,0,0,0,0,0,0,0,0,0,0,0,0,0,0,0,0,0,0,0,0,0,0,0,0,0,0,0,0,0,0,0,0,0,0,0,0,0,0,0,0,0,0,0,0,0,0,0,0,0,0,0,0,0,0,0,0,0,0,0,0,0,0,0,0,0,0,0,0,
1516,0,1516,0,1516,0,1516,0,1516,0,1516,0,1516,0,1516,0,1645,0,1516,0,1516,0,1516,0,1516,0,1581,0,1516,0,1517,0,1516,0,1516,0,1516,0,1516,0,1516,0,1516,0,1516,0,1516,0,1516,0,1516,0,1516,0,1516,0,1516,0,1516,0,1516,0,1516,0,1516,0,1516,0,1516,0,1516,0,1516,0,
0,0,0,0,0,0,0,0,0,0,0,0,0,0,0,0,0,0,0,0,0,0,0,0,0,0,0,0,0,0,0,0,0,0,0,0,0,0,0,0,0,0,0,0,0,0,0,0,0,0,0,0,0,0,0,0,0,0,0,0,0,0,0,0,0,0,0,0,0,0,0,0,0,0,
1516,0,1516,0,1516,0,1516,0,1516,0,1516,0,1516,0,1516,0,1516,0,1516,0,1516,0,1516,0,1516,0,1516,0,1516,0,1516,0,1516,0,1516,0,1516,0,1516,0,1516,0,1516,0,1516,0,1516,0,1516,0,1516,0,1558,0,1516,0,1533,0,1525,0,1516,0,1516,0,1516,0,1516,0,1516,0,1516,0,1516,0,
0,0,0,0,0,0,0,0,0,0,0,0,0,0,0,0,0,0,0,0,0,0,0,0,0,0,0,0,0,0,0,0,0,0,0,0,0,0,0,0,0,0,0,0,0,0,0,0,0,0,0,0,0,0,0,0,0,0,0,0,0,0,0,0,0,0,0,0,0,0,0,0,0,0,
1516,0,1516,0,1516,0,1516,0,1516,0,1516,0,1516,0,1516,0,1516,0,1516,0,1516,0,1516,0,1516,0,1516,0,1516,0,1516,0,1516,0,1516,0,1516,0,1516,0,1516,0,1516,0,1516,0,1516,0,1516,0,1516,0,1516,0,1516,0,1516,0,1516,0,1516,0,1516,0,1516,0,1516,0,1516,0,1516,0,1516,0,
0,0,0,0,0,0,0,0,0,0,0,0,0,0,0,0,0,0,0,0,0,0,0,0,0,0,0,0,0,0,0,0,0,0,0,0,0,0,0,0,0,0,0,0,0,0,0,0,0,0,0,0,0,0,0,0,0,0,0,0,0,0,0,0,0,0,0,0,0,0,0,0,0,0,
1516,0,1516,0,1516,0,1516,0,1516,0,1516,0,1516,0,1597,0,1516,0,1516,0,1516,0,1516,0,1516,0,1516,0,1516,0,1516,0,1516,0,1516,0,1516,0,1516,0,1516,0,1516,0,1516,0,1516,0,1516,0,1516,0,1516,0,1516,0,1516,0,1516,0,1516,0,1516,0,1516,0,1516,0,1516,0,1516,0,1516,0,
0,0,0,0,0,0,0,0,0,0,0,0,0,0,0,0,0,0,0,0,0,0,0,0,0,0,0,0,0,0,0,0,0,0,0,0,0,0,0,0,0,0,0,0,0,0,0,0,0,0,0,0,0,0,0,0,0,0,0,0,0,0,0,0,0,0,0,0,0,0,0,0,0,0,
1516,0,1516,0,1516,0,1516,0,1516,0,1516,0,1516,0,1516,0,1516,0,1516,0,1516,0,1516,0,1516,0,1516,0,1516,0,1516,0,1517,0,1516,0,1516,0,1516,0,1516,0,1516,0,1516,0,1516,0,1516,0,1516,0,1631,0,1516,0,1516,0,1516,0,1516,0,1517,0,1516,0,1516,0,1516,0,1516,0,1516,0,
0,0,0,0,0,0,0,0,0,0,0,0,0,0,0,0,0,0,0,0,0,0,0,0,0,0,0,0,0,0,0,0,0,0,0,0,0,0,0,0,0,0,0,0,0,0,0,0,0,0,0,0,0,0,0,0,0,0,0,0,0,0,0,0,0,0,0,0,0,0,0,0,0,0,
1516,0,1516,0,1516,0,1516,0,1516,0,1516,0,1516,0,1516,0,1516,0,1516,0,1516,0,1516,0,1517,0,1516,0,1516,0,1516,0,1517,0,1517,0,1516,0,1516,0,1516,0,1516,0,1516,0,1516,0,1516,0,1516,0,1517,0,1516,0,1516,0,1516,0,1516,0,1516,0,1552,0,1516,0,1516,0,1516,0,1516,0,
0,0,0,0,0,0,0,0,0,0,0,0,0,0,0,0,0,0,0,0,0,0,0,0,0,0,0,0,0,0,0,0,0,0,0,0,0,0,0,0,0,0,0,0,0,0,0,0,0,0,0,0,0,0,0,0,0,0,0,0,0,0,0,0,0,0,0,0,0,0,0,0,0,0,
1516,0,1516,0,1516,0,1516,0,1516,0,1516,0,1516,0,1516,0,1516,0,1516,0,1516,0,1516,0,1516,0,1516,0,1516,0,1516,0,1516,0,1517,0,1517,0,1516,0,1516,0,1516,0,1516,0,1516,0,1516,0,1516,0,1517,0,1516,0,1516,0,1589,0,1516,0,1516,0,1516,0,1516,0,1516,0,1516,0,1516,0,
0,0,0,0,0,0,0,0,0,0,0,0,0,0,0,0,0,0,0,0,0,0,0,0,0,0,0,0,0,0,0,0,0,0,0,0,0,0,0,0,0,0,0,0,0,0,0,0,0,0,0,0,0,0,0,0,0,0,0,0,0,0,0,0,0,0,0,0,0,0,0,0,0,0,
1516,0,1516,0,1516,0,1516,0,1516,0,1516,0,1516,0,1516,0,1516,0,1516,0,1517,0,1516,0,1516,0,1516,0,1516,0,1516,0,1516,0,1516,0,1516,0,1517,0,1516,0,1516,0,1516,0,1516,0,1516,0,1516,0,1516,0,1516,0,1516,0,1516,0,1516,0,1516,0,1516,0,1558,0,1516,0,1516,0,1516,0,
0,0,0,0,0,0,0,0,0,0,0,0,0,0,0,0,0,0,0,0,0,0,0,0,0,0,0,0,0,0,0,0,0,0,0,0,0,0,0,0,0,0,0,0,0,0,0,0,0,0,0,0,0,0,0,0,0,0,0,0,0,0,0,0,0,0,0,0,0,0,0,0,0,0,
1516,0,1516,0,1516,0,1516,0,1516,0,1516,0,1516,0,1516,0,1516,0,1516,0,1516,0,1516,0,1516,0,1516,0,1516,0,1558,0,1516,0,1516,0,1516,0,1516,0,1533,0,1517,0,1517,0,1516,0,1516,0,1516,0,1516,0,1516,0,1516,0,1516,0,1565,0,1516,0,1516,0,1533,0,1516,0,1516,0,1516,0,
0,0,0,0,0,0,0,0,0,0,0,0,0,0,0,0,0,0,0,0,0,0,0,0,0,0,0,0,0,0,0,0,0,0,0,0,0,0,0,0,0,0,0,0,0,0,0,0,0,0,0,0,0,0,0,0,0,0,0,0,0,0,0,0,0,0,0,0,0,0,0,0,0,0,
1516,0,1516,0,1516,0,1516,0,1516,0,1516,0,1516,0,1516,0,1516,0,1516,0,1516,0,1516,0,1517,0,1516,0,1516,0,1516,0,1516,0,1516,0,1516,0,1516,0,1516,0,1516,0,1516,0,1516,0,1516,0,1516,0,1516,0,1516,0,1516,0,1516,0,1516,0,1516,0,1516,0,1516,0,1516,0,1516,0,1516,0,
0,0,0,0,0,0,0,0,0,0,0,0,0,0,0,0,0,0,0,0,0,0,0,0,0,0,0,0,0,0,0,0,0,0,0,0,0,0,0,0,0,0,0,0,0,0,0,0,0,0,0,0,0,0,0,0,0,0,0,0,0,0,0,0,0,0,0,0,0,0,0,0,0,0,
1516,0,1516,0,1516,0,1516,0,1516,0,1516,0,1516,0,1516,0,1516,0,1516,0,1516,0,1516,0,1557,0,1557,0,1516,0,1516,0,1516,0,1565,0,1516,0,1516,0,1516,0,1516,0,1516,0,1516,0,1516,0,1516,0,1516,0,1516,0,1516,0,1516,0,1516,0,1516,0,1516,0,1517,0,1516,0,1516,0,1516,0,
0,0,0,0,0,0,0,0,0,0,0,0,0,0,0,0,0,0,0,0,0,0,0,0,0,0,0,0,0,0,0,0,0,0,0,0,0,0,0,0,0,0,0,0,0,0,0,0,0,0,0,0,0,0,0,0,0,0,0,0,0,0,0,0,0,0,0,0,0,0,0,0,0,0,
1516,0,1516,0,1516,0,1516,0,1516,0,1516,0,1516,0,1516,0,1516,0,1516,0,1516,0,1516,0,1557,0,1557,0,1517,0,1516,0,1516,0,1516,0,1516,0,1516,0,1558,0,1516,0,1516,0,1516,0,1516,0,1516,0,1516,0,1516,0,1516,0,1516,0,1516,0,1533,0,1525,0,1516,0,1516,0,1516,0,1516,0,
0,0,0,0,0,0,0,0,0,0,0,0,0,0,0,0,0,0,0,0,0,0,0,0,0,0,0,0,0,0,0,0,0,0,0,0,0,0,0,0,0,0,0,0,0,0,0,0,0,0,0,0,0,0,0,0,0,0,0,0,0,0,0,0,0,0,0,0,0,0,0,0,0,0,
1516,0,1516,0,1516,0,1516,0,1516,0,1516,0,1516,0,1516,0,1516,0,1516,0,1516,0,1516,0,1517,0,1516,0,1516,0,1516,0,1516,0,1516,0,1516,0,1516,0,1516,0,1516,0,1516,0,1516,0,1516,0,1516,0,1516,0,1516,0,1516,0,1516,0,1516,0,1517,0,1516,0,1516,0,1516,0,1516,0,1516,0,
0,0,0,0,0,0,0,0,0,0,0,0,0,0,0,0,0,0,0,0,0,0,0,0,0,0,0,0,0,0,0,0,0,0,0,0,0,0,0,0,0,0,0,0,0,0,0,0,0,0,0,0,0,0,0,0,0,0,0,0,0,0,0,0,0,0,0,0,0,0,0,0,0,0,
1516,0,1516,0,1516,0,1516,0,1516,0,1516,0,1516,0,1516,0,1516,0,1516,0,1516,0,1516,0,1516,0,1516,0,1516,0,1516,0,1516,0,1516,0,1516,0,1516,0,1516,0,1516,0,1516,0,1517,0,1516,0,1516,0,1516,0,1516,0,1516,0,1516,0,1517,0,1517,0,1516,0,1516,0,1516,0,1516,0,1516,0,
0,0,0,0,0,0,0,0,0,0,0,0,0,0,0,0,0,0,0,0,0,0,0,0,0,0,0,0,0,0,0,0,0,0,0,0,0,0,0,0,0,0,0,0,0,0,0,0,0,0,0,0,0,0,0,0,0,0,0,0,0,0,0,0,0,0,0,0,0,0,0,0,0,0,
1516,0,1516,0,1516,0,1516,0,1516,0,1516,0,1516,0,1516,0,1516,0,1557,0,1516,0,1516,0,1516,0,1516,0,1516,0,1516,0,1516,0,1516,0,1516,0,1516,0,1516,0,1516,0,1517,0,1533,0,1516,0,1516,0,1516,0,1516,0,1516,0,1516,0,1516,0,1516,0,1516,0,1516,0,1516,0,1516,0,1516,0,
0,0,0,0,0,0,0,0,0,0,0,0,0,0,0,0,0,0,0,0,0,0,0,0,0,0,0,0,0,0,0,0,0,0,0,0,0,0,0,0,0,0,0,0,0,0,0,0,0,0,0,0,0,0,0,0,0,0,0,0,0,0,0,0,0,0,0,0,0,0,0,0,0,0,
1516,0,1516,0,1516,0,1525,0,1516,0,1516,0,1557,0,1516,0,1516,0,1516,0,1516,0,1516,0,1516,0,1516,0,1516,0,1516,0,1516,0,1516,0,1516,0,1516,0,1516,0,1516,0,1516,0,1516,0,1516,0,1516,0,1516,0,1516,0,1516,0,1516,0,1516,0,1516,0,1516,0,1516,0,1516,0,1516,0,1516,0,
0,0,0,0,0,0,0,0,0,0,0,0,0,0,0,0,0,0,0,0,0,0,0,0,0,0,0,0,0,0,0,0,0,0,0,0,0,0,0,0,0,0,0,0,0,0,0,0,0,0,0,0,0,0,0,0,0,0,0,0,0,0,0,0,0,0,0,0,0,0,0,0,0,0,
1516,0,1516,0,1516,0,1516,0,1516,0,1516,0,1516,0,1516,0,1516,0,1516,0,1516,0,1516,0,1516,0,1516,0,1516,0,1516,0,1516,0,1516,0,1516,0,1516,0,1516,0,1516,0,1516,0,1516,0,1516,0,1516,0,1516,0,1516,0,1516,0,1516,0,1516,0,1516,0,1516,0,1516,0,1516,0,1516,0,1516,0,
0,0,0,0,0,0,0,0,0,0,0,0,0,0,0,0,0,0,0,0,0,0,0,0,0,0,0,0,0,0,0,0,0,0,0,0,0,0,0,0,0,0,0,0,0,0,0,0,0,0,0,0,0,0,0,0,0,0,0,0,0,0,0,0,0,0,0,0,0,0,0,0,0,0,
1516,0,1516,0,1516,0,1516,0,1517,0,1516,0,1516,0,1516,0,1516,0,1557,0,1516,0,1516,0,1516,0,1516,0,1516,0,1516,0,1516,0,1516,0,1516,0,1516,0,1516,0,1516,0,1516,0,1516,0,1516,0,1516,0,1516,0,1516,0,1516,0,1516,0,1516,0,1516,0,1516,0,1516,0,1516,0,1516,0,1516,0,
0,0,0,0,0,0,0,0,0,0,0,0,0,0,0,0,0,0,0,0,0,0,0,0,0,0,0,0,0,0,0,0,0,0,0,0,0,0,0,0,0,0,0,0,0,0,0,0,0,0,0,0,0,0,0,0,0,0,0,0,0,0,0,0,0,0,0,0,0,0,0,0,0,0,
1516,0,1516,0,1516,0,1516,0,1516,0,1516,0,1516,0,1516,0,1516,0,1516,0,1516,0,1516,0,1558,0,1516,0,1516,0,1516,0,1516,0,1516,0,1516,0,1516,0,1516,0,1516,0,1516,0,1558,0,1516,0,1516,0,1516,0,1516,0,1516,0,1516,0,1516,0,1516,0,1516,0,1516,0,1516,0,1516,0,1516,0,
0,0,0,0,0,0,0,0,0,0,0,0,0,0,0,0,0,0,0,0,0,0,0,0,0,0,0,0,0,0,0,0,0,0,0,0,0,0,0,0,0,0,0,0,0,0,0,0,0,0,0,0,0,0,0,0,0,0,0,0,0,0,0,0,0,0,0,0,0,0,0,0,0,0,
1516,0,1516,0,1516,0,1516,0,1516,0,1516,0,1516,0,1517,0,1516,0,1516,0,1516,0,1516,0,1558,0,1516,0,1516,0,1516,0,1516,0,1516,0,1516,0,1516,0,1516,0,1516,0,1516,0,1558,0,1516,0,1517,0,1516,0,1516,0,1516,0,1516,0,1516,0,1516,0,1516,0,1516,0,1516,0,1516,0,1516,0,
0,0,0,0,0,0,0,0,0,0,0,0,0,0,0,0,0,0,0,0,0,0,0,0,0,0,0,0,0,0,0,0,0,0,0,0,0,0,0,0,0,0,0,0,0,0,0,0,0,0,0,0,0,0,0,0,0,0,0,0,0,0,0,0,0,0,0,0,0,0,0,0,0,0,
1516,0,1516,0,1516,0,1516,0,1516,0,1516,0,1516,0,1516,0,1516,0,1516,0,1565,0,1516,0,1516,0,1516,0,1516,0,1516,0,1516,0,1516,0,1516,0,1516,0,1516,0,1516,0,1516,0,1516,0,1516,0,1516,0,1609,0,1516,0,1516,0,1516,0,1516,0,1516,0,1516,0,1516,0,1516,0,1516,0,1516,0,
0,0,0,0,0,0,0,0,0,0,0,0,0,0,0,0,0,0,0,0,0,0,0,0,0,0,0,0,0,0,0,0,0,0,0,0,0,0,0,0,0,0,0,0,0,0,0,0,0,0,0,0,0,0,0,0,0,0,0,0,0,0,0,0,0,0,0,0,0,0,0,0,0,0,
1516,0,1516,0,1516,0,1516,0,1516,0,1516,0,1516,0,1516,0,1516,0,1516,0,1516,0,1516,0,1516,0,1533,0,1516,0,1516,0,1516,0,1516,0,1516,0,1516,0,1516,0,1516,0,1558,0,1516,0,1516,0,1565,0,1516,0,1516,0,1516,0,1516,0,1516,0,1516,0,1516,0,1516,0,1516,0,1516,0,1516,0,
0,0,0,0,0,0,0,0,0,0,0,0,0,0,0,0,0,0,0,0,0,0,0,0,0,0,0,0,0,0,0,0,0,0,0,0,0,0,0,0,0,0,0,0,0,0,0,0,0,0,0,0,0,0,0,0,0,0,0,0,0,0,0,0,0,0,0,0,0,0,0,0,0,0,
1516,0,1516,0,1516,0,1516,0,1516,0,1516,0,1516,0,1516,0,1516,0,1516,0,1516,0,1516,0,1516,0,1516,0,1525,0,1516,0,1516,0,1516,0,1516,0,1516,0,1516,0,1558,0,1516,0,1516,0,1516,0,1516,0,1516,0,1516,0,1516,0,1516,0,1516,0,1516,0,1516,0,1516,0,1516,0,1516,0,1516,0,
0,0,0,0,0,0,0,0,0,0,0,0,0,0,0,0,0,0,0,0,0,0,0,0,0,0,0,0,0,0,0,0,0,0,0,0,0,0,0,0,0,0,0,0,0,0,0,0,0,0,0,0,0,0,0,0,0,0,0,0,0,0,0,0,0,0,0,0,0,0,0,0,0,0,
1516,0,1516,0,1516,0,1516,0,1516,0,1516,0,1516,0,1516,0,1516,0,1516,0,1516,0,1516,0,1516,0,1516,0,1516,0,1516,0,1558,0,1558,0,1533,0,1516,0,1558,0,1516,0,1516,0,1516,0,1516,0,1516,0,1516,0,1516,0,1516,0,1516,0,1516,0,1516,0,1516,0,1516,0,1516,0,1516,0,1516,0,
0,0,0,0,0,0,0,0,0,0,0,0,0,0,0,0,0,0,0,0,0,0,0,0,0,0,0,0,0,0,0,0,0,0,0,0,0,0,0,0,0,0,0,0,0,0,0,0,0,0,0,0,0,0,0,0,0,0,0,0,0,0,0,0,0,0,0,0,0,0,0,0,0,0,
1516,0,1516,0,1516,0,1516,0,1516,0,1516,0,1516,0,1516,0,1516,0,1516,0,1516,0,1516,0,1516,0,1516,0,1541,0,1516,0,1516,0,1516,0,1516,0,1516,0,1516,0,1516,0,1516,0,1516,0,1516,0,1516,0,1516,0,1516,0,1516,0,1516,0,1516,0,1516,0,1516,0,1516,0,1516,0,1516,0,1516,0,
0,0,0,0,0,0,0,0,0,0,0,0,0,0,0,0,0,0,0,0,0,0,0,0,0,0,0,0,0,0,0,0,0,0,0,0,0,0,0,0,0,0,0,0,0,0,0,0,0,0,0,0,0,0,0,0,0,0,0,0,0,0,0,0,0,0,0,0,0,0,0,0,0,0,
1516,0,1516,0,1516,0,1516,0,1516,0,1516,0,1516,0,1516,0,1516,0,1516,0,1516,0,1516,0,1516,0,1516,0,1516,0,1516,0,1516,0,1516,0,1516,0,1516,0,1516,0,1516,0,1516,0,1516,0,1516,0,1516,0,1516,0,1516,0,1516,0,1516,0,1516,0,1516,0,1516,0,1516,0,1516,0,1516,0,1516,0,
0,0,0,0,0,0,0,0,0,0,0,0,0,0,0,0,0,0,0,0,0,0,0,0,0,0,0,0,0,0,0,0,0,0,0,0,0,0,0,0,0,0,0,0,0,0,0,0,0,0,0,0,0,0,0,0,0,0,0,0,0,0,0,0,0,0,0,0,0,0,0,0,0,0,
1516,0,1516,0,1516,0,1516,0,1516,0,1516,0,1516,0,1516,0,1516,0,1516,0,1516,0,1516,0,1516,0,1516,0,1516,0,1516,0,1516,0,1516,0,1516,0,1516,0,1516,0,1516,0,1516,0,1516,0,1516,0,1516,0,1516,0,1516,0,1516,0,1516,0,1516,0,1516,0,1516,0,1516,0,1516,0,1516,0,1516,0,
0,0,0,0,0,0,0,0,0,0,0,0,0,0,0,0,0,0,0,0,0,0,0,0,0,0,0,0,0,0,0,0,0,0,0,0,0,0,0,0,0,0,0,0,0,0,0,0,0,0,0,0,0,0,0,0,0,0,0,0,0,0,0,0,0,0,0,0,0,0,0,0,0,0,
1516,0,1516,0,1516,0,1516,0,1516,0,1516,0,1516,0,1516,0,1516,0,1516,0,1516,0,1516,0,1516,0,1516,0,1516,0,1516,0,1516,0,1516,0,1516,0,1516,0,1516,0,1516,0,1533,0,1516,0,1516,0,1516,0,1516,0,1516,0,1516,0,1516,0,1516,0,1516,0,1516,0,1516,0,1516,0,1516,0,1516,0,
0,0,0,0,0,0,0,0,0,0,0,0,0,0,0,0,0,0,0,0,0,0,0,0,0,0,0,0,0,0,0,0,0,0,0,0,0,0,0,0,0,0,0,0,0,0,0,0,0,0,0,0,0,0,0,0,0,0,0,0,0,0,0,0,0,0,0,0,0,0,0,0,0,0,
1516,0,1516,0,1516,0,1516,0,1516,0,1516,0,1516,0,1516,0,1516,0,1516,0,1516,0,1516,0,1516,0,1516,0,1516,0,1516,0,1516,0,1516,0,1516,0,1516,0,1516,0,1516,0,1516,0,1516,0,1516,0,1516,0,1516,0,1516,0,1516,0,1516,0,1516,0,1516,0,1516,0,1516,0,1516,0,1516,0,1516,0,
0,0,0,0,0,0,0,0,0,0,0,0,0,0,0,0,0,0,0,0,0,0,0,0,0,0,0,0,0,0,0,0,0,0,0,0,0,0,0,0,0,0,0,0,0,0,0,0,0,0,0,0,0,0,0,0,0,0,0,0,0,0,0,0,0,0,0,0,0,0,0,0,0,0,
1516,0,1516,0,1516,0,1516,0,1516,0,1516,0,1516,0,1516,0,1516,0,1516,0,1516,0,1516,0,1516,0,1516,0,1516,0,1516,0,1516,0,1565,0,1516,0,1516,0,1516,0,1516,0,1516,0,1516,0,1516,0,1516,0,1516,0,1516,0,1516,0,1516,0,1516,0,1516,0,1516,0,1516,0,1516,0,1516,0,1516,0,
0,0,0,0,0,0,0,0,0,0,0,0,0,0,0,0,0,0,0,0,0,0,0,0,0,0,0,0,0,0,0,0,0,0,0,0,0,0,0,0,0,0,0,0,0,0,0,0,0,0,0,0,0,0,0,0,0,0,0,0,0,0,0,0,0,0,0,0,0,0,0,0,0,0,
1516,0,1516,0,1516,0,1516,0,1516,0,1516,0,1516,0,1516,0,1516,0,1516,0,1516,0,1516,0,1516,0,1516,0,1516,0,1516,0,1516,0,1516,0,1516,0,1516,0,1516,0,1516,0,1516,0,1516,0,1516,0,1516,0,1516,0,1516,0,1516,0,1516,0,1516,0,1516,0,1516,0,1516,0,1516,0,1516,0,1516,0,
0,0,0,0,0,0,0,0,0,0,0,0,0,0,0,0,0,0,0,0,0,0,0,0,0,0,0,0,0,0,0,0,0,0,0,0,0,0,0,0,0,0,0,0,0,0,0,0,0,0,0,0,0,0,0,0,0,0,0,0,0,0,0,0,0,0,0,0,0,0,0,0,0,0,
1516,0,1516,0,1516,0,1516,0,1516,0,1516,0,1516,0,1516,0,1516,0,1516,0,1516,0,1516,0,1516,0,1516,0,1516,0,1516,0,1516,0,1516,0,1516,0,1516,0,1516,0,1516,0,1516,0,1516,0,1516,0,1516,0,1516,0,1516,0,1516,0,1516,0,1516,0,1516,0,1516,0,1516,0,1516,0,1516,0,1516,0,
0,0,0,0,0,0,0,0,0,0,0,0,0,0,0,0,0,0,0,0,0,0,0,0,0,0,0,0,0,0,0,0,0,0,0,0,0,0,0,0,0,0,0,0,0,0,0,0,0,0,0,0,0,0,0,0,0,0,0,0,0,0,0,0,0,0,0,0,0,0,0,0,0,0,
1516,0,1516,0,1516,0,1516,0,1516,0,1516,0,1516,0,1516,0,1516,0,1516,0,1516,0,1516,0,1516,0,1516,0,1516,0,1516,0,1516,0,1516,0,1516,0,1516,0,1516,0,1516,0,1516,0,1516,0,1516,0,1516,0,1516,0,1516,0,1516,0,1516,0,1516,0,1516,0,1516,0,1516,0,1516,0,1516,0,1516,0,
0,0,0,0,0,0,0,0,0,0,0,0,0,0,0,0,0,0,0,0,0,0,0,0,0,0,0,0,0,0,0,0,0,0,0,0,0,0,0,0,0,0,0,0,0,0,0,0,0,0,0,0,0,0,0,0,0,0,0,0,0,0,0,0,0,0,0,0,0,0,0,0,0,0,
1516,0,1516,0,1516,0,1516,0,1516,0,1516,0,1516,0,1516,0,1516,0,1516,0,1516,0,1516,0,1516,0,1516,0,1516,0,1516,0,1516,0,1516,0,1516,0,1516,0,1516,0,1516,0,1516,0,1516,0,1516,0,1516,0,1516,0,1516,0,1516,0,1516,0,1516,0,1516,0,1516,0,1516,0,1516,0,1516,0,1516,0,
0,0,0,0,0,0,0,0,0,0,0,0,0,0,0,0,0,0,0,0,0,0,0,0,0,0,0,0,0,0,0,0,0,0,0,0,0,0,0,0,0,0,0,0,0,0,0,0,0,0,0,0,0,0,0,0,0,0,0,0,0,0,0,0,0,0,0,0,0,0,0,0,0,0,
1516,0,1516,0,1516,0,1516,0,1516,0,1516,0,1516,0,1516,0,1516,0,1516,0,1516,0,1516,0,1516,0,1516,0,1516,0,1516,0,1516,0,1516,0,1516,0,1516,0,1516,0,1516,0,1516,0,1516,0,1516,0,1516,0,1516,0,1516,0,1516,0,1516,0,1516,0,1516,0,1516,0,1516,0,1516,0,1516,0,1516,0,
0,0,0,0,0,0,0,0,0,0,0,0,0,0,0,0,0,0,0,0,0,0,0,0,0,0,0,0,0,0,0,0,0,0,0,0,0,0,0,0,0,0,0,0,0,0,0,0,0,0,0,0,0,0,0,0,0,0,0,0,0,0,0,0,0,0,0,0,0,0,0,0,0,0,
1516,0,1516,0,1516,0,1516,0,1516,0,1516,0,1516,0,1516,0,1516,0,1516,0,1516,0,1516,0,1516,0,1516,0,1516,0,1516,0,1516,0,1516,0,1516,0,1516,0,1516,0,1516,0,1516,0,1516,0,1516,0,1516,0,1516,0,1516,0,1516,0,1516,0,1516,0,1516,0,1516,0,1516,0,1516,0,1516,0,1516,0,
0,0,0,0,0,0,0,0,0,0,0,0,0,0,0,0,0,0,0,0,0,0,0,0,0,0,0,0,0,0,0,0,0,0,0,0,0,0,0,0,0,0,0,0,0,0,0,0,0,0,0,0,0,0,0,0,0,0,0,0,0,0,0,0,0,0,0,0,0,0,0,0,0,0,
1516,0,1516,0,1516,0,1516,0,1516,0,1516,0,1516,0,1516,0,1516,0,1516,0,1516,0,1516,0,1516,0,1516,0,1516,0,1516,0,1516,0,1516,0,1516,0,1516,0,1516,0,1516,0,1516,0,1516,0,1516,0,1516,0,1516,0,1516,0,1516,0,1516,0,1516,0,1516,0,1516,0,1516,0,1516,0,1516,0,1516,0,
0,0,0,0,0,0,0,0,0,0,0,0,0,0,0,0,0,0,0,0,0,0,0,0,0,0,0,0,0,0,0,0,0,0,0,0,0,0,0,0,0,0,0,0,0,0,0,0,0,0,0,0,0,0,0,0,0,0,0,0,0,0,0,0,0,0,0,0,0,0,0,0,0,0,
0,0,0,0,0,0,0,0,0,0,0,0,0,0,0,0,0,0,0,0,0,0,0,0,0,0,0,0,0,0,0,0,0,0,0,0,0,0,0,0,0,0,0,0,0,0,0,0,0,0,0,0,0,0,0,0,0,0,0,0,0,0,0,0,0,0,0,0,0,0,0,0,0,0,
0,0,0,0,0,0,0,0,0,0,0,0,0,0,0,0,0,0,0,0,0,0,0,0,0,0,0,0,0,0,0,0,0,0,0,0,0,0,0,0,0,0,0,0,0,0,0,0,0,0,0,0,0,0,0,0,0,0,0,0,0,0,0,0,0,0,0,0,0,0,0,0,0,0
</data>
 </layer>
 <objectgroup draworder="index" id="3" name="Impl_Standard"/>
 <objectgroup draworder="index" id="4" name="Impl_Interact">
  <object id="1" template="../../../templates/dungeon/obj_dungeon_interactable.tx" type="obj_dungeon_interactable" x="448" y="320"/>
  <object id="2" template="../../../templates/dungeon/obj_dungeon_ladder_down.tx" type="obj_dungeon_ladder_down" x="288" y="704">
   <properties>
    <property name="state" type="int" propertytype="LadderState" value="2"/>
   </properties>
  </object>
 </objectgroup>
 <objectgroup draworder="index" id="5" name="Instances">
  <object id="3" template="../../../templates/dungeon/obj_dungeon_ladder_up.tx" type="obj_dungeon_ladder_up" x="112" y="432"/>
 </objectgroup>
 <objectgroup draworder="index" id="6" name="Level_0_Assets">
  <object id="4" type="asset" gid="225" x="80" y="400" width="48" height="64"/>
  <object id="5" type="asset" gid="225" x="384" y="512" width="48" height="64"/>
  <object id="6" type="asset" gid="951" x="448" y="272" width="16" height="48"/>
  <object id="7" type="asset" gid="951" x="288" y="624" width="16" height="48"/>
  <object id="8" type="asset" gid="951" x="176" y="208" width="16" height="48"/>
  <object id="9" type="asset" gid="635" x="144" y="240" width="32" height="32"/>
  <object id="10" type="asset" gid="1012" x="80" y="304" width="32" height="32"/>
  <object id="11" type="asset" gid="230" x="240" y="320" width="16" height="24"/>
  <object id="12" type="asset" gid="1468" x="64" y="416" width="16" height="24"/>
  <object id="13" type="asset" gid="669" x="400" y="632" width="48" height="40"/>
  <object id="14" type="asset" gid="1168" x="152" y="632" width="32" height="64"/>
  <object id="15" type="asset" gid="230" x="192" y="512" width="16" height="24"/>
 </objectgroup>
</map>
