<?xml version="1.0" encoding="UTF-8"?>
<map version="1.10" tiledversion="1.11.2" orientation="orthogonal" renderorder="right-down" width="30" height="32" tilewidth="8" tileheight="8" infinite="0" backgroundcolor="#000000" nextlayerid="31" nextobjectid="93">
 <tileset firstgid="1" source="../../../__gm_import.tsx"/>
 <tileset firstgid="1504" source="../../../tile_sets/__META/tile_collision_info.tsx"/>
 <tileset firstgid="1511" source="../../../tile_sets/tile_footsteps.tsx"/>
 <tileset firstgid="1655" source="../../../tile_sets/_GENERIC/tile_main_interiors.tsx"/>
 <tileset firstgid="5751" source="../../../tile_sets/_GENERIC/tile_main_interiors_shadows.tsx"/>
 <tileset firstgid="6007" source="../../../tile_sets/__META/tile_pathfinding.tsx"/>
 <tileset firstgid="6013" source="../../../tile_sets/__META/tile_rules.tsx"/>
 <group id="1" name="Level_0">
  <layer id="2" name="Level_0_Floor" width="30" height="32">
   <properties>
    <property name="maybe_animation_id" value="75ea443e6634d96"/>
    <property name="maybe_tileset_id" value="d8b504e9a8480fbe"/>
    <property name="tile_size" type="int" value="16"/>
   </properties>
   <data encoding="csv">
1655,0,1655,0,1655,0,1655,0,1655,0,1655,0,1655,0,1655,0,1655,0,1655,0,1655,0,1655,0,1655,0,1655,0,1655,0,
0,0,0,0,0,0,0,0,0,0,0,0,0,0,0,0,0,0,0,0,0,0,0,0,0,0,0,0,0,0,
1655,0,1655,0,1655,0,1655,0,1655,0,1655,0,1655,0,1655,0,1655,0,1655,0,1655,0,1655,0,1655,0,1655,0,1655,0,
0,0,0,0,0,0,0,0,0,0,0,0,0,0,0,0,0,0,0,0,0,0,0,0,0,0,0,0,0,0,
1655,0,1655,0,1655,0,1655,0,1655,0,1655,0,1655,0,1655,0,1655,0,1655,0,1655,0,1655,0,1655,0,1655,0,1655,0,
0,0,0,0,0,0,0,0,0,0,0,0,0,0,0,0,0,0,0,0,0,0,0,0,0,0,0,0,0,0,
1655,0,1655,0,1655,0,1655,0,1655,0,1655,0,1655,0,1655,0,1655,0,1655,0,1655,0,1655,0,1655,0,1655,0,1655,0,
0,0,0,0,0,0,0,0,0,0,0,0,0,0,0,0,0,0,0,0,0,0,0,0,0,0,0,0,0,0,
1655,0,1655,0,1655,0,1655,0,1655,0,1655,0,1655,0,1655,0,1655,0,1655,0,1655,0,1655,0,1655,0,1655,0,1655,0,
0,0,0,0,0,0,0,0,0,0,0,0,0,0,0,0,0,0,0,0,0,0,0,0,0,0,0,0,0,0,
1655,0,1655,0,1655,0,1655,0,1655,0,1655,0,1655,0,1655,0,1655,0,1655,0,1655,0,1655,0,1655,0,1655,0,1655,0,
0,0,0,0,0,0,0,0,0,0,0,0,0,0,0,0,0,0,0,0,0,0,0,0,0,0,0,0,0,0,
1655,0,1655,0,1915,0,1915,0,1915,0,1915,0,1915,0,1915,0,1915,0,1915,0,1915,0,1915,0,1915,0,1915,0,1655,0,
0,0,0,0,0,0,0,0,0,0,0,0,0,0,0,0,0,0,0,0,0,0,0,0,0,0,0,0,0,0,
1655,0,1655,0,1979,0,1979,0,1979,0,1979,0,1979,0,1979,0,1979,0,1979,0,1979,0,1979,0,1979,0,1979,0,1655,0,
0,0,0,0,0,0,0,0,0,0,0,0,0,0,0,0,0,0,0,0,0,0,0,0,0,0,0,0,0,0,
1655,0,1655,0,1915,0,1915,0,1915,0,1915,0,1915,0,1915,0,1915,0,1915,0,1915,0,1915,0,1915,0,1915,0,1655,0,
0,0,0,0,0,0,0,0,0,0,0,0,0,0,0,0,0,0,0,0,0,0,0,0,0,0,0,0,0,0,
1655,0,1655,0,1979,0,1979,0,1979,0,1979,0,1979,0,1979,0,1979,0,1979,0,1979,0,1979,0,1979,0,1979,0,1655,0,
0,0,0,0,0,0,0,0,0,0,0,0,0,0,0,0,0,0,0,0,0,0,0,0,0,0,0,0,0,0,
1655,0,1655,0,1915,0,1915,0,1915,0,1915,0,1915,0,1915,0,1915,0,1915,0,1915,0,1915,0,1915,0,1915,0,1655,0,
0,0,0,0,0,0,0,0,0,0,0,0,0,0,0,0,0,0,0,0,0,0,0,0,0,0,0,0,0,0,
1655,0,1655,0,1979,0,1979,0,1979,0,1979,0,1979,0,1979,0,1979,0,1979,0,1979,0,1979,0,1979,0,1979,0,1655,0,
0,0,0,0,0,0,0,0,0,0,0,0,0,0,0,0,0,0,0,0,0,0,0,0,0,0,0,0,0,0,
1655,0,1655,0,1915,0,1915,0,1915,0,1915,0,1915,0,1915,0,1915,0,1915,0,1915,0,1915,0,1915,0,1915,0,1655,0,
0,0,0,0,0,0,0,0,0,0,0,0,0,0,0,0,0,0,0,0,0,0,0,0,0,0,0,0,0,0,
1655,0,1655,0,1979,0,1979,0,1979,0,1979,0,1979,0,1979,0,1979,0,1979,0,1979,0,1979,0,1979,0,1979,0,1655,0,
0,0,0,0,0,0,0,0,0,0,0,0,0,0,0,0,0,0,0,0,0,0,0,0,0,0,0,0,0,0,
1655,0,1655,0,1655,0,1655,0,1655,0,1655,0,1655,0,1655,0,1655,0,1655,0,1655,0,1655,0,1655,0,1655,0,1655,0,
0,0,0,0,0,0,0,0,0,0,0,0,0,0,0,0,0,0,0,0,0,0,0,0,0,0,0,0,0,0,
1655,0,1655,0,1655,0,1655,0,1655,0,1655,0,1655,0,1655,0,1655,0,1655,0,1655,0,1655,0,1655,0,1655,0,1655,0,
0,0,0,0,0,0,0,0,0,0,0,0,0,0,0,0,0,0,0,0,0,0,0,0,0,0,0,0,0,0
</data>
  </layer>
  <objectgroup draworder="index" id="3" name="Level_0_FloorSprites">
   <object id="1" type="asset" gid="671" x="82" y="177" width="76" height="52"/>
   <object id="2" type="asset" gid="250" x="176" y="169" width="14" height="35"/>
  </objectgroup>
  <layer id="4" name="Level_0_Shadows" width="30" height="32">
   <properties>
    <property name="maybe_animation_id" value="babd09ade2b55c05"/>
    <property name="maybe_tileset_id" value="339411f6ba88c8f0"/>
    <property name="tile_size" type="int" value="16"/>
   </properties>
   <data encoding="csv">
0,0,0,0,0,0,0,0,0,0,0,0,0,0,0,0,0,0,0,0,0,0,0,0,0,0,0,0,0,0,
0,0,0,0,0,0,0,0,0,0,0,0,0,0,0,0,0,0,0,0,0,0,0,0,0,0,0,0,0,0,
0,0,0,0,0,0,0,0,0,0,0,0,0,0,0,0,0,0,0,0,0,0,0,0,0,0,0,0,0,0,
0,0,0,0,0,0,0,0,0,0,0,0,0,0,0,0,0,0,0,0,0,0,0,0,0,0,0,0,0,0,
5751,0,5751,0,5751,0,5751,0,5751,0,5751,0,5751,0,5751,0,5751,0,5751,0,5751,0,5751,0,5751,0,5751,0,5751,0,
0,0,0,0,0,0,0,0,0,0,0,0,0,0,0,0,0,0,0,0,0,0,0,0,0,0,0,0,0,0,
5751,0,5751,0,5751,0,5751,0,5751,0,5751,0,5751,0,5751,0,5751,0,5751,0,5751,0,5751,0,5751,0,5751,0,5751,0,
0,0,0,0,0,0,0,0,0,0,0,0,0,0,0,0,0,0,0,0,0,0,0,0,0,0,0,0,0,0,
5751,0,5751,0,5751,0,5751,0,5751,0,5751,0,5751,0,5751,0,5751,0,5751,0,5751,0,5751,0,5751,0,5751,0,5751,0,
0,0,0,0,0,0,0,0,0,0,0,0,0,0,0,0,0,0,0,0,0,0,0,0,0,0,0,0,0,0,
5751,0,5751,0,5751,0,5751,0,5751,0,5751,0,5751,0,5751,0,5751,0,5751,0,5751,0,5751,0,5751,0,5751,0,5751,0,
0,0,0,0,0,0,0,0,0,0,0,0,0,0,0,0,0,0,0,0,0,0,0,0,0,0,0,0,0,0,
5751,0,5751,0,5752,0,5752,0,5779,0,5753,0,5753,0,5753,0,5753,0,5753,0,5753,0,5753,0,5753,0,5751,0,5751,0,
0,0,0,0,0,0,0,0,0,0,0,0,0,0,0,0,0,0,0,0,0,0,0,0,0,0,0,0,0,0,
5751,0,5751,0,5752,0,5752,0,5751,0,5751,0,5751,0,5751,0,5751,0,5751,0,5751,0,5751,0,5751,0,5751,0,5751,0,
0,0,0,0,0,0,0,0,0,0,0,0,0,0,0,0,0,0,0,0,0,0,0,0,0,0,0,0,0,0,
5751,0,5751,0,5752,0,5752,0,5751,0,5751,0,5751,0,5751,0,5751,0,5751,0,5751,0,5751,0,5751,0,5751,0,5751,0,
0,0,0,0,0,0,0,0,0,0,0,0,0,0,0,0,0,0,0,0,0,0,0,0,0,0,0,0,0,0,
5751,0,5751,0,5752,0,5752,0,5751,0,5751,0,5751,0,5751,0,5751,0,5751,0,5751,0,5751,0,5751,0,5751,0,5751,0,
0,0,0,0,0,0,0,0,0,0,0,0,0,0,0,0,0,0,0,0,0,0,0,0,0,0,0,0,0,0,
5751,0,5751,0,5752,0,5752,0,5751,0,5751,0,5751,0,5751,0,5751,0,5751,0,5751,0,5751,0,5751,0,5751,0,5751,0,
0,0,0,0,0,0,0,0,0,0,0,0,0,0,0,0,0,0,0,0,0,0,0,0,0,0,0,0,0,0,
5751,0,5751,0,5752,0,5752,0,5751,0,5751,0,5751,0,5751,0,5751,0,5751,0,5751,0,5751,0,5751,0,5751,0,5751,0,
0,0,0,0,0,0,0,0,0,0,0,0,0,0,0,0,0,0,0,0,0,0,0,0,0,0,0,0,0,0,
5751,0,5751,0,5752,0,5752,0,5751,0,5751,0,5751,0,5751,0,5751,0,5751,0,5751,0,5751,0,5751,0,5751,0,5751,0,
0,0,0,0,0,0,0,0,0,0,0,0,0,0,0,0,0,0,0,0,0,0,0,0,0,0,0,0,0,0,
5751,0,5751,0,5752,0,5752,0,5751,0,5751,0,5751,0,5751,0,5751,0,5751,0,5751,0,5751,0,5751,0,5751,0,5751,0,
0,0,0,0,0,0,0,0,0,0,0,0,0,0,0,0,0,0,0,0,0,0,0,0,0,0,0,0,0,0,
0,0,0,0,0,0,0,0,0,0,0,0,0,0,0,0,0,0,0,0,0,0,0,0,0,0,0,0,0,0,
0,0,0,0,0,0,0,0,0,0,0,0,0,0,0,0,0,0,0,0,0,0,0,0,0,0,0,0,0,0,
0,0,0,0,0,0,0,0,0,0,0,0,0,0,0,0,0,0,0,0,0,0,0,0,0,0,0,0,0,0,
0,0,0,0,0,0,0,0,0,0,0,0,0,0,0,0,0,0,0,0,0,0,0,0,0,0,0,0,0,0
</data>
  </layer>
  <layer id="5" name="Level_0_Walls" width="30" height="32">
   <properties>
    <property name="maybe_animation_id" value="75ea443e6634d96"/>
    <property name="maybe_tileset_id" value="d8b504e9a8480fbe"/>
    <property name="tile_size" type="int" value="16"/>
   </properties>
   <data encoding="csv">
1655,0,1655,0,1655,0,1655,0,1655,0,1655,0,1655,0,1655,0,1655,0,1655,0,1655,0,1655,0,1655,0,1655,0,1655,0,
0,0,0,0,0,0,0,0,0,0,0,0,0,0,0,0,0,0,0,0,0,0,0,0,0,0,0,0,0,0,
1655,0,1655,0,1655,0,1655,0,1655,0,1655,0,1655,0,1655,0,1655,0,1655,0,1655,0,1655,0,1655,0,1655,0,1655,0,
0,0,0,0,0,0,0,0,0,0,0,0,0,0,0,0,0,0,0,0,0,0,0,0,0,0,0,0,0,0,
1655,0,1655,0,1655,0,1655,0,1655,0,1655,0,1655,0,1655,0,1655,0,1655,0,1655,0,1655,0,1655,0,1655,0,1655,0,
0,0,0,0,0,0,0,0,0,0,0,0,0,0,0,0,0,0,0,0,0,0,0,0,0,0,0,0,0,0,
1655,0,1655,0,1720,0,1720,0,1720,0,1720,0,1720,0,1720,0,1720,0,1720,0,1720,0,1720,0,1720,0,1655,0,1655,0,
0,0,0,0,0,0,0,0,0,0,0,0,0,0,0,0,0,0,0,0,0,0,0,0,0,0,0,0,0,0,
1655,0,1655,0,1784,0,1784,0,1784,0,1784,0,1784,0,1784,0,1784,0,1784,0,1784,0,1784,0,1784,0,1655,0,1655,0,
0,0,0,0,0,0,0,0,0,0,0,0,0,0,0,0,0,0,0,0,0,0,0,0,0,0,0,0,0,0,
1655,0,1655,0,1784,0,1784,0,1784,0,1784,0,1784,0,1784,0,1784,0,1784,0,1784,0,1784,0,1784,0,1655,0,1655,0,
0,0,0,0,0,0,0,0,0,0,0,0,0,0,0,0,0,0,0,0,0,0,0,0,0,0,0,0,0,0,
1655,0,1655,0,1848,0,1848,0,1848,0,1848,0,1848,0,1848,0,1848,0,1848,0,1848,0,1848,0,1848,0,1655,0,1655,0,
0,0,0,0,0,0,0,0,0,0,0,0,0,0,0,0,0,0,0,0,0,0,0,0,0,0,0,0,0,0,
1655,0,1655,0,1655,0,1655,0,1655,0,1655,0,1655,0,1655,0,1655,0,1655,0,1655,0,1655,0,1655,0,1655,0,1655,0,
0,0,0,0,0,0,0,0,0,0,0,0,0,0,0,0,0,0,0,0,0,0,0,0,0,0,0,0,0,0,
1655,0,1655,0,1655,0,1655,0,1655,0,1655,0,1655,0,1655,0,1655,0,1655,0,1655,0,1655,0,1655,0,1655,0,1655,0,
0,0,0,0,0,0,0,0,0,0,0,0,0,0,0,0,0,0,0,0,0,0,0,0,0,0,0,0,0,0,
0,0,0,0,0,0,0,0,0,0,0,0,0,0,0,0,0,0,0,0,0,0,0,0,0,0,0,0,0,0,
0,0,0,0,0,0,0,0,0,0,0,0,0,0,0,0,0,0,0,0,0,0,0,0,0,0,0,0,0,0,
0,0,0,0,0,0,0,0,0,0,0,0,0,0,0,0,0,0,0,0,0,0,0,0,0,0,0,0,0,0,
0,0,0,0,0,0,0,0,0,0,0,0,0,0,0,0,0,0,0,0,0,0,0,0,0,0,0,0,0,0,
0,0,0,0,0,0,0,0,0,0,0,0,0,0,0,0,0,0,0,0,0,0,0,0,0,0,0,0,0,0,
0,0,0,0,0,0,0,0,0,0,0,0,0,0,0,0,0,0,0,0,0,0,0,0,0,0,0,0,0,0,
0,0,0,0,0,0,0,0,0,0,0,0,0,0,0,0,0,0,0,0,0,0,0,0,0,0,0,0,0,0,
0,0,0,0,0,0,0,0,0,0,0,0,0,0,0,0,0,0,0,0,0,0,0,0,0,0,0,0,0,0,
0,0,0,0,0,0,0,0,0,0,0,0,0,0,0,0,0,0,0,0,0,0,0,0,0,0,0,0,0,0,
0,0,0,0,0,0,0,0,0,0,0,0,0,0,0,0,0,0,0,0,0,0,0,0,0,0,0,0,0,0,
0,0,0,0,0,0,0,0,0,0,0,0,0,0,0,0,0,0,0,0,0,0,0,0,0,0,0,0,0,0,
0,0,0,0,0,0,0,0,0,0,0,0,0,0,0,0,0,0,0,0,0,0,0,0,0,0,0,0,0,0,
0,0,0,0,0,0,0,0,0,0,0,0,0,0,0,0,0,0,0,0,0,0,0,0,0,0,0,0,0,0,
0,0,0,0,0,0,0,0,0,0,0,0,0,0,0,0,0,0,0,0,0,0,0,0,0,0,0,0,0,0
</data>
  </layer>
  <objectgroup draworder="index" id="6" name="Level_0_Windows">
   <object id="3" template="../../../templates/meta/obj_windowshader_interior.tx" type="obj_windowshader_interior" x="64" y="88" width="16" height="24"/>
  </objectgroup>
  <objectgroup draworder="index" id="7" name="Level_0_Assets">
   <object id="4" type="asset" gid="1254" x="57" y="91" width="32" height="35"/>
   <object id="5" type="asset" gid="358" x="105" y="85" width="29" height="27"/>
   <object id="6" type="asset" gid="540" x="161" y="113" width="34" height="52"/>
   <object id="7" type="asset" gid="1288" x="51" y="128" width="22" height="29"/>
   <object id="8" type="asset" gid="757" x="102" y="144" width="42" height="59"/>
   <object id="9" type="asset" gid="330" x="50" y="202" width="44" height="43"/>
   <object id="10" type="asset" gid="1288" x="171" y="205" width="22" height="29"/>
  </objectgroup>
 </group>
 <group id="8" name="Level_0_Scene">
  <objectgroup draworder="index" id="9" name="Level_0_Assets_Scene">
   <object id="11" type="asset" gid="358" x="105" y="85" width="29" height="27"/>
   <object id="12" type="asset" gid="851" x="102" y="144" width="42" height="59"/>
   <object id="13" type="asset" gid="773" x="50" y="202" width="44" height="43"/>
   <object id="14" type="asset" gid="597" x="40" y="135" width="40" height="48"/>
   <object id="15" type="asset" gid="153" x="162" y="211" width="40" height="48"/>
   <object id="16" type="asset" gid="969" x="161" y="113" width="34" height="52"/>
   <object id="17" type="asset" gid="1254" x="57" y="91" width="32" height="35"/>
  </objectgroup>
  <layer id="10" name="Tiles_Collision_Scene" width="30" height="32">
   <properties>
    <property name="maybe_animation_id" value="d5b5e9552171fe70"/>
    <property name="maybe_tileset_id" value="b29026a2ad0be741"/>
    <property name="tile_size" type="int" value="8"/>
   </properties>
   <data encoding="csv">
1507,1507,1507,1507,1507,1507,1507,1507,1507,1507,1507,1507,1507,1507,1507,1507,1507,1507,1507,1507,1507,1507,1507,1507,1507,1507,1507,1507,1507,1507,
1507,1507,1507,1507,1507,1507,1507,1507,1507,1507,1507,1507,1507,1507,1507,1507,1507,1507,1507,1507,1507,1507,1507,1507,1507,1507,1507,1507,1507,1507,
1507,1507,1507,1507,1507,1507,1507,1507,1507,1507,1507,1507,1507,1507,1507,1507,1507,1507,1507,1507,1507,1507,1507,1507,1507,1507,1507,1507,1507,1507,
1507,1507,1507,1507,1507,1507,1507,1507,1507,1507,1507,1507,1507,1507,1507,1507,1507,1507,1507,1507,1507,1507,1507,1507,1507,1507,1507,1507,1507,1507,
1507,1507,1507,1507,1507,1507,1507,1507,1507,1507,1507,1507,1507,1507,1507,1507,1507,1507,1507,1507,1507,1507,1507,1507,1507,1507,1507,1507,1507,1507,
1507,1507,1507,1507,1504,1504,1507,1507,1507,1507,1507,1504,1507,1507,1507,1507,1507,1507,1507,1507,1507,1507,1507,1507,1507,1507,1507,1507,1507,1507,
1507,1507,1507,1507,1504,1504,1504,1504,1504,1504,1504,1504,1504,1504,1504,1504,1504,1504,1504,1504,1504,1504,1504,1504,1504,1504,1504,1504,1504,1504,
1504,1504,1504,1504,1504,1504,1504,1504,1504,1504,1504,1504,1504,1504,1504,1504,1504,1504,1504,1504,1504,1504,1504,1504,1504,1504,1504,1504,1504,1504,
1507,1507,1507,1507,1504,1504,1504,1504,1504,1504,1504,1504,1504,1504,1504,1504,1504,1504,1504,1504,1504,1504,1504,1504,1504,1504,1504,1504,1504,1504,
1507,1507,1507,1507,1504,1504,1504,1504,1504,1504,1504,1504,1504,1504,1504,1504,1504,1504,1504,1504,1504,1504,1504,1504,1504,1504,1504,1504,1504,1504,
1507,1507,1507,1507,1504,1504,1504,1504,1504,1504,1504,1504,1504,1504,1504,1504,1504,1504,1504,1504,1504,1504,1504,1504,1504,1504,1504,1504,1504,1504,
1507,1507,1507,1507,1504,1504,1504,1504,1504,1504,1504,1504,1504,1504,1504,1504,1504,1504,1504,1504,1504,1504,1504,1504,1504,1504,1504,1504,1504,1504,
1507,1507,1507,1507,1504,1504,1504,1504,1504,1504,1504,1504,1504,1504,1504,1504,1504,1504,1504,1504,1504,1504,1504,1504,1504,1504,1504,1504,1504,1504,
1507,1507,1507,1507,1504,1504,1504,1504,1504,1504,1504,1504,1504,1504,1504,1504,1504,1504,1504,1504,1504,1504,1504,1504,1504,1504,1504,1504,1504,1504,
1507,1507,1507,1507,1504,1504,1504,1504,1504,1504,1504,1504,1504,1504,1504,1504,1504,1504,1504,1504,1504,1504,1504,1504,1504,1504,1504,1504,1504,1504,
1507,1507,1507,1507,1504,1504,1504,1504,1504,1504,1504,1504,1504,1504,1504,1504,1504,1504,1504,1504,1504,1504,1504,1504,1504,1504,1504,1504,1504,1504,
1507,1507,1507,1507,1504,1504,1504,1504,1504,1504,1504,1504,1504,1504,1504,1504,1504,1504,1504,1504,1504,1504,1504,1504,1504,1504,1504,1504,1504,1504,
1507,1507,1507,1507,1504,1504,1504,1504,1504,1504,1504,1504,1504,1504,1504,1504,1504,1504,1504,1504,1504,1504,1504,1504,1504,1504,1504,1504,1504,1504,
1507,1507,1507,1507,1504,1504,1504,1504,1504,1504,1504,1504,1504,1504,1504,1504,1504,1504,1504,1504,1504,1504,1504,1504,1504,1504,1504,1504,1504,1504,
1507,1507,1507,1507,1504,1504,1504,1504,1504,1504,1504,1504,1504,1504,1504,1504,1504,1504,1504,1504,1504,1504,1504,1504,1504,1504,1504,1504,1504,1504,
1507,1507,1507,1507,1504,1504,1504,1504,1504,1504,1504,1504,1504,1504,1504,1504,1504,1504,1504,1504,1504,1504,1504,1504,1504,1504,1504,1504,1504,1504,
1507,1507,1507,1507,1504,1504,1504,1504,1504,1504,1504,1504,1504,1504,1504,1504,1504,1504,1504,1504,1504,1504,1504,1504,1504,1504,1504,1504,1504,1504,
1507,1507,1507,1507,1504,1504,1504,1504,1504,1504,1504,1504,1504,1504,1504,1504,1504,1504,1504,1504,1504,1504,1504,1504,1504,1504,1504,1504,1504,1504,
1507,1507,1507,1507,1504,1504,1504,1504,1504,1504,1504,1504,1504,1504,1504,1504,1504,1504,1504,1504,1504,1504,1504,1504,1504,1504,1504,1504,1504,1504,
1507,1507,1507,1507,1504,1504,1504,1504,1504,1504,1504,1504,1504,1504,1504,1504,1504,1504,1504,1504,1504,1504,1506,1506,1504,1504,1504,1504,1504,1504,
1507,1507,1507,1507,1504,1504,1504,1504,1504,1504,1504,1504,1504,1504,1504,1504,1504,1504,1504,1504,1504,1504,1506,1506,1504,1504,1504,1504,1504,1504,
1507,1507,1507,1507,1504,1504,1504,1504,1504,1504,1504,1504,1504,1504,1504,1504,1504,1504,1504,1504,1504,1504,1504,1504,1504,1504,1504,1504,1504,1504,
1507,1507,1507,1507,1504,1504,1504,1504,1504,1504,1504,1504,1504,1504,1504,1504,1504,1504,1504,1504,1504,1504,1504,1504,1504,1504,1504,1504,1504,1504,
1507,1507,1507,1507,1504,1504,1504,1504,1504,1504,1504,1504,1504,1504,1504,1504,1504,1504,1504,1504,1504,1504,1504,1504,1504,1504,1504,1504,1504,1504,
1507,1507,1507,1507,1504,1504,1504,1504,1504,1504,1504,1504,1504,1504,1504,1504,1504,1504,1504,1504,1504,1504,1504,1504,1504,1504,1504,1504,1504,1504,
1507,1507,1507,1507,1504,1504,1504,1504,1504,1504,1504,1504,1504,1504,1504,1504,1504,1504,1504,1504,1504,1504,1504,1504,1504,1504,1504,1504,1504,1504,
1507,1507,1507,1507,1504,1504,1504,1504,1504,1504,1504,1504,1504,1504,1504,1504,1504,1504,1504,1504,1504,1504,1504,1504,1504,1504,1504,1504,1504,1504
</data>
  </layer>
 </group>
 <group id="11" name="Level_0_Post_Scene">
  <objectgroup draworder="index" id="12" name="Level_0_Assets_Post_Scene">
   <object id="18" type="asset" gid="358" x="105" y="85" width="29" height="27"/>
   <object id="19" type="asset" gid="851" x="102" y="144" width="42" height="59"/>
   <object id="20" type="asset" gid="597" x="40" y="135" width="40" height="48"/>
   <object id="21" type="asset" gid="153" x="162" y="211" width="40" height="48"/>
   <object id="22" type="asset" gid="969" x="161" y="113" width="34" height="52"/>
   <object id="23" type="asset" gid="1254" x="57" y="91" width="32" height="35"/>
   <object id="24" type="asset" gid="1381" x="50" y="202" width="44" height="43"/>
  </objectgroup>
  <layer id="13" name="Tiles_Collision_Post_Scene" width="30" height="32">
   <properties>
    <property name="maybe_animation_id" value="d5b5e9552171fe70"/>
    <property name="maybe_tileset_id" value="b29026a2ad0be741"/>
    <property name="tile_size" type="int" value="8"/>
   </properties>
   <data encoding="csv">
1507,1507,1507,1507,1507,1507,1507,1507,1507,1507,1507,1507,1507,1507,1507,1507,1507,1507,1507,1507,1507,1507,1507,1507,1507,1507,1507,1507,1507,1507,
1507,1507,1507,1507,1507,1507,1507,1507,1507,1507,1507,1507,1507,1507,1507,1507,1507,1507,1507,1507,1507,1507,1507,1507,1507,1507,1507,1507,1507,1507,
1507,1507,1507,1507,1507,1507,1507,1507,1507,1507,1507,1507,1507,1507,1507,1507,1507,1507,1507,1507,1507,1507,1507,1507,1507,1507,1507,1507,1507,1507,
1507,1507,1507,1507,1507,1507,1507,1507,1507,1507,1507,1507,1507,1507,1507,1507,1507,1507,1507,1507,1507,1507,1507,1507,1507,1507,1507,1507,1507,1507,
1507,1507,1507,1507,1507,1507,1507,1507,1507,1507,1507,1507,1507,1507,1507,1507,1507,1507,1507,1507,1507,1507,1507,1507,1507,1507,1507,1507,1507,1507,
1507,1507,1507,1507,1504,1504,1507,1507,1507,1507,1507,1504,1507,1507,1507,1507,1507,1507,1507,1507,1507,1507,1507,1507,1507,1507,1507,1507,1507,1507,
1507,1507,1507,1507,1504,1504,1504,1504,1504,1504,1504,1504,1504,1504,1504,1504,1504,1504,1504,1504,1504,1504,1504,1504,1504,1504,1504,1504,1504,1504,
1504,1504,1504,1504,1504,1504,1504,1504,1504,1504,1504,1504,1504,1504,1504,1504,1504,1504,1504,1504,1504,1504,1504,1504,1504,1504,1504,1504,1504,1504,
1507,1507,1507,1507,1504,1504,1504,1504,1504,1504,1504,1504,1504,1504,1504,1504,1504,1504,1504,1504,1504,1504,1504,1504,1504,1504,1504,1504,1504,1504,
1507,1507,1507,1507,1504,1504,1504,1504,1504,1504,1504,1504,1504,1504,1504,1504,1504,1504,1504,1504,1504,1504,1504,1504,1504,1504,1504,1504,1504,1504,
1507,1507,1507,1507,1504,1504,1504,1504,1504,1504,1504,1504,1504,1504,1504,1504,1504,1504,1504,1504,1504,1504,1504,1504,1504,1504,1504,1504,1504,1504,
1507,1507,1507,1507,1504,1504,1504,1504,1504,1504,1504,1504,1504,1504,1504,1504,1504,1504,1504,1504,1504,1504,1504,1504,1504,1504,1504,1504,1504,1504,
1507,1507,1507,1507,1504,1504,1504,1504,1504,1504,1504,1504,1504,1504,1504,1504,1504,1504,1504,1504,1504,1504,1504,1504,1504,1504,1504,1504,1504,1504,
1507,1507,1507,1507,1504,1504,1504,1504,1504,1504,1504,1504,1504,1504,1504,1504,1504,1504,1504,1504,1504,1504,1504,1504,1504,1504,1504,1504,1504,1504,
1507,1507,1507,1507,1504,1504,1504,1504,1504,1504,1504,1504,1504,1504,1504,1504,1504,1504,1504,1504,1504,1504,1504,1504,1504,1504,1504,1504,1504,1504,
1507,1507,1507,1507,1504,1504,1504,1504,1504,1504,1504,1504,1504,1504,1504,1504,1504,1504,1504,1504,1504,1504,1504,1504,1504,1504,1504,1504,1504,1504,
1507,1507,1507,1507,1504,1504,1504,1504,1504,1504,1504,1504,1504,1504,1504,1504,1504,1504,1504,1504,1504,1504,1504,1504,1504,1504,1504,1504,1504,1504,
1507,1507,1507,1507,1504,1504,1504,1504,1504,1504,1504,1504,1504,1504,1504,1504,1504,1504,1504,1504,1504,1504,1504,1504,1504,1504,1504,1504,1504,1504,
1507,1507,1507,1507,1504,1504,1504,1504,1504,1504,1504,1504,1504,1504,1504,1504,1504,1504,1504,1504,1504,1504,1504,1504,1504,1504,1504,1504,1504,1504,
1507,1507,1507,1507,1504,1504,1504,1504,1504,1504,1504,1504,1504,1504,1504,1504,1504,1504,1504,1504,1504,1504,1504,1504,1504,1504,1504,1504,1504,1504,
1507,1507,1507,1507,1504,1504,1504,1504,1504,1504,1504,1504,1504,1504,1504,1504,1504,1504,1504,1504,1504,1504,1504,1504,1504,1504,1504,1504,1504,1504,
1507,1507,1507,1507,1504,1504,1504,1504,1504,1504,1504,1504,1504,1504,1504,1504,1504,1504,1504,1504,1504,1504,1504,1504,1504,1504,1504,1504,1504,1504,
1507,1507,1507,1507,1504,1504,1504,1504,1504,1506,1506,1504,1504,1504,1504,1504,1504,1504,1504,1504,1504,1504,1504,1504,1504,1504,1504,1504,1504,1504,
1507,1507,1507,1507,1504,1504,1504,1504,1504,1506,1506,1504,1504,1504,1504,1504,1504,1504,1504,1504,1504,1504,1504,1504,1504,1504,1504,1504,1504,1504,
1507,1507,1507,1507,1504,1504,1504,1504,1504,1506,1506,1504,1504,1504,1504,1504,1504,1504,1504,1504,1504,1504,1506,1506,1504,1504,1504,1504,1504,1504,
1507,1507,1507,1507,1504,1504,1504,1504,1504,1504,1504,1504,1504,1504,1504,1504,1504,1504,1504,1504,1504,1504,1506,1506,1504,1504,1504,1504,1504,1504,
1507,1507,1507,1507,1504,1504,1504,1504,1504,1504,1504,1504,1504,1504,1504,1504,1504,1504,1504,1504,1504,1504,1504,1504,1504,1504,1504,1504,1504,1504,
1507,1507,1507,1507,1504,1504,1504,1504,1504,1504,1504,1504,1504,1504,1504,1504,1504,1504,1504,1504,1504,1504,1504,1504,1504,1504,1504,1504,1504,1504,
1507,1507,1507,1507,1504,1504,1504,1504,1504,1504,1504,1504,1504,1504,1504,1504,1504,1504,1504,1504,1504,1504,1504,1504,1504,1504,1504,1504,1504,1504,
1507,1507,1507,1507,1504,1504,1504,1504,1504,1504,1504,1504,1504,1504,1504,1504,1504,1504,1504,1504,1504,1504,1504,1504,1504,1504,1504,1504,1504,1504,
1507,1507,1507,1507,1504,1504,1504,1504,1504,1504,1504,1504,1504,1504,1504,1504,1504,1504,1504,1504,1504,1504,1504,1504,1504,1504,1504,1504,1504,1504,
1507,1507,1507,1507,1504,1504,1504,1504,1504,1504,1504,1504,1504,1504,1504,1504,1504,1504,1504,1504,1504,1504,1504,1504,1504,1504,1504,1504,1504,1504
</data>
  </layer>
 </group>
 <objectgroup draworder="index" id="14" name="Instances" visible="0">
  <object id="25" template="../../../templates/objects/obj_star_brooch.tx" type="obj_star_brooch" x="55" y="118">
   <properties>
    <property name="npc_name" value="balor"/>
    <property name="z" type="float" value="-19"/>
   </properties>
  </object>
 </objectgroup>
 <group id="15" name="Level_1">
  <layer id="16" name="Level_1_BlackArea" width="30" height="32">
   <properties>
    <property name="maybe_animation_id" value="75ea443e6634d96"/>
    <property name="maybe_tileset_id" value="d8b504e9a8480fbe"/>
    <property name="tile_size" type="int" value="16"/>
   </properties>
   <data encoding="csv">
1793,0,1793,0,1793,0,1793,0,1793,0,1793,0,1793,0,1793,0,1793,0,1793,0,1793,0,1793,0,1793,0,1793,0,1793,0,
0,0,0,0,0,0,0,0,0,0,0,0,0,0,0,0,0,0,0,0,0,0,0,0,0,0,0,0,0,0,
1793,0,1793,0,1793,0,1793,0,1793,0,1793,0,1793,0,1793,0,1793,0,1793,0,1793,0,1793,0,1793,0,1793,0,1793,0,
0,0,0,0,0,0,0,0,0,0,0,0,0,0,0,0,0,0,0,0,0,0,0,0,0,0,0,0,0,0,
1793,0,1793,0,1655,0,1655,0,1655,0,1655,0,1655,0,1655,0,1655,0,1655,0,1655,0,1655,0,1655,0,1793,0,1793,0,
0,0,0,0,0,0,0,0,0,0,0,0,0,0,0,0,0,0,0,0,0,0,0,0,0,0,0,0,0,0,
1793,0,1793,0,1655,0,1655,0,1655,0,1655,0,1655,0,1655,0,1655,0,1655,0,1655,0,1655,0,1655,0,1793,0,1793,0,
0,0,0,0,0,0,0,0,0,0,0,0,0,0,0,0,0,0,0,0,0,0,0,0,0,0,0,0,0,0,
1793,0,1793,0,1655,0,1655,0,1655,0,1655,0,1655,0,1655,0,1655,0,1655,0,1655,0,1655,0,1655,0,1793,0,1793,0,
0,0,0,0,0,0,0,0,0,0,0,0,0,0,0,0,0,0,0,0,0,0,0,0,0,0,0,0,0,0,
1793,0,1793,0,1655,0,1655,0,1655,0,1655,0,1655,0,1655,0,1655,0,1655,0,1655,0,1655,0,1655,0,1793,0,1793,0,
0,0,0,0,0,0,0,0,0,0,0,0,0,0,0,0,0,0,0,0,0,0,0,0,0,0,0,0,0,0,
1793,0,1793,0,1655,0,1655,0,1655,0,1655,0,1655,0,1655,0,1655,0,1655,0,1655,0,1655,0,1655,0,1793,0,1793,0,
0,0,0,0,0,0,0,0,0,0,0,0,0,0,0,0,0,0,0,0,0,0,0,0,0,0,0,0,0,0,
1793,0,1793,0,1655,0,1655,0,1655,0,1655,0,1655,0,1655,0,1655,0,1655,0,1655,0,1655,0,1655,0,1793,0,1793,0,
0,0,0,0,0,0,0,0,0,0,0,0,0,0,0,0,0,0,0,0,0,0,0,0,0,0,0,0,0,0,
1793,0,1793,0,1655,0,1655,0,1655,0,1655,0,1655,0,1655,0,1655,0,1655,0,1655,0,1655,0,1655,0,1793,0,1793,0,
0,0,0,0,0,0,0,0,0,0,0,0,0,0,0,0,0,0,0,0,0,0,0,0,0,0,0,0,0,0,
1793,0,1793,0,1655,0,1655,0,1655,0,1655,0,1655,0,1655,0,1655,0,1655,0,1655,0,1655,0,1655,0,1793,0,1793,0,
0,0,0,0,0,0,0,0,0,0,0,0,0,0,0,0,0,0,0,0,0,0,0,0,0,0,0,0,0,0,
1793,0,1793,0,1655,0,1655,0,1655,0,1655,0,1655,0,1655,0,1655,0,1655,0,1655,0,1655,0,1655,0,1793,0,1793,0,
0,0,0,0,0,0,0,0,0,0,0,0,0,0,0,0,0,0,0,0,0,0,0,0,0,0,0,0,0,0,
1793,0,1793,0,1655,0,1655,0,1655,0,1655,0,1655,0,1655,0,1655,0,1655,0,1655,0,1655,0,1655,0,1793,0,1793,0,
0,0,0,0,0,0,0,0,0,0,0,0,0,0,0,0,0,0,0,0,0,0,0,0,0,0,0,0,0,0,
1793,0,1793,0,1655,0,1655,0,1655,0,1655,0,1655,0,1655,0,1655,0,1655,0,1655,0,1655,0,1655,0,1793,0,1793,0,
0,0,0,0,0,0,0,0,0,0,0,0,0,0,0,0,0,0,0,0,0,0,0,0,0,0,0,0,0,0,
1793,0,1793,0,1655,0,1655,0,1655,0,1655,0,1655,0,1655,0,1655,0,1655,0,1655,0,1655,0,1655,0,1793,0,1793,0,
0,0,0,0,0,0,0,0,0,0,0,0,0,0,0,0,0,0,0,0,0,0,0,0,0,0,0,0,0,0,
1793,0,1793,0,1793,0,1793,0,1793,0,1793,0,1793,0,1793,0,1793,0,1793,0,1793,0,1793,0,1793,0,1793,0,1793,0,
0,0,0,0,0,0,0,0,0,0,0,0,0,0,0,0,0,0,0,0,0,0,0,0,0,0,0,0,0,0,
1793,0,1793,0,1793,0,1793,0,1793,0,1793,0,1793,0,1793,0,1793,0,1793,0,1793,0,1793,0,1793,0,1793,0,1793,0,
0,0,0,0,0,0,0,0,0,0,0,0,0,0,0,0,0,0,0,0,0,0,0,0,0,0,0,0,0,0
</data>
  </layer>
  <layer id="17" name="Level_1_Ceiling" width="30" height="32">
   <properties>
    <property name="maybe_animation_id" value="75ea443e6634d96"/>
    <property name="maybe_tileset_id" value="d8b504e9a8480fbe"/>
    <property name="tile_size" type="int" value="16"/>
   </properties>
   <data encoding="csv">
1655,0,1655,0,1655,0,1655,0,1655,0,1655,0,1655,0,1655,0,1655,0,1655,0,1655,0,1655,0,1655,0,1655,0,0,0,
0,0,0,0,0,0,0,0,0,0,0,0,0,0,0,0,0,0,0,0,0,0,0,0,0,0,0,0,0,0,
1655,0,1663,0,1664,0,1665,0,1665,0,1665,0,1665,0,1665,0,1665,0,1665,0,1665,0,1665,0,1666,0,1667,0,0,0,
0,0,0,0,0,0,0,0,0,0,0,0,0,0,0,0,0,0,0,0,0,0,0,0,0,0,0,0,0,0,
1655,0,1727,0,1728,0,1729,0,1729,0,1732,0,1729,0,1729,0,1729,0,1732,0,1729,0,1729,0,1730,0,1731,0,0,0,
0,0,0,0,0,0,0,0,0,0,0,0,0,0,0,0,0,0,0,0,0,0,0,0,0,0,0,0,0,0,
1655,0,1791,0,1792,0,1655,0,1655,0,1796,0,1655,0,1655,0,1655,0,1796,0,1655,0,1655,0,1794,0,1795,0,0,0,
0,0,0,0,0,0,0,0,0,0,0,0,0,0,0,0,0,0,0,0,0,0,0,0,0,0,0,0,0,0,
1655,0,1791,0,1669,0,1655,0,1655,0,1655,0,1655,0,1655,0,1655,0,1655,0,1655,0,1655,0,1668,0,1795,0,0,0,
0,0,0,0,0,0,0,0,0,0,0,0,0,0,0,0,0,0,0,0,0,0,0,0,0,0,0,0,0,0,
1655,0,1791,0,1792,0,1655,0,1655,0,1655,0,1655,0,1655,0,1655,0,1655,0,1655,0,1655,0,1794,0,1795,0,0,0,
0,0,0,0,0,0,0,0,0,0,0,0,0,0,0,0,0,0,0,0,0,0,0,0,0,0,0,0,0,0,
1655,0,1791,0,1792,0,1655,0,1655,0,1655,0,1655,0,1655,0,1655,0,1655,0,1655,0,1655,0,1794,0,1795,0,0,0,
0,0,0,0,0,0,0,0,0,0,0,0,0,0,0,0,0,0,0,0,0,0,0,0,0,0,0,0,0,0,
1655,0,1791,0,1792,0,1655,0,1655,0,1655,0,1655,0,1655,0,1655,0,1655,0,1655,0,1655,0,2147485635,0,2147485634,0,2147485633,0,
0,0,0,0,0,0,0,0,0,0,0,0,0,0,0,0,0,0,0,0,0,0,0,0,0,0,0,0,0,0,
1655,0,1791,0,1792,0,1655,0,1655,0,1655,0,1655,0,1655,0,1655,0,1655,0,1655,0,1655,0,2147485699,0,2147485698,0,2147485697,0,
0,0,0,0,0,0,0,0,0,0,0,0,0,0,0,0,0,0,0,0,0,0,0,0,0,0,0,0,0,0,
1655,0,1791,0,1792,0,1655,0,1655,0,1655,0,1655,0,1655,0,1655,0,1655,0,1655,0,1655,0,2147485763,0,2147485762,0,2147485761,0,
0,0,0,0,0,0,0,0,0,0,0,0,0,0,0,0,0,0,0,0,0,0,0,0,0,0,0,0,0,0,
1655,0,1791,0,1792,0,1655,0,1655,0,1655,0,1655,0,1655,0,1655,0,1655,0,1655,0,1655,0,1794,0,1795,0,0,0,
0,0,0,0,0,0,0,0,0,0,0,0,0,0,0,0,0,0,0,0,0,0,0,0,0,0,0,0,0,0,
1655,0,1791,0,1669,0,1655,0,1655,0,1655,0,1655,0,1655,0,1655,0,1655,0,1655,0,1655,0,1668,0,1795,0,0,0,
0,0,0,0,0,0,0,0,0,0,0,0,0,0,0,0,0,0,0,0,0,0,0,0,0,0,0,0,0,0,
1655,0,1791,0,1792,0,1655,0,1655,0,1655,0,1655,0,1655,0,1655,0,1655,0,1655,0,1655,0,1794,0,1795,0,0,0,
0,0,0,0,0,0,0,0,0,0,0,0,0,0,0,0,0,0,0,0,0,0,0,0,0,0,0,0,0,0,
1655,0,1855,0,1856,0,1857,0,1857,0,1733,0,1857,0,1857,0,1857,0,1733,0,1857,0,1857,0,1858,0,1859,0,0,0,
0,0,0,0,0,0,0,0,0,0,0,0,0,0,0,0,0,0,0,0,0,0,0,0,0,0,0,0,0,0,
0,0,1919,0,1920,0,1921,0,1921,0,1921,0,1921,0,1921,0,1921,0,1921,0,1921,0,1921,0,1922,0,1923,0,0,0,
0,0,0,0,0,0,0,0,0,0,0,0,0,0,0,0,0,0,0,0,0,0,0,0,0,0,0,0,0,0,
0,0,0,0,0,0,0,0,0,0,0,0,0,0,0,0,0,0,0,0,0,0,0,0,0,0,0,0,0,0,
0,0,0,0,0,0,0,0,0,0,0,0,0,0,0,0,0,0,0,0,0,0,0,0,0,0,0,0,0,0
</data>
  </layer>
 </group>
 <layer id="18" name="FootstepTiles" width="30" height="32" visible="0">
  <properties>
   <property name="maybe_animation_id" value="9b6388374855b54b"/>
   <property name="maybe_tileset_id" value="5fc72aa2902dea7"/>
   <property name="tile_size" type="int" value="16"/>
  </properties>
  <data encoding="csv">
0,0,0,0,0,0,0,0,0,0,0,0,0,0,0,0,0,0,0,0,0,0,0,0,0,0,0,0,0,0,
0,0,0,0,0,0,0,0,0,0,0,0,0,0,0,0,0,0,0,0,0,0,0,0,0,0,0,0,0,0,
0,0,0,0,0,0,0,0,0,0,0,0,0,0,0,0,0,0,0,0,0,0,0,0,0,0,0,0,0,0,
0,0,0,0,0,0,0,0,0,0,0,0,0,0,0,0,0,0,0,0,0,0,0,0,0,0,0,0,0,0,
0,0,0,0,0,0,0,0,0,0,0,0,0,0,0,0,0,0,0,0,0,0,0,0,0,0,0,0,0,0,
0,0,0,0,0,0,0,0,0,0,0,0,0,0,0,0,0,0,0,0,0,0,0,0,0,0,0,0,0,0,
1511,0,1511,0,1511,0,1511,0,1511,0,1511,0,1511,0,1511,0,1511,0,1511,0,1511,0,1511,0,1511,0,1511,0,1511,0,
0,0,0,0,0,0,0,0,0,0,0,0,0,0,0,0,0,0,0,0,0,0,0,0,0,0,0,0,0,0,
1511,0,1511,0,1511,0,1511,0,1511,0,1511,0,1511,0,1511,0,1511,0,1511,0,1511,0,1511,0,1511,0,1511,0,1511,0,
0,0,0,0,0,0,0,0,0,0,0,0,0,0,0,0,0,0,0,0,0,0,0,0,0,0,0,0,0,0,
1511,0,1511,0,1511,0,1511,0,1511,0,1511,0,1511,0,1511,0,1511,0,1511,0,1511,0,1511,0,1511,0,1511,0,1511,0,
0,0,0,0,0,0,0,0,0,0,0,0,0,0,0,0,0,0,0,0,0,0,0,0,0,0,0,0,0,0,
1511,0,1511,0,1512,0,1512,0,1512,0,1512,0,1512,0,1512,0,1512,0,1512,0,1512,0,1512,0,1512,0,1511,0,1511,0,
0,0,0,0,0,0,0,0,0,0,0,0,0,0,0,0,0,0,0,0,0,0,0,0,0,0,0,0,0,0,
1511,0,1511,0,1512,0,1512,0,1512,0,1512,0,1512,0,1512,0,1512,0,1512,0,1512,0,1512,0,1512,0,1511,0,1511,0,
0,0,0,0,0,0,0,0,0,0,0,0,0,0,0,0,0,0,0,0,0,0,0,0,0,0,0,0,0,0,
1511,0,1511,0,1512,0,1512,0,1512,0,1514,0,1514,0,1514,0,1514,0,1514,0,1512,0,1514,0,1512,0,1511,0,1511,0,
0,0,0,0,0,0,0,0,0,0,0,0,0,0,0,0,0,0,0,0,0,0,0,0,0,0,0,0,0,0,
1511,0,1511,0,1512,0,1512,0,1512,0,1514,0,1514,0,1514,0,1514,0,1514,0,1512,0,1514,0,1512,0,1511,0,1511,0,
0,0,0,0,0,0,0,0,0,0,0,0,0,0,0,0,0,0,0,0,0,0,0,0,0,0,0,0,0,0,
1511,0,1511,0,1512,0,1512,0,1512,0,1514,0,1514,0,1514,0,1514,0,1514,0,1512,0,1514,0,1512,0,1511,0,1511,0,
0,0,0,0,0,0,0,0,0,0,0,0,0,0,0,0,0,0,0,0,0,0,0,0,0,0,0,0,0,0,
1511,0,1511,0,1512,0,1512,0,1512,0,1512,0,1512,0,1512,0,1512,0,1512,0,1512,0,1512,0,1512,0,1511,0,1511,0,
0,0,0,0,0,0,0,0,0,0,0,0,0,0,0,0,0,0,0,0,0,0,0,0,0,0,0,0,0,0,
1511,0,1511,0,1512,0,1512,0,1512,0,1512,0,1512,0,1512,0,1512,0,1512,0,1512,0,1512,0,1512,0,1511,0,1511,0,
0,0,0,0,0,0,0,0,0,0,0,0,0,0,0,0,0,0,0,0,0,0,0,0,0,0,0,0,0,0,
1511,0,1511,0,1512,0,1512,0,1512,0,1512,0,1512,0,1512,0,1512,0,1512,0,1512,0,1512,0,1512,0,1511,0,1511,0,
0,0,0,0,0,0,0,0,0,0,0,0,0,0,0,0,0,0,0,0,0,0,0,0,0,0,0,0,0,0,
1511,0,1511,0,1512,0,1512,0,1512,0,1512,0,1512,0,1512,0,1512,0,1512,0,1512,0,1512,0,1512,0,1511,0,1511,0,
0,0,0,0,0,0,0,0,0,0,0,0,0,0,0,0,0,0,0,0,0,0,0,0,0,0,0,0,0,0,
1511,0,1511,0,1511,0,1511,0,1511,0,1511,0,1511,0,1511,0,1511,0,1511,0,1511,0,1511,0,1511,0,1511,0,1511,0,
0,0,0,0,0,0,0,0,0,0,0,0,0,0,0,0,0,0,0,0,0,0,0,0,0,0,0,0,0,0
</data>
 </layer>
 <layer id="19" name="Tiles_Collision" width="30" height="32" visible="0">
  <properties>
   <property name="maybe_animation_id" value="d5b5e9552171fe70"/>
   <property name="maybe_tileset_id" value="b29026a2ad0be741"/>
   <property name="tile_size" type="int" value="8"/>
  </properties>
  <data encoding="csv">
1507,1507,1507,1507,1507,1507,1507,1507,1507,1507,1507,1507,1507,1507,1507,1507,1507,1507,1507,1507,1507,1507,1507,1507,1507,1507,1507,1507,1507,1507,
1507,1507,1507,1507,1507,1507,1507,1507,1507,1507,1507,1507,1507,1507,1507,1507,1507,1507,1507,1507,1507,1507,1507,1507,1507,1507,1507,1507,1507,1507,
1507,1507,1507,1507,1507,1507,1507,1507,1507,1507,1507,1507,1507,1507,1507,1507,1507,1507,1507,1507,1507,1507,1507,1507,1507,1507,1507,1507,1507,1507,
1507,1507,1507,1507,1507,1507,1507,1507,1507,1507,1507,1507,1507,1507,1507,1507,1507,1507,1507,1507,1507,1507,1507,1507,1507,1507,1507,1507,1507,1507,
1507,1507,1507,1507,1507,1507,1507,1507,1507,1507,1507,1507,1507,1507,1507,1507,1507,1507,1507,1507,1507,1507,1507,1507,1507,1507,1507,1507,1507,1507,
1507,1507,1507,1507,1507,1507,1507,1507,1507,1507,1507,1507,1507,1507,1507,1507,1507,1507,1507,1507,1507,1507,1507,1507,1507,1507,1507,1507,1507,1507,
1507,1507,1507,1507,1507,1507,1507,1507,1507,1507,1507,1507,1507,1507,1507,1507,1507,1507,1507,1507,1507,1507,1507,1507,1507,1507,1507,1507,1507,1507,
1507,1507,1507,1507,1507,1507,1507,1507,1507,1507,1507,1507,1507,1507,1507,1507,1507,1507,1507,1507,1507,1507,1507,1507,1507,1507,1507,1507,1507,1507,
1507,1507,1507,1507,1507,1507,1507,1507,1507,1507,1507,1507,1507,1507,1507,1507,1507,1507,1507,1507,1507,1507,1507,1507,1507,1507,1507,1507,1507,1507,
1507,1507,1507,1507,1507,1507,1507,1507,1507,1507,1507,1507,1507,1507,1507,1507,1507,1507,1507,1507,1507,1507,1507,1507,1507,1507,1507,1507,1507,1507,
1507,1507,1507,1507,1507,1507,1507,1507,1507,1507,1507,1507,1507,1507,1507,1507,1507,1507,1507,1507,1507,1507,1507,1507,1507,1507,1507,1507,1507,1507,
1507,1507,1507,1507,1507,1507,1507,1507,1507,1507,1507,1507,1507,1507,1507,1507,1507,1507,1507,1507,1507,1507,1507,1507,1507,1507,1507,1507,1507,1507,
1507,1507,1507,1507,1507,1507,1507,1507,1507,1507,1507,1507,1507,1507,1507,1507,1507,1507,1507,1507,1507,1507,1507,1507,1507,1507,1507,1507,1507,1507,
1507,1507,1507,1507,1507,1507,1506,1506,1506,1504,1504,1504,1507,1507,1507,1507,1507,1507,1504,1504,1507,1507,1507,1507,1507,1507,1507,1507,1507,1507,
1507,1507,1507,1507,1507,1507,1506,1506,1506,1504,1504,1504,1507,1507,1507,1507,1507,1507,1504,1504,1504,1504,1504,1504,1507,1507,1507,1507,1507,1507,
1507,1507,1507,1507,1507,1507,1506,1506,1506,1504,1504,1504,1507,1507,1507,1507,1507,1507,1504,1504,1504,1504,1504,1504,1507,1507,1507,1507,1507,1507,
1507,1507,1507,1507,1507,1507,1504,1504,1504,1504,1504,1504,1507,1507,1507,1507,1507,1507,1504,1504,1504,1504,1504,1504,1507,1507,1507,1507,1507,1507,
1507,1507,1507,1507,1507,1507,1504,1504,1504,1504,1504,1504,1507,1507,1507,1507,1507,1507,1504,1504,1504,1504,1504,1504,1504,1504,1504,1507,1507,1507,
1507,1507,1507,1507,1507,1507,1504,1504,1504,1504,1504,1504,1504,1504,1504,1504,1504,1504,1504,1504,1504,1504,1504,1504,1504,1504,1504,1507,1507,1507,
1507,1507,1507,1507,1507,1507,1504,1504,1504,1504,1504,1504,1504,1504,1504,1504,1504,1504,1504,1504,1504,1504,1504,1504,1504,1504,1504,1507,1507,1507,
1507,1507,1507,1507,1507,1507,1504,1504,1504,1504,1504,1504,1504,1504,1504,1504,1504,1504,1504,1504,1504,1504,1504,1504,1504,1504,1504,1507,1507,1507,
1507,1507,1507,1507,1507,1507,1507,1507,1507,1504,1504,1504,1504,1504,1504,1504,1504,1504,1504,1504,1504,1504,1504,1504,1507,1507,1507,1507,1507,1507,
1507,1507,1507,1507,1507,1507,1507,1507,1507,1506,1506,1506,1504,1504,1504,1504,1504,1504,1504,1504,1504,1506,1506,1506,1507,1507,1507,1507,1507,1507,
1507,1507,1507,1507,1507,1507,1507,1507,1507,1506,1506,1506,1504,1504,1504,1504,1504,1504,1504,1504,1504,1506,1506,1506,1507,1507,1507,1507,1507,1507,
1507,1507,1507,1507,1507,1507,1507,1507,1507,1506,1506,1506,1504,1504,1504,1504,1504,1504,1504,1504,1504,1506,1506,1506,1507,1507,1507,1507,1507,1507,
1507,1507,1507,1507,1507,1507,1507,1507,1507,1504,1504,1504,1504,1504,1504,1504,1504,1504,1504,1504,1504,1506,1506,1506,1507,1507,1507,1507,1507,1507,
1507,1507,1507,1507,1507,1507,1507,1507,1507,1507,1507,1507,1507,1507,1507,1507,1507,1507,1507,1507,1507,1507,1507,1507,1507,1507,1507,1507,1507,1507,
1507,1507,1507,1507,1507,1507,1507,1507,1507,1507,1507,1507,1507,1507,1507,1507,1507,1507,1507,1507,1507,1507,1507,1507,1507,1507,1507,1507,1507,1507,
1507,1507,1507,1507,1507,1507,1507,1507,1507,1507,1507,1507,1507,1507,1507,1507,1507,1507,1507,1507,1507,1507,1507,1507,1507,1507,1507,1507,1507,1507,
1507,1507,1507,1507,1507,1507,1507,1507,1507,1507,1507,1507,1507,1507,1507,1507,1507,1507,1507,1507,1507,1507,1507,1507,1507,1507,1507,1507,1507,1507,
1507,1507,1507,1507,1507,1507,1507,1507,1507,1507,1507,1507,1507,1507,1507,1507,1507,1507,1507,1507,1507,1507,1507,1507,1507,1507,1507,1507,1507,1507,
1507,1507,1507,1507,1507,1507,1507,1507,1507,1507,1507,1507,1507,1507,1507,1507,1507,1507,1507,1507,1507,1507,1507,1507,1507,1507,1507,1507,1507,1507
</data>
 </layer>
 <layer id="20" name="Tiles_Rules" width="30" height="32" visible="0">
  <properties>
   <property name="maybe_animation_id" value="f525790c1101b1a1"/>
   <property name="maybe_tileset_id" value="a3b6ca91b299d4f5"/>
   <property name="tile_size" type="int" value="8"/>
  </properties>
  <data encoding="csv">
0,0,0,0,0,0,0,0,0,0,0,0,0,0,0,0,0,0,0,0,0,0,0,0,0,0,0,0,0,0,
0,0,0,0,0,0,0,0,0,0,0,0,0,0,0,0,0,0,0,0,0,0,0,0,0,0,0,0,0,0,
0,0,0,0,0,0,0,0,0,0,0,0,0,0,0,0,0,0,0,0,0,0,0,0,0,0,0,0,0,0,
0,0,0,0,0,0,0,0,0,0,0,0,0,0,0,0,0,0,0,0,0,0,0,0,0,0,0,0,0,0,
0,0,0,0,0,0,0,0,0,0,0,0,0,0,0,0,0,0,0,0,0,0,0,0,0,0,0,0,0,0,
0,0,0,0,0,0,0,0,0,0,0,0,0,0,0,0,0,0,0,0,0,0,0,0,0,0,0,0,0,0,
0,0,0,0,0,0,0,0,0,0,0,0,0,0,0,0,0,0,0,0,0,0,0,0,0,0,0,0,0,0,
0,0,0,0,0,0,0,0,0,0,0,0,0,0,0,0,0,0,0,0,0,0,0,0,0,0,0,0,0,0,
0,0,0,0,0,0,0,0,0,0,0,0,0,0,0,0,0,0,0,0,0,0,0,0,0,0,0,0,0,0,
0,0,0,0,0,0,0,0,0,0,0,0,0,0,0,0,0,0,0,0,0,0,0,0,0,0,0,0,0,0,
0,0,0,0,0,0,0,0,0,0,0,0,0,0,0,0,0,0,0,0,0,0,0,0,0,0,0,0,0,0,
0,0,0,0,0,0,0,0,0,0,0,0,0,0,0,0,0,0,0,0,0,0,0,0,0,0,0,0,0,0,
0,0,0,0,0,0,0,0,0,0,0,0,0,0,0,0,0,0,0,0,0,0,0,0,0,0,0,0,0,0,
0,0,0,0,0,0,0,0,0,0,0,0,0,0,0,0,0,0,0,0,0,0,0,0,0,0,0,0,0,0,
0,0,0,0,0,0,0,0,0,0,0,0,0,0,0,0,0,0,0,0,0,0,0,0,0,0,0,0,0,0,
0,0,0,0,0,0,0,0,0,0,0,0,0,0,0,0,0,0,0,0,0,0,0,0,0,0,0,0,0,0,
0,0,0,0,0,0,0,0,0,0,0,0,0,0,0,0,0,0,0,0,0,0,0,0,0,0,0,0,0,0,
0,0,0,0,0,0,0,0,0,0,0,0,0,0,0,0,0,0,0,0,0,0,0,0,0,0,0,0,0,0,
0,0,0,0,0,0,0,0,0,0,0,0,0,0,0,0,0,0,0,0,0,0,0,0,0,0,0,0,0,0,
0,0,0,0,0,0,0,0,0,0,0,0,0,0,0,0,0,0,0,0,0,0,0,0,0,0,0,0,0,0,
0,0,0,0,0,0,0,0,0,0,0,0,0,0,0,0,0,0,0,0,0,0,0,0,0,0,0,0,0,0,
0,0,0,0,0,0,0,0,0,0,0,0,0,0,0,0,0,0,0,0,0,0,0,0,0,0,0,0,0,0,
0,0,0,0,0,0,0,0,0,0,0,0,0,0,0,0,0,0,0,0,0,0,0,0,0,0,0,0,0,0,
0,0,0,0,0,0,0,0,0,0,0,0,0,0,0,0,0,0,0,0,0,0,0,0,0,0,0,0,0,0,
0,0,0,0,0,0,0,0,0,0,0,0,0,0,0,0,0,0,0,0,0,0,0,0,0,0,0,0,0,0,
0,0,0,0,0,0,0,0,0,0,0,0,0,0,0,0,0,0,0,0,0,0,0,0,0,0,0,0,0,0,
0,0,0,0,0,0,0,0,0,0,0,0,0,0,0,0,0,0,0,0,0,0,0,0,0,0,0,0,0,0,
0,0,0,0,0,0,0,0,0,0,0,0,0,0,0,0,0,0,0,0,0,0,0,0,0,0,0,0,0,0,
0,0,0,0,0,0,0,0,0,0,0,0,0,0,0,0,0,0,0,0,0,0,0,0,0,0,0,0,0,0,
0,0,0,0,0,0,0,0,0,0,0,0,0,0,0,0,0,0,0,0,0,0,0,0,0,0,0,0,0,0,
0,0,0,0,0,0,0,0,0,0,0,0,0,0,0,0,0,0,0,0,0,0,0,0,0,0,0,0,0,0,
0,0,0,0,0,0,0,0,0,0,0,0,0,0,0,0,0,0,0,0,0,0,0,0,0,0,0,0,0,0
</data>
 </layer>
 <layer id="21" name="Pathfinding" width="30" height="32" visible="0">
  <properties>
   <property name="maybe_animation_id" value="6d2460f008fb99d4"/>
   <property name="maybe_tileset_id" value="264fe6c9523400a1"/>
   <property name="tile_size" type="int" value="8"/>
  </properties>
  <data encoding="csv">
0,0,0,0,0,0,0,0,0,0,0,0,0,0,0,0,0,0,0,0,0,0,0,0,0,0,0,0,0,0,
0,0,0,0,0,0,0,0,0,0,0,0,0,0,0,0,0,0,0,0,0,0,0,0,0,0,0,0,0,0,
0,0,0,0,0,0,0,0,0,0,0,0,0,0,0,0,0,0,0,0,0,0,0,0,0,0,0,0,0,0,
0,0,0,0,0,0,0,0,0,0,0,0,0,0,0,0,0,0,0,0,0,0,0,0,0,0,0,0,0,0,
0,0,0,0,0,0,0,0,0,0,0,0,0,0,0,0,0,0,0,0,0,0,0,0,0,0,0,0,0,0,
0,0,0,0,0,0,0,0,0,0,0,0,0,0,0,0,0,0,0,0,0,0,0,0,0,0,0,0,0,0,
0,0,0,0,0,0,0,0,0,0,0,0,0,0,0,0,0,0,0,0,0,0,0,0,0,0,0,0,0,0,
0,0,0,0,0,0,0,0,0,0,0,0,0,0,0,0,0,0,0,0,0,0,0,0,0,0,0,0,0,0,
0,0,0,0,0,0,0,0,0,0,0,0,0,0,0,0,0,0,0,0,0,0,0,0,0,0,0,0,0,0,
0,0,0,0,0,0,0,0,0,0,0,0,0,0,0,0,0,0,0,0,0,0,0,0,0,0,0,0,0,0,
0,0,0,0,0,0,0,0,0,0,0,0,0,0,0,0,0,0,0,0,0,0,0,0,0,0,0,0,0,0,
0,0,0,0,0,0,0,0,0,0,0,0,0,0,0,0,0,0,0,0,0,0,0,0,0,0,0,0,0,0,
0,0,0,0,0,0,0,0,0,0,0,0,0,0,0,0,0,0,0,0,0,0,0,0,0,0,0,0,0,0,
0,0,0,0,0,0,0,0,0,0,0,0,0,0,0,0,0,0,0,0,0,0,0,0,0,0,0,0,0,0,
0,0,0,0,0,0,0,0,0,0,0,0,0,0,0,0,0,0,0,0,0,0,0,0,0,0,0,0,0,0,
0,0,0,0,0,0,0,0,0,0,0,0,0,0,0,0,0,0,0,0,0,0,0,0,0,0,0,0,0,0,
0,0,0,0,0,0,0,0,0,0,0,0,0,0,6007,0,0,0,0,0,0,0,0,0,0,0,0,0,0,0,
0,0,0,0,0,0,0,0,0,0,0,0,0,0,0,0,0,0,0,0,0,0,0,6008,6008,0,0,0,0,0,
0,0,0,0,0,0,0,0,0,0,0,0,0,0,0,0,0,0,0,0,0,0,6008,6008,6008,0,0,0,0,0,
0,0,0,0,0,0,6008,6008,6008,6008,6008,6008,6008,6008,6008,6008,6008,6008,6008,6008,6008,6008,6008,6008,6008,0,0,0,0,0,
0,0,0,0,0,0,6008,6008,6008,6008,6008,6008,6008,6008,6008,6008,6008,6008,6008,6008,6008,6008,6008,6008,6008,0,0,0,0,0,
0,0,0,0,0,0,0,0,0,6008,6008,6008,6008,6008,6008,6008,6008,6008,6008,6008,0,0,0,0,0,0,0,0,0,0,
0,0,0,0,0,0,0,0,0,6012,6012,0,6008,6008,6008,6008,6008,6008,6008,6008,0,0,0,0,0,0,0,0,0,0,
0,0,0,0,0,0,0,0,0,6012,6012,0,6008,6008,6008,6008,6008,6008,6008,6008,0,0,0,0,0,0,0,0,0,0,
0,0,0,0,0,0,0,0,0,6012,6012,0,0,0,0,0,0,0,0,0,0,0,0,0,0,0,0,0,0,0,
0,0,0,0,0,0,0,0,0,0,0,0,0,0,0,0,0,0,0,0,0,0,0,0,0,0,0,0,0,0,
0,0,0,0,0,0,0,0,0,0,0,0,0,0,0,0,0,0,0,0,0,0,0,0,0,0,0,0,0,0,
0,0,0,0,0,0,0,0,0,0,0,0,0,0,0,0,0,0,0,0,0,0,0,0,0,0,0,0,0,0,
0,0,0,0,0,0,0,0,0,0,0,0,0,0,0,0,0,0,0,0,0,0,0,0,0,0,0,0,0,0,
0,0,0,0,0,0,0,0,0,0,0,0,0,0,0,0,0,0,0,0,0,0,0,0,0,0,0,0,0,0,
0,0,0,0,0,0,0,0,0,0,0,0,0,0,0,0,0,0,0,0,0,0,0,0,0,0,0,0,0,0,
0,0,0,0,0,0,0,0,0,0,0,0,0,0,0,0,0,0,0,0,0,0,0,0,0,0,0,0,0,0
</data>
 </layer>
 <objectgroup draworder="index" id="22" name="Lighting"/>
 <objectgroup draworder="index" id="23" name="Meta">
  <object id="26" template="../../../templates/obj_roomtransition.tx" type="obj_roomtransition" x="200" y="168" width="16" height="32">
   <properties>
    <property name="destination_id" propertytype="LocationId" value="inn"/>
    <property name="player_direction" type="int" value="0"/>
   </properties>
  </object>
 </objectgroup>
 <objectgroup draworder="index" id="24" name="TrellisPoints">
  <object id="27" template="../../../templates/meta/obj_trellis_point_transition.tx" name="Inn Main Room Door" type="obj_trellis_point_transition" x="172" y="165">
   <properties>
    <property name="direction" type="int" propertytype="Cardinal" value="0"/>
   </properties>
  </object>
  <object id="28" template="../../../templates/meta/obj_trellis_point_default.tx" name="Balor Wake Point" type="obj_trellis_point_default" x="76" y="157"/>
  <object id="29" template="../../../templates/meta/obj_trellis_point_default.tx" name="above_desk_work" type="obj_trellis_point_default" x="52" y="173"/>
  <object id="30" template="../../../templates/meta/obj_trellis_point_seat.tx" name="Desk Chair" type="obj_trellis_point_seat" x="66" y="205">
   <properties>
    <property name="direction" type="int" propertytype="Cardinal" value="2"/>
   </properties>
  </object>
 </objectgroup>
 <objectgroup draworder="index" id="25" name="TrellisPoints_Procuring_the_Sealing_Scroll" visible="0">
  <object id="31" template="../../../templates/meta/obj_trellis_point_default.tx" name="ptss_balor_entrance" type="obj_trellis_point_default" x="50" y="171"/>
  <object id="32" template="../../../templates/meta/obj_trellis_point_default.tx" name="ptss_ari_entrance" type="obj_trellis_point_default" x="196" y="167"/>
  <object id="33" template="../../../templates/meta/obj_trellis_point_default.tx" name="ptss_ari_start" type="obj_trellis_point_default" x="134" y="171"/>
  <object id="34" template="../../../templates/meta/obj_trellis_point_default.tx" name="ptss_balor_start" type="obj_trellis_point_default" x="108" y="171"/>
  <object id="35" template="../../../templates/meta/obj_trellis_point_default.tx" name="ptss_balor_desk" type="obj_trellis_point_default" x="68" y="217"/>
  <object id="36" template="../../../templates/meta/obj_trellis_point_default.tx" name="ptss_ari_desk" type="obj_trellis_point_default" x="90" y="217"/>
  <object id="37" template="../../../templates/meta/obj_trellis_point_camera.tx" name="ptss_camera_1" type="obj_trellis_point_camera" x="196" y="179"/>
  <object id="38" template="../../../templates/meta/obj_trellis_point_camera.tx" name="ptss_camera_2" type="obj_trellis_point_camera" x="120" y="181"/>
  <object id="39" template="../../../templates/meta/obj_trellis_point_camera.tx" name="ptss_camera_3" type="obj_trellis_point_camera" x="78" y="221"/>
 </objectgroup>
 <objectgroup draworder="index" id="26" name="TrellisPoints_Translating_the_Fire_Tablet" visible="0">
  <object id="40" template="../../../templates/meta/obj_trellis_point_default.tx" name="tft_juniper_br_entrance" type="obj_trellis_point_default" x="198" y="165"/>
  <object id="41" template="../../../templates/meta/obj_trellis_point_default.tx" name="tft_juniper_br_start" type="obj_trellis_point_default" x="126" y="171"/>
  <object id="42" template="../../../templates/meta/obj_trellis_point_default.tx" name="tft_ari_br_start" type="obj_trellis_point_default" x="126" y="199"/>
  <object id="43" template="../../../templates/meta/obj_trellis_point_default.tx" name="tft_balor_entrance" type="obj_trellis_point_default" x="66" y="185"/>
  <object id="44" template="../../../templates/meta/obj_trellis_point_default.tx" name="tft_balor_start" type="obj_trellis_point_default" x="98" y="185"/>
  <object id="45" template="../../../templates/meta/obj_trellis_point_camera.tx" name="tft_camera_6" type="obj_trellis_point_camera" x="82" y="111"/>
  <object id="46" template="../../../templates/meta/obj_trellis_point_camera.tx" name="tft_camera_7" type="obj_trellis_point_camera" x="82" y="185"/>
  <object id="47" template="../../../templates/meta/obj_trellis_point_camera.tx" name="tft_camera_8" type="obj_trellis_point_camera" x="112" y="185"/>
  <object id="48" template="../../../templates/meta/obj_trellis_point_default.tx" name="tft_balor_handshake" type="obj_trellis_point_default" x="108" y="171"/>
  <object id="49" template="../../../templates/meta/obj_trellis_point_default.tx" name="tft_balor_handshake_ari" type="obj_trellis_point_default" x="108" y="199"/>
 </objectgroup>
 <objectgroup draworder="index" id="27" name="TrellisPoints_A_Gem_Exchange" visible="0">
  <object id="50" template="../../../templates/meta/obj_trellis_point_default.tx" name="age_balor_inspecting" type="obj_trellis_point_default" x="68" y="185">
   <properties>
    <property name="direction" type="int" propertytype="Cardinal" value="2"/>
   </properties>
  </object>
  <object id="51" template="../../../templates/meta/obj_trellis_point_default.tx" name="age_ari_start" type="obj_trellis_point_default" x="138" y="175">
   <properties>
    <property name="direction" type="int" propertytype="Cardinal" value="2"/>
   </properties>
  </object>
  <object id="52" template="../../../templates/meta/obj_trellis_point_camera.tx" name="age_camera_1" type="obj_trellis_point_camera" x="97" y="244"/>
  <object id="53" template="../../../templates/meta/obj_trellis_point_default.tx" name="age_balor_forward" type="obj_trellis_point_default" x="118" y="175">
   <properties>
    <property name="direction" type="int" propertytype="Cardinal" value="0"/>
   </properties>
  </object>
  <object id="54" template="../../../templates/meta/obj_trellis_point_camera.tx" name="age_camera_2" type="obj_trellis_point_camera" x="119" y="190"/>
  <object id="55" template="../../../templates/meta/obj_trellis_point_camera.tx" name="age_camera_3" type="obj_trellis_point_camera" x="157" y="189"/>
  <object id="56" template="../../../templates/meta/obj_trellis_point_default.tx" name="age_balor" type="obj_trellis_point_default" x="102" y="175"/>
  <object id="57" template="../../../templates/meta/obj_trellis_point_camera.tx" name="age_camera_4" type="obj_trellis_point_camera" x="97" y="190"/>
 </objectgroup>
 <objectgroup draworder="index" id="28" name="TrellisPoints_Balor_4h" visible="0">
  <object id="58" template="../../../templates/meta/obj_trellis_point_default.tx" name="b4h_ari_br_entrance" type="obj_trellis_point_default" x="198" y="167"/>
  <object id="59" template="../../../templates/meta/obj_trellis_point_default.tx" name="b4h_ari_br_start" type="obj_trellis_point_default" x="166" y="167"/>
  <object id="60" template="../../../templates/meta/obj_trellis_point_default.tx" name="b4h_ari_br_book" type="obj_trellis_point_default" x="138" y="159"/>
  <object id="61" template="../../../templates/meta/obj_trellis_point_default.tx" name="b4h_balor_desk" type="obj_trellis_point_default" x="70" y="185"/>
  <object id="62" template="../../../templates/meta/obj_trellis_point_default.tx" name="b4h_ari_br_guilty" type="obj_trellis_point_default" x="120" y="167"/>
  <object id="63" template="../../../templates/meta/obj_trellis_point_default.tx" name="b4h_balor_start" type="obj_trellis_point_default" x="160" y="167"/>
  <object id="64" template="../../../templates/meta/obj_trellis_point_default.tx" name="b4h_balor_forward" type="obj_trellis_point_default" x="94" y="185"/>
  <object id="65" template="../../../templates/meta/obj_trellis_point_camera.tx" name="b4h_camera_4" type="obj_trellis_point_camera" x="232" y="167"/>
  <object id="66" template="../../../templates/meta/obj_trellis_point_camera.tx" name="b4h_camera_5" type="obj_trellis_point_camera" x="172" y="167"/>
  <object id="67" template="../../../templates/meta/obj_trellis_point_camera.tx" name="b4h_camera_6" type="obj_trellis_point_camera" x="138" y="141"/>
  <object id="68" template="../../../templates/meta/obj_trellis_point_camera.tx" name="b4h_camera_7" type="obj_trellis_point_camera" x="106" y="185"/>
  <object id="69" template="../../../templates/meta/obj_trellis_point_prop.tx" name="b4h_journal" type="obj_trellis_point_prop" x="138" y="141">
   <properties>
    <property name="prop_name" value="b4h_journal"/>
   </properties>
  </object>
  <object id="70" template="../../../templates/meta/obj_trellis_point_default.tx" name="b4h_ari_br_chat" type="obj_trellis_point_default" x="120" y="185"/>
  <object id="71" template="../../../templates/meta/obj_trellis_point_default.tx" name="b4h_ari_br_back" type="obj_trellis_point_default" x="138" y="167"/>
  <object id="72" template="../../../templates/meta/obj_trellis_point_camera.tx" name="b4h_camera_8" type="obj_trellis_point_camera" x="80" y="185"/>
 </objectgroup>
 <objectgroup draworder="index" id="29" name="TrellisPoints_Balor_8h" visible="0">
  <object id="73" template="../../../templates/meta/obj_trellis_point_default.tx" name="b8h_ari_entrance" type="obj_trellis_point_default" x="198" y="167"/>
  <object id="74" template="../../../templates/meta/obj_trellis_point_default.tx" name="b8h_ari_start" type="obj_trellis_point_default" x="158" y="167"/>
  <object id="75" template="../../../templates/meta/obj_trellis_point_default.tx" name="b8h_ari_chair" type="obj_trellis_point_default" x="140" y="203"/>
  <object id="76" template="../../../templates/meta/obj_trellis_point_default.tx" name="b8h_balor_exit" type="obj_trellis_point_default" x="176" y="167"/>
  <object id="77" template="../../../templates/meta/obj_trellis_point_default.tx" name="b8h_balor_entrance" type="obj_trellis_point_default" x="114" y="183"/>
  <object id="78" template="../../../templates/meta/obj_trellis_point_default.tx" name="b8h_balor_start" type="obj_trellis_point_default" x="90" y="183"/>
  <object id="79" template="../../../templates/meta/obj_trellis_point_default.tx" name="b8h_balor_chair" type="obj_trellis_point_default" x="90" y="203"/>
  <object id="80" template="../../../templates/meta/obj_trellis_point_default.tx" name="b8h_josephine_entrance" type="obj_trellis_point_default" x="114" y="169"/>
  <object id="81" template="../../../templates/meta/obj_trellis_point_default.tx" name="b8h_josephine_table_1" type="obj_trellis_point_default" x="104" y="183"/>
  <object id="82" template="../../../templates/meta/obj_trellis_point_default.tx" name="b8h_josephine_table_2" type="obj_trellis_point_default" x="126" y="183"/>
  <object id="83" template="../../../templates/meta/obj_trellis_point_prop.tx" name="b8h_table" type="obj_trellis_point_prop" x="114" y="183">
   <properties>
    <property name="prop_name" value="b8h_table"/>
   </properties>
  </object>
  <object id="84" template="../../../templates/meta/obj_trellis_point_prop.tx" name="b8h_stool_1" type="obj_trellis_point_prop" x="90" y="201">
   <properties>
    <property name="prop_name" value="b8h_stool"/>
   </properties>
  </object>
  <object id="85" template="../../../templates/meta/obj_trellis_point_prop.tx" name="b8h_stool_2" type="obj_trellis_point_prop" x="140" y="201">
   <properties>
    <property name="prop_name" value="b8h_stool"/>
   </properties>
  </object>
  <object id="86" template="../../../templates/meta/obj_trellis_point_camera.tx" name="b8h_camera_1" type="obj_trellis_point_camera" x="198" y="155"/>
  <object id="87" template="../../../templates/meta/obj_trellis_point_camera.tx" name="b8h_camera_2" type="obj_trellis_point_camera" x="114" y="161"/>
  <object id="88" template="../../../templates/meta/obj_trellis_point_camera.tx" name="b8h_camera_3" type="obj_trellis_point_camera" x="114" y="179"/>
  <object id="89" template="../../../templates/meta/obj_trellis_point_camera.tx" name="b8h_camera_4" type="obj_trellis_point_camera" x="114" y="195"/>
  <object id="90" template="../../../templates/meta/obj_trellis_point_prop.tx" name="b8h_dish_balor" type="obj_trellis_point_prop" x="104" y="191">
   <properties>
    <property name="prop_name" value="b8h_dish"/>
   </properties>
  </object>
  <object id="91" template="../../../templates/meta/obj_trellis_point_prop.tx" name="b8h_dish_ari" type="obj_trellis_point_prop" x="124" y="191">
   <properties>
    <property name="prop_name" value="b8h_dish"/>
   </properties>
  </object>
  <object id="92" template="../../../templates/meta/obj_trellis_point_default.tx" name="b8h_balor_extra" type="obj_trellis_point_default" x="90" y="193"/>
 </objectgroup>
</map>
