<?xml version="1.0" encoding="UTF-8"?>
<map version="1.10" tiledversion="1.12.1" orientation="orthogonal" renderorder="right-down" width="30" height="32" tilewidth="8" tileheight="8" infinite="0" backgroundcolor="#000000" nextlayerid="36" nextobjectid="146">
 <tileset firstgid="1" source="../../../__gm_import.tsx"/>
 <tileset firstgid="1505" source="../../../tile_sets/__META/tile_collision_info.tsx"/>
 <tileset firstgid="1512" source="../../../tile_sets/tile_footsteps.tsx"/>
 <tileset firstgid="1656" source="../../../tile_sets/_GENERIC/tile_main_interiors.tsx"/>
 <tileset firstgid="5752" source="../../../tile_sets/_GENERIC/tile_main_interiors_shadows.tsx"/>
 <tileset firstgid="6008" source="../../../tile_sets/__META/tile_pathfinding.tsx"/>
 <tileset firstgid="6014" source="../../../tile_sets/__META/tile_rules.tsx"/>
 <tileset firstgid="6034" source="../../../animations/Locations/Town/Inn/East Room.tsx"/>
 <group id="1" name="Level_0">
  <layer id="2" name="Level_0_Floor" width="30" height="32">
   <properties>
    <property name="maybe_animation_id" value="75ea443e6634d96"/>
    <property name="maybe_tileset_id" value="d8b504e9a8480fbe"/>
    <property name="tile_size" type="int" value="16"/>
   </properties>
   <data encoding="csv">
0,0,0,0,0,0,0,0,0,0,0,0,0,0,0,0,0,0,0,0,0,0,0,0,0,0,0,0,0,0,
0,0,0,0,0,0,0,0,0,0,0,0,0,0,0,0,0,0,0,0,0,0,0,0,0,0,0,0,0,0,
0,0,0,0,0,0,0,0,0,0,0,0,0,0,0,0,0,0,0,0,0,0,0,0,0,0,0,0,0,0,
0,0,0,0,0,0,0,0,0,0,0,0,0,0,0,0,0,0,0,0,0,0,0,0,0,0,0,0,0,0,
0,0,0,0,0,0,0,0,0,0,0,0,0,0,0,0,0,0,0,0,0,0,0,0,0,0,0,0,0,0,
0,0,0,0,0,0,0,0,0,0,0,0,0,0,0,0,0,0,0,0,0,0,0,0,0,0,0,0,0,0,
0,0,0,0,0,0,0,0,0,0,0,0,0,0,0,0,0,0,0,0,0,0,0,0,0,0,0,0,0,0,
0,0,0,0,0,0,0,0,0,0,0,0,0,0,0,0,0,0,0,0,0,0,0,0,0,0,0,0,0,0,
0,0,0,0,0,0,0,0,0,0,0,0,0,0,0,0,0,0,0,0,0,0,0,0,0,0,0,0,0,0,
0,0,0,0,0,0,0,0,0,0,0,0,0,0,0,0,0,0,0,0,0,0,0,0,0,0,0,0,0,0,
0,0,0,0,0,0,0,0,0,0,0,0,0,0,0,0,0,0,0,0,0,0,0,0,0,0,0,0,0,0,
0,0,0,0,0,0,0,0,0,0,0,0,0,0,0,0,0,0,0,0,0,0,0,0,0,0,0,0,0,0,
0,0,0,0,1916,0,1916,0,1916,0,1916,0,1916,0,1916,0,1916,0,1916,0,1916,0,1916,0,1916,0,0,0,0,0,
0,0,0,0,0,0,0,0,0,0,0,0,0,0,0,0,0,0,0,0,0,0,0,0,0,0,0,0,0,0,
0,0,0,0,1980,0,1980,0,1980,0,1980,0,1980,0,1980,0,1980,0,1980,0,1980,0,1980,0,1980,0,0,0,0,0,
0,0,0,0,0,0,0,0,0,0,0,0,0,0,0,0,0,0,0,0,0,0,0,0,0,0,0,0,0,0,
0,0,0,0,1916,0,1916,0,1916,0,1916,0,1916,0,1916,0,1916,0,1916,0,1916,0,1916,0,1916,0,0,0,0,0,
0,0,0,0,0,0,0,0,0,0,0,0,0,0,0,0,0,0,0,0,0,0,0,0,0,0,0,0,0,0,
0,0,0,0,1980,0,1980,0,1980,0,1980,0,1980,0,1980,0,1980,0,1980,0,1980,0,1980,0,1980,0,0,0,0,0,
0,0,0,0,0,0,0,0,0,0,0,0,0,0,0,0,0,0,0,0,0,0,0,0,0,0,0,0,0,0,
0,0,0,0,1916,0,1916,0,1916,0,1916,0,1916,0,1916,0,1916,0,1916,0,1916,0,1916,0,1916,0,0,0,0,0,
0,0,0,0,0,0,0,0,0,0,0,0,0,0,0,0,0,0,0,0,0,0,0,0,0,0,0,0,0,0,
0,0,0,0,1980,0,1980,0,1980,0,1980,0,1980,0,1980,0,1980,0,1980,0,1980,0,1980,0,1980,0,0,0,0,0,
0,0,0,0,0,0,0,0,0,0,0,0,0,0,0,0,0,0,0,0,0,0,0,0,0,0,0,0,0,0,
0,0,0,0,1916,0,1916,0,1916,0,1916,0,1916,0,1916,0,1916,0,1916,0,1916,0,1916,0,1916,0,0,0,0,0,
0,0,0,0,0,0,0,0,0,0,0,0,0,0,0,0,0,0,0,0,0,0,0,0,0,0,0,0,0,0,
0,0,0,0,1980,0,1980,0,1980,0,1980,0,1980,0,1980,0,1980,0,1980,0,1980,0,1980,0,1980,0,0,0,0,0,
0,0,0,0,0,0,0,0,0,0,0,0,0,0,0,0,0,0,0,0,0,0,0,0,0,0,0,0,0,0,
0,0,0,0,0,0,0,0,0,0,0,0,0,0,0,0,0,0,0,0,0,0,0,0,0,0,0,0,0,0,
0,0,0,0,0,0,0,0,0,0,0,0,0,0,0,0,0,0,0,0,0,0,0,0,0,0,0,0,0,0,
1656,0,1656,0,1656,0,1656,0,1656,0,1656,0,1656,0,1656,0,1656,0,1656,0,1656,0,1656,0,1656,0,1656,0,1656,0,
0,0,0,0,0,0,0,0,0,0,0,0,0,0,0,0,0,0,0,0,0,0,0,0,0,0,0,0,0,0
</data>
  </layer>
  <objectgroup draworder="index" id="34" name="Level_0_FloorSprites">
   <object id="130" gid="6047" x="94" y="163" width="96" height="56"/>
   <object id="131" gid="6040" x="33" y="168" width="32" height="32"/>
   <object id="132" gid="6037" x="61" y="210" width="72" height="32"/>
  </objectgroup>
  <layer id="4" name="Level_0_Shadows" width="30" height="32">
   <properties>
    <property name="maybe_animation_id" value="babd09ade2b55c05"/>
    <property name="maybe_tileset_id" value="339411f6ba88c8f0"/>
    <property name="tile_size" type="int" value="16"/>
   </properties>
   <data encoding="csv">
0,0,0,0,0,0,0,0,0,0,0,0,0,0,0,0,0,0,0,0,0,0,0,0,0,0,0,0,0,0,
0,0,0,0,0,0,0,0,0,0,0,0,0,0,0,0,0,0,0,0,0,0,0,0,0,0,0,0,0,0,
0,0,0,0,0,0,0,0,0,0,0,0,0,0,0,0,0,0,0,0,0,0,0,0,0,0,0,0,0,0,
0,0,0,0,0,0,0,0,0,0,0,0,0,0,0,0,0,0,0,0,0,0,0,0,0,0,0,0,0,0,
0,0,0,0,0,0,0,0,0,0,0,0,0,0,0,0,0,0,0,0,0,0,0,0,0,0,0,0,0,0,
0,0,0,0,0,0,0,0,0,0,0,0,0,0,0,0,0,0,0,0,0,0,0,0,0,0,0,0,0,0,
0,0,0,0,0,0,0,0,0,0,0,0,0,0,0,0,0,0,0,0,0,0,0,0,0,0,0,0,0,0,
0,0,0,0,0,0,0,0,0,0,0,0,0,0,0,0,0,0,0,0,0,0,0,0,0,0,0,0,0,0,
0,0,0,0,0,0,0,0,0,0,0,0,0,0,0,0,0,0,0,0,0,0,0,0,0,0,0,0,0,0,
0,0,0,0,0,0,0,0,0,0,0,0,0,0,0,0,0,0,0,0,0,0,0,0,0,0,0,0,0,0,
0,0,0,0,0,0,0,0,0,0,0,0,0,0,0,0,0,0,0,0,0,0,0,0,0,0,0,0,0,0,
0,0,0,0,0,0,0,0,0,0,0,0,0,0,0,0,0,0,0,0,0,0,0,0,0,0,0,0,0,0,
0,0,0,0,5753,0,5783,0,5754,0,5754,0,5754,0,5754,0,5754,0,5754,0,5754,0,5754,0,5754,0,0,0,0,0,
0,0,0,0,0,0,0,0,0,0,0,0,0,0,0,0,0,0,0,0,0,0,0,0,0,0,0,0,0,0,
0,0,0,0,5753,0,5763,0,0,0,0,0,0,0,0,0,0,0,0,0,0,0,0,0,0,0,0,0,0,0,
0,0,0,0,0,0,0,0,0,0,0,0,0,0,0,0,0,0,0,0,0,0,0,0,0,0,0,0,0,0,
0,0,0,0,5753,0,5763,0,0,0,0,0,0,0,0,0,0,0,0,0,0,0,0,0,0,0,0,0,0,0,
0,0,0,0,0,0,0,0,0,0,0,0,0,0,0,0,0,0,0,0,0,0,0,0,0,0,0,0,0,0,
0,0,0,0,5753,0,5763,0,0,0,0,0,0,0,0,0,0,0,0,0,0,0,0,0,0,0,0,0,0,0,
0,0,0,0,0,0,0,0,0,0,0,0,0,0,0,0,0,0,0,0,0,0,0,0,0,0,0,0,0,0,
0,0,0,0,5753,0,5763,0,0,0,0,0,0,0,0,0,0,0,0,0,0,0,0,0,0,0,0,0,0,0,
0,0,0,0,0,0,0,0,0,0,0,0,0,0,0,0,0,0,0,0,0,0,0,0,0,0,0,0,0,0,
0,0,0,0,5753,0,5763,0,0,0,0,0,0,0,0,0,0,0,0,0,0,0,0,0,0,0,0,0,0,0,
0,0,0,0,0,0,0,0,0,0,0,0,0,0,0,0,0,0,0,0,0,0,0,0,0,0,0,0,0,0,
0,0,0,0,5753,0,5763,0,0,0,0,0,0,0,0,0,0,0,0,0,0,0,0,0,0,0,0,0,0,0,
0,0,0,0,0,0,0,0,0,0,0,0,0,0,0,0,0,0,0,0,0,0,0,0,0,0,0,0,0,0,
0,0,0,0,5753,0,5763,0,0,0,0,0,0,0,0,0,0,0,0,0,0,0,0,0,0,0,0,0,0,0,
0,0,0,0,0,0,0,0,0,0,0,0,0,0,0,0,0,0,0,0,0,0,0,0,0,0,0,0,0,0,
0,0,0,0,0,0,0,0,0,0,0,0,0,0,0,0,0,0,0,0,0,0,0,0,0,0,0,0,0,0,
0,0,0,0,0,0,0,0,0,0,0,0,0,0,0,0,0,0,0,0,0,0,0,0,0,0,0,0,0,0,
0,0,0,0,0,0,0,0,0,0,0,0,0,0,0,0,0,0,0,0,0,0,0,0,0,0,0,0,0,0,
0,0,0,0,0,0,0,0,0,0,0,0,0,0,0,0,0,0,0,0,0,0,0,0,0,0,0,0,0,0
</data>
  </layer>
  <layer id="5" name="Level_0_Walls" width="30" height="32">
   <properties>
    <property name="maybe_animation_id" value="75ea443e6634d96"/>
    <property name="maybe_tileset_id" value="d8b504e9a8480fbe"/>
    <property name="tile_size" type="int" value="16"/>
   </properties>
   <data encoding="csv">
0,0,0,0,0,0,0,0,0,0,0,0,0,0,0,0,0,0,0,0,0,0,0,0,0,0,0,0,0,0,
0,0,0,0,0,0,0,0,0,0,0,0,0,0,0,0,0,0,0,0,0,0,0,0,0,0,0,0,0,0,
0,0,0,0,0,0,0,0,0,0,0,0,0,0,0,0,0,0,0,0,0,0,0,0,0,0,0,0,0,0,
0,0,0,0,0,0,0,0,0,0,0,0,0,0,0,0,0,0,0,0,0,0,0,0,0,0,0,0,0,0,
0,0,0,0,1657,0,1657,0,1657,0,1657,0,1657,0,1657,0,1657,0,1657,0,1657,0,1657,0,1657,0,0,0,0,0,
0,0,0,0,0,0,0,0,0,0,0,0,0,0,0,0,0,0,0,0,0,0,0,0,0,0,0,0,0,0,
0,0,0,0,1721,0,1721,0,1721,0,1721,0,1721,0,1721,0,1721,0,1721,0,1721,0,1721,0,1721,0,0,0,0,0,
0,0,0,0,0,0,0,0,0,0,0,0,0,0,0,0,0,0,0,0,0,0,0,0,0,0,0,0,0,0,
0,0,0,0,1785,0,1785,0,1785,0,1785,0,1785,0,1785,0,1785,0,1785,0,1785,0,1785,0,1785,0,0,0,0,0,
0,0,0,0,0,0,0,0,0,0,0,0,0,0,0,0,0,0,0,0,0,0,0,0,0,0,0,0,0,0,
0,0,0,0,1785,0,1785,0,1785,0,1785,0,1785,0,1785,0,1785,0,1785,0,1785,0,1785,0,1785,0,0,0,0,0,
0,0,0,0,0,0,0,0,0,0,0,0,0,0,0,0,0,0,0,0,0,0,0,0,0,0,0,0,0,0,
0,0,0,0,1849,0,1849,0,1849,0,1849,0,1849,0,1849,0,1849,0,1849,0,1849,0,1849,0,1849,0,0,0,0,0,
0,0,0,0,0,0,0,0,0,0,0,0,0,0,0,0,0,0,0,0,0,0,0,0,0,0,0,0,0,0,
0,0,0,0,0,0,0,0,0,0,0,0,0,0,0,0,0,0,0,0,0,0,0,0,0,0,0,0,0,0,
0,0,0,0,0,0,0,0,0,0,0,0,0,0,0,0,0,0,0,0,0,0,0,0,0,0,0,0,0,0,
0,0,0,0,0,0,0,0,0,0,0,0,0,0,0,0,0,0,0,0,0,0,0,0,0,0,0,0,0,0,
0,0,0,0,0,0,0,0,0,0,0,0,0,0,0,0,0,0,0,0,0,0,0,0,0,0,0,0,0,0,
0,0,0,0,0,0,0,0,0,0,0,0,0,0,0,0,0,0,0,0,0,0,0,0,0,0,0,0,0,0,
0,0,0,0,0,0,0,0,0,0,0,0,0,0,0,0,0,0,0,0,0,0,0,0,0,0,0,0,0,0,
0,0,0,0,0,0,0,0,0,0,0,0,0,0,0,0,0,0,0,0,0,0,0,0,0,0,0,0,0,0,
0,0,0,0,0,0,0,0,0,0,0,0,0,0,0,0,0,0,0,0,0,0,0,0,0,0,0,0,0,0,
0,0,0,0,0,0,0,0,0,0,0,0,0,0,0,0,0,0,0,0,0,0,0,0,0,0,0,0,0,0,
0,0,0,0,0,0,0,0,0,0,0,0,0,0,0,0,0,0,0,0,0,0,0,0,0,0,0,0,0,0,
0,0,0,0,0,0,0,0,0,0,0,0,0,0,0,0,0,0,0,0,0,0,0,0,0,0,0,0,0,0,
0,0,0,0,0,0,0,0,0,0,0,0,0,0,0,0,0,0,0,0,0,0,0,0,0,0,0,0,0,0,
0,0,0,0,0,0,0,0,0,0,0,0,0,0,0,0,0,0,0,0,0,0,0,0,0,0,0,0,0,0,
0,0,0,0,0,0,0,0,0,0,0,0,0,0,0,0,0,0,0,0,0,0,0,0,0,0,0,0,0,0,
0,0,0,0,0,0,0,0,0,0,0,0,0,0,0,0,0,0,0,0,0,0,0,0,0,0,0,0,0,0,
0,0,0,0,0,0,0,0,0,0,0,0,0,0,0,0,0,0,0,0,0,0,0,0,0,0,0,0,0,0,
0,0,0,0,0,0,0,0,0,0,0,0,0,0,0,0,0,0,0,0,0,0,0,0,0,0,0,0,0,0,
0,0,0,0,0,0,0,0,0,0,0,0,0,0,0,0,0,0,0,0,0,0,0,0,0,0,0,0,0,0
</data>
  </layer>
  <objectgroup draworder="index" id="6" name="Level_0_Windows">
   <object id="128" template="../../../templates/meta/obj_windowshader_interior.tx" type="obj_windowshader_interior" x="80" y="88" width="24" height="24"/>
   <object id="129" template="../../../templates/meta/obj_windowshader_interior.tx" type="obj_windowshader_interior" x="136" y="88" width="24" height="24"/>
  </objectgroup>
  <objectgroup draworder="index" id="7" name="Level_0_Assets">
   <object id="143" gid="6042" x="168" y="104" width="24" height="40"/>
   <object id="144" gid="6044" x="64" y="112" width="56" height="64"/>
   <object id="145" gid="6044" x="120" y="112" width="56" height="64"/>
   <object id="133" gid="6036" x="64" y="144" width="16" height="24"/>
   <object id="134" gid="6041" x="48" y="128" width="56" height="56"/>
   <object id="135" gid="6039" x="104" y="120" width="40" height="48"/>
   <object id="136" gid="6046" x="88" y="120" width="24" height="32"/>
   <object id="137" gid="6046" x="128" y="120" width="24" height="32"/>
   <object id="138" gid="6045" x="144" y="120" width="40" height="40"/>
   <object id="139" gid="6038" x="176" y="152" width="24" height="32"/>
   <object id="140" gid="6035" x="72" y="208" width="40" height="40"/>
   <object id="141" gid="6043" x="104" y="208" width="24" height="32"/>
   <object id="142" gid="6034" x="144" y="208" width="48" height="40"/>
  </objectgroup>
 </group>
 <objectgroup draworder="index" id="14" name="Instances"/>
 <group id="15" name="Level_1">
  <layer id="16" name="Level_1_BlackArea" width="30" height="32">
   <properties>
    <property name="maybe_animation_id" value="75ea443e6634d96"/>
    <property name="maybe_tileset_id" value="d8b504e9a8480fbe"/>
    <property name="tile_size" type="int" value="16"/>
   </properties>
   <data encoding="csv">
1794,0,1794,0,1794,0,1794,0,1794,0,1794,0,1794,0,1794,0,1794,0,1794,0,1794,0,1794,0,1794,0,1794,0,1794,0,
0,0,0,0,0,0,0,0,0,0,0,0,0,0,0,0,0,0,0,0,0,0,0,0,0,0,0,0,0,0,
1794,0,1794,0,1794,0,1794,0,1794,0,1794,0,1794,0,1794,0,1794,0,1794,0,1794,0,1794,0,1794,0,1794,0,1794,0,
0,0,0,0,0,0,0,0,0,0,0,0,0,0,0,0,0,0,0,0,0,0,0,0,0,0,0,0,0,0,
1794,0,1794,0,0,0,0,0,0,0,0,0,0,0,0,0,0,0,0,0,0,0,0,0,0,0,1794,0,1794,0,
0,0,0,0,0,0,0,0,0,0,0,0,0,0,0,0,0,0,0,0,0,0,0,0,0,0,0,0,0,0,
1794,0,1794,0,0,0,0,0,0,0,0,0,0,0,0,0,0,0,0,0,0,0,0,0,0,0,1794,0,1794,0,
0,0,0,0,0,0,0,0,0,0,0,0,0,0,0,0,0,0,0,0,0,0,0,0,0,0,0,0,0,0,
1794,0,1794,0,0,0,0,0,0,0,0,0,0,0,0,0,0,0,0,0,0,0,0,0,0,0,1794,0,1794,0,
0,0,0,0,0,0,0,0,0,0,0,0,0,0,0,0,0,0,0,0,0,0,0,0,0,0,0,0,0,0,
1794,0,1794,0,0,0,0,0,0,0,0,0,0,0,0,0,0,0,0,0,0,0,0,0,0,0,1794,0,1794,0,
0,0,0,0,0,0,0,0,0,0,0,0,0,0,0,0,0,0,0,0,0,0,0,0,0,0,0,0,0,0,
1794,0,1794,0,0,0,0,0,0,0,0,0,0,0,0,0,0,0,0,0,0,0,0,0,0,0,1794,0,1794,0,
0,0,0,0,0,0,0,0,0,0,0,0,0,0,0,0,0,0,0,0,0,0,0,0,0,0,0,0,0,0,
1794,0,1794,0,0,0,0,0,0,0,0,0,0,0,0,0,0,0,0,0,0,0,0,0,0,0,1794,0,1794,0,
0,0,0,0,0,0,0,0,0,0,0,0,0,0,0,0,0,0,0,0,0,0,0,0,0,0,0,0,0,0,
1794,0,1794,0,0,0,0,0,0,0,0,0,0,0,0,0,0,0,0,0,0,0,0,0,0,0,1794,0,1794,0,
0,0,0,0,0,0,0,0,0,0,0,0,0,0,0,0,0,0,0,0,0,0,0,0,0,0,0,0,0,0,
1794,0,1794,0,0,0,0,0,0,0,0,0,0,0,0,0,0,0,0,0,0,0,0,0,0,0,1794,0,1794,0,
0,0,0,0,0,0,0,0,0,0,0,0,0,0,0,0,0,0,0,0,0,0,0,0,0,0,0,0,0,0,
1794,0,1794,0,0,0,0,0,0,0,0,0,0,0,0,0,0,0,0,0,0,0,0,0,0,0,1794,0,1794,0,
0,0,0,0,0,0,0,0,0,0,0,0,0,0,0,0,0,0,0,0,0,0,0,0,0,0,0,0,0,0,
1794,0,1794,0,0,0,0,0,0,0,0,0,0,0,0,0,0,0,0,0,0,0,0,0,0,0,1794,0,1794,0,
0,0,0,0,0,0,0,0,0,0,0,0,0,0,0,0,0,0,0,0,0,0,0,0,0,0,0,0,0,0,
1794,0,1794,0,0,0,0,0,0,0,0,0,0,0,0,0,0,0,0,0,0,0,0,0,0,0,1794,0,1794,0,
0,0,0,0,0,0,0,0,0,0,0,0,0,0,0,0,0,0,0,0,0,0,0,0,0,0,0,0,0,0,
1794,0,1794,0,0,0,0,0,0,0,0,0,0,0,0,0,0,0,0,0,0,0,0,0,0,0,1794,0,1794,0,
0,0,0,0,0,0,0,0,0,0,0,0,0,0,0,0,0,0,0,0,0,0,0,0,0,0,0,0,0,0,
1794,0,1794,0,1794,0,1794,0,1794,0,1794,0,1794,0,1794,0,1794,0,1794,0,1794,0,1794,0,1794,0,1794,0,1794,0,
0,0,0,0,0,0,0,0,0,0,0,0,0,0,0,0,0,0,0,0,0,0,0,0,0,0,0,0,0,0,
1794,0,1794,0,1794,0,1794,0,1794,0,1794,0,1794,0,1794,0,1794,0,1794,0,1794,0,1794,0,1794,0,1794,0,1794,0,
0,0,0,0,0,0,0,0,0,0,0,0,0,0,0,0,0,0,0,0,0,0,0,0,0,0,0,0,0,0
</data>
  </layer>
  <layer id="17" name="Level_1_Ceiling" width="30" height="32">
   <properties>
    <property name="maybe_animation_id" value="75ea443e6634d96"/>
    <property name="maybe_tileset_id" value="d8b504e9a8480fbe"/>
    <property name="tile_size" type="int" value="16"/>
   </properties>
   <data encoding="csv">
0,0,0,0,0,0,0,0,0,0,0,0,0,0,0,0,0,0,0,0,0,0,0,0,0,0,0,0,0,0,
0,0,0,0,0,0,0,0,0,0,0,0,0,0,0,0,0,0,0,0,0,0,0,0,0,0,0,0,0,0,
0,0,1664,0,1665,0,1666,0,1666,0,1666,0,1666,0,1666,0,1666,0,1666,0,1666,0,1666,0,1667,0,1668,0,0,0,
0,0,0,0,0,0,0,0,0,0,0,0,0,0,0,0,0,0,0,0,0,0,0,0,0,0,0,0,0,0,
0,0,1728,0,1729,0,1730,0,1730,0,1733,0,1730,0,1730,0,1730,0,1733,0,1730,0,1730,0,1731,0,1732,0,0,0,
0,0,0,0,0,0,0,0,0,0,0,0,0,0,0,0,0,0,0,0,0,0,0,0,0,0,0,0,0,0,
0,0,1792,0,1793,0,0,0,0,0,1797,0,0,0,0,0,0,0,1797,0,0,0,0,0,1795,0,1796,0,0,0,
0,0,0,0,0,0,0,0,0,0,0,0,0,0,0,0,0,0,0,0,0,0,0,0,0,0,0,0,0,0,
0,0,1792,0,1670,0,0,0,0,0,0,0,0,0,0,0,0,0,0,0,0,0,0,0,1669,0,1796,0,0,0,
0,0,0,0,0,0,0,0,0,0,0,0,0,0,0,0,0,0,0,0,0,0,0,0,0,0,0,0,0,0,
0,0,1792,0,1793,0,0,0,0,0,0,0,0,0,0,0,0,0,0,0,0,0,0,0,1795,0,1796,0,0,0,
0,0,0,0,0,0,0,0,0,0,0,0,0,0,0,0,0,0,0,0,0,0,0,0,0,0,0,0,0,0,
0,0,1792,0,1793,0,0,0,0,0,0,0,0,0,0,0,0,0,0,0,0,0,0,0,1795,0,1796,0,0,0,
0,0,0,0,0,0,0,0,0,0,0,0,0,0,0,0,0,0,0,0,0,0,0,0,0,0,0,0,0,0,
1986,0,1987,0,1988,0,0,0,0,0,0,0,0,0,0,0,0,0,0,0,0,0,0,0,1795,0,1796,0,0,0,
0,0,0,0,0,0,0,0,0,0,0,0,0,0,0,0,0,0,0,0,0,0,0,0,0,0,0,0,0,0,
2050,0,2051,0,2052,0,0,0,0,0,0,0,0,0,0,0,0,0,0,0,0,0,0,0,1795,0,1796,0,0,0,
0,0,0,0,0,0,0,0,0,0,0,0,0,0,0,0,0,0,0,0,0,0,0,0,0,0,0,0,0,0,
2114,0,2115,0,2116,0,0,0,0,0,0,0,0,0,0,0,0,0,0,0,0,0,0,0,1795,0,1796,0,0,0,
0,0,0,0,0,0,0,0,0,0,0,0,0,0,0,0,0,0,0,0,0,0,0,0,0,0,0,0,0,0,
0,0,1792,0,1793,0,0,0,0,0,0,0,0,0,0,0,0,0,0,0,0,0,0,0,1795,0,1796,0,0,0,
0,0,0,0,0,0,0,0,0,0,0,0,0,0,0,0,0,0,0,0,0,0,0,0,0,0,0,0,0,0,
0,0,1792,0,1793,0,0,0,0,0,0,0,0,0,0,0,0,0,0,0,0,0,0,0,1669,0,1796,0,0,0,
0,0,0,0,0,0,0,0,0,0,0,0,0,0,0,0,0,0,0,0,0,0,0,0,0,0,0,0,0,0,
0,0,1792,0,1793,0,0,0,0,0,0,0,0,0,0,0,0,0,0,0,0,0,0,0,1795,0,1796,0,0,0,
0,0,0,0,0,0,0,0,0,0,0,0,0,0,0,0,0,0,0,0,0,0,0,0,0,0,0,0,0,0,
0,0,1856,0,1857,0,1858,0,1858,0,1734,0,1858,0,1858,0,1858,0,1734,0,1858,0,1858,0,1859,0,1860,0,0,0,
0,0,0,0,0,0,0,0,0,0,0,0,0,0,0,0,0,0,0,0,0,0,0,0,0,0,0,0,0,0,
0,0,1920,0,1921,0,1922,0,1922,0,1922,0,1922,0,1922,0,1922,0,1922,0,1922,0,1922,0,1923,0,1924,0,0,0,
0,0,0,0,0,0,0,0,0,0,0,0,0,0,0,0,0,0,0,0,0,0,0,0,0,0,0,0,0,0,
0,0,0,0,0,0,0,0,0,0,0,0,0,0,0,0,0,0,0,0,0,0,0,0,0,0,0,0,0,0,
0,0,0,0,0,0,0,0,0,0,0,0,0,0,0,0,0,0,0,0,0,0,0,0,0,0,0,0,0,0
</data>
  </layer>
 </group>
 <layer id="18" name="FootstepTiles" width="30" height="32" visible="0">
  <properties>
   <property name="maybe_animation_id" value="9b6388374855b54b"/>
   <property name="maybe_tileset_id" value="5fc72aa2902dea7"/>
   <property name="tile_size" type="int" value="16"/>
  </properties>
  <data encoding="csv">
6008,6008,6008,6008,6008,6008,6008,6008,6008,6008,6008,6008,6008,6008,6008,6008,6008,6008,6008,6008,6008,6008,6008,6008,6008,6008,6008,6008,6008,6008,
6008,6008,6008,6008,6008,6008,6008,6008,6008,6008,6008,6008,6008,6008,6008,6008,6008,6008,6008,6008,6008,6008,6008,6008,6008,6008,6008,6008,6008,6008,
0,0,0,0,0,0,0,0,0,0,0,0,0,0,0,0,0,0,0,0,0,0,0,0,0,0,0,0,0,0,
0,0,0,0,0,0,0,0,0,0,0,0,0,0,0,0,0,0,0,0,0,0,0,0,0,0,0,0,0,0,
0,0,0,0,0,0,0,0,0,0,0,0,0,0,0,0,0,0,0,0,0,0,0,0,0,0,0,0,0,0,
0,0,0,0,0,0,0,0,0,0,0,0,0,0,0,0,0,0,0,0,0,0,0,0,0,0,0,0,0,0,
0,0,0,0,0,0,0,0,0,0,0,0,0,0,0,0,0,0,0,0,0,0,0,0,0,0,0,0,0,0,
0,0,0,0,0,0,0,0,0,0,0,0,0,0,0,0,0,0,0,0,0,0,0,0,0,0,0,0,0,0,
1512,6008,1512,6008,1512,0,1512,0,1512,6008,1512,6008,0,6008,1512,6008,1512,6008,1512,6008,1512,6008,1512,6008,1512,6008,1512,6008,1512,6008,
6008,6008,6008,6008,6008,0,0,0,0,0,0,0,6008,6008,0,6008,6008,0,6008,6008,6008,6008,6008,6008,6008,6008,6008,6008,6008,6008,
1512,6008,1512,6008,1512,6008,0,6008,1512,6008,1512,6008,1512,6008,0,6008,1512,0,1512,6008,1512,6008,1512,0,1512,6008,1512,6008,1512,6008,
6008,6008,6008,6008,0,0,6008,6008,6008,6008,0,6008,6008,6008,0,0,0,0,0,6008,6008,6008,0,0,6008,6008,6008,6008,6008,6008,
1512,6008,1512,0,1513,0,1513,0,1513,0,1513,0,1515,0,1515,0,1515,0,1515,0,1515,0,1515,0,0,0,1512,6008,1512,6008,
6008,6008,6008,6008,6008,6008,0,0,0,6008,0,0,0,0,0,0,0,0,0,0,0,0,0,0,0,0,0,0,0,0,
1512,6008,1512,6008,1513,0,1513,0,1513,0,1513,0,1515,0,1515,0,1515,0,1515,0,1515,6008,1515,0,0,0,0,6008,1512,6008,
6008,0,0,0,0,0,0,0,0,0,0,0,0,0,0,0,0,0,0,0,0,0,0,0,0,0,6008,6008,6008,6008,
1515,0,1515,0,1515,0,1515,0,1513,0,1513,0,1515,0,1515,0,1515,0,1515,0,1515,0,1515,0,0,0,0,0,0,0,
0,0,0,0,0,0,0,0,0,0,0,0,0,0,0,0,0,0,0,0,0,0,0,0,0,0,6008,6008,6008,6008,
1515,0,1515,0,1515,6008,1515,0,1513,0,1513,0,1515,0,1515,0,1515,6008,1515,0,1515,0,1515,0,0,6008,1512,6008,1512,6008,
0,0,0,0,0,0,0,0,0,0,0,0,6008,0,0,0,0,6008,0,0,0,0,6008,0,0,0,0,6008,6008,6008,
1515,6008,1515,0,1515,0,1515,0,1513,0,1513,0,1513,6008,1513,6008,1513,0,1513,0,1513,0,1513,0,0,0,0,6008,1512,6008,
0,0,0,0,0,6008,0,0,0,0,0,0,0,0,0,0,0,0,0,6008,0,6008,6008,0,0,0,0,6008,6008,6008,
1512,0,0,6008,0,0,1513,0,1515,0,1515,0,1515,6008,1515,0,1513,0,1513,0,1513,0,1513,0,0,0,1512,6008,1512,6008,
0,6008,0,0,6008,0,0,0,0,0,0,0,6008,6008,0,0,6008,0,0,0,0,0,0,0,0,0,6008,6008,6008,6008,
0,0,1512,6008,0,0,1513,0,1515,0,1515,0,1515,0,1515,0,1513,0,1513,0,1513,0,1513,0,0,6008,1512,6008,1512,6008,
6008,6008,0,0,0,0,0,0,0,0,0,0,0,0,0,0,0,0,0,0,0,0,0,0,0,0,0,0,0,0,
0,0,0,0,0,6008,0,0,0,0,0,0,0,0,0,0,0,0,0,0,0,0,0,0,0,0,0,0,0,0,
0,0,0,0,0,0,0,0,0,0,0,0,0,0,0,0,0,0,0,0,0,0,0,0,0,0,0,0,0,0,
0,0,0,0,0,0,0,0,0,0,0,0,0,0,0,0,0,0,0,0,0,0,0,0,0,0,1512,6008,1512,6008,
0,0,0,0,0,0,0,0,0,0,0,0,0,0,0,0,0,0,0,0,0,0,0,6008,6008,6008,6008,6008,6008,6008,
1512,0,0,6008,1512,0,0,0,0,6008,1512,6008,1512,6008,1512,6008,1512,6008,1512,6008,1512,6008,1512,6008,1512,6008,1512,6008,1512,6008,
0,6008,6008,6008,6008,6008,6008,6008,6008,6008,6008,6008,6008,6008,6008,6008,6008,6008,6008,6008,6008,6008,6008,6008,6008,6008,6008,6008,6008,6008
</data>
 </layer>
 <layer id="19" name="Tiles_Collision" width="30" height="32" visible="0">
  <properties>
   <property name="maybe_animation_id" value="d5b5e9552171fe70"/>
   <property name="maybe_tileset_id" value="b29026a2ad0be741"/>
   <property name="tile_size" type="int" value="8"/>
  </properties>
  <data encoding="csv">
1508,1508,1508,1508,1508,1508,1508,1508,1508,1508,1508,1508,1508,1508,1508,1508,1508,1508,1508,1508,1508,1508,1508,1508,1508,1508,1508,1508,1508,1508,
1508,1508,1508,1508,1508,1508,1508,1508,1508,1508,1508,1508,1508,1508,1508,1508,1508,1508,1508,1508,1508,1508,1508,1508,1508,1508,1508,1508,1508,1508,
1508,1508,1508,1508,1508,1508,1508,1508,1508,1508,1508,1508,1508,1508,1508,1508,1508,1508,1508,1508,1508,1508,1508,1508,1508,1508,1508,1508,1508,1508,
1508,1508,1508,1508,1508,1508,1508,1508,1508,1508,1508,1508,1508,1508,1508,1508,1508,1508,1508,1508,1508,1508,1508,1508,1508,1508,1508,1508,1508,1508,
1508,1508,1508,1508,1508,1508,1508,1508,1508,1508,1508,1508,1508,1508,1508,1508,1508,1508,1508,1508,1508,1508,1508,1508,1508,1508,1508,1508,1508,1508,
1508,1508,1508,1508,1508,1508,1508,1508,1508,1508,1508,1508,1508,1508,1508,1508,1508,1508,1508,1508,1508,1508,1508,1508,1508,1508,1508,1508,1508,1508,
1508,1508,1508,1508,1508,1508,1508,1508,1508,1508,1508,1508,1508,1508,1508,1508,1508,1508,1508,1508,1508,1508,1508,1508,1508,1508,1508,1508,1508,1508,
1508,1508,1508,1508,1508,1508,1508,1508,1508,1508,1508,1508,1508,1508,1508,1508,1508,1508,1508,1508,1508,1508,1508,1508,1508,1508,1508,1508,1508,1508,
1508,1508,1508,1508,1508,1508,1508,1508,1508,1508,1508,1508,1508,1508,1508,1508,1508,1508,1508,1508,1508,1508,1508,1508,1508,1508,1508,1508,1508,1508,
1508,1508,1508,1508,1508,1508,1508,1508,1508,1508,1508,1508,1508,1508,1508,1508,1508,1508,1508,1508,1508,1508,1508,1508,1508,1508,1508,1508,1508,1508,
1508,1508,1508,1508,1508,1508,1508,1508,1508,1508,1508,1508,1508,1508,1508,1508,1508,1508,1508,1508,1508,1508,1508,1508,1508,1508,1508,1508,1508,1508,
1508,1508,1508,1508,1508,1508,1508,1508,1508,1508,1508,1508,1508,1508,1508,1508,1508,1508,1508,1508,1508,1508,1508,1508,1508,1508,1508,1508,1508,1508,
1508,1508,1508,1508,1508,1508,1508,1508,1508,1508,1508,1508,1508,1508,1508,1508,1508,1508,1508,1508,1508,1508,1508,1508,1508,1508,1508,1508,1508,1508,
1508,1508,1508,1508,1508,1508,1507,1507,1507,1507,1507,1507,1507,1507,1507,1507,1507,1507,1507,1507,1507,1507,1507,1507,1508,1508,1508,1508,1508,1508,
1508,1508,1508,1508,1508,1508,1507,1507,1507,1507,1507,1507,1507,0,0,0,0,1507,1507,1507,1507,1507,1507,1507,1508,1508,1508,1508,1508,1508,
1508,1508,1508,1508,1508,1508,0,0,1507,1507,0,0,0,0,0,0,0,0,0,0,0,0,1507,1507,1508,1508,1508,1508,1508,1508,
1508,1508,1508,1508,1508,1508,1505,1505,1507,1507,1505,1505,6008,6008,6008,6008,6008,6008,1505,1505,1505,1505,1507,1507,1508,1508,1508,1508,1508,1508,
1508,1508,1508,0,0,0,0,0,0,0,0,0,0,0,0,0,0,0,0,0,0,0,1507,1507,1508,1508,1508,1508,1508,1508,
1508,1508,1508,0,0,0,0,0,0,0,0,0,0,0,0,0,0,0,0,0,0,0,1507,1507,1508,1508,1508,1508,1508,1508,
1508,1508,1508,0,0,0,0,0,0,0,0,0,0,0,0,0,0,0,0,0,0,0,0,0,1508,1508,1508,1508,1508,1508,
1508,1508,1508,0,0,0,0,0,0,0,0,0,0,0,0,0,0,0,0,0,0,0,0,0,1508,1508,1508,1508,1508,1508,
1508,1508,1508,1508,1508,1508,0,0,0,0,0,0,0,0,0,0,0,0,0,0,0,0,0,0,1508,1508,1508,1508,1508,1508,
1508,1508,1508,1508,1508,1508,0,0,0,1507,1507,1507,1507,0,0,0,0,0,0,0,0,0,0,0,1508,1508,1508,1508,1508,1508,
1508,1508,1508,1508,1508,1508,0,0,0,1507,1507,1507,1507,1507,1507,1507,0,0,1507,1507,1507,1507,1507,0,1508,1508,1508,1508,1508,1508,
1508,1508,1508,1508,1508,1508,0,0,0,1507,1507,1507,1507,1507,1507,1507,0,0,1507,1507,1507,1507,1507,0,1508,1508,1508,1508,1508,1508,
1508,1508,1508,1508,1508,1508,0,0,0,1507,1507,1507,1507,0,0,0,0,0,1507,1507,1507,1507,1507,0,1508,1508,1508,1508,1508,1508,
1508,1508,1508,1508,1508,1508,1508,1508,1508,1508,1508,1508,1508,1508,1508,1508,1508,1508,1508,1508,1508,1508,1508,1508,1508,1508,1508,1508,1508,1508,
1508,1508,1508,1508,1508,1508,1508,1508,1508,1508,1508,1508,1508,1508,1508,1508,1508,1508,1508,1508,1508,1508,1508,1508,1508,1508,1508,1508,1508,1508,
1508,1508,1508,1508,1508,1508,1508,1508,1508,1508,1508,1508,1508,1508,1508,1508,1508,1508,1508,1508,1508,1508,1508,1508,1508,1508,1508,1508,1508,1508,
1508,1508,1508,1508,1508,1508,1508,1508,1508,1508,1508,1508,1508,1508,1508,1508,1508,1508,1508,1508,1508,1508,1508,1508,1508,1508,1508,1508,1508,1508,
1508,1508,1508,1508,1508,1508,1508,1508,1508,1508,1508,1508,1508,1508,1508,1508,1508,1508,1508,1508,1508,1508,1508,1508,1508,1508,1508,1508,1508,1508,
1508,1508,1508,1508,1508,1508,1508,1508,1508,1508,1508,1508,1508,1508,1508,1508,1508,1508,1508,1508,1508,1508,1508,1508,1508,1508,1508,1508,1508,1508
</data>
 </layer>
 <layer id="20" name="Tiles_Rules" width="30" height="32" visible="0">
  <properties>
   <property name="maybe_animation_id" value="f525790c1101b1a1"/>
   <property name="maybe_tileset_id" value="a3b6ca91b299d4f5"/>
   <property name="tile_size" type="int" value="8"/>
  </properties>
  <data encoding="csv">
0,0,0,0,0,0,0,0,0,0,0,0,0,0,0,0,0,0,0,0,0,0,0,0,0,0,0,0,0,0,
0,0,0,0,0,0,0,0,0,0,0,0,0,0,0,0,0,0,0,0,0,0,0,0,0,0,0,0,0,0,
0,0,0,0,0,0,0,0,0,0,0,0,0,0,0,0,0,0,0,0,0,0,0,0,0,0,0,0,0,0,
0,0,0,0,0,0,0,0,0,0,0,0,0,0,0,0,0,0,0,0,0,0,0,0,0,0,0,0,0,0,
0,0,0,0,0,0,0,0,0,0,0,0,0,0,0,0,0,0,0,0,0,0,0,0,0,0,0,0,0,0,
0,0,0,0,0,0,0,0,0,0,0,0,0,0,0,0,0,0,0,0,0,0,0,0,0,0,0,0,0,0,
0,0,0,0,0,0,0,0,0,0,0,0,0,0,0,0,0,0,0,0,0,0,0,0,0,0,0,0,0,0,
0,0,0,0,0,0,0,0,0,0,0,0,0,0,0,0,0,0,0,0,0,0,0,0,0,0,0,0,0,0,
0,0,0,0,0,0,0,0,0,0,0,0,0,0,0,0,0,0,0,0,0,0,0,0,0,0,0,0,0,0,
0,0,0,0,0,0,0,0,0,0,0,0,0,0,0,0,0,0,0,0,0,0,0,0,0,0,0,0,0,0,
0,0,0,0,0,0,0,0,0,0,0,0,0,0,0,0,0,0,0,0,0,0,0,0,0,0,0,0,0,0,
0,0,0,0,0,0,0,0,0,0,0,0,0,0,0,0,0,0,0,0,0,0,0,0,0,0,0,0,0,0,
0,0,0,0,0,0,0,0,0,0,0,0,0,0,0,0,0,0,0,0,0,0,0,0,0,0,0,0,0,0,
0,0,0,0,0,0,0,0,0,0,0,0,0,0,0,0,0,0,0,0,0,0,0,0,0,0,0,0,0,0,
0,0,0,0,0,0,0,0,0,0,0,0,0,0,0,0,0,0,0,0,0,0,0,0,0,0,0,0,0,0,
0,0,0,0,0,0,0,0,0,0,0,0,0,0,0,0,0,0,0,0,0,0,0,0,0,0,0,0,0,0,
0,0,0,0,0,0,0,0,0,0,0,0,0,0,0,0,0,0,0,0,0,0,0,0,0,0,0,0,0,0,
0,0,0,0,0,0,0,0,0,0,0,0,0,0,0,0,0,0,0,0,0,0,0,0,0,0,0,0,0,0,
0,0,0,0,0,0,0,0,0,0,0,0,0,0,0,0,0,0,0,0,0,0,0,0,0,0,0,0,0,0,
0,0,0,0,0,0,0,0,0,0,0,0,0,0,0,0,0,0,0,0,0,0,0,0,0,0,0,0,0,0,
0,0,0,0,0,0,0,0,0,0,0,0,0,0,0,0,0,0,0,0,0,0,0,0,0,0,0,0,0,0,
0,0,0,0,0,0,0,0,0,0,0,0,0,0,0,0,0,0,0,0,0,0,0,0,0,0,0,0,0,0,
0,0,0,0,0,0,0,0,0,0,0,0,0,0,0,0,0,0,0,0,0,0,0,0,0,0,0,0,0,0,
0,0,0,0,0,0,0,0,0,0,0,0,0,0,0,0,0,0,0,0,0,0,0,0,0,0,0,0,0,0,
0,0,0,0,0,0,0,0,0,0,0,0,0,0,0,0,0,0,0,0,0,0,0,0,0,0,0,0,0,0,
0,0,0,0,0,0,0,0,0,0,0,0,0,0,0,0,0,0,0,0,0,0,0,0,0,0,0,0,0,0,
0,0,0,0,0,0,0,0,0,0,0,0,0,0,0,0,0,0,0,0,0,0,0,0,0,0,0,0,0,0,
0,0,0,0,0,0,0,0,0,0,0,0,0,0,0,0,0,0,0,0,0,0,0,0,0,0,0,0,0,0,
0,0,0,0,0,0,0,0,0,0,0,0,0,0,0,0,0,0,0,0,0,0,0,0,0,0,0,0,0,0,
0,0,0,0,0,0,0,0,0,0,0,0,0,0,0,0,0,0,0,0,0,0,0,0,0,0,0,0,0,0,
0,0,0,0,0,0,0,0,0,0,0,0,0,0,0,0,0,0,0,0,0,0,0,0,0,0,0,0,0,0,
0,0,0,0,0,0,0,0,0,0,0,0,0,0,0,0,0,0,0,0,0,0,0,0,0,0,0,0,0,0
</data>
 </layer>
 <layer id="21" name="Pathfinding" width="30" height="32">
  <properties>
   <property name="maybe_animation_id" value="6d2460f008fb99d4"/>
   <property name="maybe_tileset_id" value="264fe6c9523400a1"/>
   <property name="tile_size" type="int" value="8"/>
  </properties>
  <data encoding="csv">
6008,6008,6008,6008,6008,6008,6008,6008,6008,0,6008,6008,0,0,0,0,0,0,0,0,0,0,0,0,0,0,0,0,0,0,
0,0,0,0,0,0,0,0,0,0,0,0,0,0,0,0,0,0,0,0,0,0,0,0,0,0,0,0,0,0,
0,0,0,0,0,0,0,0,0,0,0,0,0,0,0,0,0,0,0,0,0,0,0,0,0,0,0,0,0,0,
0,0,0,0,0,0,0,0,0,0,0,0,0,0,0,0,0,0,0,0,0,0,0,0,0,0,0,0,0,0,
0,0,0,0,0,0,0,0,0,0,0,0,0,0,0,0,0,0,0,0,0,0,0,0,0,0,0,0,0,0,
0,0,0,0,0,0,0,0,0,0,0,0,0,0,0,0,0,0,0,0,0,0,0,0,0,0,0,0,0,0,
0,0,0,0,0,0,0,0,0,0,0,0,0,0,0,0,0,0,0,0,0,0,0,0,0,0,0,0,0,0,
0,0,0,0,0,0,0,0,0,0,0,0,0,0,0,0,0,0,0,0,0,0,0,0,0,0,0,0,0,0,
0,0,0,0,0,0,0,0,0,0,0,0,0,0,0,0,0,0,0,0,0,0,0,0,0,0,0,0,0,0,
0,0,0,0,0,0,0,0,0,0,0,0,0,0,0,0,0,0,0,0,0,0,0,0,0,0,0,0,0,0,
0,0,0,0,0,0,0,0,0,0,0,0,0,0,0,0,0,0,0,0,0,0,0,0,0,0,0,0,0,0,
0,0,0,0,0,0,0,0,0,0,0,0,0,0,0,0,0,0,0,0,0,0,0,0,0,0,0,0,0,0,
0,0,0,0,0,0,0,0,0,0,0,0,0,0,0,0,0,0,0,0,0,0,0,0,0,0,0,0,0,0,
0,0,0,0,0,0,0,0,0,0,0,0,0,0,0,0,0,0,0,0,0,0,0,0,0,0,0,0,0,0,
0,0,0,0,0,0,0,0,0,0,0,0,0,0,0,0,0,0,0,0,0,0,0,0,0,0,0,0,0,0,
0,0,0,0,0,0,0,0,0,0,0,0,0,0,0,0,0,0,0,0,0,0,0,0,0,0,0,0,0,0,
0,0,0,0,0,0,0,0,0,0,0,0,0,0,6008,0,0,0,0,0,0,0,0,0,0,0,0,0,0,0,
0,0,0,0,0,0,0,0,0,0,0,0,0,0,0,0,0,0,0,0,0,0,0,0,0,0,0,0,0,0,
0,0,0,0,0,0,0,0,0,0,0,0,0,0,0,0,0,0,0,0,0,0,0,0,0,0,0,0,0,0,
0,0,0,0,0,0,0,0,0,0,0,0,0,0,0,0,0,0,0,0,0,0,0,0,0,0,0,0,0,0,
0,0,0,0,0,0,0,0,0,0,0,0,0,0,0,0,0,0,0,0,0,0,0,0,0,0,0,0,0,0,
0,0,0,0,0,0,0,0,0,0,0,0,0,0,0,0,0,0,0,0,0,0,0,0,0,0,0,0,0,0,
0,0,0,0,0,0,0,0,0,0,0,0,0,0,0,0,0,0,0,0,0,0,0,0,0,0,0,0,0,0,
0,0,0,0,0,0,0,0,0,0,0,0,0,0,0,0,0,0,0,0,0,0,0,0,0,0,0,0,0,0,
0,0,0,0,0,0,0,0,0,0,0,0,0,0,0,0,0,0,0,0,0,0,0,0,0,0,0,0,0,0,
0,0,0,0,0,0,0,0,0,0,0,0,0,0,0,0,0,0,0,0,0,0,0,0,0,0,0,0,0,0,
0,0,0,0,0,0,0,0,0,0,0,0,0,0,0,0,0,0,0,0,0,0,0,0,0,0,0,0,0,0,
0,0,0,0,0,0,0,0,0,0,0,0,0,0,0,0,0,0,0,0,0,0,0,0,0,0,0,0,0,0,
0,0,0,0,0,0,0,0,0,0,0,0,0,0,0,0,0,0,0,0,0,0,0,0,0,0,0,0,0,0,
0,0,0,0,0,0,0,0,0,0,0,0,0,0,0,0,0,0,0,0,0,0,0,0,0,0,0,0,0,0,
0,0,0,0,0,0,0,0,0,0,0,0,0,0,0,0,0,0,0,0,0,0,0,0,0,0,0,0,0,0,
0,0,0,0,0,0,0,0,0,0,0,0,0,0,0,0,0,0,0,0,0,0,0,0,0,0,0,0,0,0
</data>
 </layer>
 <objectgroup draworder="index" id="22" name="Lighting" visible="0">
  <object id="98" template="../../../templates/system/lighting/lights/obj_light_xs.tx" type="obj_light_xs" x="116" y="128"/>
  <object id="99" template="../../../templates/system/lighting/lights/obj_light_xs.tx" type="obj_light_xs" x="76" y="128"/>
  <object id="100" template="../../../templates/system/lighting/lights/obj_light_xs.tx" type="obj_light_xs" x="32" y="126"/>
  <object id="101" template="../../../templates/system/lighting/lights/obj_light_xs.tx" type="obj_light_xs" x="148" y="214"/>
 </objectgroup>
 <objectgroup draworder="index" id="23" name="Meta" visible="0"/>
 <objectgroup id="33" name="TrellisPoints_Wedding" visible="0">
  <object id="106" template="../../../templates/meta/obj_trellis_point_default.tx" name="wed_elsie_wr_entrance" type="obj_trellis_point_default" x="121" y="184"/>
  <object id="102" template="../../../templates/meta/obj_trellis_point_default.tx" name="wed_josephine_wr_entrance" type="obj_trellis_point_default" x="97" y="184"/>
  <object id="103" template="../../../templates/meta/obj_trellis_point_default.tx" name="wed_ari_wr_entrance" type="obj_trellis_point_default" x="109" y="162"/>
  <object id="110" template="../../../templates/meta/obj_trellis_point_default.tx" name="wed_ari_wr_racks" type="obj_trellis_point_default" x="152" y="136"/>
  <object id="108" template="../../../templates/meta/obj_trellis_point_default.tx" name="wed_wr_exit" type="obj_trellis_point_default" x="15" y="166"/>
  <object id="104" template="../../../templates/meta/obj_trellis_point_camera.tx" name="wed_camera_wr_1" type="obj_trellis_point_camera" x="109" y="206"/>
  <object id="105" template="../../../templates/meta/obj_trellis_point_camera.tx" name="wed_camera_wr_2" type="obj_trellis_point_camera" x="109" y="122"/>
  <object id="107" template="../../../templates/meta/obj_trellis_point_camera.tx" name="wed_camera_wr_3" type="obj_trellis_point_camera" x="109" y="157"/>
  <object id="109" template="../../../templates/meta/obj_trellis_point_camera.tx" name="wed_camera_wr_4" type="obj_trellis_point_camera" x="152" y="128"/>
  <object id="112" template="../../../templates/meta/obj_trellis_point_camera.tx" name="wed_camera_wr_5" type="obj_trellis_point_camera" x="64" y="160"/>
  <object id="111" template="../../../templates/meta/obj_trellis_point_camera.tx" name="wed_ari_poof" type="obj_trellis_point_camera" x="152" y="136"/>
  <object id="113" template="../../../templates/meta/obj_trellis_point_default.tx" name="wed_ari_wr_forward" type="obj_trellis_point_default" x="109" y="152"/>
  <object id="116" template="../../../templates/meta/obj_trellis_point_default.tx" name="wed_ari_wr_think" type="obj_trellis_point_default" x="121" y="152"/>
  <object id="117" template="../../../templates/meta/obj_trellis_point_default.tx" name="wed_josephine_wr_forward" type="obj_trellis_point_default" x="97" y="152"/>
  <object id="118" template="../../../templates/meta/obj_trellis_point_camera.tx" name="wed_camera_wr_6" type="obj_trellis_point_camera" x="109" y="168"/>
  <object id="119" template="../../../templates/meta/obj_trellis_point_default.tx" name="wed_josephine_wr_back" type="obj_trellis_point_default" x="80" y="152"/>
  <object id="120" template="../../../templates/meta/obj_trellis_point_default.tx" name="wed_ari_wr_pause" type="obj_trellis_point_default" x="48" y="166"/>
  <object id="121" template="../../../templates/meta/obj_trellis_point_default.tx" name="wed_elsie_wr_pause" type="obj_trellis_point_default" x="80" y="184"/>
  <object id="122" template="../../../templates/meta/obj_trellis_point_camera.tx" name="wed_camera_wr_7" type="obj_trellis_point_camera" x="58" y="168"/>
  <object id="123" template="../../../templates/meta/obj_trellis_point_camera.tx" name="wed_camera_wr_8" type="obj_trellis_point_camera" x="80" y="168"/>
  <object id="124" template="../../../templates/meta/obj_trellis_point_camera.tx" name="wed_camera_wr_9" type="obj_trellis_point_camera" x="16" y="168"/>
  <object id="125" template="../../../templates/meta/obj_trellis_point_default.tx" name="wed_ari_wr_double_pause" type="obj_trellis_point_default" x="104" y="168"/>
 </objectgroup>
 <objectgroup id="32" name="TrellisPoints" visible="0"/>
</map>
