<?xml version="1.0" encoding="UTF-8"?>
<map version="1.10" tiledversion="1.12.1" orientation="orthogonal" renderorder="right-down" width="64" height="66" tilewidth="8" tileheight="8" infinite="0" backgroundcolor="#000000" nextlayerid="69" nextobjectid="965">
 <tileset firstgid="1" source="../../../__gm_import.tsx"/>
 <tileset firstgid="1505" source="../../../tile_sets/__META/tile_collision_info.tsx"/>
 <tileset firstgid="1512" source="../../../tile_sets/tile_footsteps.tsx"/>
 <tileset firstgid="1656" source="../../../tile_sets/_GENERIC/tile_main_interiors.tsx"/>
 <tileset firstgid="5752" source="../../../tile_sets/_GENERIC/tile_main_interiors_shadows.tsx"/>
 <tileset firstgid="6008" source="../../../tile_sets/__META/tile_pathfinding.tsx"/>
 <tileset firstgid="6014" source="../../../tile_sets/__META/tile_rules.tsx"/>
 <tileset firstgid="6034" source="../../../animations/Locations/Town/Inn/Wedding.tsx"/>
 <tileset firstgid="6077" source="../../../animations/Locations/Town/Wedding.tsx"/>
 <tileset firstgid="6158" source="../../../animations/Room Placeables.tsx"/>
 <group id="1" name="Level_0">
  <layer id="2" name="Level_0_Floor" width="64" height="66">
   <properties>
    <property name="maybe_animation_id" value="75ea443e6634d96"/>
    <property name="maybe_tileset_id" value="d8b504e9a8480fbe"/>
    <property name="tile_size" type="int" value="16"/>
   </properties>
   <data encoding="csv">
0,0,0,0,0,0,0,0,0,0,0,0,0,0,0,0,0,0,0,0,0,0,0,0,0,0,0,0,0,0,0,0,0,0,0,0,0,0,0,0,0,0,0,0,0,0,0,0,0,0,0,0,0,0,0,0,0,0,0,0,0,0,0,0,
0,0,0,0,0,0,0,0,0,0,0,0,0,0,0,0,0,0,0,0,0,0,0,0,0,0,0,0,0,0,0,0,0,0,0,0,0,0,0,0,0,0,0,0,0,0,0,0,0,0,0,0,0,0,0,0,0,0,0,0,0,0,0,0,
0,0,0,0,0,0,0,0,0,0,0,0,0,0,0,0,0,0,0,0,0,0,0,0,0,0,0,0,0,0,0,0,0,0,0,0,0,0,0,0,0,0,0,0,0,0,0,0,0,0,0,0,0,0,0,0,0,0,0,0,0,0,0,0,
0,0,0,0,0,0,0,0,0,0,0,0,0,0,0,0,0,0,0,0,0,0,0,0,0,0,0,0,0,0,0,0,0,0,0,0,0,0,0,0,0,0,0,0,0,0,0,0,0,0,0,0,0,0,0,0,0,0,0,0,0,0,0,0,
0,0,0,0,0,0,0,0,0,0,0,0,0,0,0,0,0,0,0,0,0,0,0,0,0,0,0,0,0,0,0,0,0,0,0,0,0,0,0,0,0,0,0,0,0,0,0,0,0,0,0,0,0,0,0,0,0,0,0,0,0,0,0,0,
0,0,0,0,0,0,0,0,0,0,0,0,0,0,0,0,0,0,0,0,0,0,0,0,0,0,0,0,0,0,0,0,0,0,0,0,0,0,0,0,0,0,0,0,0,0,0,0,0,0,0,0,0,0,0,0,0,0,0,0,0,0,0,0,
0,0,0,0,0,0,0,0,0,0,0,0,0,0,0,0,0,0,0,0,0,0,0,0,0,0,0,0,0,0,0,0,0,0,0,0,0,0,0,0,0,0,0,0,0,0,0,0,0,0,0,0,0,0,0,0,0,0,0,0,0,0,0,0,
0,0,0,0,0,0,0,0,0,0,0,0,0,0,0,0,0,0,0,0,0,0,0,0,0,0,0,0,0,0,0,0,0,0,0,0,0,0,0,0,0,0,0,0,0,0,0,0,0,0,0,0,0,0,0,0,0,0,0,0,0,0,0,0,
0,0,0,0,0,0,0,0,0,0,0,0,0,0,0,0,0,0,0,0,0,0,0,0,0,0,0,0,0,0,0,0,0,0,0,0,0,0,0,0,0,0,0,0,0,0,0,0,0,0,0,0,0,0,0,0,0,0,0,0,0,0,0,0,
0,0,0,0,0,0,0,0,0,0,0,0,0,0,0,0,0,0,0,0,0,0,0,0,0,0,0,0,0,0,0,0,0,0,0,0,0,0,0,0,0,0,0,0,0,0,0,0,0,0,0,0,0,0,0,0,0,0,0,0,0,0,0,0,
0,0,0,0,1656,0,1656,0,1656,0,1656,0,1916,0,1916,0,1656,0,1656,0,1656,0,1656,0,1656,0,1656,0,1656,0,1656,0,1656,0,1656,0,1656,0,1656,0,1656,0,1656,0,1656,0,1656,0,1656,0,1656,0,1656,0,1656,0,1656,0,1656,0,1656,0,0,0,
0,0,0,0,0,0,0,0,0,0,0,0,0,0,0,0,0,0,0,0,0,0,0,0,0,0,0,0,0,0,0,0,0,0,0,0,0,0,0,0,0,0,0,0,0,0,0,0,0,0,0,0,0,0,0,0,0,0,0,0,0,0,0,0,
0,0,0,0,1656,0,1656,0,1656,0,1656,0,1656,0,1656,0,1656,0,1656,0,1656,0,1656,0,1656,0,1656,0,1656,0,1656,0,1656,0,1656,0,1656,0,1656,0,1656,0,1656,0,1656,0,1656,0,1656,0,1656,0,1656,0,1656,0,1656,0,1656,0,1656,0,0,0,
0,0,0,0,0,0,0,0,0,0,0,0,0,0,0,0,0,0,0,0,0,0,0,0,0,0,0,0,0,0,0,0,0,0,0,0,0,0,0,0,0,0,0,0,0,0,0,0,0,0,0,0,0,0,0,0,0,0,0,0,0,0,0,0,
0,0,0,0,1980,0,1980,0,1980,0,1980,0,1980,0,1980,0,1980,0,1980,0,1980,0,1980,0,1980,0,1980,0,1980,0,1980,0,1980,0,1980,0,1980,0,1980,0,1980,0,1980,0,1980,0,1980,0,1980,0,1980,0,1980,0,1980,0,1980,0,1980,0,1656,0,0,0,
0,0,0,0,0,0,0,0,0,0,0,0,0,0,0,0,0,0,0,0,0,0,0,0,0,0,0,0,0,0,0,0,0,0,0,0,0,0,0,0,0,0,0,0,0,0,0,0,0,0,0,0,0,0,0,0,0,0,0,0,0,0,0,0,
0,0,0,0,1916,0,1916,0,1916,0,1916,0,1916,0,1916,0,1916,0,1916,0,1916,0,1916,0,1916,0,1916,0,1916,0,1916,0,1916,0,1916,0,1916,0,1916,0,1916,0,1916,0,1916,0,1916,0,1916,0,1916,0,1916,0,1916,0,1916,0,1916,0,1656,0,0,0,
0,0,0,0,0,0,0,0,0,0,0,0,0,0,0,0,0,0,0,0,0,0,0,0,0,0,0,0,0,0,0,0,0,0,0,0,0,0,0,0,0,0,0,0,0,0,0,0,0,0,0,0,0,0,0,0,0,0,0,0,0,0,0,0,
0,0,0,0,1980,0,1980,0,1980,0,1980,0,1980,0,1980,0,1980,0,1980,0,1980,0,1980,0,1980,0,1980,0,1980,0,1980,0,1980,0,1980,0,1980,0,1980,0,1980,0,1980,0,1980,0,1980,0,1980,0,1980,0,1980,0,1980,0,1980,0,1980,0,1656,0,0,0,
0,0,0,0,0,0,0,0,0,0,0,0,0,0,0,0,0,0,0,0,0,0,0,0,0,0,0,0,0,0,0,0,0,0,0,0,0,0,0,0,0,0,0,0,0,0,0,0,0,0,0,0,0,0,0,0,0,0,0,0,0,0,0,0,
0,0,0,0,1916,0,1916,0,1916,0,1916,0,2236,0,2236,0,2236,0,2236,0,2236,0,2236,0,2237,0,1916,0,1916,0,1916,0,1916,0,1916,0,1916,0,2109,0,2108,0,2109,0,2108,0,2109,0,2108,0,2109,0,1916,0,1916,0,1916,0,1916,0,1656,0,0,0,
0,0,0,0,0,0,0,0,0,0,0,0,0,0,0,0,0,0,0,0,0,0,0,0,0,0,0,0,0,0,0,0,0,0,0,0,0,0,0,0,0,0,0,0,0,0,0,0,0,0,0,0,0,0,0,0,0,0,0,0,0,0,0,0,
0,0,0,0,1980,0,1980,0,1980,0,1980,0,2236,0,2236,0,2236,0,2236,0,2236,0,2236,0,2237,0,1980,0,1980,0,1980,0,1980,0,1980,0,1980,0,2173,0,2172,0,2173,0,2172,0,2173,0,2172,0,2173,0,1980,0,1980,0,1980,0,1980,0,1656,0,0,0,
0,0,0,0,0,0,0,0,0,0,0,0,0,0,0,0,0,0,0,0,0,0,0,0,0,0,0,0,0,0,0,0,0,0,0,0,0,0,0,0,0,0,0,0,0,0,0,0,0,0,0,0,0,0,0,0,0,0,0,0,0,0,0,0,
0,0,1656,0,1916,0,1916,0,1916,0,1916,0,2236,0,2236,0,2236,0,2236,0,2236,0,2236,0,2237,0,2173,0,2172,0,2173,0,2172,0,2173,0,2172,0,2173,0,2172,0,2173,0,2172,0,2173,0,2172,0,2173,0,1916,0,1916,0,1916,0,1916,0,1656,0,0,0,
0,0,0,0,0,0,0,0,0,0,0,0,0,0,0,0,0,0,0,0,0,0,0,0,0,0,0,0,0,0,0,0,0,0,0,0,0,0,0,0,0,0,0,0,0,0,0,0,0,0,0,0,0,0,0,0,0,0,0,0,0,0,0,0,
0,0,1656,0,1980,0,1980,0,1980,0,1980,0,2236,0,2236,0,2236,0,2236,0,2236,0,2236,0,2237,0,2109,0,2108,0,2109,0,2108,0,2109,0,2108,0,2109,0,2108,0,2109,0,2108,0,2109,0,2108,0,2109,0,1980,0,1980,0,1980,0,1980,0,1656,0,0,0,
0,0,0,0,0,0,0,0,0,0,0,0,0,0,0,0,0,0,0,0,0,0,0,0,0,0,0,0,0,0,0,0,0,0,0,0,0,0,0,0,0,0,0,0,0,0,0,0,0,0,0,0,0,0,0,0,0,0,0,0,0,0,0,0,
0,0,1656,0,1916,0,1916,0,1916,0,1916,0,2236,0,2236,0,2236,0,2236,0,2236,0,2236,0,2237,0,2173,0,2172,0,2173,0,2172,0,2173,0,2172,0,2173,0,2172,0,2173,0,2172,0,2173,0,2172,0,2173,0,1916,0,1916,0,1916,0,1916,0,1656,0,0,0,
0,0,0,0,0,0,0,0,0,0,0,0,0,0,0,0,0,0,0,0,0,0,0,0,0,0,0,0,0,0,0,0,0,0,0,0,0,0,0,0,0,0,0,0,0,0,0,0,0,0,0,0,0,0,0,0,0,0,0,0,0,0,0,0,
0,0,0,0,1980,0,1980,0,1980,0,1980,0,2236,0,2236,0,2236,0,2236,0,2236,0,2236,0,2237,0,2109,0,2108,0,2109,0,2108,0,2109,0,2108,0,2109,0,2108,0,2109,0,2108,0,2109,0,2108,0,2109,0,1980,0,1980,0,1980,0,1980,0,1656,0,0,0,
0,0,0,0,0,0,0,0,0,0,0,0,0,0,0,0,0,0,0,0,0,0,0,0,0,0,0,0,0,0,0,0,0,0,0,0,0,0,0,0,0,0,0,0,0,0,0,0,0,0,0,0,0,0,0,0,0,0,0,0,0,0,0,0,
0,0,0,0,1916,0,1916,0,1916,0,1916,0,2236,0,2236,0,2236,0,2236,0,2236,0,2236,0,2237,0,2173,0,2172,0,2173,0,2172,0,2173,0,2172,0,2173,0,2172,0,2173,0,2172,0,2173,0,2172,0,2173,0,1916,0,1916,0,1916,0,1916,0,1656,0,0,0,
0,0,0,0,0,0,0,0,0,0,0,0,0,0,0,0,0,0,0,0,0,0,0,0,0,0,0,0,0,0,0,0,0,0,0,0,0,0,0,0,0,0,0,0,0,0,0,0,0,0,0,0,0,0,0,0,0,0,0,0,0,0,0,0,
0,0,0,0,1980,0,1980,0,1980,0,1980,0,2236,0,2236,0,2236,0,2236,0,2236,0,2236,0,2237,0,2109,0,2108,0,2109,0,2108,0,2109,0,2108,0,2109,0,2108,0,2109,0,2108,0,2109,0,2108,0,2109,0,1980,0,1980,0,1980,0,1980,0,1656,0,0,0,
0,0,0,0,0,0,0,0,0,0,0,0,0,0,0,0,0,0,0,0,0,0,0,0,0,0,0,0,0,0,0,0,0,0,0,0,0,0,0,0,0,0,0,0,0,0,0,0,0,0,0,0,0,0,0,0,0,0,0,0,0,0,0,0,
0,0,0,0,1916,0,1916,0,1916,0,1916,0,2236,0,2236,0,2236,0,2236,0,2236,0,2236,0,2237,0,2173,0,2172,0,2173,0,2172,0,2173,0,2172,0,2173,0,2172,0,2173,0,2172,0,2173,0,2172,0,2173,0,1916,0,1916,0,1916,0,1916,0,1656,0,0,0,
0,0,0,0,0,0,0,0,0,0,0,0,0,0,0,0,0,0,0,0,0,0,0,0,0,0,0,0,0,0,0,0,0,0,0,0,0,0,0,0,0,0,0,0,0,0,0,0,0,0,0,0,0,0,0,0,0,0,0,0,0,0,0,0,
0,0,0,0,1980,0,1980,0,1980,0,1980,0,2236,0,2236,0,2236,0,2236,0,2236,0,2236,0,2237,0,2109,0,2108,0,2109,0,2108,0,2109,0,2108,0,2109,0,2108,0,2109,0,2108,0,2109,0,2108,0,2109,0,1980,0,1980,0,1980,0,1980,0,1656,0,0,0,
0,0,0,0,0,0,0,0,0,0,0,0,0,0,0,0,0,0,0,0,0,0,0,0,0,0,0,0,0,0,0,0,0,0,0,0,0,0,0,0,0,0,0,0,0,0,0,0,0,0,0,0,0,0,0,0,0,0,0,0,0,0,0,0,
0,0,0,0,1916,0,1916,0,1916,0,1916,0,2236,0,2236,0,2236,0,2236,0,2236,0,2236,0,2237,0,2173,0,2172,0,2173,0,2172,0,2173,0,2172,0,2173,0,2172,0,2173,0,2172,0,2173,0,2172,0,2173,0,1916,0,1916,0,1916,0,1916,0,1656,0,0,0,
0,0,0,0,0,0,0,0,0,0,0,0,0,0,0,0,0,0,0,0,0,0,0,0,0,0,0,0,0,0,0,0,0,0,0,0,0,0,0,0,0,0,0,0,0,0,0,0,0,0,0,0,0,0,0,0,0,0,0,0,0,0,0,0,
0,0,0,0,1980,0,1980,0,1980,0,1980,0,2236,0,2236,0,2236,0,2236,0,2236,0,2236,0,2237,0,2109,0,2108,0,2109,0,2108,0,2109,0,2108,0,2109,0,2108,0,2109,0,2108,0,2109,0,2108,0,2109,0,1980,0,1980,0,1980,0,1980,0,1656,0,0,0,
0,0,0,0,0,0,0,0,0,0,0,0,0,0,0,0,0,0,0,0,0,0,0,0,0,0,0,0,0,0,0,0,0,0,0,0,0,0,0,0,0,0,0,0,0,0,0,0,0,0,0,0,0,0,0,0,0,0,0,0,0,0,0,0,
0,0,1656,0,2044,0,2044,0,2044,0,2044,0,2236,0,2236,0,2236,0,2236,0,2236,0,2236,0,2237,0,2173,0,2172,0,2173,0,2172,0,2173,0,2172,0,2173,0,2172,0,2173,0,2172,0,2173,0,2172,0,2173,0,2044,0,2044,0,2044,0,2044,0,1656,0,0,0,
0,0,0,0,0,0,0,0,0,0,0,0,0,0,0,0,0,0,0,0,0,0,0,0,0,0,0,0,0,0,0,0,0,0,0,0,0,0,0,0,0,0,0,0,0,0,0,0,0,0,0,0,0,0,0,0,0,0,0,0,0,0,0,0,
0,0,0,0,1981,0,1981,0,1981,0,1981,0,2236,0,2236,0,2236,0,2236,0,2236,0,2236,0,2237,0,2109,0,2108,0,2109,0,2108,0,2109,0,2108,0,2109,0,2108,0,2109,0,2108,0,2109,0,2108,0,2109,0,1981,0,1981,0,1981,0,1981,0,1656,0,0,0,
0,0,0,0,0,0,0,0,0,0,0,0,0,0,0,0,0,0,0,0,0,0,0,0,0,0,0,0,0,0,0,0,0,0,0,0,0,0,0,0,0,0,0,0,0,0,0,0,0,0,0,0,0,0,0,0,0,0,0,0,0,0,0,0,
0,0,0,0,1981,0,1981,0,1981,0,1981,0,2172,0,2173,0,2172,0,2173,0,2172,0,2173,0,2172,0,2173,0,2172,0,2173,0,2172,0,2173,0,2172,0,2173,0,2172,0,2173,0,2172,0,2173,0,2172,0,2173,0,1981,0,1981,0,1981,0,1981,0,1656,0,0,0,
0,0,0,0,0,0,0,0,0,0,0,0,0,0,0,0,0,0,0,0,0,0,0,0,0,0,0,0,0,0,0,0,0,0,0,0,0,0,0,0,0,0,0,0,0,0,0,0,0,0,0,0,0,0,0,0,0,0,0,0,0,0,0,0,
0,0,0,0,1981,0,1981,0,1981,0,1981,0,2108,0,2109,0,2108,0,2109,0,2108,0,2109,0,2108,0,2109,0,2108,0,2109,0,2108,0,2109,0,2108,0,2109,0,2108,0,2109,0,2108,0,2109,0,2108,0,2109,0,1981,0,1981,0,1981,0,1981,0,1656,0,0,0,
0,0,0,0,0,0,0,0,0,0,0,0,0,0,0,0,0,0,0,0,0,0,0,0,0,0,0,0,0,0,0,0,0,0,0,0,0,0,0,0,0,0,0,0,0,0,0,0,0,0,0,0,0,0,0,0,0,0,0,0,0,0,0,0,
0,0,0,0,2045,0,2045,0,2045,0,2045,0,2172,0,2173,0,2172,0,2173,0,2172,0,2173,0,2172,0,2173,0,2172,0,2173,0,2172,0,2173,0,2172,0,2173,0,2172,0,2173,0,2172,0,2173,0,2172,0,2173,0,2045,0,2045,0,2045,0,2045,0,1656,0,0,0,
0,0,0,0,0,0,0,0,0,0,0,0,0,0,0,0,0,0,0,0,0,0,0,0,0,0,0,0,0,0,0,0,0,0,0,0,0,0,0,0,0,0,0,0,0,0,0,0,0,0,0,0,0,0,0,0,0,0,0,0,0,0,0,0,
0,0,0,0,2108,0,2109,0,2108,0,2109,0,2108,0,2109,0,2108,0,2109,0,2108,0,2109,0,2108,0,2109,0,2108,0,2109,0,2108,0,2109,0,2108,0,2109,0,2108,0,2109,0,2108,0,2109,0,2108,0,2109,0,2108,0,2109,0,2108,0,2109,0,1656,0,0,0,
0,0,0,0,0,0,0,0,0,0,0,0,0,0,0,0,0,0,0,0,0,0,0,0,0,0,0,0,0,0,0,0,0,0,0,0,0,0,0,0,0,0,0,0,0,0,0,0,0,0,0,0,0,0,0,0,0,0,0,0,0,0,0,0,
0,0,0,0,2172,0,2173,0,2172,0,2173,0,2172,0,2173,0,2172,0,2173,0,2172,0,2173,0,2172,0,2173,0,2172,0,2173,0,2172,0,2173,0,2172,0,2173,0,2172,0,2173,0,2172,0,2173,0,2172,0,2173,0,2172,0,2173,0,2172,0,2173,0,1656,0,0,0,
0,0,0,0,0,0,0,0,0,0,0,0,0,0,0,0,0,0,0,0,0,0,0,0,0,0,0,0,0,0,0,0,0,0,0,0,0,0,0,0,0,0,0,0,0,0,0,0,0,0,0,0,0,0,0,0,0,0,0,0,0,0,0,0,
0,0,0,0,2108,0,2109,0,2108,0,2109,0,2108,0,2109,0,2108,0,2109,0,2108,0,2109,0,2108,0,2109,0,2108,0,2109,0,2108,0,2109,0,2108,0,2109,0,2108,0,2109,0,2108,0,2109,0,2108,0,2109,0,2108,0,2109,0,2108,0,2109,0,1656,0,0,0,
0,0,0,0,0,0,0,0,0,0,0,0,0,0,0,0,0,0,0,0,0,0,0,0,0,0,0,0,0,0,0,0,0,0,0,0,0,0,0,0,0,0,0,0,0,0,0,0,0,0,0,0,0,0,0,0,0,0,0,0,0,0,0,0,
0,0,0,0,2172,0,2173,0,2172,0,2173,0,2172,0,2173,0,2172,0,2173,0,2172,0,2173,0,2172,0,2173,0,2172,0,2173,0,2172,0,2173,0,2172,0,2173,0,2172,0,2173,0,2172,0,2173,0,2172,0,2173,0,2172,0,2173,0,2172,0,2173,0,1656,0,0,0,
0,0,0,0,0,0,0,0,0,0,0,0,0,0,0,0,0,0,0,0,0,0,0,0,0,0,0,0,0,0,0,0,0,0,0,0,0,0,0,0,0,0,0,0,0,0,0,0,0,0,0,0,0,0,0,0,0,0,0,0,0,0,0,0,
0,0,0,0,1656,0,1656,0,1656,0,1656,0,1656,0,1656,0,1656,0,1656,0,1656,0,1656,0,1656,0,1656,0,1656,0,1656,0,1656,0,1656,0,1656,0,1656,0,1656,0,1656,0,1656,0,1656,0,1656,0,1656,0,1656,0,1656,0,1656,0,1656,0,1656,0,0,0,
0,0,0,0,0,0,0,0,0,0,0,0,0,0,0,0,0,0,0,0,0,0,0,0,0,0,0,0,0,0,0,0,0,0,0,0,0,0,0,0,0,0,0,0,0,0,0,0,0,0,0,0,0,0,0,0,0,0,0,0,0,0,0,0,
0,0,0,0,1656,0,1656,0,1656,0,1656,0,1656,0,1656,0,1656,0,1656,0,1656,0,1656,0,1656,0,1656,0,1656,0,1656,0,1656,0,1656,0,1656,0,1656,0,1656,0,1656,0,1656,0,1656,0,1656,0,1656,0,1656,0,1656,0,1656,0,1656,0,1656,0,0,0,
0,0,0,0,0,0,0,0,0,0,0,0,0,0,0,0,0,0,0,0,0,0,0,0,0,0,0,0,0,0,0,0,0,0,0,0,0,0,0,0,0,0,0,0,0,0,0,0,0,0,0,0,0,0,0,0,0,0,0,0,0,0,0,0
</data>
  </layer>
  <objectgroup draworder="index" id="3" name="Level_0_FloorSprites">
   <object id="1" type="asset" gid="117" x="124" y="436" width="72" height="40"/>
   <object id="2" type="asset" gid="295" x="192" y="504" width="128" height="88"/>
   <object id="3" type="asset" gid="713" x="-2" y="280" width="64" height="48"/>
   <object id="4" type="asset" gid="972" x="446" y="280" width="64" height="48"/>
   <object id="5" type="asset" gid="551" x="60" y="136" width="56" height="64"/>
   <object id="6" type="asset" gid="551" x="156" y="136" width="56" height="64"/>
   <object id="7" type="asset" gid="551" x="300" y="136" width="56" height="64"/>
   <object id="8" type="asset" gid="551" x="396" y="136" width="56" height="64"/>
   <object id="9" type="asset" gid="924" x="208" y="272" width="96" height="32"/>
  </objectgroup>
  <layer id="4" name="Level_0_Shadows" width="64" height="66">
   <properties>
    <property name="maybe_animation_id" value="babd09ade2b55c05"/>
    <property name="maybe_tileset_id" value="339411f6ba88c8f0"/>
    <property name="tile_size" type="int" value="16"/>
   </properties>
   <data encoding="csv">
0,0,0,0,0,0,0,0,0,0,0,0,0,0,0,0,0,0,0,0,0,0,0,0,0,0,0,0,0,0,0,0,0,0,0,0,0,0,0,0,0,0,0,0,0,0,0,0,0,0,0,0,0,0,0,0,0,0,0,0,0,0,0,0,
0,0,0,0,0,0,0,0,0,0,0,0,0,0,0,0,0,0,0,0,0,0,0,0,0,0,0,0,0,0,0,0,0,0,0,0,0,0,0,0,0,0,0,0,0,0,0,0,0,0,0,0,0,0,0,0,0,0,0,0,0,0,0,0,
0,0,0,0,0,0,0,0,0,0,0,0,0,0,0,0,0,0,0,0,0,0,0,0,0,0,0,0,0,0,0,0,0,0,0,0,0,0,0,0,0,0,0,0,0,0,0,0,0,0,0,0,0,0,0,0,0,0,0,0,0,0,0,0,
0,0,0,0,0,0,0,0,0,0,0,0,0,0,0,0,0,0,0,0,0,0,0,0,0,0,0,0,0,0,0,0,0,0,0,0,0,0,0,0,0,0,0,0,0,0,0,0,0,0,0,0,0,0,0,0,0,0,0,0,0,0,0,0,
0,0,0,0,0,0,0,0,0,0,0,0,0,0,0,0,0,0,0,0,0,0,0,0,0,0,0,0,0,0,0,0,0,0,0,0,0,0,0,0,0,0,0,0,0,0,0,0,0,0,0,0,0,0,0,0,0,0,0,0,0,0,0,0,
0,0,0,0,0,0,0,0,0,0,0,0,0,0,0,0,0,0,0,0,0,0,0,0,0,0,0,0,0,0,0,0,0,0,0,0,0,0,0,0,0,0,0,0,0,0,0,0,0,0,0,0,0,0,0,0,0,0,0,0,0,0,0,0,
0,0,0,0,0,0,0,0,0,0,0,0,0,0,0,0,0,0,0,0,0,0,0,0,0,0,0,0,0,0,0,0,0,0,0,0,0,0,0,0,0,0,0,0,0,0,0,0,0,0,0,0,0,0,0,0,0,0,0,0,0,0,0,0,
0,0,0,0,0,0,0,0,0,0,0,0,0,0,0,0,0,0,0,0,0,0,0,0,0,0,0,0,0,0,0,0,0,0,0,0,0,0,0,0,0,0,0,0,0,0,0,0,0,0,0,0,0,0,0,0,0,0,0,0,0,0,0,0,
0,0,0,0,0,0,0,0,0,0,0,0,0,0,0,0,0,0,0,0,0,0,0,0,0,0,0,0,0,0,0,0,0,0,0,0,0,0,0,0,0,0,0,0,0,0,0,0,0,0,0,0,0,0,0,0,0,0,0,0,0,0,0,0,
0,0,0,0,0,0,0,0,0,0,0,0,0,0,0,0,0,0,0,0,0,0,0,0,0,0,0,0,0,0,0,0,0,0,0,0,0,0,0,0,0,0,0,0,0,0,0,0,0,0,0,0,0,0,0,0,0,0,0,0,0,0,0,0,
5752,0,5752,0,5752,0,5752,0,5753,0,5753,0,5753,0,5752,0,5752,0,5752,0,5753,0,5753,0,5753,0,5752,0,5752,0,5752,0,5752,0,5752,0,5752,0,5753,0,5753,0,5753,0,5752,0,5752,0,5752,0,5753,0,5753,0,5753,0,5752,0,5752,0,0,0,0,0,
0,0,0,0,0,0,0,0,0,0,0,0,0,0,0,0,0,0,0,0,0,0,0,0,0,0,0,0,0,0,0,0,0,0,0,0,0,0,0,0,0,0,0,0,0,0,0,0,0,0,0,0,0,0,0,0,0,0,0,0,0,0,0,0,
0,0,0,0,5753,0,5753,0,5753,0,5753,0,5753,0,5753,0,5753,0,5753,0,5753,0,5753,0,5753,0,5753,0,5753,0,5753,0,5753,0,5753,0,5753,0,5753,0,5753,0,5753,0,5753,0,5753,0,5753,0,5753,0,5753,0,5753,0,5753,0,5753,0,0,0,0,0,
0,0,0,0,0,0,0,0,0,0,0,0,0,0,0,0,0,0,0,0,0,0,0,0,0,0,0,0,0,0,0,0,0,0,0,0,0,0,0,0,0,0,0,0,0,0,0,0,0,0,0,0,0,0,0,0,0,0,0,0,0,0,0,0,
0,0,0,0,5753,0,5753,0,5780,0,5754,0,5754,0,5754,0,5790,0,5754,0,5754,0,5754,0,5754,0,5754,0,5806,0,5807,0,5807,0,5808,0,5780,0,5754,0,5754,0,5754,0,5754,0,5790,0,5754,0,5754,0,5754,0,5754,0,5754,0,5754,0,0,0,0,0,
0,0,0,0,0,0,0,0,0,0,0,0,0,0,0,0,0,0,0,0,0,0,0,0,0,0,0,0,0,0,0,0,0,0,0,0,0,0,0,0,0,0,0,0,0,0,0,0,0,0,0,0,0,0,0,0,0,0,0,0,0,0,0,0,
0,0,0,0,5753,0,5753,0,0,0,0,0,0,0,0,0,0,0,0,0,0,0,0,0,0,0,5752,0,5752,0,5752,0,5752,0,5752,0,0,0,0,0,0,0,0,0,0,0,0,0,0,0,0,0,0,0,0,0,0,0,0,0,0,0,0,0,
0,0,0,0,0,0,0,0,0,0,0,0,0,0,0,0,0,0,0,0,0,0,0,0,0,0,0,0,0,0,0,0,0,0,0,0,0,0,0,0,0,0,0,0,0,0,0,0,0,0,0,0,0,0,0,0,0,0,0,0,0,0,0,0,
0,0,0,0,5753,0,5753,0,0,0,0,0,0,0,0,0,0,0,0,0,0,0,0,0,0,0,5752,0,5752,0,5752,0,5752,0,5752,0,0,0,0,0,0,0,0,0,0,0,0,0,0,0,0,0,0,0,0,0,0,0,0,0,0,0,0,0,
0,0,0,0,0,0,0,0,0,0,0,0,0,0,0,0,0,0,0,0,0,0,0,0,0,0,0,0,0,0,0,0,0,0,0,0,0,0,0,0,0,0,0,0,0,0,0,0,0,0,0,0,0,0,0,0,0,0,0,0,0,0,0,0,
0,0,0,0,5753,0,5753,0,0,0,0,0,0,0,0,0,0,0,0,0,0,0,0,0,0,0,1073747591,0,5752,0,5752,0,5752,0,5752,0,0,0,0,0,0,0,0,0,0,0,0,0,0,0,0,0,1073747591,0,0,0,0,0,0,0,0,0,0,0,
0,0,0,0,0,0,0,0,0,0,0,0,0,0,0,0,0,0,0,0,0,0,0,0,0,0,0,0,0,0,0,0,0,0,0,0,0,0,0,0,0,0,0,0,0,0,0,0,0,0,0,0,0,0,0,0,0,0,0,0,0,0,0,0,
0,0,0,0,5753,0,5753,0,0,0,0,0,0,0,0,0,0,0,0,0,0,0,0,0,0,0,5763,0,5752,0,5752,0,5752,0,5752,0,0,0,0,0,0,0,0,0,0,0,0,0,0,0,0,0,5763,0,0,0,0,0,0,0,0,0,0,0,
0,0,0,0,0,0,0,0,0,0,0,0,0,0,0,0,0,0,0,0,0,0,0,0,0,0,0,0,0,0,0,0,0,0,0,0,0,0,0,0,0,0,0,0,0,0,0,0,0,0,0,0,0,0,0,0,0,0,0,0,0,0,0,0,
0,0,0,0,5753,0,5753,0,0,0,0,0,0,0,0,0,0,0,0,0,0,0,0,0,0,0,5752,0,5752,0,5752,0,5752,0,5752,0,0,0,0,0,0,0,0,0,0,0,0,0,0,0,0,0,5763,0,0,0,0,0,0,0,0,0,0,0,
0,0,0,0,0,0,0,0,0,0,0,0,0,0,0,0,0,0,0,0,0,0,0,0,0,0,0,0,0,0,0,0,0,0,0,0,0,0,0,0,0,0,0,0,0,0,0,0,0,0,0,0,0,0,0,0,0,0,0,0,0,0,0,0,
0,0,0,0,5753,0,5753,0,0,0,0,0,5753,0,5753,0,5783,0,5754,0,5754,0,5754,0,5754,0,5752,0,5752,0,5752,0,5752,0,5752,0,5752,0,5753,0,5753,0,5783,0,5754,0,5754,0,5754,0,5754,0,5763,0,0,0,0,0,0,0,0,0,0,0,
0,0,0,0,0,0,0,0,0,0,0,0,0,0,0,0,0,0,0,0,0,0,0,0,0,0,0,0,0,0,0,0,0,0,0,0,0,0,0,0,0,0,0,0,0,0,0,0,0,0,0,0,0,0,0,0,0,0,0,0,0,0,0,0,
0,0,0,0,5753,0,5753,0,0,0,0,0,5753,0,5753,0,5763,0,0,0,0,0,0,0,0,0,0,0,0,0,0,0,0,0,0,0,0,0,5753,0,5753,0,5763,0,0,0,0,0,0,0,0,0,5763,0,0,0,0,0,0,0,0,0,0,0,
0,0,0,0,0,0,0,0,0,0,0,0,0,0,0,0,0,0,0,0,0,0,0,0,0,0,0,0,0,0,0,0,0,0,0,0,0,0,0,0,0,0,0,0,0,0,0,0,0,0,0,0,0,0,0,0,0,0,0,0,0,0,0,0,
0,0,0,0,5753,0,5753,0,0,0,0,0,5753,0,5753,0,5763,0,0,0,0,0,0,0,0,0,5752,0,5752,0,5752,0,5752,0,5752,0,5752,0,5754,0,5754,0,5777,0,0,0,0,0,0,0,0,0,5763,0,0,0,0,0,0,0,0,0,0,0,
0,0,0,0,0,0,0,0,0,0,0,0,0,0,0,0,0,0,0,0,0,0,0,0,0,0,0,0,0,0,0,0,0,0,0,0,0,0,0,0,0,0,0,0,0,0,0,0,0,0,0,0,0,0,0,0,0,0,0,0,0,0,0,0,
0,0,0,0,5753,0,5753,0,0,0,0,0,5753,0,5753,0,5763,0,0,0,0,0,0,0,0,0,0,0,0,0,0,0,0,0,0,0,0,0,0,0,0,0,0,0,0,0,0,0,0,0,0,0,5763,0,0,0,0,0,0,0,0,0,0,0,
0,0,0,0,0,0,0,0,0,0,0,0,0,0,0,0,0,0,0,0,0,0,0,0,0,0,0,0,0,0,0,0,0,0,0,0,0,0,0,0,0,0,0,0,0,0,0,0,0,0,0,0,0,0,0,0,0,0,0,0,0,0,0,0,
0,0,0,0,5753,0,5753,0,0,0,0,0,5753,0,5753,0,5763,0,0,0,0,0,0,0,0,0,0,0,0,0,0,0,0,0,0,0,0,0,0,0,0,0,0,0,0,0,0,0,0,0,0,0,5763,0,0,0,0,0,0,0,0,0,0,0,
0,0,0,0,0,0,0,0,0,0,0,0,0,0,0,0,0,0,0,0,0,0,0,0,0,0,0,0,0,0,0,0,0,0,0,0,0,0,0,0,0,0,0,0,0,0,0,0,0,0,0,0,0,0,0,0,0,0,0,0,0,0,0,0,
0,0,0,0,5753,0,5753,0,0,0,0,0,5753,0,5753,0,5763,0,0,0,0,0,0,0,0,0,0,0,0,0,0,0,0,0,0,0,0,0,0,0,0,0,0,0,0,0,0,0,0,0,0,0,5763,0,0,0,0,0,0,0,0,0,0,0,
0,0,0,0,0,0,0,0,0,0,0,0,0,0,0,0,0,0,0,0,0,0,0,0,0,0,0,0,0,0,0,0,0,0,0,0,0,0,0,0,0,0,0,0,0,0,0,0,0,0,0,0,0,0,0,0,0,0,0,0,0,0,0,0,
0,0,0,0,5753,0,5753,0,0,0,0,0,5753,0,5753,0,5763,0,0,0,0,0,0,0,0,0,0,0,0,0,0,0,0,0,0,0,0,0,0,0,0,0,0,0,0,0,0,0,0,0,0,0,5763,0,0,0,0,0,0,0,0,0,0,0,
0,0,0,0,0,0,0,0,0,0,0,0,0,0,0,0,0,0,0,0,0,0,0,0,0,0,0,0,0,0,0,0,0,0,0,0,0,0,0,0,0,0,0,0,0,0,0,0,0,0,0,0,0,0,0,0,0,0,0,0,0,0,0,0,
0,0,0,0,5753,0,5753,0,0,0,0,0,5753,0,5753,0,5763,0,0,0,0,0,0,0,0,0,0,0,0,0,0,0,0,0,0,0,0,0,0,0,0,0,0,0,0,0,0,0,0,0,0,0,5763,0,0,0,0,0,0,0,0,0,0,0,
0,0,0,0,0,0,0,0,0,0,0,0,0,0,0,0,0,0,0,0,0,0,0,0,0,0,0,0,0,0,0,0,0,0,0,0,0,0,0,0,0,0,0,0,0,0,0,0,0,0,0,0,0,0,0,0,0,0,0,0,0,0,0,0,
0,0,0,0,5753,0,5753,0,0,0,0,0,5753,0,5753,0,5763,0,0,0,0,0,0,0,0,0,0,0,0,0,0,0,0,0,0,0,0,0,0,0,0,0,0,0,0,0,0,0,0,0,0,0,5763,0,0,0,0,0,0,0,0,0,0,0,
0,0,0,0,0,0,0,0,0,0,0,0,0,0,0,0,0,0,0,0,0,0,0,0,0,0,0,0,0,0,0,0,0,0,0,0,0,0,0,0,0,0,0,0,0,0,0,0,0,0,0,0,0,0,0,0,0,0,0,0,0,0,0,0,
0,0,0,0,5753,0,5753,0,0,0,5752,0,5753,0,5753,0,5763,0,0,0,0,0,0,0,0,0,0,0,0,0,0,0,0,0,0,0,0,0,0,0,0,0,0,0,0,0,0,0,0,0,0,0,5763,0,0,0,0,0,0,0,0,0,0,0,
0,0,0,0,0,0,0,0,0,0,0,0,0,0,0,0,0,0,0,0,0,0,0,0,0,0,0,0,0,0,0,0,0,0,0,0,0,0,0,0,0,0,0,0,0,0,0,0,0,0,0,0,0,0,0,0,0,0,0,0,0,0,0,0,
0,0,0,0,5753,0,5753,0,0,0,5752,0,5753,0,5753,0,5763,0,0,0,0,0,0,0,0,0,0,0,0,0,0,0,0,0,0,0,0,0,0,0,0,0,0,0,0,0,0,0,0,0,0,0,5763,0,0,0,0,0,0,0,0,0,0,0,
0,0,0,0,0,0,0,0,0,0,0,0,0,0,0,0,0,0,0,0,0,0,0,0,0,0,0,0,0,0,0,0,0,0,0,0,0,0,0,0,0,0,0,0,0,0,0,0,0,0,0,0,0,0,0,0,0,0,0,0,0,0,0,0,
0,0,0,0,5753,0,5753,0,0,0,0,0,5753,0,5793,0,5794,0,0,0,0,0,0,0,0,0,0,0,0,0,0,0,0,0,0,0,0,0,0,0,0,0,0,0,0,0,0,0,0,0,0,0,5763,0,0,0,0,0,0,0,0,0,0,0,
0,0,0,0,0,0,0,0,0,0,0,0,0,0,0,0,0,0,0,0,0,0,0,0,0,0,0,0,0,0,0,0,0,0,0,0,0,0,0,0,0,0,0,0,0,0,0,0,0,0,0,0,0,0,0,0,0,0,0,0,0,0,0,0,
0,0,0,0,5753,0,5753,0,0,0,0,0,5753,0,5809,0,0,0,0,0,0,0,0,0,0,0,0,0,0,0,0,0,0,0,0,0,0,0,0,0,0,0,0,0,0,0,0,0,0,0,0,0,5763,0,0,0,0,0,0,0,0,0,0,0,
0,0,0,0,0,0,0,0,0,0,0,0,0,0,0,0,0,0,0,0,0,0,0,0,0,0,0,0,0,0,0,0,0,0,0,0,0,0,0,0,0,0,0,0,0,0,0,0,0,0,0,0,0,0,0,0,0,0,0,0,0,0,0,0,
0,0,0,0,5753,0,5753,0,0,0,0,0,5824,0,5825,0,0,0,0,0,0,0,0,0,0,0,0,0,0,0,0,0,0,0,0,0,5795,0,5796,0,0,0,0,0,0,0,0,0,0,0,0,0,5767,0,0,0,0,0,0,0,0,0,0,0,
0,0,0,0,0,0,0,0,0,0,0,0,0,0,0,0,0,0,0,0,0,0,0,0,0,0,0,0,0,0,0,0,0,0,0,0,0,0,0,0,0,0,0,0,0,0,0,0,0,0,0,0,0,0,0,0,0,0,0,0,0,0,0,0,
0,0,0,0,5753,0,5753,0,0,0,0,0,5752,0,0,0,0,0,0,0,0,0,0,0,0,0,0,0,0,0,0,0,0,0,0,0,5811,0,5812,0,5752,0,0,0,0,0,0,0,0,0,0,0,0,0,0,0,0,0,0,0,0,0,0,0,
0,0,0,0,0,0,0,0,0,0,0,0,0,0,0,0,0,0,0,0,0,0,0,0,0,0,0,0,0,0,0,0,0,0,0,0,0,0,0,0,0,0,0,0,0,0,0,0,0,0,0,0,0,0,0,0,0,0,0,0,0,0,0,0,
0,0,0,0,5753,0,5753,0,0,0,0,0,0,0,5752,0,0,0,0,0,0,0,0,0,0,0,0,0,0,0,0,0,0,0,0,0,5827,0,5828,0,5752,0,0,0,0,0,0,0,0,0,0,0,0,0,0,0,0,0,0,0,0,0,0,0,
0,0,0,0,0,0,0,0,0,0,0,0,0,0,0,0,0,0,0,0,0,0,0,0,0,0,0,0,0,0,0,0,0,0,0,0,0,0,0,0,0,0,0,0,0,0,0,0,0,0,0,0,0,0,0,0,0,0,0,0,0,0,0,0,
0,0,0,0,5753,0,5753,0,0,0,0,0,0,0,0,0,0,0,0,0,0,0,0,0,0,0,0,0,0,0,0,0,0,0,0,0,5827,0,5828,0,5752,0,0,0,0,0,0,0,0,0,0,0,0,0,0,0,0,0,0,0,0,0,0,0,
0,0,0,0,0,0,0,0,0,0,0,0,0,0,0,0,0,0,0,0,0,0,0,0,0,0,0,0,0,0,0,0,0,0,0,0,0,0,0,0,0,0,0,0,0,0,0,0,0,0,0,0,0,0,0,0,0,0,0,0,0,0,0,0,
0,0,0,0,5753,0,5753,0,0,0,0,0,0,0,0,0,0,0,0,0,0,0,0,0,0,0,0,0,0,0,0,0,0,0,0,0,5827,0,5828,0,5752,0,0,0,0,0,0,0,0,0,0,0,0,0,0,0,0,0,0,0,0,0,0,0,
0,0,0,0,0,0,0,0,0,0,0,0,0,0,0,0,0,0,0,0,0,0,0,0,0,0,0,0,0,0,0,0,0,0,0,0,0,0,0,0,0,0,0,0,0,0,0,0,0,0,0,0,0,0,0,0,0,0,0,0,0,0,0,0,
0,0,0,0,0,0,0,0,0,0,0,0,0,0,0,0,0,0,0,0,0,0,0,0,0,0,0,0,0,0,0,0,0,0,0,0,5752,0,5752,0,5752,0,0,0,0,0,0,0,0,0,0,0,0,0,0,0,0,0,0,0,0,0,0,0,
0,0,0,0,0,0,0,0,0,0,0,0,0,0,0,0,0,0,0,0,0,0,0,0,0,0,0,0,0,0,0,0,0,0,0,0,0,0,0,0,0,0,0,0,0,0,0,0,0,0,0,0,0,0,0,0,0,0,0,0,0,0,0,0,
0,0,0,0,0,0,0,0,0,0,0,0,0,0,0,0,0,0,0,0,0,0,0,0,0,0,0,0,0,0,0,0,0,0,0,0,0,0,0,0,0,0,0,0,0,0,0,0,0,0,0,0,0,0,0,0,0,0,0,0,0,0,0,0,
0,0,0,0,0,0,0,0,0,0,0,0,0,0,0,0,0,0,0,0,0,0,0,0,0,0,0,0,0,0,0,0,0,0,0,0,0,0,0,0,0,0,0,0,0,0,0,0,0,0,0,0,0,0,0,0,0,0,0,0,0,0,0,0
</data>
  </layer>
  <layer id="5" name="Level_0_Walls" width="64" height="66">
   <properties>
    <property name="maybe_animation_id" value="75ea443e6634d96"/>
    <property name="maybe_tileset_id" value="d8b504e9a8480fbe"/>
    <property name="tile_size" type="int" value="16"/>
   </properties>
   <data encoding="csv">
0,0,0,0,0,0,0,0,0,0,0,0,0,0,0,0,0,0,0,0,0,0,0,0,0,0,0,0,0,0,0,0,0,0,0,0,0,0,0,0,0,0,0,0,0,0,0,0,0,0,0,0,0,0,0,0,0,0,0,0,0,0,0,0,
0,0,0,0,0,0,0,0,0,0,0,0,0,0,0,0,0,0,0,0,0,0,0,0,0,0,0,0,0,0,0,0,0,0,0,0,0,0,0,0,0,0,0,0,0,0,0,0,0,0,0,0,0,0,0,0,0,0,0,0,0,0,0,0,
0,0,0,0,0,0,0,0,0,0,0,0,0,0,0,0,0,0,0,0,0,0,0,0,0,0,0,0,0,0,0,0,0,0,0,0,0,0,0,0,0,0,0,0,0,0,0,0,0,0,0,0,0,0,0,0,0,0,0,0,0,0,0,0,
0,0,0,0,0,0,0,0,0,0,0,0,0,0,0,0,0,0,0,0,0,0,0,0,0,0,0,0,0,0,0,0,0,0,0,0,0,0,0,0,0,0,0,0,0,0,0,0,0,0,0,0,0,0,0,0,0,0,0,0,0,0,0,0,
0,0,0,0,0,0,0,0,0,0,0,0,0,0,0,0,0,0,0,0,0,0,0,0,0,0,0,0,0,0,0,0,0,0,0,0,0,0,0,0,0,0,0,0,0,0,0,0,0,0,0,0,0,0,0,0,0,0,0,0,0,0,0,0,
0,0,0,0,0,0,0,0,0,0,0,0,0,0,0,0,0,0,0,0,0,0,0,0,0,0,0,0,0,0,0,0,0,0,0,0,0,0,0,0,0,0,0,0,0,0,0,0,0,0,0,0,0,0,0,0,0,0,0,0,0,0,0,0,
0,0,0,0,1658,0,1658,0,1658,0,1658,0,1658,0,1983,0,1984,0,1985,0,1658,0,1658,0,1658,0,1658,0,1671,0,1672,0,1672,0,1673,0,1658,0,1658,0,1658,0,1658,0,1983,0,1984,0,1985,0,1658,0,1658,0,1658,0,1658,0,1658,0,0,0,0,0,
0,0,0,0,0,0,0,0,0,0,0,0,0,0,0,0,0,0,0,0,0,0,0,0,0,0,0,0,0,0,0,0,0,0,0,0,0,0,0,0,0,0,0,0,0,0,0,0,0,0,0,0,0,0,0,0,0,0,0,0,0,0,0,0,
0,0,0,0,1721,0,1721,0,1721,0,1721,0,1721,0,2047,0,2048,0,2049,0,1721,0,1721,0,1721,0,1721,0,1735,0,1736,0,1736,0,1737,0,1721,0,1721,0,1721,0,1721,0,2047,0,2048,0,2049,0,1721,0,1721,0,1721,0,1721,0,1721,0,0,0,0,0,
0,0,0,0,0,0,0,0,0,0,0,0,0,0,0,0,0,0,0,0,0,0,0,0,0,0,0,0,0,0,0,0,0,0,0,0,0,0,0,0,0,0,0,0,0,0,0,0,0,0,0,0,0,0,0,0,0,0,0,0,0,0,0,0,
0,0,0,0,1785,0,1785,0,1656,0,1656,0,1656,0,2111,0,2112,0,2113,0,1656,0,1656,0,1656,0,1785,0,1799,0,1800,0,1800,0,1801,0,1785,0,1656,0,1656,0,1656,0,2111,0,2112,0,2113,0,1656,0,1656,0,1656,0,1785,0,1785,0,0,0,0,0,
0,0,0,0,0,0,0,0,0,0,0,0,0,0,0,0,0,0,0,0,0,0,0,0,0,0,0,0,0,0,0,0,0,0,0,0,0,0,0,0,0,0,0,0,0,0,0,0,0,0,0,0,0,0,0,0,0,0,0,0,0,0,0,0,
0,0,0,0,1785,0,1785,0,1656,0,1656,0,1656,0,2175,0,2176,0,2177,0,1656,0,1656,0,1656,0,1785,0,1799,0,1800,0,1800,0,1801,0,1785,0,1656,0,1656,0,1656,0,2175,0,2176,0,2177,0,1656,0,1656,0,1656,0,1785,0,1785,0,0,0,0,0,
0,0,0,0,0,0,0,0,0,0,0,0,0,0,0,0,0,0,0,0,0,0,0,0,0,0,0,0,0,0,0,0,0,0,0,0,0,0,0,0,0,0,0,0,0,0,0,0,0,0,0,0,0,0,0,0,0,0,0,0,0,0,0,0,
0,0,0,0,1849,0,1849,0,1656,0,1656,0,1656,0,2239,0,2240,0,2241,0,1656,0,1656,0,1656,0,1849,0,1863,0,1864,0,1864,0,1865,0,1849,0,1656,0,1656,0,1656,0,2239,0,2240,0,2241,0,1656,0,1656,0,1656,0,1849,0,1849,0,0,0,0,0,
0,0,0,0,0,0,0,0,0,0,0,0,0,0,0,0,0,0,0,0,0,0,0,0,0,0,0,0,0,0,0,0,0,0,0,0,0,0,0,0,0,0,0,0,0,0,0,0,0,0,0,0,0,0,0,0,0,0,0,0,0,0,0,0,
0,0,0,0,0,0,0,0,0,0,0,0,0,0,0,0,0,0,0,0,0,0,0,0,1656,0,1656,0,1656,0,1656,0,1656,0,1656,0,0,0,0,0,0,0,0,0,0,0,0,0,0,0,0,0,0,0,0,0,0,0,0,0,0,0,0,0,
0,0,0,0,0,0,0,0,0,0,0,0,0,0,0,0,0,0,0,0,0,0,0,0,0,0,0,0,0,0,0,0,0,0,0,0,0,0,0,0,0,0,0,0,0,0,0,0,0,0,0,0,0,0,0,0,0,0,0,0,0,0,0,0,
0,0,0,0,0,0,0,0,0,0,0,0,1656,0,1656,0,1656,0,1656,0,1656,0,1656,0,1656,0,1656,0,1656,0,1656,0,1656,0,1656,0,1656,0,1656,0,1656,0,1656,0,1656,0,1656,0,1656,0,1656,0,1656,0,1656,0,0,0,0,0,0,0,0,0,
0,0,0,0,0,0,0,0,0,0,0,0,0,0,0,0,0,0,0,0,0,0,0,0,0,0,0,0,0,0,0,0,0,0,0,0,0,0,0,0,0,0,0,0,0,0,0,0,0,0,0,0,0,0,0,0,0,0,0,0,0,0,0,0,
0,0,0,0,0,0,0,0,0,0,1656,0,1720,0,1720,0,1720,0,1720,0,1720,0,1720,0,1720,0,1656,0,1656,0,1656,0,1656,0,1656,0,1656,0,1720,0,1720,0,1720,0,1720,0,1720,0,1720,0,1720,0,1656,0,1656,0,0,0,0,0,0,0,0,0,
0,0,0,0,0,0,0,0,0,0,0,0,0,0,0,0,0,0,0,0,0,0,0,0,0,0,0,0,0,0,0,0,0,0,0,0,0,0,0,0,0,0,0,0,0,0,0,0,0,0,0,0,0,0,0,0,0,0,0,0,0,0,0,0,
0,0,0,0,0,0,0,0,0,0,0,0,1785,0,1785,0,1785,0,1785,0,1785,0,1785,0,1785,0,1656,0,1656,0,1656,0,1656,0,1656,0,1656,0,1785,0,1786,0,1785,0,1785,0,1785,0,1785,0,1785,0,0,0,0,0,0,0,0,0,0,0,0,0,
0,0,0,0,0,0,0,0,0,0,0,0,0,0,0,0,0,0,0,0,0,0,0,0,0,0,0,0,0,0,0,0,0,0,0,0,0,0,0,0,0,0,0,0,0,0,0,0,0,0,0,0,0,0,0,0,0,0,0,0,0,0,0,0,
0,0,0,0,0,0,0,0,0,0,0,0,1785,0,1785,0,1785,0,1785,0,1785,0,1785,0,1785,0,1785,0,1656,0,1656,0,1656,0,1656,0,1656,0,1785,0,1785,0,1785,0,1785,0,1785,0,1785,0,1785,0,0,0,0,0,0,0,0,0,0,0,0,0,
0,0,0,0,0,0,0,0,0,0,0,0,0,0,0,0,0,0,0,0,0,0,0,0,0,0,0,0,0,0,0,0,0,0,0,0,0,0,0,0,0,0,0,0,0,0,0,0,0,0,0,0,0,0,0,0,0,0,0,0,0,0,0,0,
0,0,0,0,0,0,0,0,0,0,0,0,1849,0,1849,0,1849,0,1849,0,1849,0,1849,0,1849,0,1849,0,1656,0,1656,0,1656,0,1656,0,1656,0,1849,0,1849,0,1849,0,1849,0,1849,0,1849,0,1849,0,0,0,0,0,0,0,0,0,0,0,0,0,
0,0,0,0,0,0,0,0,0,0,0,0,0,0,0,0,0,0,0,0,0,0,0,0,0,0,0,0,0,0,0,0,0,0,0,0,0,0,0,0,0,0,0,0,0,0,0,0,0,0,0,0,0,0,0,0,0,0,0,0,0,0,0,0,
0,0,0,0,0,0,0,0,0,0,0,0,0,0,0,0,0,0,0,0,0,0,0,0,0,0,0,0,0,0,0,0,0,0,0,0,0,0,0,0,0,0,0,0,0,0,0,0,0,0,0,0,0,0,0,0,0,0,0,0,0,0,0,0,
0,0,0,0,0,0,0,0,0,0,0,0,0,0,0,0,0,0,0,0,0,0,0,0,0,0,0,0,0,0,0,0,0,0,0,0,0,0,0,0,0,0,0,0,0,0,0,0,0,0,0,0,0,0,0,0,0,0,0,0,0,0,0,0,
0,0,0,0,0,0,0,0,0,0,0,0,0,0,0,0,0,0,0,0,0,0,0,0,0,0,0,0,0,0,0,0,0,0,0,0,0,0,0,0,0,0,0,0,0,0,0,0,0,0,0,0,0,0,0,0,0,0,0,0,0,0,0,0,
0,0,0,0,0,0,0,0,0,0,0,0,0,0,0,0,0,0,0,0,0,0,0,0,0,0,0,0,0,0,0,0,0,0,0,0,0,0,0,0,0,0,0,0,0,0,0,0,0,0,0,0,0,0,0,0,0,0,0,0,0,0,0,0,
0,0,0,0,0,0,0,0,0,0,0,0,0,0,0,0,0,0,0,0,0,0,0,0,0,0,0,0,0,0,0,0,0,0,0,0,0,0,0,0,0,0,0,0,0,0,0,0,0,0,0,0,0,0,0,0,0,0,0,0,0,0,0,0,
0,0,0,0,0,0,0,0,0,0,0,0,0,0,0,0,0,0,0,0,0,0,0,0,0,0,0,0,0,0,0,0,0,0,0,0,0,0,0,0,0,0,0,0,0,0,0,0,0,0,0,0,0,0,0,0,0,0,0,0,0,0,0,0,
0,0,0,0,0,0,0,0,0,0,0,0,0,0,0,0,0,0,0,0,0,0,0,0,0,0,0,0,0,0,0,0,0,0,0,0,0,0,0,0,0,0,0,0,0,0,0,0,0,0,0,0,0,0,0,0,0,0,0,0,0,0,0,0,
0,0,0,0,0,0,0,0,0,0,0,0,0,0,0,0,0,0,0,0,0,0,0,0,0,0,0,0,0,0,0,0,0,0,0,0,0,0,0,0,0,0,0,0,0,0,0,0,0,0,0,0,0,0,0,0,0,0,0,0,0,0,0,0,
0,0,0,0,0,0,0,0,0,0,0,0,0,0,0,0,0,0,0,0,0,0,0,0,0,0,0,0,0,0,0,0,0,0,0,0,0,0,0,0,0,0,0,0,0,0,0,0,0,0,0,0,0,0,0,0,0,0,0,0,0,0,0,0,
0,0,0,0,0,0,0,0,0,0,0,0,0,0,0,0,0,0,0,0,0,0,0,0,0,0,0,0,0,0,0,0,0,0,0,0,0,0,0,0,0,0,0,0,0,0,0,0,0,0,0,0,0,0,0,0,0,0,0,0,0,0,0,0,
0,0,0,0,0,0,0,0,0,0,0,0,0,0,0,0,0,0,0,0,0,0,0,0,0,0,0,0,0,0,0,0,0,0,0,0,0,0,0,0,0,0,0,0,0,0,0,0,0,0,0,0,0,0,0,0,0,0,0,0,0,0,0,0,
0,0,0,0,0,0,0,0,0,0,0,0,0,0,0,0,0,0,0,0,0,0,0,0,0,0,0,0,0,0,0,0,0,0,0,0,0,0,0,0,0,0,0,0,0,0,0,0,0,0,0,0,0,0,0,0,0,0,0,0,0,0,0,0,
0,0,0,0,0,0,0,0,0,0,0,0,0,0,0,0,0,0,0,0,0,0,0,0,0,0,0,0,0,0,0,0,0,0,0,0,0,0,0,0,0,0,0,0,0,0,0,0,0,0,0,0,0,0,0,0,0,0,0,0,0,0,0,0,
0,0,0,0,0,0,0,0,0,0,0,0,0,0,0,0,0,0,0,0,0,0,0,0,0,0,0,0,0,0,0,0,0,0,0,0,0,0,0,0,0,0,0,0,0,0,0,0,0,0,0,0,0,0,0,0,0,0,0,0,0,0,0,0,
0,0,0,0,0,0,0,0,0,0,0,0,0,0,0,0,0,0,0,0,0,0,0,0,0,0,0,0,0,0,0,0,0,0,0,0,0,0,0,0,0,0,0,0,0,0,0,0,0,0,0,0,0,0,0,0,0,0,0,0,0,0,0,0,
0,0,0,0,0,0,0,0,0,0,0,0,0,0,0,0,0,0,0,0,0,0,0,0,0,0,0,0,0,0,0,0,0,0,0,0,0,0,0,0,0,0,0,0,0,0,0,0,0,0,0,0,0,0,0,0,0,0,0,0,0,0,0,0,
0,0,0,0,0,0,0,0,0,0,0,0,0,0,0,0,0,0,0,0,0,0,0,0,0,0,0,0,0,0,0,0,0,0,0,0,0,0,0,0,0,0,0,0,0,0,0,0,0,0,0,0,0,0,0,0,0,0,0,0,0,0,0,0,
0,0,0,0,0,0,0,0,0,0,0,0,0,0,0,0,0,0,0,0,0,0,0,0,0,0,0,0,0,0,0,0,0,0,0,0,0,0,0,0,0,0,0,0,0,0,0,0,0,0,0,0,0,0,0,0,0,0,0,0,0,0,0,0,
0,0,0,0,0,0,0,0,0,0,0,0,0,0,0,0,0,0,0,0,0,0,0,0,0,0,0,0,0,0,0,0,0,0,0,0,0,0,0,0,0,0,0,0,0,0,0,0,0,0,0,0,0,0,0,0,0,0,0,0,0,0,0,0,
0,0,0,0,0,0,0,0,0,0,0,0,0,0,0,0,0,0,0,0,0,0,0,0,0,0,0,0,0,0,0,0,0,0,0,0,0,0,0,0,0,0,0,0,0,0,0,0,0,0,0,0,0,0,0,0,0,0,0,0,0,0,0,0,
0,0,0,0,0,0,0,0,0,0,0,0,0,0,0,0,0,0,0,0,0,0,0,0,0,0,0,0,0,0,0,0,0,0,0,0,0,0,0,0,0,0,0,0,0,0,0,0,0,0,0,0,0,0,0,0,0,0,0,0,0,0,0,0,
0,0,0,0,0,0,0,0,0,0,0,0,0,0,0,0,0,0,0,0,0,0,0,0,0,0,0,0,0,0,0,0,0,0,0,0,0,0,0,0,0,0,0,0,0,0,0,0,0,0,0,0,0,0,0,0,0,0,0,0,0,0,0,0,
0,0,0,0,0,0,0,0,0,0,0,0,0,0,0,0,0,0,0,0,0,0,0,0,0,0,0,0,0,0,0,0,0,0,0,0,0,0,0,0,0,0,0,0,0,0,0,0,0,0,0,0,0,0,0,0,0,0,0,0,0,0,0,0,
0,0,0,0,0,0,0,0,0,0,0,0,0,0,0,0,0,0,0,0,0,0,0,0,0,0,0,0,0,0,0,0,0,0,0,0,0,0,0,0,0,0,0,0,0,0,0,0,0,0,0,0,0,0,0,0,0,0,0,0,0,0,0,0,
0,0,0,0,0,0,0,0,0,0,0,0,0,0,0,0,0,0,0,0,0,0,0,0,0,0,0,0,0,0,0,0,0,0,0,0,0,0,0,0,0,0,0,0,0,0,0,0,0,0,0,0,0,0,0,0,0,0,0,0,0,0,0,0,
0,0,0,0,0,0,0,0,0,0,0,0,0,0,0,0,0,0,0,0,0,0,0,0,0,0,0,0,0,0,0,0,0,0,0,0,0,0,0,0,0,0,0,0,0,0,0,0,0,0,0,0,0,0,0,0,0,0,0,0,0,0,0,0,
0,0,0,0,0,0,0,0,0,0,0,0,0,0,0,0,0,0,0,0,0,0,0,0,0,0,0,0,0,0,0,0,0,0,0,0,0,0,0,0,0,0,0,0,0,0,0,0,0,0,0,0,0,0,0,0,0,0,0,0,0,0,0,0,
0,0,0,0,0,0,0,0,0,0,0,0,0,0,0,0,0,0,0,0,0,0,0,0,0,0,0,0,0,0,0,0,0,0,0,0,0,0,0,0,0,0,0,0,0,0,0,0,0,0,0,0,0,0,0,0,0,0,0,0,0,0,0,0,
0,0,0,0,0,0,0,0,0,0,0,0,0,0,0,0,0,0,0,0,0,0,0,0,0,0,0,0,0,0,0,0,0,0,0,0,0,0,0,0,0,0,0,0,0,0,0,0,0,0,0,0,0,0,0,0,0,0,0,0,0,0,0,0,
0,0,0,0,0,0,0,0,0,0,0,0,0,0,0,0,0,0,0,0,0,0,0,0,0,0,0,0,0,0,0,0,0,0,0,0,0,0,0,0,0,0,0,0,0,0,0,0,0,0,0,0,0,0,0,0,0,0,0,0,0,0,0,0,
0,0,0,0,0,0,0,0,0,0,0,0,0,0,0,0,0,0,0,0,0,0,0,0,0,0,0,0,0,0,0,0,0,0,0,0,0,0,0,0,0,0,0,0,0,0,0,0,0,0,0,0,0,0,0,0,0,0,0,0,0,0,0,0,
0,0,0,0,0,0,0,0,0,0,0,0,0,0,0,0,0,0,0,0,0,0,0,0,0,0,0,0,0,0,0,0,0,0,0,0,0,0,0,0,0,0,0,0,0,0,0,0,0,0,0,0,0,0,0,0,0,0,0,0,0,0,0,0,
0,0,0,0,0,0,0,0,0,0,0,0,0,0,0,0,0,0,0,0,0,0,0,0,0,0,0,0,0,0,0,0,0,0,0,0,0,0,0,0,0,0,0,0,0,0,0,0,0,0,0,0,0,0,0,0,0,0,0,0,0,0,0,0,
0,0,0,0,0,0,0,0,0,0,0,0,0,0,0,0,0,0,0,0,0,0,0,0,0,0,0,0,0,0,0,0,0,0,0,0,0,0,0,0,0,0,0,0,0,0,0,0,0,0,0,0,0,0,0,0,0,0,0,0,0,0,0,0,
0,0,0,0,0,0,0,0,0,0,0,0,0,0,0,0,0,0,0,0,0,0,0,0,0,0,0,0,0,0,0,0,0,0,0,0,0,0,0,0,0,0,0,0,0,0,0,0,0,0,0,0,0,0,0,0,0,0,0,0,0,0,0,0,
0,0,0,0,0,0,0,0,0,0,0,0,0,0,0,0,0,0,0,0,0,0,0,0,0,0,0,0,0,0,0,0,0,0,0,0,0,0,0,0,0,0,0,0,0,0,0,0,0,0,0,0,0,0,0,0,0,0,0,0,0,0,0,0,
0,0,0,0,0,0,0,0,0,0,0,0,0,0,0,0,0,0,0,0,0,0,0,0,0,0,0,0,0,0,0,0,0,0,0,0,0,0,0,0,0,0,0,0,0,0,0,0,0,0,0,0,0,0,0,0,0,0,0,0,0,0,0,0,
0,0,0,0,0,0,0,0,0,0,0,0,0,0,0,0,0,0,0,0,0,0,0,0,0,0,0,0,0,0,0,0,0,0,0,0,0,0,0,0,0,0,0,0,0,0,0,0,0,0,0,0,0,0,0,0,0,0,0,0,0,0,0,0
</data>
  </layer>
  <layer id="6" name="Level_0_Railing" width="64" height="66">
   <properties>
    <property name="maybe_animation_id" value="75ea443e6634d96"/>
    <property name="maybe_tileset_id" value="d8b504e9a8480fbe"/>
    <property name="tile_size" type="int" value="16"/>
   </properties>
   <data encoding="csv">
1656,0,1656,0,1656,0,1656,0,1656,0,1656,0,1656,0,1656,0,1656,0,1656,0,1656,0,1656,0,1656,0,1656,0,1656,0,1656,0,1656,0,1656,0,1656,0,1656,0,1656,0,1656,0,1656,0,1656,0,1656,0,1656,0,1656,0,1656,0,1656,0,1656,0,1656,0,1656,0,
0,0,0,0,0,0,0,0,0,0,0,0,0,0,0,0,0,0,0,0,0,0,0,0,0,0,0,0,0,0,0,0,0,0,0,0,0,0,0,0,0,0,0,0,0,0,0,0,0,0,0,0,0,0,0,0,0,0,0,0,0,0,0,0,
1656,0,1656,0,1656,0,1656,0,1656,0,1656,0,1656,0,1656,0,1656,0,1656,0,1656,0,1656,0,1656,0,1656,0,1656,0,1656,0,1656,0,1656,0,1656,0,1656,0,1656,0,1656,0,1656,0,1656,0,1656,0,1656,0,1656,0,1656,0,1656,0,1656,0,1656,0,1656,0,
0,0,0,0,0,0,0,0,0,0,0,0,0,0,0,0,0,0,0,0,0,0,0,0,0,0,0,0,0,0,0,0,0,0,0,0,0,0,0,0,0,0,0,0,0,0,0,0,0,0,0,0,0,0,0,0,0,0,0,0,0,0,0,0,
1656,0,1656,0,1656,0,1656,0,1656,0,1656,0,1656,0,1656,0,1656,0,1656,0,1656,0,1656,0,1656,0,1656,0,1656,0,1656,0,1656,0,1656,0,1656,0,1656,0,1656,0,1656,0,1656,0,1656,0,1656,0,1656,0,1656,0,1656,0,1656,0,1656,0,1656,0,1656,0,
0,0,0,0,0,0,0,0,0,0,0,0,0,0,0,0,0,0,0,0,0,0,0,0,0,0,0,0,0,0,0,0,0,0,0,0,0,0,0,0,0,0,0,0,0,0,0,0,0,0,0,0,0,0,0,0,0,0,0,0,0,0,0,0,
1656,0,1656,0,1656,0,1656,0,1656,0,1656,0,1656,0,1656,0,1656,0,1656,0,1656,0,1656,0,1656,0,1656,0,1656,0,1656,0,1656,0,1656,0,1656,0,1656,0,1656,0,1656,0,1656,0,1656,0,1656,0,1656,0,1656,0,1656,0,1656,0,1656,0,1656,0,1656,0,
0,0,0,0,0,0,0,0,0,0,0,0,0,0,0,0,0,0,0,0,0,0,0,0,0,0,0,0,0,0,0,0,0,0,0,0,0,0,0,0,0,0,0,0,0,0,0,0,0,0,0,0,0,0,0,0,0,0,0,0,0,0,0,0,
1656,0,1656,0,1656,0,1656,0,1656,0,1656,0,1656,0,1656,0,1656,0,1656,0,1656,0,1656,0,1656,0,1656,0,1656,0,1656,0,1656,0,1656,0,1656,0,1656,0,1656,0,1656,0,1656,0,1656,0,1656,0,1656,0,1656,0,1656,0,1656,0,1656,0,1656,0,1656,0,
0,0,0,0,0,0,0,0,0,0,0,0,0,0,0,0,0,0,0,0,0,0,0,0,0,0,0,0,0,0,0,0,0,0,0,0,0,0,0,0,0,0,0,0,0,0,0,0,0,0,0,0,0,0,0,0,0,0,0,0,0,0,0,0,
1656,0,1656,0,1656,0,1656,0,1656,0,1656,0,1656,0,1656,0,1656,0,1656,0,1656,0,1656,0,1656,0,1656,0,1656,0,1656,0,1656,0,1656,0,1656,0,1656,0,1656,0,1656,0,1656,0,1656,0,1656,0,1656,0,1656,0,1656,0,1656,0,1656,0,1656,0,1656,0,
0,0,0,0,0,0,0,0,0,0,0,0,0,0,0,0,0,0,0,0,0,0,0,0,0,0,0,0,0,0,0,0,0,0,0,0,0,0,0,0,0,0,0,0,0,0,0,0,0,0,0,0,0,0,0,0,0,0,0,0,0,0,0,0,
1656,0,1656,0,1656,0,1656,0,1656,0,1656,0,1656,0,1656,0,1656,0,1656,0,1656,0,1656,0,1656,0,1656,0,1656,0,1656,0,1656,0,1656,0,1656,0,1656,0,1656,0,1656,0,1656,0,1656,0,2106,0,1656,0,1656,0,1656,0,1656,0,1656,0,1656,0,1656,0,
0,0,0,0,0,0,0,0,0,0,0,0,0,0,0,0,0,0,0,0,0,0,0,0,0,0,0,0,0,0,0,0,0,0,0,0,0,0,0,0,0,0,0,0,0,0,0,0,0,0,0,0,0,0,0,0,0,0,0,0,0,0,0,0,
1656,0,1656,0,1656,0,1656,0,1656,0,1656,0,1656,0,1656,0,1656,0,1656,0,1656,0,1656,0,1656,0,1656,0,1656,0,1656,0,1656,0,1656,0,1656,0,1656,0,1656,0,1656,0,1656,0,1656,0,1656,0,1656,0,1656,0,1656,0,1656,0,1656,0,1656,0,1656,0,
0,0,0,0,0,0,0,0,0,0,0,0,0,0,0,0,0,0,0,0,0,0,0,0,0,0,0,0,0,0,0,0,0,0,0,0,0,0,0,0,0,0,0,0,0,0,0,0,0,0,0,0,0,0,0,0,0,0,0,0,0,0,0,0,
1656,0,1656,0,1656,0,1656,0,1656,0,1656,0,1656,0,1656,0,1656,0,1656,0,1656,0,1656,0,1656,0,1656,0,1656,0,1656,0,1656,0,1656,0,1656,0,1656,0,1656,0,1656,0,1656,0,1656,0,1656,0,1656,0,1656,0,1656,0,1656,0,1656,0,1656,0,1656,0,
0,0,0,0,0,0,0,0,0,0,0,0,0,0,0,0,0,0,0,0,0,0,0,0,0,0,0,0,0,0,0,0,0,0,0,0,0,0,0,0,0,0,0,0,0,0,0,0,0,0,0,0,0,0,0,0,0,0,0,0,0,0,0,0,
1656,0,1656,0,1656,0,1656,0,1656,0,1976,0,1977,0,2106,0,2106,0,2106,0,2106,0,2106,0,2147485625,0,2147485624,0,1656,0,1656,0,1656,0,1656,0,1976,0,1977,0,2106,0,2106,0,2106,0,2106,0,2106,0,2147485625,0,2147485624,0,1656,0,1656,0,1656,0,1656,0,1656,0,
0,0,0,0,0,0,0,0,0,0,0,0,0,0,0,0,0,0,0,0,0,0,0,0,0,0,0,0,0,0,0,0,0,0,0,0,0,0,0,0,0,0,0,0,0,0,0,0,0,0,0,0,0,0,0,0,0,0,0,0,0,0,0,0,
1656,0,1656,0,1656,0,1656,0,1656,0,2040,0,2041,0,2170,0,2170,0,2170,0,2170,0,2170,0,2147485689,0,2147485688,0,1656,0,1656,0,1656,0,1656,0,2040,0,2041,0,2170,0,2170,0,2170,0,2170,0,2170,0,2147485689,0,2147485688,0,1656,0,1656,0,1656,0,1656,0,1656,0,
0,0,0,0,0,0,0,0,0,0,0,0,0,0,0,0,0,0,0,0,0,0,0,0,0,0,0,0,0,0,0,0,0,0,0,0,0,0,0,0,0,0,0,0,0,0,0,0,0,0,0,0,0,0,0,0,0,0,0,0,0,0,0,0,
1656,0,1656,0,1656,0,1656,0,1656,0,1912,0,1913,0,1656,0,1656,0,1656,0,1656,0,1656,0,2104,0,2105,0,2106,0,2106,0,2106,0,2106,0,2147485753,0,2147485752,0,1656,0,1656,0,1656,0,1656,0,1656,0,1912,0,1913,0,1656,0,1656,0,1656,0,1656,0,1656,0,
0,0,0,0,0,0,0,0,0,0,0,0,0,0,0,0,0,0,0,0,0,0,0,0,0,0,0,0,0,0,0,0,0,0,0,0,0,0,0,0,0,0,0,0,0,0,0,0,0,0,0,0,0,0,0,0,0,0,0,0,0,0,0,0,
1656,0,1656,0,1656,0,1656,0,1656,0,1912,0,1913,0,1656,0,1656,0,1656,0,1656,0,1656,0,2168,0,2169,0,2170,0,2170,0,2170,0,2170,0,2147485817,0,2147485816,0,1656,0,1656,0,1656,0,1656,0,1656,0,1912,0,1913,0,1656,0,1656,0,1656,0,1656,0,1656,0,
0,0,0,0,0,0,0,0,0,0,0,0,0,0,0,0,0,0,0,0,0,0,0,0,0,0,0,0,0,0,0,0,0,0,0,0,0,0,0,0,0,0,0,0,0,0,0,0,0,0,0,0,0,0,0,0,0,0,0,0,0,0,0,0,
1656,0,1656,0,1656,0,1656,0,1656,0,1912,0,1913,0,1656,0,1656,0,1656,0,1656,0,1656,0,1656,0,1656,0,1656,0,1656,0,1656,0,1656,0,1656,0,1656,0,1656,0,1656,0,1656,0,1656,0,1656,0,1912,0,1913,0,1656,0,1656,0,1656,0,1656,0,1656,0,
0,0,0,0,0,0,0,0,0,0,0,0,0,0,0,0,0,0,0,0,0,0,0,0,0,0,0,0,0,0,0,0,0,0,0,0,0,0,0,0,0,0,0,0,0,0,0,0,0,0,0,0,0,0,0,0,0,0,0,0,0,0,0,0,
1656,0,1656,0,1656,0,1656,0,1656,0,1912,0,1913,0,1656,0,1656,0,1656,0,1656,0,1656,0,1656,0,1656,0,1656,0,1656,0,1656,0,1656,0,1656,0,1656,0,1656,0,1656,0,1656,0,1656,0,1656,0,1912,0,1913,0,1656,0,1656,0,1656,0,1656,0,1656,0,
0,0,0,0,0,0,0,0,0,0,0,0,0,0,0,0,0,0,0,0,0,0,0,0,0,0,0,0,0,0,0,0,0,0,0,0,0,0,0,0,0,0,0,0,0,0,0,0,0,0,0,0,0,0,0,0,0,0,0,0,0,0,0,0,
1656,0,1656,0,1656,0,1656,0,1656,0,1912,0,1913,0,1656,0,1656,0,1656,0,1656,0,1656,0,1656,0,1656,0,1656,0,1656,0,1656,0,1656,0,1656,0,1656,0,1656,0,1656,0,1656,0,1656,0,1656,0,1912,0,1913,0,1656,0,1656,0,1656,0,1656,0,1656,0,
0,0,0,0,0,0,0,0,0,0,0,0,0,0,0,0,0,0,0,0,0,0,0,0,0,0,0,0,0,0,0,0,0,0,0,0,0,0,0,0,0,0,0,0,0,0,0,0,0,0,0,0,0,0,0,0,0,0,0,0,0,0,0,0,
1656,0,1656,0,1656,0,1656,0,1656,0,1912,0,1913,0,1656,0,1656,0,1656,0,1656,0,1656,0,1656,0,1656,0,1656,0,1656,0,1656,0,1656,0,1656,0,1656,0,1656,0,1656,0,1656,0,1656,0,1656,0,1912,0,1913,0,1656,0,1656,0,1656,0,1656,0,1656,0,
0,0,0,0,0,0,0,0,0,0,0,0,0,0,0,0,0,0,0,0,0,0,0,0,0,0,0,0,0,0,0,0,0,0,0,0,0,0,0,0,0,0,0,0,0,0,0,0,0,0,0,0,0,0,0,0,0,0,0,0,0,0,0,0,
1656,0,1656,0,1656,0,1656,0,1656,0,1912,0,1913,0,1656,0,1656,0,1656,0,1656,0,1656,0,1656,0,1656,0,1656,0,1656,0,1656,0,1656,0,1656,0,1656,0,1656,0,1656,0,1656,0,1656,0,1656,0,1912,0,1913,0,1656,0,1656,0,1656,0,1656,0,1656,0,
0,0,0,0,0,0,0,0,0,0,0,0,0,0,0,0,0,0,0,0,0,0,0,0,0,0,0,0,0,0,0,0,0,0,0,0,0,0,0,0,0,0,0,0,0,0,0,0,0,0,0,0,0,0,0,0,0,0,0,0,0,0,0,0,
1656,0,1656,0,1656,0,1656,0,1656,0,1912,0,1913,0,1656,0,1656,0,1656,0,1656,0,1656,0,1656,0,1656,0,1656,0,1656,0,1656,0,1656,0,1656,0,1656,0,1656,0,1656,0,1656,0,1656,0,1656,0,1912,0,1913,0,1656,0,1656,0,1656,0,1656,0,1656,0,
0,0,0,0,0,0,0,0,0,0,0,0,0,0,0,0,0,0,0,0,0,0,0,0,0,0,0,0,0,0,0,0,0,0,0,0,0,0,0,0,0,0,0,0,0,0,0,0,0,0,0,0,0,0,0,0,0,0,0,0,0,0,0,0,
1656,0,1656,0,1656,0,1656,0,1656,0,1912,0,1913,0,1656,0,1656,0,1656,0,1656,0,1656,0,1656,0,1656,0,1656,0,1656,0,1656,0,1656,0,1656,0,1656,0,1656,0,1656,0,1656,0,1656,0,1656,0,1912,0,1913,0,1656,0,1656,0,1656,0,1656,0,1656,0,
0,0,0,0,0,0,0,0,0,0,0,0,0,0,0,0,0,0,0,0,0,0,0,0,0,0,0,0,0,0,0,0,0,0,0,0,0,0,0,0,0,0,0,0,0,0,0,0,0,0,0,0,0,0,0,0,0,0,0,0,0,0,0,0,
1656,0,1656,0,1656,0,1656,0,1656,0,1912,0,1913,0,1656,0,1656,0,1656,0,1656,0,1656,0,1656,0,1656,0,1656,0,1656,0,1656,0,1656,0,1656,0,1656,0,1656,0,1656,0,1656,0,1656,0,1656,0,1912,0,1913,0,1656,0,1656,0,1656,0,1656,0,1656,0,
0,0,0,0,0,0,0,0,0,0,0,0,0,0,0,0,0,0,0,0,0,0,0,0,0,0,0,0,0,0,0,0,0,0,0,0,0,0,0,0,0,0,0,0,0,0,0,0,0,0,0,0,0,0,0,0,0,0,0,0,0,0,0,0,
1656,0,1656,0,1656,0,1656,0,1656,0,1912,0,1913,0,1656,0,1656,0,1656,0,1656,0,1656,0,1656,0,1656,0,1656,0,1656,0,1656,0,1656,0,1656,0,1656,0,1656,0,1656,0,1656,0,1656,0,1656,0,1912,0,1913,0,1656,0,1656,0,1656,0,1656,0,1656,0,
0,0,0,0,0,0,0,0,0,0,0,0,0,0,0,0,0,0,0,0,0,0,0,0,0,0,0,0,0,0,0,0,0,0,0,0,0,0,0,0,0,0,0,0,0,0,0,0,0,0,0,0,0,0,0,0,0,0,0,0,0,0,0,0,
1656,0,1656,0,1656,0,1656,0,1656,0,1912,0,1913,0,1656,0,1656,0,1656,0,1656,0,1656,0,1656,0,1656,0,1656,0,1656,0,1656,0,1656,0,1656,0,1656,0,1656,0,1656,0,1656,0,1656,0,1656,0,1912,0,1913,0,1656,0,1656,0,1656,0,1656,0,1656,0,
0,0,0,0,0,0,0,0,0,0,0,0,0,0,0,0,0,0,0,0,0,0,0,0,0,0,0,0,0,0,0,0,0,0,0,0,0,0,0,0,0,0,0,0,0,0,0,0,0,0,0,0,0,0,0,0,0,0,0,0,0,0,0,0,
1656,0,1656,0,1656,0,1656,0,1656,0,1914,0,1915,0,1656,0,1656,0,1656,0,1656,0,1656,0,1656,0,1656,0,1656,0,1656,0,1656,0,1656,0,1656,0,1656,0,1656,0,1656,0,1656,0,1656,0,1656,0,1914,0,1915,0,1656,0,1656,0,1656,0,1656,0,1656,0,
0,0,0,0,0,0,0,0,0,0,0,0,0,0,0,0,0,0,0,0,0,0,0,0,0,0,0,0,0,0,0,0,0,0,0,0,0,0,0,0,0,0,0,0,0,0,0,0,0,0,0,0,0,0,0,0,0,0,0,0,0,0,0,0,
1656,0,1656,0,1656,0,1656,0,1656,0,1978,0,1979,0,1656,0,1656,0,1656,0,1656,0,1656,0,1656,0,1656,0,1656,0,1656,0,1656,0,1656,0,1656,0,1656,0,1656,0,1656,0,1656,0,1656,0,1656,0,1978,0,1979,0,1656,0,1656,0,1656,0,1656,0,1656,0,
0,0,0,0,0,0,0,0,0,0,0,0,0,0,0,0,0,0,0,0,0,0,0,0,0,0,0,0,0,0,0,0,0,0,0,0,0,0,0,0,0,0,0,0,0,0,0,0,0,0,0,0,0,0,0,0,0,0,0,0,0,0,0,0,
1656,0,1656,0,1656,0,1656,0,1656,0,1978,0,1979,0,1656,0,1656,0,1656,0,1656,0,1656,0,1656,0,1656,0,1656,0,1656,0,1656,0,1656,0,1656,0,1656,0,1656,0,1656,0,1656,0,1656,0,1656,0,1978,0,1979,0,1656,0,1656,0,1656,0,1656,0,1656,0,
0,0,0,0,0,0,0,0,0,0,0,0,0,0,0,0,0,0,0,0,0,0,0,0,0,0,0,0,0,0,0,0,0,0,0,0,0,0,0,0,0,0,0,0,0,0,0,0,0,0,0,0,0,0,0,0,0,0,0,0,0,0,0,0,
1656,0,1656,0,1656,0,1656,0,1656,0,2042,0,2043,0,1656,0,1656,0,1656,0,1656,0,1656,0,1656,0,1656,0,1656,0,1656,0,1656,0,1656,0,1656,0,1656,0,1656,0,1656,0,1656,0,1656,0,1656,0,2042,0,2043,0,1656,0,1656,0,1656,0,1656,0,1656,0,
0,0,0,0,0,0,0,0,0,0,0,0,0,0,0,0,0,0,0,0,0,0,0,0,0,0,0,0,0,0,0,0,0,0,0,0,0,0,0,0,0,0,0,0,0,0,0,0,0,0,0,0,0,0,0,0,0,0,0,0,0,0,0,0,
1656,0,1656,0,1656,0,1656,0,1656,0,1656,0,1656,0,1656,0,1656,0,1656,0,1656,0,1656,0,1656,0,1656,0,1656,0,1656,0,1656,0,1656,0,1656,0,1656,0,1656,0,1656,0,1656,0,1656,0,1656,0,1656,0,1656,0,1656,0,1656,0,1656,0,1656,0,1656,0,
0,0,0,0,0,0,0,0,0,0,0,0,0,0,0,0,0,0,0,0,0,0,0,0,0,0,0,0,0,0,0,0,0,0,0,0,0,0,0,0,0,0,0,0,0,0,0,0,0,0,0,0,0,0,0,0,0,0,0,0,0,0,0,0,
1656,0,1656,0,1656,0,1656,0,1656,0,1656,0,1656,0,1656,0,1656,0,1656,0,1656,0,1656,0,1656,0,1656,0,1656,0,1656,0,1656,0,1656,0,1656,0,1656,0,1656,0,1656,0,1656,0,1656,0,1656,0,1656,0,1656,0,1656,0,1656,0,1656,0,1656,0,1656,0,
0,0,0,0,0,0,0,0,0,0,0,0,0,0,0,0,0,0,0,0,0,0,0,0,0,0,0,0,0,0,0,0,0,0,0,0,0,0,0,0,0,0,0,0,0,0,0,0,0,0,0,0,0,0,0,0,0,0,0,0,0,0,0,0,
1656,0,1656,0,1656,0,1656,0,1656,0,1656,0,1656,0,1656,0,1656,0,1656,0,1656,0,1656,0,1656,0,1656,0,1656,0,1656,0,1656,0,1656,0,1656,0,1656,0,1656,0,1656,0,1656,0,1656,0,1656,0,1656,0,1656,0,1656,0,1656,0,1656,0,1656,0,1656,0,
0,0,0,0,0,0,0,0,0,0,0,0,0,0,0,0,0,0,0,0,0,0,0,0,0,0,0,0,0,0,0,0,0,0,0,0,0,0,0,0,0,0,0,0,0,0,0,0,0,0,0,0,0,0,0,0,0,0,0,0,0,0,0,0,
1656,0,1656,0,1656,0,1656,0,1656,0,1656,0,1656,0,1656,0,1656,0,1656,0,1656,0,1656,0,1656,0,1656,0,1656,0,1656,0,1656,0,1656,0,1656,0,1656,0,1656,0,1656,0,1656,0,1656,0,1656,0,1656,0,1656,0,1656,0,1656,0,1656,0,1656,0,1656,0,
0,0,0,0,0,0,0,0,0,0,0,0,0,0,0,0,0,0,0,0,0,0,0,0,0,0,0,0,0,0,0,0,0,0,0,0,0,0,0,0,0,0,0,0,0,0,0,0,0,0,0,0,0,0,0,0,0,0,0,0,0,0,0,0,
1656,0,1656,0,1656,0,1656,0,1656,0,1656,0,1656,0,1656,0,1656,0,1656,0,1656,0,1656,0,1656,0,1656,0,1656,0,1656,0,1656,0,1656,0,1656,0,1656,0,1656,0,1656,0,1656,0,1656,0,1656,0,1656,0,1656,0,1656,0,1656,0,1656,0,1656,0,1656,0,
0,0,0,0,0,0,0,0,0,0,0,0,0,0,0,0,0,0,0,0,0,0,0,0,0,0,0,0,0,0,0,0,0,0,0,0,0,0,0,0,0,0,0,0,0,0,0,0,0,0,0,0,0,0,0,0,0,0,0,0,0,0,0,0,
1656,0,1656,0,1656,0,1656,0,1656,0,1656,0,1656,0,1656,0,1656,0,1656,0,1656,0,1656,0,1656,0,1656,0,1656,0,1656,0,1656,0,1656,0,1656,0,1656,0,1656,0,1656,0,1656,0,1656,0,1656,0,1656,0,1656,0,1656,0,1656,0,1656,0,1656,0,1656,0,
0,0,0,0,0,0,0,0,0,0,0,0,0,0,0,0,0,0,0,0,0,0,0,0,0,0,0,0,0,0,0,0,0,0,0,0,0,0,0,0,0,0,0,0,0,0,0,0,0,0,0,0,0,0,0,0,0,0,0,0,0,0,0,0
</data>
  </layer>
  <objectgroup draworder="index" id="7" name="Level_0_NoDepthSprites">
   <object id="10" type="asset" gid="1073" x="88" y="384" width="40" height="136"/>
   <object id="11" type="asset" gid="748" x="192" y="256" width="128" height="64"/>
   <object id="12" type="asset" gid="712" x="384" y="264" width="40" height="88"/>
   <object id="13" type="asset" gid="1125" x="304" y="208" width="48" height="40"/>
   <object id="14" type="asset" gid="329" x="104" y="208" width="104" height="56"/>
   <object id="15" type="asset" gid="1060" x="88" y="272" width="32" height="112"/>
  </objectgroup>
  <objectgroup draworder="index" id="8" name="Level_0_NoDepthSprites_Fixed">
   <object id="16" type="asset" gid="565" x="384" y="264" width="40" height="88"/>
   <object id="17" type="asset" gid="1328" x="304" y="208" width="48" height="40"/>
   <object id="18" type="asset" gid="1073" x="88" y="384" width="40" height="136"/>
   <object id="19" type="asset" gid="84" x="104" y="208" width="104" height="56"/>
   <object id="20" type="asset" gid="359" x="88" y="272" width="32" height="112"/>
   <object id="21" type="asset" gid="748" x="192" y="256" width="128" height="64"/>
  </objectgroup>
  <objectgroup draworder="index" id="9" name="Level_0_Assets">
   <object id="22" type="asset" gid="364" x="40" y="129" width="96" height="72"/>
   <object id="23" type="asset" gid="364" x="280" y="129" width="96" height="72"/>
   <object id="24" type="asset" gid="1082" x="228" y="126" width="56" height="64"/>
   <object id="25" type="asset" gid="934" x="141" y="240" width="32" height="24"/>
   <object id="26" type="asset" gid="1271" x="304" y="239" width="32" height="40"/>
   <object id="27" type="asset" gid="808" x="184" y="384" width="40" height="112"/>
   <object id="28" type="asset" gid="1401" x="136" y="129" width="96" height="72"/>
   <object id="29" type="asset" gid="1401" x="376" y="129" width="96" height="72"/>
   <object id="30" type="asset" gid="1055" x="200" y="104" width="32" height="32">
    <properties>
     <property name="depth_offset" type="int" value="-32"/>
    </properties>
   </object>
   <object id="31" type="asset" gid="504" x="280" y="104" width="32" height="32">
    <properties>
     <property name="depth_offset" type="int" value="-32"/>
    </properties>
   </object>
   <object id="32" type="asset" gid="750" x="60" y="136" width="56" height="64"/>
   <object id="33" type="asset" gid="750" x="156" y="136" width="56" height="64"/>
   <object id="34" type="asset" gid="750" x="300" y="136" width="56" height="64"/>
   <object id="35" type="asset" gid="750" x="396" y="136" width="56" height="64"/>
   <object id="36" type="asset" gid="1271" x="320" y="247" width="32" height="40"/>
   <object id="37" type="asset" gid="1271" x="304" y="255" width="32" height="40"/>
   <object id="38" type="asset" gid="843" x="102" y="115" width="32" height="40">
    <properties>
     <property name="depth_offset" type="int" value="-33"/>
    </properties>
   </object>
   <object id="39" type="asset" gid="843" x="136" y="116" width="32" height="40">
    <properties>
     <property name="depth_offset" type="int" value="-33"/>
    </properties>
   </object>
   <object id="40" type="asset" gid="843" x="342" y="115" width="32" height="40">
    <properties>
     <property name="depth_offset" type="int" value="-33"/>
    </properties>
   </object>
   <object id="41" type="asset" gid="843" x="377" y="115" width="32" height="40">
    <properties>
     <property name="depth_offset" type="int" value="-33"/>
    </properties>
   </object>
   <object id="42" type="asset" gid="880" x="384" y="280" width="40" height="56"/>
   <object id="43" type="asset" gid="880" x="384" y="360" width="40" height="56"/>
   <object id="44" type="asset" gid="194" x="105" y="240" width="48" height="46"/>
   <object id="45" type="asset" gid="112" x="168" y="256" width="48" height="64"/>
   <object id="46" type="asset" gid="492" x="208" y="312" width="32" height="32"/>
   <object id="47" type="asset" gid="492" x="208" y="336" width="32" height="32"/>
   <object id="48" type="asset" gid="492" x="208" y="360" width="32" height="32"/>
   <object id="49" type="asset" gid="492" x="208" y="384" width="32" height="32"/>
   <object id="50" type="asset" gid="395" x="88" y="407" width="136" height="48"/>
   <object id="51" type="asset" gid="113" x="336" y="240" width="72" height="72"/>
   <object id="52" type="asset" gid="376" x="392" y="344" width="32" height="80"/>
   <object id="53" type="asset" gid="376" x="392" y="424" width="32" height="80"/>
   <object id="54" type="asset" gid="492" x="376" y="304" width="32" height="32"/>
   <object id="55" type="asset" gid="492" x="376" y="336" width="32" height="32"/>
   <object id="56" type="asset" gid="492" x="376" y="384" width="32" height="32"/>
   <object id="57" type="asset" gid="492" x="376" y="416" width="32" height="32"/>
   <object id="58" type="asset" gid="948" x="312" y="290" width="32" height="24"/>
   <object id="59" type="asset" gid="948" x="289" y="290" width="32" height="24"/>
   <object id="60" type="asset" gid="948" x="335" y="290" width="32" height="24"/>
   <object id="61" type="asset" gid="766" x="280" y="336" width="96" height="64"/>
   <object id="62" type="asset" gid="948" x="312" y="344" width="32" height="24"/>
   <object id="63" type="asset" gid="948" x="335" y="344" width="32" height="24"/>
   <object id="64" type="asset" gid="948" x="289" y="344" width="32" height="24"/>
   <object id="65" type="asset" gid="431" x="360" y="320" width="24" height="40"/>
   <object id="66" type="asset" gid="431" x="271" y="320" width="24" height="40"/>
   <object id="67" type="asset" gid="948" x="289" y="370" width="32" height="24"/>
   <object id="68" type="asset" gid="948" x="312" y="370" width="32" height="24"/>
   <object id="69" type="asset" gid="948" x="335" y="370" width="32" height="24"/>
   <object id="70" type="asset" gid="766" x="280" y="416" width="96" height="64"/>
   <object id="71" type="asset" gid="431" x="360" y="400" width="24" height="40"/>
   <object id="72" type="asset" gid="431" x="271" y="400" width="24" height="40"/>
   <object id="73" type="asset" gid="948" x="289" y="424" width="32" height="24"/>
   <object id="74" type="asset" gid="948" x="312" y="424" width="32" height="24"/>
   <object id="75" type="asset" gid="948" x="335" y="424" width="32" height="24"/>
   <object id="76" type="asset" gid="562" x="464" y="268" width="32" height="40"/>
   <object id="77" type="asset" gid="1196" x="312" y="310" width="32" height="32"/>
   <object id="78" type="asset" gid="1291" x="312" y="390" width="32" height="32"/>
  </objectgroup>
  <objectgroup draworder="index" id="10" name="Level_0_Assets_Fixed">
   <object id="79" type="asset" gid="364" x="40" y="129" width="96" height="72"/>
   <object id="80" type="asset" gid="364" x="280" y="129" width="96" height="72"/>
   <object id="81" type="asset" gid="1082" x="228" y="126" width="56" height="64"/>
   <object id="82" type="asset" gid="934" x="141" y="240" width="32" height="24"/>
   <object id="83" type="asset" gid="1271" x="304" y="239" width="32" height="40"/>
   <object id="84" type="asset" gid="808" x="184" y="384" width="40" height="112"/>
   <object id="85" type="asset" gid="179" x="88" y="407" width="136" height="48"/>
   <object id="86" type="asset" gid="1310" x="208" y="312" width="32" height="32"/>
   <object id="87" type="asset" gid="1310" x="208" y="336" width="32" height="32"/>
   <object id="88" type="asset" gid="1310" x="208" y="360" width="32" height="32"/>
   <object id="89" type="asset" gid="1310" x="208" y="384" width="32" height="32"/>
   <object id="90" type="asset" gid="1401" x="136" y="129" width="96" height="72"/>
   <object id="91" type="asset" gid="1401" x="376" y="129" width="96" height="72"/>
   <object id="92" type="asset" gid="1055" x="200" y="104" width="32" height="32">
    <properties>
     <property name="depth_offset" type="int" value="-32"/>
    </properties>
   </object>
   <object id="93" type="asset" gid="504" x="280" y="104" width="32" height="32">
    <properties>
     <property name="depth_offset" type="int" value="-32"/>
    </properties>
   </object>
   <object id="94" type="asset" gid="750" x="60" y="136" width="56" height="64"/>
   <object id="95" type="asset" gid="750" x="156" y="136" width="56" height="64"/>
   <object id="96" type="asset" gid="750" x="300" y="136" width="56" height="64"/>
   <object id="97" type="asset" gid="750" x="396" y="136" width="56" height="64"/>
   <object id="98" type="asset" gid="470" x="289" y="290" width="32" height="24"/>
   <object id="99" type="asset" gid="470" x="312" y="290" width="32" height="24"/>
   <object id="100" type="asset" gid="470" x="335" y="290" width="32" height="24"/>
   <object id="101" type="asset" gid="1255" x="271" y="320" width="24" height="40"/>
   <object id="102" type="asset" gid="1255" x="360" y="320" width="24" height="40"/>
   <object id="103" type="asset" gid="470" x="289" y="370" width="32" height="24"/>
   <object id="104" type="asset" gid="470" x="312" y="370" width="32" height="24"/>
   <object id="105" type="asset" gid="470" x="335" y="370" width="32" height="24"/>
   <object id="106" type="asset" gid="1255" x="271" y="400" width="24" height="40"/>
   <object id="107" type="asset" gid="1207" x="280" y="336" width="96" height="64"/>
   <object id="108" type="asset" gid="1207" x="280" y="416" width="96" height="64"/>
   <object id="109" type="asset" gid="1255" x="360" y="400" width="24" height="40"/>
   <object id="110" type="asset" gid="470" x="289" y="424" width="32" height="24"/>
   <object id="111" type="asset" gid="470" x="312" y="424" width="32" height="24"/>
   <object id="112" type="asset" gid="470" x="289" y="344" width="32" height="24"/>
   <object id="113" type="asset" gid="470" x="312" y="344" width="32" height="24"/>
   <object id="114" type="asset" gid="470" x="335" y="344" width="32" height="24"/>
   <object id="115" type="asset" gid="470" x="335" y="424" width="32" height="24"/>
   <object id="116" type="asset" gid="1271" x="320" y="247" width="32" height="40"/>
   <object id="117" type="asset" gid="1271" x="304" y="255" width="32" height="40"/>
   <object id="118" type="asset" gid="617" x="336" y="240" width="72" height="72"/>
   <object id="119" type="asset" gid="1310" x="376" y="384" width="32" height="32"/>
   <object id="120" type="asset" gid="1310" x="376" y="416" width="32" height="32"/>
   <object id="121" type="asset" gid="1310" x="376" y="304" width="32" height="32"/>
   <object id="122" type="asset" gid="843" x="102" y="115" width="32" height="40">
    <properties>
     <property name="depth_offset" type="int" value="-33"/>
    </properties>
   </object>
   <object id="123" type="asset" gid="843" x="137" y="115" width="32" height="40">
    <properties>
     <property name="depth_offset" type="int" value="-33"/>
    </properties>
   </object>
   <object id="124" type="asset" gid="843" x="342" y="115" width="32" height="40">
    <properties>
     <property name="depth_offset" type="int" value="-33"/>
    </properties>
   </object>
   <object id="125" type="asset" gid="843" x="377" y="115" width="32" height="40">
    <properties>
     <property name="depth_offset" type="int" value="-33"/>
    </properties>
   </object>
   <object id="126" type="asset" gid="1310" x="376" y="336" width="32" height="32"/>
   <object id="127" type="asset" gid="983" x="168" y="256" width="48" height="64"/>
   <object id="128" type="asset" gid="192" x="392" y="424" width="32" height="80"/>
   <object id="129" type="asset" gid="192" x="392" y="344" width="32" height="80"/>
   <object id="130" type="asset" gid="880" x="384" y="280" width="40" height="56"/>
   <object id="131" type="asset" gid="880" x="384" y="360" width="40" height="56"/>
   <object id="132" type="asset" gid="647" x="105" y="240" width="48" height="46"/>
   <object id="133" type="asset" gid="953" x="312" y="310" width="32" height="32"/>
   <object id="134" type="asset" gid="795" x="312" y="390" width="32" height="32"/>
  </objectgroup>
 </group>
 <group id="45" name="Level_0_Wedding">
  <objectgroup draworder="index" id="44" name="Level_0_Assets_Wedding">
   <object id="652" type="asset" gid="364" x="40" y="129" width="96" height="72"/>
   <object id="653" type="asset" gid="364" x="280" y="129" width="96" height="72"/>
   <object id="654" type="asset" gid="1082" x="228" y="126" width="56" height="64"/>
   <object id="655" type="asset" gid="934" x="141" y="240" width="32" height="24"/>
   <object id="656" type="asset" gid="1271" x="304" y="239" width="32" height="40"/>
   <object id="657" type="asset" gid="808" x="184" y="384" width="40" height="112"/>
   <object id="663" type="asset" gid="1401" x="136" y="129" width="96" height="72"/>
   <object id="664" type="asset" gid="1401" x="376" y="129" width="96" height="72"/>
   <object id="665" type="asset" gid="1055" x="200" y="104" width="32" height="32">
    <properties>
     <property name="depth_offset" type="int" value="-32"/>
    </properties>
   </object>
   <object id="666" type="asset" gid="504" x="280" y="104" width="32" height="32">
    <properties>
     <property name="depth_offset" type="int" value="-32"/>
    </properties>
   </object>
   <object id="667" type="asset" gid="750" x="60" y="136" width="56" height="64"/>
   <object id="668" type="asset" gid="750" x="156" y="136" width="56" height="64"/>
   <object id="669" type="asset" gid="750" x="300" y="136" width="56" height="64"/>
   <object id="670" type="asset" gid="750" x="396" y="136" width="56" height="64"/>
   <object id="689" type="asset" gid="1271" x="320" y="247" width="32" height="40"/>
   <object id="690" type="asset" gid="1271" x="304" y="255" width="32" height="40"/>
   <object id="691" type="asset" gid="617" x="336" y="240" width="72" height="72"/>
   <object id="695" type="asset" gid="843" x="102" y="115" width="32" height="40">
    <properties>
     <property name="depth_offset" type="int" value="-33"/>
    </properties>
   </object>
   <object id="696" type="asset" gid="843" x="137" y="115" width="32" height="40">
    <properties>
     <property name="depth_offset" type="int" value="-33"/>
    </properties>
   </object>
   <object id="697" type="asset" gid="843" x="342" y="115" width="32" height="40">
    <properties>
     <property name="depth_offset" type="int" value="-33"/>
    </properties>
   </object>
   <object id="698" type="asset" gid="843" x="377" y="115" width="32" height="40">
    <properties>
     <property name="depth_offset" type="int" value="-33"/>
    </properties>
   </object>
   <object id="700" type="asset" gid="983" x="168" y="256" width="48" height="64"/>
   <object id="703" type="asset" gid="880" x="384" y="280" width="40" height="56"/>
   <object id="705" type="asset" gid="647" x="105" y="240" width="48" height="46"/>
   <object id="708" gid="6037" x="392" y="344" width="32" height="80"/>
   <object id="710" gid="6037" x="392" y="424" width="32" height="80"/>
   <object id="711" gid="6064" x="289" y="290" width="32" height="24"/>
   <object id="712" gid="6064" x="312" y="290" width="32" height="24"/>
   <object id="713" gid="6064" x="335" y="290" width="32" height="24"/>
   <object id="714" gid="6044" x="376" y="304" width="32" height="32"/>
   <object id="715" gid="6044" x="376" y="336" width="32" height="32"/>
   <object id="716" type="asset" gid="880" x="384" y="360" width="40" height="56"/>
   <object id="717" gid="6044" x="208" y="312" width="32" height="32"/>
   <object id="718" gid="6044" x="208" y="336" width="32" height="32"/>
   <object id="719" gid="6044" x="208" y="360" width="32" height="32"/>
   <object id="720" gid="6044" x="208" y="384" width="32" height="32"/>
   <object id="721" gid="6066" x="88" y="407" width="136" height="48"/>
   <object id="722" gid="6064" x="289" y="370" width="32" height="24"/>
   <object id="723" gid="6064" x="312" y="370" width="32" height="24"/>
   <object id="724" gid="6064" x="335" y="370" width="32" height="24"/>
   <object id="725" gid="6058" x="280" y="336" width="96" height="64"/>
   <object id="726" gid="6058" x="280" y="416" width="96" height="64"/>
   <object id="727" gid="6035" x="271" y="320" width="24" height="40"/>
   <object id="728" gid="6035" x="360" y="320" width="24" height="40"/>
   <object id="729" gid="6035" x="360" y="400" width="24" height="40"/>
   <object id="730" gid="6035" x="271" y="400" width="24" height="40"/>
   <object id="731" gid="6064" x="289" y="344" width="32" height="24"/>
   <object id="732" gid="6064" x="312" y="344" width="32" height="24"/>
   <object id="733" gid="6064" x="335" y="344" width="32" height="24"/>
   <object id="734" gid="6064" x="289" y="424" width="32" height="24"/>
   <object id="735" gid="6064" x="312" y="424" width="32" height="24"/>
   <object id="736" gid="6064" x="335" y="424" width="32" height="24"/>
   <object id="737" gid="6044" x="376" y="384" width="32" height="32"/>
   <object id="738" gid="6044" x="376" y="416" width="32" height="32"/>
   <object id="743" gid="6067" x="344" y="256" width="56" height="40"/>
   <object id="945" gid="6159" x="195" y="297" width="18" height="18"/>
   <object id="946" gid="6159" x="195" y="321" width="18" height="18"/>
   <object id="947" gid="6159" x="195" y="345" width="18" height="18"/>
   <object id="948" gid="6159" x="195" y="369" width="18" height="18"/>
   <object id="949" gid="6159" x="293" y="302" width="18" height="18"/>
   <object id="950" gid="6159" x="345" y="302" width="18" height="18"/>
   <object id="951" gid="6159" x="293" y="382" width="18" height="18"/>
   <object id="952" gid="6159" x="345" y="382" width="18" height="18"/>
   <object id="953" gid="6159" x="296" y="369" width="18" height="18"/>
   <object id="954" gid="6159" x="319" y="369" width="18" height="18"/>
   <object id="955" gid="6159" x="342" y="369" width="18" height="18"/>
   <object id="956" gid="6159" x="342" y="395" width="18" height="18"/>
   <object id="957" gid="6159" x="319" y="395" width="18" height="18"/>
   <object id="958" gid="6159" x="296" y="395" width="18" height="18"/>
   <object id="959" gid="6159" x="296" y="289" width="18" height="18"/>
   <object id="960" gid="6159" x="319" y="289" width="18" height="18"/>
   <object id="961" gid="6159" x="342" y="289" width="18" height="18"/>
   <object id="962" gid="6159" x="342" y="315" width="18" height="18"/>
   <object id="963" gid="6159" x="319" y="315" width="18" height="18"/>
   <object id="964" gid="6159" x="296" y="315" width="18" height="18"/>
  </objectgroup>
  <layer id="16" name="Tiles_Collision_Wedding" width="64" height="66" visible="0">
   <properties>
    <property name="maybe_animation_id" value="d5b5e9552171fe70"/>
    <property name="maybe_tileset_id" value="b29026a2ad0be741"/>
    <property name="tile_size" type="int" value="8"/>
   </properties>
   <data encoding="csv">
0,0,0,0,0,0,0,0,0,0,0,0,0,0,0,0,0,0,0,0,0,0,0,0,0,0,0,0,0,0,0,0,0,0,0,0,0,0,0,0,0,0,0,0,0,0,0,0,0,0,0,0,0,0,0,0,0,0,0,0,0,0,0,0,
0,0,0,0,0,0,0,0,0,0,0,0,0,0,0,0,0,0,0,0,0,0,0,0,0,0,0,0,0,0,0,0,0,0,0,0,0,0,0,0,0,0,0,0,0,0,0,0,0,0,0,0,0,0,0,0,0,0,0,0,0,0,0,0,
0,0,0,0,0,0,0,0,0,0,0,0,0,0,0,0,0,0,0,0,0,0,0,0,0,0,0,0,0,0,0,0,0,0,0,0,0,0,0,0,0,0,0,0,0,0,0,0,0,0,0,0,0,0,0,0,0,0,0,0,0,0,0,0,
0,0,0,0,0,0,0,0,0,0,0,0,0,0,0,0,0,0,0,0,0,0,0,0,0,0,0,0,0,0,0,0,0,0,0,0,0,0,0,0,0,0,0,0,0,0,0,0,0,0,0,0,0,0,0,0,0,0,0,0,0,0,0,0,
0,0,0,0,0,0,0,0,0,0,0,0,0,0,0,0,0,0,0,0,0,0,0,0,0,0,0,0,0,0,0,0,0,0,0,0,0,0,0,0,0,0,0,0,0,0,0,0,0,0,0,0,0,0,0,0,0,0,0,0,0,0,0,0,
0,0,0,0,0,0,0,0,0,0,0,0,0,0,0,0,0,0,0,0,0,0,0,0,0,0,0,0,0,0,0,0,0,0,0,0,0,0,0,0,0,0,0,0,0,0,0,0,0,0,0,0,0,0,0,0,0,0,0,0,0,0,0,0,
0,0,0,0,0,0,0,0,0,0,0,0,0,0,0,0,0,0,0,0,0,0,0,0,0,0,0,0,0,0,0,0,0,0,0,0,0,0,0,0,0,0,0,0,0,0,0,0,0,0,0,0,0,0,0,0,0,0,0,0,0,0,0,0,
0,0,0,0,0,0,0,0,0,0,0,0,0,0,0,0,0,0,0,0,0,0,0,0,0,0,0,0,0,0,0,0,0,0,0,0,0,0,0,0,0,0,0,0,0,0,0,0,0,0,0,0,0,0,0,0,0,0,0,0,0,0,0,0,
0,0,0,0,0,0,0,0,0,0,0,0,0,0,0,0,0,0,0,0,0,0,0,0,0,0,0,0,0,0,0,0,0,0,0,0,0,0,0,0,0,0,0,0,0,0,0,0,0,0,0,0,0,0,0,0,0,0,0,0,0,0,0,0,
0,0,0,0,0,0,0,0,0,0,0,0,0,0,0,0,0,0,0,0,0,0,0,0,0,0,0,0,0,0,0,0,0,0,0,0,0,0,0,0,0,0,0,0,0,0,0,0,0,0,0,0,0,0,0,0,0,0,0,0,0,0,0,0,
0,0,0,0,0,0,0,0,0,0,0,0,0,0,0,0,0,0,0,0,0,0,0,0,0,0,0,0,0,0,0,0,0,0,0,0,0,0,0,0,0,0,0,0,0,0,0,0,0,0,0,0,0,0,0,0,0,0,0,0,0,0,0,0,
0,0,0,0,0,0,0,0,0,0,0,0,0,0,0,0,0,0,0,0,0,0,0,0,0,0,0,0,0,0,0,0,0,0,0,0,0,0,0,0,0,0,0,0,0,0,0,0,0,0,0,0,0,0,0,0,0,0,0,0,0,0,0,0,
0,0,0,0,0,0,0,0,0,0,0,0,0,0,0,0,0,0,0,0,0,0,0,0,0,0,0,0,0,0,0,0,0,0,0,0,0,0,0,0,0,0,0,0,0,0,0,0,0,0,0,0,0,0,0,0,0,0,0,0,0,0,0,0,
0,0,0,0,0,0,0,0,0,0,0,0,0,0,0,0,0,0,0,0,0,0,0,0,0,0,0,0,0,0,0,0,0,0,0,0,0,0,0,0,0,0,0,0,0,0,0,0,0,0,0,0,0,0,0,0,0,0,0,0,0,0,0,0,
0,0,0,0,0,0,0,0,0,0,0,0,0,0,0,0,0,0,0,0,0,0,0,0,0,0,0,0,0,0,0,0,0,0,0,0,0,0,0,0,0,0,0,0,0,0,0,0,0,0,0,0,0,0,0,0,0,0,0,0,0,0,0,0,
0,0,0,0,0,0,0,0,0,0,0,0,0,0,0,0,0,0,0,0,0,0,0,0,0,0,0,0,0,0,0,0,0,0,0,0,0,0,0,0,0,0,0,0,0,0,0,0,0,0,0,0,0,0,0,0,0,0,0,0,0,0,0,0,
0,0,0,0,0,0,0,0,0,0,0,0,0,0,0,0,0,0,0,0,0,0,0,0,0,0,0,0,0,0,0,0,0,0,0,0,0,0,0,0,0,0,0,0,0,0,0,0,0,0,0,0,0,0,0,0,0,0,0,0,0,0,0,0,
0,0,0,0,0,0,0,0,0,0,0,0,0,0,0,0,0,0,0,0,0,0,0,0,0,0,0,0,0,0,0,0,0,0,0,0,0,0,0,0,0,0,0,0,0,0,0,0,0,0,0,0,0,0,0,0,0,0,0,0,0,0,0,0,
0,0,0,0,0,0,0,0,0,0,0,0,0,0,0,0,0,0,0,0,0,0,0,0,0,0,0,0,0,0,0,0,0,0,0,0,0,0,0,0,0,0,0,0,0,0,0,0,0,0,0,0,0,0,0,0,0,0,0,0,0,0,0,0,
0,0,0,0,0,0,0,0,0,0,0,0,0,0,0,0,0,0,0,0,0,0,0,0,0,0,0,0,0,0,0,0,0,0,0,0,0,0,0,0,0,0,0,0,0,0,0,0,0,0,0,0,0,0,0,0,0,0,0,0,0,0,0,0,
0,0,0,0,0,0,0,0,0,0,0,0,0,0,0,0,0,0,0,0,0,0,0,0,0,0,0,0,0,0,0,0,0,0,0,0,0,0,0,0,0,0,0,0,0,0,0,0,0,0,0,0,0,0,0,0,0,0,0,0,0,0,0,0,
0,0,0,0,0,0,0,0,0,0,0,0,0,0,0,0,0,0,0,0,0,0,0,0,0,0,0,0,0,0,0,0,0,0,0,0,0,0,0,0,0,0,0,0,0,0,0,0,0,0,0,0,0,0,0,0,0,0,0,0,0,0,0,0,
0,0,0,0,0,0,0,0,0,0,0,0,0,0,0,0,0,0,0,0,0,0,0,0,0,0,0,0,0,0,0,0,0,0,0,0,0,0,0,0,0,0,0,0,0,0,0,0,0,0,0,0,0,0,0,0,0,0,0,0,0,0,0,0,
0,0,0,0,0,0,0,0,0,0,0,0,0,0,0,0,0,0,0,0,0,0,0,0,0,0,0,0,0,0,0,0,0,0,0,0,0,0,0,0,0,0,0,0,0,0,0,0,0,0,0,0,0,0,0,0,0,0,0,0,0,0,0,0,
0,0,0,0,0,0,0,0,0,0,0,0,0,0,0,0,0,0,0,0,0,0,0,0,0,0,0,0,0,0,0,0,0,0,0,0,0,0,0,0,0,0,0,0,0,0,0,0,0,0,0,0,0,0,0,0,0,0,0,0,0,0,0,0,
0,0,0,0,0,0,0,0,0,0,0,0,0,0,0,0,0,0,0,0,0,0,0,0,0,0,0,0,0,0,0,0,0,0,0,0,0,0,0,0,0,0,0,0,0,0,0,0,0,0,0,0,0,0,0,0,0,0,0,0,0,0,0,0,
0,0,0,0,0,0,0,0,0,0,0,0,0,0,0,0,0,0,0,0,0,0,0,0,0,0,0,0,0,0,0,0,0,0,0,0,0,0,0,0,0,0,0,0,0,0,0,0,0,0,0,0,0,0,0,0,0,0,0,0,0,0,0,0,
0,0,0,0,0,0,0,0,0,0,0,0,0,0,0,0,0,0,0,0,0,0,0,0,0,0,0,0,0,0,0,0,0,0,0,0,0,0,0,0,0,0,0,0,0,0,0,0,0,0,0,0,0,0,0,0,0,0,0,0,0,0,0,0,
0,0,0,0,0,0,0,0,0,0,0,0,0,0,0,0,0,0,0,0,0,0,0,0,0,0,0,0,0,0,0,0,0,0,0,0,0,0,0,0,0,0,0,0,0,0,0,0,0,0,0,0,0,0,0,0,0,0,0,0,0,0,0,0,
0,0,0,0,0,0,0,0,0,0,0,0,0,0,0,0,0,0,0,0,0,0,0,0,0,0,0,0,0,0,0,0,0,0,0,0,0,0,0,0,0,0,0,1508,1508,1508,1508,1508,1508,0,0,0,0,0,0,0,0,0,0,0,0,0,0,0,
0,0,0,0,0,0,0,0,0,0,0,0,0,0,0,0,0,0,0,0,0,0,0,0,0,0,0,0,0,0,0,0,0,0,0,0,0,0,0,0,0,0,0,1508,1508,1508,1508,1508,1508,0,0,0,0,0,0,0,0,0,0,0,0,0,0,0,
0,0,0,0,0,0,0,0,0,0,0,0,0,0,0,0,0,0,0,0,0,0,0,0,0,0,0,0,0,0,0,0,0,0,0,0,0,0,0,0,0,0,0,1508,1508,1508,1508,1508,1508,0,0,0,0,0,0,0,0,0,0,0,0,0,0,0,
0,0,0,0,0,0,0,0,0,0,0,0,0,0,0,0,0,0,0,0,0,0,0,0,0,0,0,0,0,0,0,0,0,0,0,0,0,0,0,0,0,0,0,0,0,0,0,0,0,0,0,0,0,0,0,0,0,0,0,0,0,0,0,0,
0,0,0,0,0,0,0,0,0,0,0,0,0,0,0,0,0,0,0,0,0,0,0,0,0,0,0,0,0,0,0,0,0,0,0,0,0,0,0,0,0,0,0,0,0,0,0,0,0,0,0,0,0,0,0,0,0,0,0,0,0,0,0,0,
0,0,0,0,0,0,0,0,0,0,0,0,0,0,0,0,0,0,0,0,0,0,0,0,0,0,0,0,0,0,0,0,0,0,0,0,0,0,0,0,0,0,0,0,0,0,0,0,0,0,0,0,0,0,0,0,0,0,0,0,0,0,0,0,
0,0,0,0,0,0,0,0,0,0,0,0,0,0,0,0,0,0,0,0,0,0,0,0,0,0,0,0,0,0,0,0,0,0,0,0,0,0,0,0,0,0,0,0,0,0,0,0,0,0,0,0,0,0,0,0,0,0,0,0,0,0,0,0,
0,0,0,0,0,0,0,0,0,0,0,0,0,0,0,0,0,0,0,0,0,0,0,0,0,0,0,0,0,0,0,0,0,0,0,0,0,0,0,0,0,0,0,0,0,0,0,0,0,0,0,0,0,0,0,0,0,0,0,0,0,0,0,0,
0,0,0,0,0,0,0,0,0,0,0,0,0,0,0,0,0,0,0,0,0,0,0,0,0,0,0,0,0,0,0,0,0,0,0,0,0,0,0,0,0,0,0,0,0,0,0,0,0,0,0,0,0,0,0,0,0,0,0,0,0,0,0,0,
0,0,0,0,0,0,0,0,0,0,0,0,0,0,0,0,0,0,0,0,0,0,0,0,0,0,0,0,0,0,0,0,0,0,0,0,0,0,0,0,0,0,0,0,0,0,0,0,0,0,0,0,0,0,0,0,0,0,0,0,0,0,0,0,
0,0,0,0,0,0,0,0,0,0,0,0,0,0,0,0,0,0,0,0,0,0,0,0,0,0,0,0,0,0,0,0,0,0,0,0,0,0,0,0,0,0,0,0,0,0,0,0,0,0,0,0,0,0,0,0,0,0,0,0,0,0,0,0,
0,0,0,0,0,0,0,0,0,0,0,0,0,0,0,0,0,0,0,0,0,0,0,0,0,0,0,0,0,0,0,0,0,0,0,0,0,0,0,0,0,0,0,0,0,0,0,0,0,0,0,0,0,0,0,0,0,0,0,0,0,0,0,0,
0,0,0,0,0,0,0,0,0,0,0,0,0,0,0,0,0,0,0,0,0,0,0,0,0,0,0,0,0,0,0,0,0,0,0,0,0,0,0,0,0,0,0,0,0,0,0,0,0,0,0,0,0,0,0,0,0,0,0,0,0,0,0,0,
0,0,0,0,0,0,0,0,0,0,0,0,0,0,0,0,0,0,0,0,0,0,0,0,0,0,0,0,0,0,0,0,0,0,0,0,0,0,0,0,0,0,0,0,0,0,0,0,0,0,0,0,0,0,0,0,0,0,0,0,0,0,0,0,
0,0,0,0,0,0,0,0,0,0,0,0,0,0,0,0,0,0,0,0,0,0,0,0,0,0,0,0,0,0,0,0,0,0,0,0,0,0,0,0,0,0,0,0,0,0,0,0,0,0,0,0,0,0,0,0,0,0,0,0,0,0,0,0,
0,0,0,0,0,0,0,0,0,0,0,0,0,0,0,0,0,0,0,0,0,0,0,0,0,0,0,0,0,0,0,0,0,0,0,0,0,0,0,0,0,0,0,0,0,0,0,0,0,0,0,0,0,0,0,0,0,0,0,0,0,0,0,0,
0,0,0,0,0,0,0,0,0,0,0,0,0,0,0,0,0,0,0,0,0,0,0,0,0,0,0,0,0,0,0,0,0,0,0,0,0,0,0,0,0,0,0,0,0,0,0,0,0,0,0,0,0,0,0,0,0,0,0,0,0,0,0,0,
0,0,0,0,0,0,0,0,0,0,0,0,0,0,0,0,0,0,0,0,0,0,0,0,0,0,0,0,0,0,0,0,0,0,0,0,0,0,0,0,0,0,0,0,0,0,0,0,0,0,0,0,0,0,0,0,0,0,0,0,0,0,0,0,
0,0,0,0,0,0,0,0,0,0,0,0,0,0,0,0,0,0,0,0,0,0,0,0,0,0,0,0,0,0,0,0,0,0,0,0,0,0,0,0,0,0,0,0,0,0,0,0,0,0,0,0,0,0,0,0,0,0,0,0,0,0,0,0,
0,0,0,0,0,0,0,0,0,0,0,0,0,0,0,0,0,0,0,0,0,0,0,0,0,0,0,0,0,0,0,0,0,0,0,0,0,0,0,0,0,0,0,0,0,0,0,0,0,0,0,0,0,0,0,0,0,0,0,0,0,0,0,0,
0,0,0,0,0,0,0,0,0,0,0,0,0,0,0,0,0,0,0,0,0,0,0,0,0,0,0,0,0,0,0,0,0,0,0,0,0,0,0,0,0,0,0,0,0,0,0,0,0,0,0,0,0,0,0,0,0,0,0,0,0,0,0,0,
0,0,0,0,0,0,0,0,0,0,0,0,0,0,0,0,0,0,0,0,0,0,0,0,0,0,0,0,0,0,0,0,0,0,0,0,0,0,0,0,0,0,0,0,0,0,0,0,0,0,0,0,0,0,0,0,0,0,0,0,0,0,0,0,
0,0,0,0,0,0,0,0,0,0,0,0,0,0,0,0,0,0,0,0,0,0,0,0,0,0,0,0,0,0,0,0,0,0,0,0,0,0,0,0,0,0,0,0,0,0,0,0,0,0,0,0,0,0,0,0,0,0,0,0,0,0,0,0,
0,0,0,0,0,0,0,0,0,0,0,0,0,0,0,0,0,0,0,0,0,0,0,0,0,0,0,0,0,0,0,0,0,0,0,0,0,0,0,0,0,0,0,0,0,0,0,0,0,0,0,0,0,0,0,0,0,0,0,0,0,0,0,0,
0,0,0,0,0,0,0,0,0,0,0,0,0,0,0,0,0,0,0,0,0,0,0,0,0,0,0,0,0,0,0,0,0,0,0,0,0,0,0,0,0,0,0,0,0,0,0,0,0,0,0,0,0,0,0,0,0,0,0,0,0,0,0,0,
0,0,0,0,0,0,0,0,0,0,0,0,0,0,0,0,0,0,0,0,0,0,0,0,0,0,0,0,0,0,0,0,0,0,0,0,0,0,0,0,0,0,0,0,0,0,0,0,0,0,0,0,0,0,0,0,0,0,0,0,0,0,0,0,
0,0,0,0,0,0,0,0,0,0,0,0,0,0,0,0,0,0,0,0,0,0,0,0,0,0,0,0,0,0,0,0,0,0,0,0,0,0,0,0,0,0,0,0,0,0,0,0,0,0,0,0,0,0,0,0,0,0,0,0,0,0,0,0,
0,0,0,0,0,0,0,0,0,0,0,0,0,0,0,0,0,0,0,0,0,0,0,0,0,0,0,0,0,0,0,0,0,0,0,0,0,0,0,0,0,0,0,0,0,0,0,0,0,0,0,0,0,0,0,0,0,0,0,0,0,0,0,0,
0,0,0,0,0,0,0,0,0,0,0,0,0,0,0,0,0,0,0,0,0,0,0,0,0,0,0,0,0,0,0,0,0,0,0,0,0,0,0,0,0,0,0,0,0,0,0,0,0,0,0,0,0,0,0,0,0,0,0,0,0,0,0,0,
0,0,0,0,0,0,0,0,0,0,0,0,0,0,0,0,0,0,0,0,0,0,0,0,0,0,0,0,0,0,0,0,0,0,0,0,0,0,0,0,0,0,0,0,0,0,0,0,0,0,0,0,0,0,0,0,0,0,0,0,0,0,0,0,
0,0,0,0,0,0,0,0,0,0,0,0,0,0,0,0,0,0,0,0,0,0,0,0,0,0,0,0,0,0,0,0,0,0,0,0,0,0,0,0,0,0,0,0,0,0,0,0,0,0,0,0,0,0,0,0,0,0,0,0,0,0,0,0,
0,0,0,0,0,0,0,0,0,0,0,0,0,0,0,0,0,0,0,0,0,0,0,0,0,0,0,0,0,0,0,0,0,0,0,0,0,0,0,0,0,0,0,0,0,0,0,0,0,0,0,0,0,0,0,0,0,0,0,0,0,0,0,0,
0,0,0,0,0,0,0,0,0,0,0,0,0,0,0,0,0,0,0,0,0,0,0,0,0,0,0,0,0,0,0,0,0,0,0,0,0,0,0,0,0,0,0,0,0,0,0,0,0,0,0,0,0,0,0,0,0,0,0,0,0,0,0,0,
0,0,0,0,0,0,0,0,0,0,0,0,0,0,0,0,0,0,0,0,0,0,0,0,0,0,0,0,0,0,0,0,0,0,0,0,0,0,0,0,0,0,0,0,0,0,0,0,0,0,0,0,0,0,0,0,0,0,0,0,0,0,0,0,
0,0,0,0,0,0,0,0,0,0,0,0,0,0,0,0,0,0,0,0,0,0,0,0,0,0,0,0,0,0,0,0,0,0,0,0,0,0,0,0,0,0,0,0,0,0,0,0,0,0,0,0,0,0,0,0,0,0,0,0,0,0,0,0,
0,0,0,0,0,0,0,0,0,0,0,0,0,0,0,0,0,0,0,0,0,0,0,0,0,0,0,0,0,0,0,0,0,0,0,0,0,0,0,0,0,0,0,0,0,0,0,0,0,0,0,0,0,0,0,0,0,0,0,0,0,0,0,0,
0,0,0,0,0,0,0,0,0,0,0,0,0,0,0,0,0,0,0,0,0,0,0,0,0,0,0,0,0,0,0,0,0,0,0,0,0,0,0,0,0,0,0,0,0,0,0,0,0,0,0,0,0,0,0,0,0,0,0,0,0,0,0,0
</data>
  </layer>
 </group>
 <group id="61" name="Level_0_Wedding_Flowers">
  <objectgroup draworder="index" id="60" name="Level_0_Assets_Wedding_Flowers_yellow">
   <object id="914" gid="6062" x="200" y="256" width="24" height="72"/>
   <object id="915" gid="6062" x="288" y="256" width="24" height="72"/>
   <object id="928" gid="6071" x="312" y="312" width="32" height="40"/>
   <object id="929" gid="6071" x="312" y="392" width="32" height="40"/>
  </objectgroup>
  <objectgroup draworder="index" id="62" name="Level_0_Assets_Wedding_Flowers_white">
   <object id="888" gid="6047" x="200" y="256" width="24" height="72"/>
   <object id="889" gid="6047" x="288" y="256" width="24" height="72"/>
   <object id="930" gid="6070" x="312" y="312" width="32" height="40"/>
   <object id="931" gid="6070" x="312" y="392" width="32" height="40"/>
  </objectgroup>
  <objectgroup draworder="index" id="63" name="Level_0_Assets_Wedding_Flowers_red">
   <object id="916" gid="6063" x="288" y="256" width="24" height="72"/>
   <object id="917" gid="6063" x="200" y="256" width="24" height="72"/>
   <object id="932" gid="6068" x="312" y="312" width="32" height="40"/>
   <object id="933" gid="6068" x="312" y="392" width="32" height="40"/>
  </objectgroup>
  <objectgroup draworder="index" id="64" name="Level_0_Assets_Wedding_Flowers_purple">
   <object id="918" gid="6045" x="200" y="256" width="24" height="72"/>
   <object id="919" gid="6045" x="288" y="256" width="24" height="72"/>
   <object id="934" gid="6074" x="312" y="312" width="32" height="40"/>
   <object id="935" gid="6074" x="312" y="392" width="32" height="40"/>
  </objectgroup>
  <objectgroup draworder="index" id="65" name="Level_0_Assets_Wedding_Flowers_pink">
   <object id="920" gid="6041" x="200" y="256" width="24" height="72"/>
   <object id="921" gid="6041" x="288" y="256" width="24" height="72"/>
   <object id="936" gid="6073" x="312" y="312" width="32" height="40"/>
   <object id="937" gid="6073" x="312" y="392" width="32" height="40"/>
  </objectgroup>
  <objectgroup draworder="index" id="66" name="Level_0_Assets_Wedding_Flowers_multicolor">
   <object id="922" gid="6049" x="200" y="256" width="24" height="72"/>
   <object id="923" gid="6049" x="288" y="256" width="24" height="72"/>
   <object id="938" gid="6072" x="312" y="392" width="32" height="40"/>
   <object id="939" gid="6072" x="312" y="312" width="32" height="40"/>
  </objectgroup>
  <objectgroup draworder="index" id="67" name="Level_0_Assets_Wedding_Flowers_ebony">
   <object id="924" gid="6065" x="200" y="256" width="24" height="72"/>
   <object id="925" gid="6065" x="288" y="256" width="24" height="72"/>
   <object id="940" gid="6069" x="312" y="392" width="32" height="40"/>
   <object id="941" gid="6069" x="312" y="312" width="32" height="40"/>
  </objectgroup>
  <objectgroup draworder="index" id="68" name="Level_0_Assets_Wedding_Flowers_blue">
   <object id="926" gid="6036" x="200" y="256" width="24" height="72"/>
   <object id="927" gid="6036" x="288" y="256" width="24" height="72"/>
   <object id="943" gid="6075" x="312" y="312" width="32" height="40"/>
   <object id="944" gid="6075" x="312" y="392" width="32" height="40"/>
  </objectgroup>
 </group>
 <group id="48" name="Level_0_Wedding_Cake">
  <objectgroup draworder="index" id="47" name="Level_0_Assets_Wedding_Cake_wildberry">
   <object id="806" gid="6052" x="352" y="248" width="32" height="40"/>
  </objectgroup>
  <objectgroup draworder="index" id="49" name="Level_0_Assets_Wedding_Cake_vanilla">
   <object id="805" gid="6053" x="352" y="248" width="32" height="40"/>
  </objectgroup>
  <objectgroup draworder="index" id="50" name="Level_0_Assets_Wedding_Cake_triple_chocolate">
   <object id="817" gid="6054" x="352" y="248" width="32" height="40"/>
  </objectgroup>
  <objectgroup draworder="index" id="51" name="Level_0_Assets_Wedding_Cake_spellfruit">
   <object id="818" gid="6057" x="352" y="248" width="32" height="40"/>
  </objectgroup>
  <objectgroup draworder="index" id="52" name="Level_0_Assets_Wedding_Cake_rose_hip">
   <object id="819" gid="6056" x="352" y="248" width="32" height="40"/>
  </objectgroup>
  <objectgroup draworder="index" id="53" name="Level_0_Assets_Wedding_Cake_rose">
   <object id="820" gid="6043" x="352" y="248" width="32" height="40"/>
  </objectgroup>
  <objectgroup draworder="index" id="54" name="Level_0_Assets_Wedding_Cake_pumpkin_pie">
   <object id="821" gid="6050" x="352" y="248" width="32" height="40"/>
  </objectgroup>
  <objectgroup draworder="index" id="55" name="Level_0_Assets_Wedding_Cake_moon_fruit">
   <object id="822" gid="6059" x="352" y="248" width="32" height="40"/>
  </objectgroup>
  <objectgroup draworder="index" id="56" name="Level_0_Assets_Wedding_Cake_mont_blanc">
   <object id="823" gid="6060" x="352" y="248" width="32" height="40"/>
  </objectgroup>
  <objectgroup draworder="index" id="57" name="Level_0_Assets_Wedding_Cake_lemon">
   <object id="824" gid="6061" x="352" y="248" width="32" height="40"/>
  </objectgroup>
  <objectgroup draworder="index" id="58" name="Level_0_Assets_Wedding_Cake_golden_cheesecake">
   <object id="825" gid="6040" x="352" y="248" width="32" height="40"/>
  </objectgroup>
  <objectgroup draworder="index" id="59" name="Level_0_Assets_Wedding_Cake_chocolate">
   <object id="826" gid="6039" x="352" y="248" width="32" height="40"/>
  </objectgroup>
 </group>
 <group id="11" name="Level_1">
  <layer id="12" name="Level_1_BlackArea" width="64" height="66">
   <properties>
    <property name="maybe_animation_id" value="75ea443e6634d96"/>
    <property name="maybe_tileset_id" value="d8b504e9a8480fbe"/>
    <property name="tile_size" type="int" value="16"/>
   </properties>
   <data encoding="csv">
1794,0,1794,0,1794,0,1794,0,1794,0,1794,0,1794,0,1794,0,1794,0,1794,0,1794,0,1794,0,1794,0,1794,0,1794,0,1794,0,1794,0,1794,0,1794,0,1794,0,1794,0,1794,0,1794,0,1794,0,1794,0,1794,0,1794,0,1794,0,1794,0,1794,0,1794,0,1794,0,
0,0,0,0,0,0,0,0,0,0,0,0,0,0,0,0,0,0,0,0,0,0,0,0,0,0,0,0,0,0,0,0,0,0,0,0,0,0,0,0,0,0,0,0,0,0,0,0,0,0,0,0,0,0,0,0,0,0,0,0,0,0,0,0,
1794,0,1794,0,1794,0,1794,0,1794,0,1794,0,1794,0,1794,0,1794,0,1794,0,1794,0,1794,0,1794,0,1794,0,1794,0,1794,0,1794,0,1794,0,1794,0,1794,0,1794,0,1794,0,1794,0,1794,0,1794,0,1794,0,1794,0,1794,0,1794,0,1794,0,1794,0,1794,0,
0,0,0,0,0,0,0,0,0,0,0,0,0,0,0,0,0,0,0,0,0,0,0,0,0,0,0,0,0,0,0,0,0,0,0,0,0,0,0,0,0,0,0,0,0,0,0,0,0,0,0,0,0,0,0,0,0,0,0,0,0,0,0,0,
1794,0,1794,0,1794,0,1794,0,1794,0,1794,0,1794,0,1794,0,1794,0,1794,0,1794,0,1794,0,1794,0,1794,0,1794,0,1794,0,1794,0,1794,0,1794,0,1794,0,1794,0,1794,0,1794,0,1794,0,1794,0,1794,0,1794,0,1794,0,1794,0,1794,0,1794,0,1794,0,
0,0,0,0,0,0,0,0,0,0,0,0,0,0,0,0,0,0,0,0,0,0,0,0,0,0,0,0,0,0,0,0,0,0,0,0,0,0,0,0,0,0,0,0,0,0,0,0,0,0,0,0,0,0,0,0,0,0,0,0,0,0,0,0,
1794,0,1794,0,1656,0,1656,0,1656,0,1656,0,1656,0,1656,0,1656,0,1656,0,1656,0,1656,0,1656,0,1656,0,1656,0,1656,0,1656,0,1656,0,1656,0,1656,0,1656,0,1656,0,1656,0,1656,0,1656,0,1656,0,1656,0,1656,0,1656,0,1656,0,1794,0,1794,0,
0,0,0,0,0,0,0,0,0,0,0,0,0,0,0,0,0,0,0,0,0,0,0,0,0,0,0,0,0,0,0,0,0,0,0,0,0,0,0,0,0,0,0,0,0,0,0,0,0,0,0,0,0,0,0,0,0,0,0,0,0,0,0,0,
1794,0,1794,0,1656,0,1656,0,1656,0,1656,0,1656,0,1656,0,1656,0,1656,0,1656,0,1656,0,1656,0,1656,0,1656,0,1656,0,1656,0,1656,0,1656,0,1656,0,1656,0,1656,0,1656,0,1656,0,1656,0,1656,0,1656,0,1656,0,1656,0,1656,0,1794,0,1794,0,
0,0,0,0,0,0,0,0,0,0,0,0,0,0,0,0,0,0,0,0,0,0,0,0,0,0,0,0,0,0,0,0,0,0,0,0,0,0,0,0,0,0,0,0,0,0,0,0,0,0,0,0,0,0,0,0,0,0,0,0,0,0,0,0,
1794,0,1794,0,1656,0,1656,0,1656,0,1656,0,1656,0,1656,0,1656,0,1656,0,1656,0,1656,0,1656,0,1656,0,1656,0,1656,0,1656,0,1656,0,1656,0,1656,0,1656,0,1656,0,1656,0,1656,0,1656,0,1656,0,1656,0,1656,0,1656,0,1656,0,1794,0,1794,0,
0,0,0,0,0,0,0,0,0,0,0,0,0,0,0,0,0,0,0,0,0,0,0,0,0,0,0,0,0,0,0,0,0,0,0,0,0,0,0,0,0,0,0,0,0,0,0,0,0,0,0,0,0,0,0,0,0,0,0,0,0,0,0,0,
1794,0,1794,0,1656,0,1656,0,1656,0,1656,0,1656,0,1656,0,1656,0,1656,0,1656,0,1656,0,1656,0,1656,0,1656,0,1656,0,1656,0,1656,0,1656,0,1656,0,1656,0,1656,0,1656,0,1656,0,1656,0,1656,0,1656,0,1656,0,1656,0,1656,0,1794,0,1794,0,
0,0,0,0,0,0,0,0,0,0,0,0,0,0,0,0,0,0,0,0,0,0,0,0,0,0,0,0,0,0,0,0,0,0,0,0,0,0,0,0,0,0,0,0,0,0,0,0,0,0,0,0,0,0,0,0,0,0,0,0,0,0,0,0,
1794,0,1794,0,1656,0,1656,0,1656,0,1656,0,1656,0,1656,0,1656,0,1656,0,1656,0,1656,0,1656,0,1656,0,1656,0,1656,0,1656,0,1656,0,1656,0,1656,0,1656,0,1656,0,1656,0,1656,0,1656,0,1656,0,1656,0,1656,0,1656,0,1656,0,1794,0,1794,0,
0,0,0,0,0,0,0,0,0,0,0,0,0,0,0,0,0,0,0,0,0,0,0,0,0,0,0,0,0,0,0,0,0,0,0,0,0,0,0,0,0,0,0,0,0,0,0,0,0,0,0,0,0,0,0,0,0,0,0,0,0,0,0,0,
1794,0,1794,0,1656,0,1656,0,1656,0,1656,0,1656,0,1656,0,1656,0,1656,0,1656,0,1656,0,1656,0,1656,0,1656,0,1656,0,1656,0,1656,0,1656,0,1656,0,1656,0,1656,0,1656,0,1656,0,1656,0,1656,0,1656,0,1656,0,1656,0,1656,0,1794,0,1794,0,
0,0,0,0,0,0,0,0,0,0,0,0,0,0,0,0,0,0,0,0,0,0,0,0,0,0,0,0,0,0,0,0,0,0,0,0,0,0,0,0,0,0,0,0,0,0,0,0,0,0,0,0,0,0,0,0,0,0,0,0,0,0,0,0,
1794,0,1794,0,1656,0,1656,0,1656,0,1656,0,1656,0,1656,0,1656,0,1656,0,1656,0,1656,0,1656,0,1656,0,1656,0,1656,0,1656,0,1656,0,1656,0,1656,0,1656,0,1656,0,1656,0,1656,0,1656,0,1656,0,1656,0,1656,0,1656,0,1656,0,1794,0,1794,0,
0,0,0,0,0,0,0,0,0,0,0,0,0,0,0,0,0,0,0,0,0,0,0,0,0,0,0,0,0,0,0,0,0,0,0,0,0,0,0,0,0,0,0,0,0,0,0,0,0,0,0,0,0,0,0,0,0,0,0,0,0,0,0,0,
1794,0,1794,0,1656,0,1656,0,1656,0,1656,0,1656,0,1656,0,1656,0,1656,0,1656,0,1656,0,1656,0,1656,0,1656,0,1656,0,1656,0,1656,0,1656,0,1656,0,1656,0,1656,0,1656,0,1656,0,1656,0,1656,0,1656,0,1656,0,1656,0,1656,0,1794,0,1794,0,
0,0,0,0,0,0,0,0,0,0,0,0,0,0,0,0,0,0,0,0,0,0,0,0,0,0,0,0,0,0,0,0,0,0,0,0,0,0,0,0,0,0,0,0,0,0,0,0,0,0,0,0,0,0,0,0,0,0,0,0,0,0,0,0,
1794,0,1794,0,1656,0,1656,0,1656,0,1656,0,1656,0,1656,0,1656,0,1656,0,1656,0,1656,0,1656,0,1656,0,1656,0,1656,0,1656,0,1656,0,1656,0,1656,0,1656,0,1656,0,1656,0,1656,0,1656,0,1656,0,1656,0,1656,0,1656,0,1656,0,1794,0,1794,0,
0,0,0,0,0,0,0,0,0,0,0,0,0,0,0,0,0,0,0,0,0,0,0,0,0,0,0,0,0,0,0,0,0,0,0,0,0,0,0,0,0,0,0,0,0,0,0,0,0,0,0,0,0,0,0,0,0,0,0,0,0,0,0,0,
1794,0,1794,0,1656,0,1656,0,1656,0,1656,0,1656,0,1656,0,1656,0,1656,0,1656,0,1656,0,1656,0,1656,0,1656,0,1656,0,1656,0,1656,0,1656,0,1656,0,1656,0,1656,0,1656,0,1656,0,1656,0,1656,0,1656,0,1656,0,1656,0,1656,0,1794,0,1794,0,
0,0,0,0,0,0,0,0,0,0,0,0,0,0,0,0,0,0,0,0,0,0,0,0,0,0,0,0,0,0,0,0,0,0,0,0,0,0,0,0,0,0,0,0,0,0,0,0,0,0,0,0,0,0,0,0,0,0,0,0,0,0,0,0,
1794,0,1794,0,1656,0,1656,0,1656,0,1656,0,1656,0,1656,0,1656,0,1656,0,1656,0,1656,0,1656,0,1656,0,1656,0,1656,0,1656,0,1656,0,1656,0,1656,0,1656,0,1656,0,1656,0,1656,0,1656,0,1656,0,1656,0,1656,0,1656,0,1656,0,1794,0,1794,0,
0,0,0,0,0,0,0,0,0,0,0,0,0,0,0,0,0,0,0,0,0,0,0,0,0,0,0,0,0,0,0,0,0,0,0,0,0,0,0,0,0,0,0,0,0,0,0,0,0,0,0,0,0,0,0,0,0,0,0,0,0,0,0,0,
1794,0,1794,0,1656,0,1656,0,1656,0,1656,0,1656,0,1656,0,1656,0,1656,0,1656,0,1656,0,1656,0,1656,0,1656,0,1656,0,1656,0,1656,0,1656,0,1656,0,1656,0,1656,0,1656,0,1656,0,1656,0,1656,0,1656,0,1656,0,1656,0,1656,0,1794,0,1794,0,
0,0,0,0,0,0,0,0,0,0,0,0,0,0,0,0,0,0,0,0,0,0,0,0,0,0,0,0,0,0,0,0,0,0,0,0,0,0,0,0,0,0,0,0,0,0,0,0,0,0,0,0,0,0,0,0,0,0,0,0,0,0,0,0,
1794,0,1794,0,1656,0,1656,0,1656,0,1656,0,1656,0,1656,0,1656,0,1656,0,1656,0,1656,0,1656,0,1656,0,1656,0,1656,0,1656,0,1656,0,1656,0,1656,0,1656,0,1656,0,1656,0,1656,0,1656,0,1656,0,1656,0,1656,0,1656,0,1656,0,1794,0,1794,0,
0,0,0,0,0,0,0,0,0,0,0,0,0,0,0,0,0,0,0,0,0,0,0,0,0,0,0,0,0,0,0,0,0,0,0,0,0,0,0,0,0,0,0,0,0,0,0,0,0,0,0,0,0,0,0,0,0,0,0,0,0,0,0,0,
1794,0,1794,0,1656,0,1656,0,1656,0,1656,0,1656,0,1656,0,1656,0,1656,0,1656,0,1656,0,1656,0,1656,0,1656,0,1656,0,1656,0,1656,0,1656,0,1656,0,1656,0,1656,0,1656,0,1656,0,1656,0,1656,0,1656,0,1656,0,1656,0,1656,0,1794,0,1794,0,
0,0,0,0,0,0,0,0,0,0,0,0,0,0,0,0,0,0,0,0,0,0,0,0,0,0,0,0,0,0,0,0,0,0,0,0,0,0,0,0,0,0,0,0,0,0,0,0,0,0,0,0,0,0,0,0,0,0,0,0,0,0,0,0,
1794,0,1794,0,1656,0,1656,0,1656,0,1656,0,1656,0,1656,0,1656,0,1656,0,1656,0,1656,0,1656,0,1656,0,1656,0,1656,0,1656,0,1656,0,1656,0,1656,0,1656,0,1656,0,1656,0,1656,0,1656,0,1656,0,1656,0,1656,0,1656,0,1656,0,1794,0,1794,0,
0,0,0,0,0,0,0,0,0,0,0,0,0,0,0,0,0,0,0,0,0,0,0,0,0,0,0,0,0,0,0,0,0,0,0,0,0,0,0,0,0,0,0,0,0,0,0,0,0,0,0,0,0,0,0,0,0,0,0,0,0,0,0,0,
1794,0,1794,0,1656,0,1656,0,1656,0,1656,0,1656,0,1656,0,1656,0,1656,0,1656,0,1656,0,1656,0,1656,0,1656,0,1656,0,1656,0,1656,0,1656,0,1656,0,1656,0,1656,0,1656,0,1656,0,1656,0,1656,0,1656,0,1656,0,1656,0,1656,0,1794,0,1794,0,
0,0,0,0,0,0,0,0,0,0,0,0,0,0,0,0,0,0,0,0,0,0,0,0,0,0,0,0,0,0,0,0,0,0,0,0,0,0,0,0,0,0,0,0,0,0,0,0,0,0,0,0,0,0,0,0,0,0,0,0,0,0,0,0,
1794,0,1794,0,1656,0,1656,0,1656,0,1656,0,1656,0,1656,0,1656,0,1656,0,1656,0,1656,0,1656,0,1656,0,1656,0,1656,0,1656,0,1656,0,1656,0,1656,0,1656,0,1656,0,1656,0,1656,0,1656,0,1656,0,1656,0,1656,0,1656,0,1656,0,1794,0,1794,0,
0,0,0,0,0,0,0,0,0,0,0,0,0,0,0,0,0,0,0,0,0,0,0,0,0,0,0,0,0,0,0,0,0,0,0,0,0,0,0,0,0,0,0,0,0,0,0,0,0,0,0,0,0,0,0,0,0,0,0,0,0,0,0,0,
1794,0,1794,0,1656,0,1656,0,1656,0,1656,0,1656,0,1656,0,1656,0,1656,0,1656,0,1656,0,1656,0,1656,0,1656,0,1656,0,1656,0,1656,0,1656,0,1656,0,1656,0,1656,0,1656,0,1656,0,1656,0,1656,0,1656,0,1656,0,1656,0,1656,0,1794,0,1794,0,
0,0,0,0,0,0,0,0,0,0,0,0,0,0,0,0,0,0,0,0,0,0,0,0,0,0,0,0,0,0,0,0,0,0,0,0,0,0,0,0,0,0,0,0,0,0,0,0,0,0,0,0,0,0,0,0,0,0,0,0,0,0,0,0,
1794,0,1794,0,1656,0,1656,0,1656,0,1656,0,1656,0,1656,0,1656,0,1656,0,1656,0,1656,0,1656,0,1656,0,1656,0,1656,0,1656,0,1656,0,1656,0,1656,0,1656,0,1656,0,1656,0,1656,0,1656,0,1656,0,1656,0,1656,0,1656,0,1656,0,1794,0,1794,0,
0,0,0,0,0,0,0,0,0,0,0,0,0,0,0,0,0,0,0,0,0,0,0,0,0,0,0,0,0,0,0,0,0,0,0,0,0,0,0,0,0,0,0,0,0,0,0,0,0,0,0,0,0,0,0,0,0,0,0,0,0,0,0,0,
1794,0,1794,0,1656,0,1656,0,1656,0,1656,0,1656,0,1656,0,1656,0,1656,0,1656,0,1656,0,1656,0,1656,0,1656,0,1656,0,1656,0,1656,0,1656,0,1656,0,1656,0,1656,0,1656,0,1656,0,1656,0,1656,0,1656,0,1656,0,1656,0,1656,0,1794,0,1794,0,
0,0,0,0,0,0,0,0,0,0,0,0,0,0,0,0,0,0,0,0,0,0,0,0,0,0,0,0,0,0,0,0,0,0,0,0,0,0,0,0,0,0,0,0,0,0,0,0,0,0,0,0,0,0,0,0,0,0,0,0,0,0,0,0,
1794,0,1794,0,1656,0,1656,0,1656,0,1656,0,1656,0,1656,0,1656,0,1656,0,1656,0,1656,0,1656,0,1656,0,1656,0,1656,0,1656,0,1656,0,1656,0,1656,0,1656,0,1656,0,1656,0,1656,0,1656,0,1656,0,1656,0,1656,0,1656,0,1656,0,1794,0,1794,0,
0,0,0,0,0,0,0,0,0,0,0,0,0,0,0,0,0,0,0,0,0,0,0,0,0,0,0,0,0,0,0,0,0,0,0,0,0,0,0,0,0,0,0,0,0,0,0,0,0,0,0,0,0,0,0,0,0,0,0,0,0,0,0,0,
1794,0,1794,0,1656,0,1656,0,1656,0,1656,0,1656,0,1656,0,1656,0,1656,0,1656,0,1656,0,1656,0,1656,0,1656,0,1656,0,1656,0,1656,0,1656,0,1656,0,1656,0,1656,0,1656,0,1656,0,1656,0,1656,0,1656,0,1656,0,1656,0,1656,0,1794,0,1794,0,
0,0,0,0,0,0,0,0,0,0,0,0,0,0,0,0,0,0,0,0,0,0,0,0,0,0,0,0,0,0,0,0,0,0,0,0,0,0,0,0,0,0,0,0,0,0,0,0,0,0,0,0,0,0,0,0,0,0,0,0,0,0,0,0,
1794,0,1794,0,1656,0,1656,0,1656,0,1656,0,1656,0,1656,0,1656,0,1656,0,1656,0,1656,0,1656,0,1656,0,1656,0,1656,0,1656,0,1656,0,1656,0,1656,0,1656,0,1656,0,1656,0,1656,0,1656,0,1656,0,1656,0,1656,0,1656,0,1656,0,1794,0,1794,0,
0,0,0,0,0,0,0,0,0,0,0,0,0,0,0,0,0,0,0,0,0,0,0,0,0,0,0,0,0,0,0,0,0,0,0,0,0,0,0,0,0,0,0,0,0,0,0,0,0,0,0,0,0,0,0,0,0,0,0,0,0,0,0,0,
1794,0,1794,0,1656,0,1656,0,1656,0,1656,0,1656,0,1656,0,1656,0,1656,0,1656,0,1656,0,1656,0,1656,0,1656,0,1656,0,1656,0,1656,0,1656,0,1656,0,1656,0,1656,0,1656,0,1656,0,1656,0,1656,0,1656,0,1656,0,1656,0,1656,0,1794,0,1794,0,
0,0,0,0,0,0,0,0,0,0,0,0,0,0,0,0,0,0,0,0,0,0,0,0,0,0,0,0,0,0,0,0,0,0,0,0,0,0,0,0,0,0,0,0,0,0,0,0,0,0,0,0,0,0,0,0,0,0,0,0,0,0,0,0,
1794,0,1794,0,1656,0,1656,0,1656,0,1656,0,1656,0,1656,0,1656,0,1656,0,1656,0,1656,0,1656,0,1656,0,1656,0,1656,0,1656,0,1656,0,1656,0,1656,0,1656,0,1656,0,1656,0,1656,0,1656,0,1656,0,1656,0,1656,0,1656,0,1656,0,1794,0,1794,0,
0,0,0,0,0,0,0,0,0,0,0,0,0,0,0,0,0,0,0,0,0,0,0,0,0,0,0,0,0,0,0,0,0,0,0,0,0,0,0,0,0,0,0,0,0,0,0,0,0,0,0,0,0,0,0,0,0,0,0,0,0,0,0,0,
1794,0,1794,0,1656,0,1656,0,1656,0,1656,0,1656,0,1656,0,1656,0,1656,0,1656,0,1656,0,1656,0,1656,0,1656,0,1656,0,1656,0,1656,0,1656,0,1656,0,1656,0,1656,0,1656,0,1656,0,1656,0,1656,0,1656,0,1656,0,1656,0,1656,0,1794,0,1794,0,
0,0,0,0,0,0,0,0,0,0,0,0,0,0,0,0,0,0,0,0,0,0,0,0,0,0,0,0,0,0,0,0,0,0,0,0,0,0,0,0,0,0,0,0,0,0,0,0,0,0,0,0,0,0,0,0,0,0,0,0,0,0,0,0,
1794,0,1794,0,1656,0,1656,0,1656,0,1656,0,1656,0,1656,0,1656,0,1656,0,1656,0,1656,0,1656,0,1656,0,1656,0,1656,0,1656,0,1656,0,1656,0,1656,0,1656,0,1656,0,1656,0,1656,0,1656,0,1656,0,1656,0,1656,0,1656,0,1656,0,1794,0,1794,0,
0,0,0,0,0,0,0,0,0,0,0,0,0,0,0,0,0,0,0,0,0,0,0,0,0,0,0,0,0,0,0,0,0,0,0,0,0,0,0,0,0,0,0,0,0,0,0,0,0,0,0,0,0,0,0,0,0,0,0,0,0,0,0,0,
1794,0,1794,0,1656,0,1656,0,1656,0,1656,0,1656,0,1656,0,1656,0,1656,0,1656,0,1656,0,1656,0,1656,0,1656,0,1656,0,1656,0,1656,0,1656,0,1656,0,1656,0,1656,0,1656,0,1656,0,1656,0,1656,0,1656,0,1656,0,1656,0,1656,0,1794,0,1794,0,
0,0,0,0,0,0,0,0,0,0,0,0,0,0,0,0,0,0,0,0,0,0,0,0,0,0,0,0,0,0,0,0,0,0,0,0,0,0,0,0,0,0,0,0,0,0,0,0,0,0,0,0,0,0,0,0,0,0,0,0,0,0,0,0,
1794,0,1794,0,1794,0,1794,0,1794,0,1794,0,1794,0,1794,0,1794,0,1794,0,1794,0,1794,0,1794,0,1794,0,1794,0,1794,0,1794,0,1794,0,1794,0,1794,0,1794,0,1794,0,1794,0,1794,0,1794,0,1794,0,1794,0,1794,0,1794,0,1794,0,1794,0,1794,0,
0,0,0,0,0,0,0,0,0,0,0,0,0,0,0,0,0,0,0,0,0,0,0,0,0,0,0,0,0,0,0,0,0,0,0,0,0,0,0,0,0,0,0,0,0,0,0,0,0,0,0,0,0,0,0,0,0,0,0,0,0,0,0,0,
1794,0,1794,0,1794,0,1794,0,1794,0,1794,0,1794,0,1794,0,1794,0,1794,0,1794,0,1794,0,1794,0,1794,0,1794,0,1794,0,1794,0,1794,0,1794,0,1794,0,1794,0,1794,0,1794,0,1794,0,1794,0,1794,0,1794,0,1794,0,1794,0,1794,0,1794,0,1794,0,
0,0,0,0,0,0,0,0,0,0,0,0,0,0,0,0,0,0,0,0,0,0,0,0,0,0,0,0,0,0,0,0,0,0,0,0,0,0,0,0,0,0,0,0,0,0,0,0,0,0,0,0,0,0,0,0,0,0,0,0,0,0,0,0
</data>
  </layer>
  <layer id="13" name="Level_1_Ceiling" width="64" height="66">
   <properties>
    <property name="maybe_animation_id" value="75ea443e6634d96"/>
    <property name="maybe_tileset_id" value="d8b504e9a8480fbe"/>
    <property name="tile_size" type="int" value="16"/>
   </properties>
   <data encoding="csv">
1656,0,1656,0,1656,0,1656,0,1656,0,1656,0,1656,0,1656,0,1656,0,1656,0,1656,0,1656,0,1656,0,1656,0,1656,0,1656,0,1656,0,1656,0,1656,0,1656,0,1656,0,1656,0,1656,0,1656,0,1656,0,1656,0,1656,0,1656,0,1656,0,1656,0,1656,0,1656,0,
0,0,0,0,0,0,0,0,0,0,0,0,0,0,0,0,0,0,0,0,0,0,0,0,0,0,0,0,0,0,0,0,0,0,0,0,0,0,0,0,0,0,0,0,0,0,0,0,0,0,0,0,0,0,0,0,0,0,0,0,0,0,0,0,
1656,0,1656,0,1656,0,1656,0,1925,0,1929,0,1928,0,1656,0,1656,0,1656,0,1925,0,1929,0,1928,0,1656,0,1674,0,1675,0,1676,0,1677,0,1656,0,1925,0,1929,0,1928,0,1656,0,1656,0,1656,0,1925,0,1929,0,1928,0,1656,0,1656,0,1656,0,1656,0,
0,0,0,0,0,0,0,0,0,0,0,0,0,0,0,0,0,0,0,0,0,0,0,0,0,0,0,0,0,0,0,0,0,0,0,0,0,0,0,0,0,0,0,0,0,0,0,0,0,0,0,0,0,0,0,0,0,0,0,0,0,0,0,0,
1656,0,1664,0,1665,0,1666,0,1989,0,1993,0,1992,0,1666,0,1666,0,1666,0,1989,0,1993,0,1992,0,1666,0,1738,0,1739,0,1740,0,1741,0,1666,0,1989,0,1993,0,1992,0,1666,0,1666,0,1666,0,1989,0,1993,0,1992,0,1666,0,1667,0,1668,0,1656,0,
0,0,0,0,0,0,0,0,0,0,0,0,0,0,0,0,0,0,0,0,0,0,0,0,0,0,0,0,0,0,0,0,0,0,0,0,0,0,0,0,0,0,0,0,0,0,0,0,0,0,0,0,0,0,0,0,0,0,0,0,0,0,0,0,
1656,0,1728,0,1729,0,1730,0,2053,0,2057,0,2056,0,1730,0,1733,0,1730,0,2053,0,2057,0,2056,0,1730,0,1802,0,1803,0,1804,0,1805,0,1730,0,2053,0,2057,0,2056,0,1730,0,1733,0,1730,0,2053,0,2057,0,2056,0,1730,0,1731,0,1732,0,1656,0,
0,0,0,0,0,0,0,0,0,0,0,0,0,0,0,0,0,0,0,0,0,0,0,0,0,0,0,0,0,0,0,0,0,0,0,0,0,0,0,0,0,0,0,0,0,0,0,0,0,0,0,0,0,0,0,0,0,0,0,0,0,0,0,0,
1656,0,1792,0,1793,0,1656,0,2117,0,2121,0,2120,0,1656,0,1797,0,1656,0,2117,0,2121,0,2120,0,1656,0,1866,0,1867,0,1868,0,1869,0,1656,0,2117,0,2121,0,2120,0,1656,0,1797,0,1656,0,2117,0,2121,0,2120,0,1656,0,1795,0,1796,0,1656,0,
0,0,0,0,0,0,0,0,0,0,0,0,0,0,0,0,0,0,0,0,0,0,0,0,0,0,0,0,0,0,0,0,0,0,0,0,0,0,0,0,0,0,0,0,0,0,0,0,0,0,0,0,0,0,0,0,0,0,0,0,0,0,0,0,
1656,0,1792,0,1793,0,1656,0,1656,0,1656,0,1656,0,1656,0,1656,0,1656,0,1656,0,1656,0,1656,0,1656,0,1656,0,1656,0,1656,0,1656,0,1656,0,1656,0,1656,0,1656,0,1656,0,1656,0,1656,0,1656,0,1656,0,1656,0,1656,0,1795,0,1796,0,1656,0,
0,0,0,0,0,0,0,0,0,0,0,0,0,0,0,0,0,0,0,0,0,0,0,0,0,0,0,0,0,0,0,0,0,0,0,0,0,0,0,0,0,0,0,0,0,0,0,0,0,0,0,0,0,0,0,0,0,0,0,0,0,0,0,0,
1656,0,1792,0,1670,0,1656,0,1656,0,1656,0,1656,0,1656,0,1656,0,1656,0,1656,0,1656,0,1656,0,1656,0,1656,0,1656,0,1656,0,1656,0,1656,0,1656,0,1656,0,1656,0,1656,0,1656,0,1656,0,1656,0,1656,0,1656,0,1656,0,1669,0,1796,0,1656,0,
0,0,0,0,0,0,0,0,0,0,0,0,0,0,0,0,0,0,0,0,0,0,0,0,0,0,0,0,0,0,0,0,0,0,0,0,0,0,0,0,0,0,0,0,0,0,0,0,0,0,0,0,0,0,0,0,0,0,0,0,0,0,0,0,
1656,0,1792,0,1793,0,1656,0,1656,0,1656,0,1656,0,1656,0,1656,0,1656,0,1656,0,1656,0,1656,0,1656,0,1656,0,1656,0,1656,0,1656,0,1656,0,1656,0,1656,0,1656,0,1656,0,1656,0,1656,0,1656,0,1656,0,1656,0,1656,0,1795,0,1796,0,1656,0,
0,0,0,0,0,0,0,0,0,0,0,0,0,0,0,0,0,0,0,0,0,0,0,0,0,0,0,0,0,0,0,0,0,0,0,0,0,0,0,0,0,0,0,0,0,0,0,0,0,0,0,0,0,0,0,0,0,0,0,0,0,0,0,0,
1656,0,1792,0,1793,0,1656,0,1656,0,1656,0,1656,0,1656,0,1656,0,1656,0,1656,0,1656,0,1656,0,1656,0,1656,0,1656,0,1656,0,1656,0,1656,0,1656,0,1656,0,1656,0,1656,0,1656,0,1656,0,1656,0,1656,0,1656,0,1656,0,1795,0,1796,0,1656,0,
0,0,0,0,0,0,0,0,0,0,0,0,0,0,0,0,0,0,0,0,0,0,0,0,0,0,0,0,0,0,0,0,0,0,0,0,0,0,0,0,0,0,0,0,0,0,0,0,0,0,0,0,0,0,0,0,0,0,0,0,0,0,0,0,
1656,0,1792,0,1793,0,1656,0,1656,0,1656,0,1656,0,1656,0,1656,0,1656,0,1656,0,1656,0,1656,0,1656,0,1656,0,1656,0,1656,0,1656,0,1656,0,1656,0,1656,0,1656,0,1656,0,1656,0,1656,0,1656,0,1656,0,1656,0,1656,0,1795,0,1796,0,1656,0,
0,0,0,0,0,0,0,0,0,0,0,0,0,0,0,0,0,0,0,0,0,0,0,0,0,0,0,0,0,0,0,0,0,0,0,0,0,0,0,0,0,0,0,0,0,0,0,0,0,0,0,0,0,0,0,0,0,0,0,0,0,0,0,0,
1656,0,1792,0,1670,0,1656,0,1656,0,1656,0,1656,0,1656,0,1656,0,1656,0,1656,0,1656,0,1656,0,1656,0,1656,0,1656,0,1656,0,1656,0,1656,0,1656,0,1656,0,1656,0,1656,0,1656,0,1656,0,1656,0,1656,0,1656,0,1656,0,1669,0,1796,0,1656,0,
0,0,0,0,0,0,0,0,0,0,0,0,0,0,0,0,0,0,0,0,0,0,0,0,0,0,0,0,0,0,0,0,0,0,0,0,0,0,0,0,0,0,0,0,0,0,0,0,0,0,0,0,0,0,0,0,0,0,0,0,0,0,0,0,
1656,0,1792,0,1793,0,1656,0,1656,0,1656,0,1656,0,1656,0,1656,0,1656,0,1656,0,1656,0,1656,0,1656,0,1656,0,1656,0,1656,0,1656,0,1656,0,1656,0,1656,0,1656,0,1656,0,1656,0,1656,0,1656,0,1656,0,1656,0,1656,0,1795,0,1796,0,1656,0,
0,0,0,0,0,0,0,0,0,0,0,0,0,0,0,0,0,0,0,0,0,0,0,0,0,0,0,0,0,0,0,0,0,0,0,0,0,0,0,0,0,0,0,0,0,0,0,0,0,0,0,0,0,0,0,0,0,0,0,0,0,0,0,0,
1656,0,1792,0,1793,0,1656,0,1656,0,1656,0,1656,0,1656,0,1656,0,1656,0,1656,0,1656,0,1656,0,1656,0,1656,0,1656,0,1656,0,1656,0,1656,0,1656,0,1656,0,1656,0,1656,0,1656,0,1656,0,1656,0,1656,0,1656,0,1656,0,1795,0,1796,0,1656,0,
0,0,0,0,0,0,0,0,0,0,0,0,0,0,0,0,0,0,0,0,0,0,0,0,0,0,0,0,0,0,0,0,0,0,0,0,0,0,0,0,0,0,0,0,0,0,0,0,0,0,0,0,0,0,0,0,0,0,0,0,0,0,0,0,
1986,0,1987,0,1988,0,1656,0,1656,0,1656,0,1656,0,1656,0,1656,0,1656,0,1656,0,1656,0,1656,0,1656,0,1656,0,1656,0,1656,0,1656,0,1656,0,1656,0,1656,0,1656,0,1656,0,1656,0,1656,0,1656,0,1656,0,1656,0,1656,0,2147485636,0,2147485635,0,2147485634,0,
0,0,0,0,0,0,0,0,0,0,0,0,0,0,0,0,0,0,0,0,0,0,0,0,0,0,0,0,0,0,0,0,0,0,0,0,0,0,0,0,0,0,0,0,0,0,0,0,0,0,0,0,0,0,0,0,0,0,0,0,0,0,0,0,
2050,0,2051,0,2052,0,1656,0,1656,0,1656,0,1656,0,1656,0,1656,0,1656,0,1656,0,1656,0,1656,0,1656,0,1656,0,1656,0,1656,0,1656,0,1656,0,1656,0,1656,0,1656,0,1656,0,1656,0,1656,0,1656,0,1656,0,1656,0,1656,0,2147485700,0,2147485699,0,2147485698,0,
0,0,0,0,0,0,0,0,0,0,0,0,0,0,0,0,0,0,0,0,0,0,0,0,0,0,0,0,0,0,0,0,0,0,0,0,0,0,0,0,0,0,0,0,0,0,0,0,0,0,0,0,0,0,0,0,0,0,0,0,0,0,0,0,
2114,0,2115,0,2116,0,1656,0,1656,0,1656,0,1656,0,1656,0,1656,0,1656,0,1656,0,1656,0,1656,0,1656,0,1656,0,1656,0,1656,0,1656,0,1656,0,1656,0,1656,0,1656,0,1656,0,1656,0,1656,0,1656,0,1656,0,1656,0,1656,0,2147485764,0,2147485763,0,2147485762,0,
0,0,0,0,0,0,0,0,0,0,0,0,0,0,0,0,0,0,0,0,0,0,0,0,0,0,0,0,0,0,0,0,0,0,0,0,0,0,0,0,0,0,0,0,0,0,0,0,0,0,0,0,0,0,0,0,0,0,0,0,0,0,0,0,
1656,0,1792,0,1793,0,1656,0,1656,0,1656,0,1656,0,1656,0,1656,0,1656,0,1656,0,1656,0,1656,0,1656,0,1656,0,1656,0,1656,0,1656,0,1656,0,1656,0,1656,0,1656,0,1656,0,1656,0,1656,0,1656,0,1656,0,1656,0,1656,0,1795,0,1796,0,1656,0,
0,0,0,0,0,0,0,0,0,0,0,0,0,0,0,0,0,0,0,0,0,0,0,0,0,0,0,0,0,0,0,0,0,0,0,0,0,0,0,0,0,0,0,0,0,0,0,0,0,0,0,0,0,0,0,0,0,0,0,0,0,0,0,0,
1656,0,1792,0,1793,0,1656,0,1656,0,1656,0,1656,0,1656,0,1656,0,1656,0,1656,0,1656,0,1656,0,1656,0,1656,0,1656,0,1656,0,1656,0,1656,0,1656,0,1656,0,1656,0,1656,0,1656,0,1656,0,1656,0,1656,0,1656,0,1656,0,1795,0,1796,0,1656,0,
0,0,0,0,0,0,0,0,0,0,0,0,0,0,0,0,0,0,0,0,0,0,0,0,0,0,0,0,0,0,0,0,0,0,0,0,0,0,0,0,0,0,0,0,0,0,0,0,0,0,0,0,0,0,0,0,0,0,0,0,0,0,0,0,
1656,0,1792,0,1670,0,1656,0,1656,0,1656,0,1656,0,1656,0,1656,0,1656,0,1656,0,1656,0,1656,0,1656,0,1656,0,1656,0,1656,0,1656,0,1656,0,1656,0,1656,0,1656,0,1656,0,1656,0,1656,0,1656,0,1656,0,1656,0,1656,0,1669,0,1796,0,1656,0,
0,0,0,0,0,0,0,0,0,0,0,0,0,0,0,0,0,0,0,0,0,0,0,0,0,0,0,0,0,0,0,0,0,0,0,0,0,0,0,0,0,0,0,0,0,0,0,0,0,0,0,0,0,0,0,0,0,0,0,0,0,0,0,0,
1656,0,1792,0,1793,0,1656,0,1656,0,1656,0,1656,0,1656,0,1656,0,1656,0,1656,0,1656,0,1656,0,1656,0,1656,0,1656,0,1656,0,1656,0,1656,0,1656,0,1656,0,1656,0,1656,0,1656,0,1656,0,1656,0,1656,0,1656,0,1656,0,1795,0,1796,0,1656,0,
0,0,0,0,0,0,0,0,0,0,0,0,0,0,0,0,0,0,0,0,0,0,0,0,0,0,0,0,0,0,0,0,0,0,0,0,0,0,0,0,0,0,0,0,0,0,0,0,0,0,0,0,0,0,0,0,0,0,0,0,0,0,0,0,
1656,0,1792,0,1793,0,1656,0,1656,0,1656,0,1656,0,1656,0,1656,0,1656,0,1656,0,1656,0,1656,0,1656,0,1656,0,1656,0,1656,0,1656,0,1656,0,1656,0,1656,0,1656,0,1656,0,1656,0,1656,0,1656,0,1656,0,1656,0,1656,0,1795,0,1796,0,1656,0,
0,0,0,0,0,0,0,0,0,0,0,0,0,0,0,0,0,0,0,0,0,0,0,0,0,0,0,0,0,0,0,0,0,0,0,0,0,0,0,0,0,0,0,0,0,0,0,0,0,0,0,0,0,0,0,0,0,0,0,0,0,0,0,0,
1656,0,1792,0,1793,0,1656,0,1656,0,1656,0,1656,0,1656,0,1656,0,1656,0,1656,0,1656,0,1656,0,1656,0,1656,0,1656,0,1656,0,1656,0,1656,0,1656,0,1656,0,1656,0,1656,0,1656,0,1656,0,1656,0,1656,0,1656,0,1656,0,1795,0,1796,0,1656,0,
0,0,0,0,0,0,0,0,0,0,0,0,0,0,0,0,0,0,0,0,0,0,0,0,0,0,0,0,0,0,0,0,0,0,0,0,0,0,0,0,0,0,0,0,0,0,0,0,0,0,0,0,0,0,0,0,0,0,0,0,0,0,0,0,
1656,0,1792,0,1670,0,1656,0,1656,0,1656,0,1656,0,1656,0,1656,0,1656,0,1656,0,1656,0,1656,0,1656,0,1656,0,1656,0,1656,0,1656,0,1656,0,1656,0,1656,0,1656,0,1656,0,1656,0,1656,0,1656,0,1656,0,1656,0,1656,0,1669,0,1796,0,1656,0,
0,0,0,0,0,0,0,0,0,0,0,0,0,0,0,0,0,0,0,0,0,0,0,0,0,0,0,0,0,0,0,0,0,0,0,0,0,0,0,0,0,0,0,0,0,0,0,0,0,0,0,0,0,0,0,0,0,0,0,0,0,0,0,0,
1656,0,1792,0,1793,0,1656,0,1656,0,1656,0,1656,0,1656,0,1656,0,1656,0,1656,0,1656,0,1656,0,1656,0,1656,0,1656,0,1656,0,1656,0,1656,0,1656,0,1656,0,1656,0,1656,0,1656,0,1656,0,1656,0,1656,0,1656,0,1656,0,1795,0,1796,0,1656,0,
0,0,0,0,0,0,0,0,0,0,0,0,0,0,0,0,0,0,0,0,0,0,0,0,0,0,0,0,0,0,0,0,0,0,0,0,0,0,0,0,0,0,0,0,0,0,0,0,0,0,0,0,0,0,0,0,0,0,0,0,0,0,0,0,
1656,0,1792,0,1793,0,1656,0,1656,0,1656,0,1656,0,1656,0,1656,0,1656,0,1656,0,1656,0,1656,0,1656,0,1656,0,1656,0,1656,0,1656,0,1656,0,1656,0,1656,0,1656,0,1656,0,1656,0,1656,0,1656,0,1656,0,1656,0,1656,0,1795,0,1796,0,1656,0,
0,0,0,0,0,0,0,0,0,0,0,0,0,0,0,0,0,0,0,0,0,0,0,0,0,0,0,0,0,0,0,0,0,0,0,0,0,0,0,0,0,0,0,0,0,0,0,0,0,0,0,0,0,0,0,0,0,0,0,0,0,0,0,0,
1656,0,1792,0,1793,0,1656,0,1656,0,1656,0,1656,0,1656,0,1656,0,1656,0,1656,0,1656,0,1656,0,1656,0,1656,0,1656,0,1656,0,1656,0,1656,0,1656,0,1656,0,1656,0,1656,0,1656,0,1656,0,1656,0,1656,0,1656,0,1656,0,1795,0,1796,0,1656,0,
0,0,0,0,0,0,0,0,0,0,0,0,0,0,0,0,0,0,0,0,0,0,0,0,0,0,0,0,0,0,0,0,0,0,0,0,0,0,0,0,0,0,0,0,0,0,0,0,0,0,0,0,0,0,0,0,0,0,0,0,0,0,0,0,
1656,0,1792,0,1670,0,1656,0,1656,0,1656,0,1656,0,1656,0,1656,0,1656,0,1656,0,1656,0,1656,0,1656,0,1656,0,1656,0,1656,0,1656,0,1656,0,1656,0,1656,0,1656,0,1656,0,1656,0,1656,0,1656,0,1656,0,1656,0,1656,0,1669,0,1796,0,1656,0,
0,0,0,0,0,0,0,0,0,0,0,0,0,0,0,0,0,0,0,0,0,0,0,0,0,0,0,0,0,0,0,0,0,0,0,0,0,0,0,0,0,0,0,0,0,0,0,0,0,0,0,0,0,0,0,0,0,0,0,0,0,0,0,0,
1656,0,1792,0,1793,0,1656,0,1656,0,1656,0,1656,0,1656,0,1656,0,1656,0,1656,0,1656,0,1656,0,1656,0,1656,0,1656,0,1656,0,1656,0,1656,0,1656,0,1656,0,1656,0,1656,0,1656,0,1656,0,1656,0,1656,0,1656,0,1656,0,1795,0,1796,0,1656,0,
0,0,0,0,0,0,0,0,0,0,0,0,0,0,0,0,0,0,0,0,0,0,0,0,0,0,0,0,0,0,0,0,0,0,0,0,0,0,0,0,0,0,0,0,0,0,0,0,0,0,0,0,0,0,0,0,0,0,0,0,0,0,0,0,
1656,0,1792,0,1793,0,1656,0,1656,0,1656,0,1656,0,1656,0,1656,0,1656,0,1656,0,1656,0,1656,0,1656,0,1656,0,1656,0,1656,0,1656,0,1656,0,1656,0,1656,0,1656,0,1656,0,1656,0,1656,0,1656,0,1656,0,1656,0,1656,0,1795,0,1796,0,1656,0,
0,0,0,0,0,0,0,0,0,0,0,0,0,0,0,0,0,0,0,0,0,0,0,0,0,0,0,0,0,0,0,0,0,0,0,0,0,0,0,0,0,0,0,0,0,0,0,0,0,0,0,0,0,0,0,0,0,0,0,0,0,0,0,0,
1656,0,1792,0,1793,0,1656,0,1656,0,1656,0,1656,0,1656,0,1656,0,1656,0,1656,0,1656,0,1656,0,1656,0,1925,0,1926,0,1927,0,1928,0,1656,0,1656,0,1656,0,1656,0,1656,0,1656,0,1656,0,1656,0,1656,0,1656,0,1656,0,1795,0,1796,0,1656,0,
0,0,0,0,0,0,0,0,0,0,0,0,0,0,0,0,0,0,0,0,0,0,0,0,0,0,0,0,0,0,0,0,0,0,0,0,0,0,0,0,0,0,0,0,0,0,0,0,0,0,0,0,0,0,0,0,0,0,0,0,0,0,0,0,
1656,0,1856,0,1857,0,1858,0,1858,0,1734,0,1858,0,1858,0,1858,0,1858,0,1734,0,1858,0,1858,0,1858,0,1989,0,1990,0,1991,0,1992,0,1858,0,1858,0,1858,0,1734,0,1858,0,1858,0,1858,0,1858,0,1734,0,1858,0,1858,0,1859,0,1860,0,1656,0,
0,0,0,0,0,0,0,0,0,0,0,0,0,0,0,0,0,0,0,0,0,0,0,0,0,0,0,0,0,0,0,0,0,0,0,0,0,0,0,0,0,0,0,0,0,0,0,0,0,0,0,0,0,0,0,0,0,0,0,0,0,0,0,0,
1656,0,1920,0,1921,0,1922,0,1922,0,1922,0,1922,0,1922,0,1922,0,1922,0,1922,0,1922,0,1922,0,1922,0,2053,0,2054,0,2055,0,2056,0,1922,0,1922,0,1922,0,1922,0,1922,0,1922,0,1922,0,1922,0,1922,0,1922,0,1922,0,1923,0,1924,0,1656,0,
0,0,0,0,0,0,0,0,0,0,0,0,0,0,0,0,0,0,0,0,0,0,0,0,0,0,0,0,0,0,0,0,0,0,0,0,0,0,0,0,0,0,0,0,0,0,0,0,0,0,0,0,0,0,0,0,0,0,0,0,0,0,0,0,
1656,0,1656,0,1656,0,1656,0,1656,0,1656,0,1656,0,1656,0,1656,0,1656,0,1656,0,1656,0,1656,0,1656,0,2117,0,2118,0,2119,0,2120,0,1656,0,1656,0,1656,0,1656,0,1656,0,1656,0,1656,0,1656,0,1656,0,1656,0,1656,0,1656,0,1656,0,1656,0,
0,0,0,0,0,0,0,0,0,0,0,0,0,0,0,0,0,0,0,0,0,0,0,0,0,0,0,0,0,0,0,0,0,0,0,0,0,0,0,0,0,0,0,0,0,0,0,0,0,0,0,0,0,0,0,0,0,0,0,0,0,0,0,0
</data>
  </layer>
 </group>
 <objectgroup draworder="index" id="14" name="Instances">
  <object id="135" template="../../../templates/objects/obj_inn_soup.tx" type="obj_inn_soup" x="224" y="261"/>
  <object id="136" template="../../../templates/crafting_stations/obj_inn_kitchen.tx" type="obj_inn_kitchen" x="121" y="240"/>
 </objectgroup>
 <layer id="15" name="FootstepTiles" width="64" height="66" visible="0">
  <properties>
   <property name="maybe_animation_id" value="9b6388374855b54b"/>
   <property name="maybe_tileset_id" value="5fc72aa2902dea7"/>
   <property name="tile_size" type="int" value="16"/>
  </properties>
  <data encoding="csv">
0,0,0,0,0,0,0,0,0,0,0,0,0,0,0,0,0,0,0,0,0,0,0,0,0,0,0,0,0,0,0,0,0,0,0,0,0,0,0,0,0,0,0,0,0,0,0,0,0,0,0,0,0,0,0,0,0,0,0,0,0,0,0,0,
0,0,0,0,0,0,0,0,0,0,0,0,0,0,0,0,0,0,0,0,0,0,0,0,0,0,0,0,0,0,0,0,0,0,0,0,0,0,0,0,0,0,0,0,0,0,0,0,0,0,0,0,0,0,0,0,0,0,0,0,0,0,0,0,
0,0,0,0,0,0,0,0,0,0,0,0,0,0,0,0,0,0,0,0,0,0,0,0,0,0,0,0,0,0,0,0,0,0,0,0,0,0,0,0,0,0,0,0,0,0,0,0,0,0,0,0,0,0,0,0,0,0,0,0,0,0,0,0,
0,0,0,0,0,0,0,0,0,0,0,0,0,0,0,0,0,0,0,0,0,0,0,0,0,0,0,0,0,0,0,0,0,0,0,0,0,0,0,0,0,0,0,0,0,0,0,0,0,0,0,0,0,0,0,0,0,0,0,0,0,0,0,0,
0,0,0,0,0,0,0,0,0,0,0,0,0,0,0,0,0,0,0,0,0,0,0,0,0,0,0,0,0,0,0,0,0,0,0,0,0,0,0,0,0,0,0,0,0,0,0,0,0,0,0,0,0,0,0,0,0,0,0,0,0,0,0,0,
0,0,0,0,0,0,0,0,0,0,0,0,0,0,0,0,0,0,0,0,0,0,0,0,0,0,0,0,0,0,0,0,0,0,0,0,0,0,0,0,0,0,0,0,0,0,0,0,0,0,0,0,0,0,0,0,0,0,0,0,0,0,0,0,
0,0,0,0,0,0,0,0,0,0,0,0,0,0,0,0,0,0,0,0,0,0,0,0,0,0,0,0,0,0,0,0,0,0,0,0,0,0,0,0,0,0,0,0,0,0,0,0,0,0,0,0,0,0,0,0,0,0,0,0,0,0,0,0,
0,0,0,0,0,0,0,0,0,0,0,0,0,0,0,0,0,0,0,0,0,0,0,0,0,0,0,0,0,0,0,0,0,0,0,0,0,0,0,0,0,0,0,0,0,0,0,0,0,0,0,0,0,0,0,0,0,0,0,0,0,0,0,0,
0,0,0,0,0,0,0,0,0,0,0,0,0,0,0,0,0,0,0,0,0,0,0,0,0,0,0,0,0,0,0,0,0,0,0,0,0,0,0,0,0,0,0,0,0,0,0,0,0,0,0,0,0,0,0,0,0,0,0,0,0,0,0,0,
0,0,0,0,0,0,0,0,0,0,0,0,0,0,0,0,0,0,0,0,0,0,0,0,0,0,0,0,0,0,0,0,0,0,0,0,0,0,0,0,0,0,0,0,0,0,0,0,0,0,0,0,0,0,0,0,0,0,0,0,0,0,0,0,
0,0,0,0,0,0,0,0,0,0,0,0,0,0,0,0,0,0,0,0,0,0,0,0,0,0,0,0,0,0,0,0,0,0,0,0,0,0,0,0,0,0,0,0,0,0,0,0,0,0,0,0,0,0,0,0,0,0,0,0,0,0,0,0,
0,0,0,0,0,0,0,0,0,0,0,0,0,0,0,0,0,0,0,0,0,0,0,0,0,0,0,0,0,0,0,0,0,0,0,0,0,0,0,0,0,0,0,0,0,0,0,0,0,0,0,0,0,0,0,0,0,0,0,0,0,0,0,0,
0,0,0,0,0,0,0,0,0,0,0,0,0,0,0,0,0,0,0,0,0,0,0,0,0,0,0,0,0,0,0,0,0,0,0,0,0,0,0,0,0,0,0,0,0,0,0,0,0,0,0,0,0,0,0,0,0,0,0,0,0,0,0,0,
0,0,0,0,0,0,0,0,0,0,0,0,0,0,0,0,0,0,0,0,0,0,0,0,0,0,0,0,0,0,0,0,0,0,0,0,0,0,0,0,0,0,0,0,0,0,0,0,0,0,0,0,0,0,0,0,0,0,0,0,0,0,0,0,
0,0,0,0,1513,0,1513,0,1513,0,1513,0,1513,0,1513,0,1513,0,1513,0,1513,0,1513,0,1513,0,1513,0,1513,0,1513,0,1513,0,1513,0,1513,0,1513,0,1513,0,1513,0,1513,0,1513,0,1513,0,1513,0,1513,0,1513,0,1513,0,0,0,0,0,0,0,
0,0,0,0,0,0,0,0,0,0,0,0,0,0,0,0,0,0,0,0,0,0,0,0,0,0,0,0,0,0,0,0,0,0,0,0,0,0,0,0,0,0,0,0,0,0,0,0,0,0,0,0,0,0,0,0,0,0,0,0,0,0,0,0,
0,0,0,0,1513,0,1513,0,1513,0,1513,0,1513,0,1513,0,1513,0,1513,0,1513,0,1513,0,1513,0,1513,0,1513,0,1513,0,1513,0,1513,0,1513,0,1513,0,1513,0,1513,0,1513,0,1513,0,1513,0,1513,0,1513,0,1513,0,1513,0,0,0,0,0,0,0,
0,0,0,0,0,0,0,0,0,0,0,0,0,0,0,0,0,0,0,0,0,0,0,0,0,0,0,0,0,0,0,0,0,0,0,0,0,0,0,0,0,0,0,0,0,0,0,0,0,0,0,0,0,0,0,0,0,0,0,0,0,0,0,0,
0,0,0,0,1513,0,1513,0,1513,0,1513,0,1513,0,1513,0,1513,0,1513,0,1513,0,1513,0,1513,0,1513,0,1513,0,1513,0,1513,0,1513,0,1513,0,1513,0,1513,0,1513,0,1513,0,1513,0,1513,0,1513,0,1513,0,1513,0,1513,0,0,0,0,0,0,0,
0,0,0,0,0,0,0,0,0,0,0,0,0,0,0,0,0,0,0,0,0,0,0,0,0,0,0,0,0,0,0,0,0,0,0,0,0,0,0,0,0,0,0,0,0,0,0,0,0,0,0,0,0,0,0,0,0,0,0,0,0,0,0,0,
0,0,0,0,1513,0,1513,0,1513,0,1513,0,1513,0,1513,0,1513,0,1513,0,1513,0,1513,0,1513,0,1513,0,1513,0,1513,0,1513,0,1513,0,1513,0,1513,0,1513,0,1513,0,1513,0,1513,0,1513,0,1513,0,1513,0,1513,0,1513,0,0,0,0,0,0,0,
0,0,0,0,0,0,0,0,0,0,0,0,0,0,0,0,0,0,0,0,0,0,0,0,0,0,0,0,0,0,0,0,0,0,0,0,0,0,0,0,0,0,0,0,0,0,0,0,0,0,0,0,0,0,0,0,0,0,0,0,0,0,0,0,
0,0,0,0,1513,0,1513,0,1513,0,1513,0,1513,0,1513,0,1513,0,1513,0,1513,0,1513,0,1513,0,1513,0,1513,0,1513,0,1513,0,1513,0,1513,0,1513,0,1513,0,1513,0,1513,0,1513,0,1513,0,1513,0,1513,0,1513,0,1513,0,0,0,0,0,0,0,
0,0,0,0,0,0,0,0,0,0,0,0,0,0,0,0,0,0,0,0,0,0,0,0,0,0,0,0,0,0,0,0,0,0,0,0,0,0,0,0,0,0,0,0,0,0,0,0,0,0,0,0,0,0,0,0,0,0,0,0,0,0,0,0,
0,0,0,0,1513,0,1513,0,1513,0,1513,0,1513,0,1513,0,1513,0,1513,0,1513,0,1513,0,1513,0,1513,0,1513,0,1513,0,1513,0,1513,0,1513,0,1513,0,1513,0,1513,0,1513,0,1513,0,1513,0,1513,0,1513,0,1513,0,1513,0,0,0,0,0,0,0,
0,0,0,0,0,0,0,0,0,0,0,0,0,0,0,0,0,0,0,0,0,0,0,0,0,0,0,0,0,0,0,0,0,0,0,0,0,0,0,0,0,0,0,0,0,0,0,0,0,0,0,0,0,0,0,0,0,0,0,0,0,0,0,0,
0,0,0,0,1513,0,1513,0,1513,0,1513,0,1513,0,1513,0,1513,0,1513,0,1513,0,1513,0,1513,0,1513,0,1513,0,1513,0,1513,0,1513,0,1513,0,1513,0,1513,0,1513,0,1513,0,1513,0,1513,0,1513,0,1513,0,1513,0,1513,0,0,0,0,0,0,0,
0,0,0,0,0,0,0,0,0,0,0,0,0,0,0,0,0,0,0,0,0,0,0,0,0,0,0,0,0,0,0,0,0,0,0,0,0,0,0,0,0,0,0,0,0,0,0,0,0,0,0,0,0,0,0,0,0,0,0,0,0,0,0,0,
0,0,0,0,1513,0,1513,0,1513,0,1513,0,1514,0,1514,0,1514,0,1514,0,1514,0,1514,0,1514,0,1513,0,1514,0,1514,0,1514,0,1514,0,1513,0,1513,0,1513,0,1513,0,1513,0,1513,0,1513,0,1513,0,1513,0,1513,0,1513,0,0,0,0,0,0,0,
0,0,0,0,0,0,0,0,0,0,0,0,0,0,0,0,0,0,0,0,0,0,0,0,0,0,0,0,0,0,0,0,0,0,0,0,0,0,0,0,0,0,0,0,0,0,0,0,0,0,0,0,0,0,0,0,0,0,0,0,0,0,0,0,
0,0,0,0,1513,0,1513,0,1513,0,1513,0,1514,0,1514,0,1514,0,1514,0,1514,0,1514,0,1514,0,1513,0,1514,0,1514,0,1514,0,1514,0,1513,0,1513,0,1513,0,1513,0,1513,0,1513,0,1513,0,1513,0,1513,0,1513,0,1513,0,0,0,0,0,0,0,
0,0,0,0,0,0,0,0,0,0,0,0,0,0,0,0,0,0,0,0,0,0,0,0,0,0,0,0,0,0,0,0,0,0,0,0,0,0,0,0,0,0,0,0,0,0,0,0,0,0,0,0,0,0,0,0,0,0,0,0,0,0,0,0,
0,0,0,0,1513,0,1513,0,1513,0,1513,0,1514,0,1514,0,1514,0,1514,0,1514,0,1514,0,1514,0,1513,0,1513,0,1513,0,1513,0,1513,0,1513,0,1513,0,1513,0,1513,0,1513,0,1513,0,1513,0,1513,0,1513,0,1513,0,1513,0,0,0,0,0,0,0,
0,0,0,0,0,0,0,0,0,0,0,0,0,0,0,0,0,0,0,0,0,0,0,0,0,0,0,0,0,0,0,0,0,0,0,0,0,0,0,0,0,0,0,0,0,0,0,0,0,0,0,0,0,0,0,0,0,0,0,0,0,0,0,0,
0,0,0,0,1513,0,1513,0,1513,0,1513,0,1514,0,1514,0,1514,0,1514,0,1514,0,1514,0,1514,0,1513,0,1513,0,1513,0,1513,0,1513,0,1513,0,1513,0,1513,0,1513,0,1513,0,1513,0,1513,0,1513,0,1513,0,1513,0,1513,0,0,0,0,0,0,0,
0,0,0,0,0,0,0,0,0,0,0,0,0,0,0,0,0,0,0,0,0,0,0,0,0,0,0,0,0,0,0,0,0,0,0,0,0,0,0,0,0,0,0,0,0,0,0,0,0,0,0,0,0,0,0,0,0,0,0,0,0,0,0,0,
0,0,0,0,1513,0,1513,0,1513,0,1513,0,1514,0,1514,0,1514,0,1514,0,1514,0,1514,0,1514,0,1513,0,1513,0,1513,0,1513,0,1513,0,1513,0,1513,0,1513,0,1513,0,1513,0,1513,0,1513,0,1513,0,1513,0,1513,0,1513,0,0,0,0,0,0,0,
0,0,0,0,0,0,0,0,0,0,0,0,0,0,0,0,0,0,0,0,0,0,0,0,0,0,0,0,0,0,0,0,0,0,0,0,0,0,0,0,0,0,0,0,0,0,0,0,0,0,0,0,0,0,0,0,0,0,0,0,0,0,0,0,
0,0,0,0,1513,0,1513,0,1513,0,1513,0,1514,0,1514,0,1514,0,1514,0,1514,0,1514,0,1514,0,1513,0,1513,0,1513,0,1513,0,1513,0,1513,0,1513,0,1513,0,1513,0,1513,0,1513,0,1513,0,1513,0,1513,0,1513,0,1513,0,0,0,0,0,0,0,
0,0,0,0,0,0,0,0,0,0,0,0,0,0,0,0,0,0,0,0,0,0,0,0,0,0,0,0,0,0,0,0,0,0,0,0,0,0,0,0,0,0,0,0,0,0,0,0,0,0,0,0,0,0,0,0,0,0,0,0,0,0,0,0,
0,0,0,0,1513,0,1513,0,1513,0,1513,0,1514,0,1514,0,1514,0,1514,0,1514,0,1514,0,1514,0,1513,0,1513,0,1513,0,1513,0,1513,0,1513,0,1513,0,1513,0,1513,0,1513,0,1513,0,1513,0,1513,0,1513,0,1513,0,1513,0,0,0,0,0,0,0,
0,0,0,0,0,0,0,0,0,0,0,0,0,0,0,0,0,0,0,0,0,0,0,0,0,0,0,0,0,0,0,0,0,0,0,0,0,0,0,0,0,0,0,0,0,0,0,0,0,0,0,0,0,0,0,0,0,0,0,0,0,0,0,0,
0,0,0,0,1513,0,1513,0,1513,0,1513,0,1514,0,1514,0,1514,0,1514,0,1514,0,1514,0,1514,0,1513,0,1513,0,1513,0,1513,0,1513,0,1513,0,1513,0,1513,0,1513,0,1513,0,1513,0,1513,0,1513,0,1513,0,1513,0,1513,0,0,0,0,0,0,0,
0,0,0,0,0,0,0,0,0,0,0,0,0,0,0,0,0,0,0,0,0,0,0,0,0,0,0,0,0,0,0,0,0,0,0,0,0,0,0,0,0,0,0,0,0,0,0,0,0,0,0,0,0,0,0,0,0,0,0,0,0,0,0,0,
0,0,0,0,1513,0,1513,0,1513,0,1513,0,1514,0,1514,0,1514,0,1514,0,1514,0,1514,0,1514,0,1513,0,1513,0,1513,0,1513,0,1513,0,1513,0,1513,0,1513,0,1513,0,1513,0,1513,0,1513,0,1513,0,1513,0,1513,0,1513,0,0,0,0,0,0,0,
0,0,0,0,0,0,0,0,0,0,0,0,0,0,0,0,0,0,0,0,0,0,0,0,0,0,0,0,0,0,0,0,0,0,0,0,0,0,0,0,0,0,0,0,0,0,0,0,0,0,0,0,0,0,0,0,0,0,0,0,0,0,0,0,
0,0,0,0,1513,0,1513,0,1513,0,1513,0,1514,0,1514,0,1514,0,1514,0,1514,0,1514,0,1514,0,1513,0,1513,0,1513,0,1513,0,1513,0,1513,0,1513,0,1513,0,1513,0,1513,0,1513,0,1513,0,1513,0,1513,0,1513,0,1513,0,0,0,0,0,0,0,
0,0,0,0,0,0,0,0,0,0,0,0,0,0,0,0,0,0,0,0,0,0,0,0,0,0,0,0,0,0,0,0,0,0,0,0,0,0,0,0,0,0,0,0,0,0,0,0,0,0,0,0,0,0,0,0,0,0,0,0,0,0,0,0,
0,0,0,0,1513,0,1513,0,1513,0,1513,0,1513,0,1513,0,1513,0,1513,0,1513,0,1513,0,1513,0,1513,0,1513,0,1513,0,1513,0,1513,0,1513,0,1513,0,1513,0,1513,0,1513,0,1513,0,1513,0,1513,0,1513,0,1513,0,1513,0,0,0,0,0,0,0,
0,0,0,0,0,0,0,0,0,0,0,0,0,0,0,0,0,0,0,0,0,0,0,0,0,0,0,0,0,0,0,0,0,0,0,0,0,0,0,0,0,0,0,0,0,0,0,0,0,0,0,0,0,0,0,0,0,0,0,0,0,0,0,0,
0,0,0,0,1513,0,1513,0,1513,0,1513,0,1513,0,1513,0,1515,0,1515,0,1515,0,1515,0,1513,0,1513,0,1513,0,1513,0,1513,0,1513,0,1513,0,1513,0,1513,0,1513,0,1513,0,1513,0,1513,0,1513,0,1513,0,1513,0,1513,0,0,0,0,0,0,0,
0,0,0,0,0,0,0,0,0,0,0,0,0,0,0,0,0,0,0,0,0,0,0,0,0,0,0,0,0,0,0,0,0,0,0,0,0,0,0,0,0,0,0,0,0,0,0,0,0,0,0,0,0,0,0,0,0,0,0,0,0,0,0,0,
0,0,0,0,1513,0,1513,0,1513,0,1513,0,1513,0,1513,0,1515,0,1515,0,1515,0,1515,0,1513,0,1513,0,1513,0,1513,0,1513,0,1513,0,1513,0,1513,0,1513,0,1513,0,1513,0,1513,0,1513,0,1513,0,1513,0,1513,0,1513,0,0,0,0,0,0,0,
0,0,0,0,0,0,0,0,0,0,0,0,0,0,0,0,0,0,0,0,0,0,0,0,0,0,0,0,0,0,0,0,0,0,0,0,0,0,0,0,0,0,0,0,0,0,0,0,0,0,0,0,0,0,0,0,0,0,0,0,0,0,0,0,
0,0,0,0,1513,0,1513,0,1513,0,1513,0,1513,0,1513,0,1513,0,1513,0,1513,0,1513,0,1513,0,1514,0,1514,0,1514,0,1514,0,1514,0,1514,0,1513,0,1513,0,1513,0,1513,0,1513,0,1513,0,1513,0,1513,0,1513,0,1513,0,0,0,0,0,0,0,
0,0,0,0,0,0,0,0,0,0,0,0,0,0,0,0,0,0,0,0,0,0,0,0,0,0,0,0,0,0,0,0,0,0,0,0,0,0,0,0,0,0,0,0,0,0,0,0,0,0,0,0,0,0,0,0,0,0,0,0,0,0,0,0,
0,0,0,0,1513,0,1513,0,1513,0,1513,0,1513,0,1513,0,1513,0,1513,0,1513,0,1513,0,1513,0,1514,0,1514,0,1514,0,1514,0,1514,0,1514,0,1513,0,1513,0,1513,0,1513,0,1513,0,1513,0,1513,0,1513,0,1513,0,1513,0,0,0,0,0,0,0,
0,0,0,0,0,0,0,0,0,0,0,0,0,0,0,0,0,0,0,0,0,0,0,0,0,0,0,0,0,0,0,0,0,0,0,0,0,0,0,0,0,0,0,0,0,0,0,0,0,0,0,0,0,0,0,0,0,0,0,0,0,0,0,0,
0,0,0,0,1513,0,1513,0,1513,0,1513,0,1513,0,1513,0,1513,0,1513,0,1513,0,1513,0,1513,0,1514,0,1514,0,1514,0,1514,0,1514,0,1514,0,1513,0,1513,0,1513,0,1513,0,1513,0,1513,0,1513,0,1513,0,1513,0,1513,0,0,0,0,0,0,0,
0,0,0,0,0,0,0,0,0,0,0,0,0,0,0,0,0,0,0,0,0,0,0,0,0,0,0,0,0,0,0,0,0,0,0,0,0,0,0,0,0,0,0,0,0,0,0,0,0,0,0,0,0,0,0,0,0,0,0,0,0,0,0,0,
0,0,0,0,1513,0,1513,0,1513,0,1513,0,1513,0,1513,0,1513,0,1513,0,1513,0,1513,0,1513,0,1514,0,1514,0,1514,0,1514,0,1514,0,1514,0,1513,0,1513,0,1513,0,1513,0,1513,0,1513,0,1513,0,1513,0,1513,0,1513,0,0,0,0,0,0,0,
0,0,0,0,0,0,0,0,0,0,0,0,0,0,0,0,0,0,0,0,0,0,0,0,0,0,0,0,0,0,0,0,0,0,0,0,0,0,0,0,0,0,0,0,0,0,0,0,0,0,0,0,0,0,0,0,0,0,0,0,0,0,0,0,
0,0,0,0,0,0,0,0,0,0,0,0,0,0,0,0,0,0,0,0,0,0,0,0,0,0,0,0,0,0,0,0,0,0,0,0,0,0,0,0,0,0,0,0,0,0,0,0,0,0,0,0,0,0,0,0,0,0,0,0,0,0,0,0,
0,0,0,0,0,0,0,0,0,0,0,0,0,0,0,0,0,0,0,0,0,0,0,0,0,0,0,0,0,0,0,0,0,0,0,0,0,0,0,0,0,0,0,0,0,0,0,0,0,0,0,0,0,0,0,0,0,0,0,0,0,0,0,0,
0,0,0,0,0,0,0,0,0,0,0,0,0,0,0,0,0,0,0,0,0,0,0,0,0,0,0,0,0,0,0,0,0,0,0,0,0,0,0,0,0,0,0,0,0,0,0,0,0,0,0,0,0,0,0,0,0,0,0,0,0,0,0,0,
0,0,0,0,0,0,0,0,0,0,0,0,0,0,0,0,0,0,0,0,0,0,0,0,0,0,0,0,0,0,0,0,0,0,0,0,0,0,0,0,0,0,0,0,0,0,0,0,0,0,0,0,0,0,0,0,0,0,0,0,0,0,0,0
</data>
 </layer>
 <layer id="46" name="Tiles_Collision" width="64" height="66" visible="0">
  <properties>
   <property name="maybe_animation_id" value="d5b5e9552171fe70"/>
   <property name="maybe_tileset_id" value="b29026a2ad0be741"/>
   <property name="tile_size" type="int" value="8"/>
  </properties>
  <data encoding="csv">
1508,1508,1508,1508,1508,1508,1508,1508,1508,1508,1508,1508,1508,1508,1508,1508,1508,1508,1508,1508,1508,1508,1508,1508,1508,1508,1508,1508,1508,1508,1508,1508,1508,1508,1508,1508,1508,1508,1508,1508,1508,1508,1508,1508,1508,1508,1508,1508,1508,1508,1508,1508,1508,1508,1508,1508,1508,1508,1508,1508,1508,1508,1508,1508,
1508,1508,1508,1508,1508,1508,1508,1508,1508,1508,1508,1508,1508,1508,1508,1508,1508,1508,1508,1508,1508,1508,1508,1508,1508,1508,1508,1508,1508,1508,1508,1508,1508,1508,1508,1508,1508,1508,1508,1508,1508,1508,1508,1508,1508,1508,1508,1508,1508,1508,1508,1508,1508,1508,1508,1508,1508,1508,1508,1508,1508,1508,1508,1508,
1508,1508,1508,1508,1508,1508,1508,1508,1508,1508,1508,1508,1508,1508,1508,1508,1508,1508,1508,1508,1508,1508,1508,1508,1508,1508,1508,1508,1508,1508,1508,1508,1508,1508,1508,1508,1508,1508,1508,1508,1508,1508,1508,1508,1508,1508,1508,1508,1508,1508,1508,1508,1508,1508,1508,1508,1508,1508,1508,1508,1508,1508,1508,1508,
1508,1508,1508,1508,1508,1508,1508,1508,1508,1508,1508,1508,1508,1508,1508,1508,1508,1508,1508,1508,1508,1508,1508,1508,1508,1508,1508,1508,1508,1508,1508,1508,1508,1508,1508,1508,1508,1508,1508,1508,1508,1508,1508,1508,1508,1508,1508,1508,1508,1508,1508,1508,1508,1508,1508,1508,1508,1508,1508,1508,1508,1508,1508,1508,
1508,1508,1508,1508,1508,1508,1508,1508,1508,1508,1508,1508,1508,1508,1508,1508,1508,1508,1508,1508,1508,1508,1508,1508,1508,1508,1508,1508,1508,1508,1508,1508,1508,1508,1508,1508,1508,1508,1508,1508,1508,1508,1508,1508,1508,1508,1508,1508,1508,1508,1508,1508,1508,1508,1508,1508,1508,1508,1508,1508,1508,1508,1508,1508,
1508,1508,1508,1508,1508,1508,1508,1508,1508,1508,1508,1508,1508,1508,1508,1508,1508,1508,1508,1508,1508,1508,1508,1508,1508,1508,1508,1508,1508,1508,1508,1508,1508,1508,1508,1508,1508,1508,1508,1508,1508,1508,1508,1508,1508,1508,1508,1508,1508,1508,1508,1508,1508,1508,1508,1508,1508,1508,1508,1508,1508,1508,1508,1508,
1508,1508,1508,1508,1508,1508,1508,1508,1508,1508,1508,1508,1508,1508,1508,1508,1508,1508,1508,1508,1508,1508,1508,1508,1508,1508,1508,1508,1508,1508,1508,1508,1508,1508,1508,1508,1508,1508,1508,1508,1508,1508,1508,1508,1508,1508,1508,1508,1508,1508,1508,1508,1508,1508,1508,1508,1508,1508,1508,1508,1508,1508,1508,1508,
1508,1508,1508,1508,1508,1508,1508,1508,1508,1508,1508,1508,1508,1508,1508,1508,1508,1508,1508,1508,1508,1508,1508,1508,1508,1508,1508,1508,1508,1508,1508,1508,1508,1508,1508,1508,1508,1508,1508,1508,1508,1508,1508,1508,1508,1508,1508,1508,1508,1508,1508,1508,1508,1508,1508,1508,1508,1508,1508,1508,1508,1508,1508,1508,
1508,1508,1508,1508,1508,1508,1508,1508,1508,1508,1508,1508,1508,1508,1508,1508,1508,1508,1508,1508,1508,1508,1508,1508,1508,1508,1508,1508,1508,1508,1508,1508,1508,1508,1508,1508,1508,1508,1508,1508,1508,1508,1508,1508,1508,1508,1508,1508,1508,1508,1508,1508,1508,1508,1508,1508,1508,1508,1508,1508,1508,1508,1508,1508,
1508,1508,1508,1508,1508,1508,1508,1508,1508,1508,1508,1508,1508,1508,1508,1508,1508,1508,1508,1508,1508,1508,1508,1508,1508,1508,1508,1508,1508,1508,1508,1508,1508,1508,1508,1508,1508,1508,1508,1508,1508,1508,1508,1508,1508,1508,1508,1508,1508,1508,1508,1508,1508,1508,1508,1508,1508,1508,1508,1508,1508,1508,1508,1508,
1508,1508,1508,1508,1508,1508,1508,1508,1508,1508,1508,1508,1508,1508,1508,1508,1508,1508,1508,1508,1508,1508,1508,1508,1508,1508,1508,1508,1508,1508,1508,1508,1508,1508,1508,1508,1508,1508,1508,1508,1508,1508,1508,1508,1508,1508,1508,1508,1508,1508,1508,1508,1508,1508,1508,1508,1508,1508,1508,1508,1508,1508,1508,1508,
1508,1508,1508,1508,1508,1508,1508,1508,1508,1508,1508,1508,1508,1508,1508,1508,1508,1508,1508,1508,1508,1508,1508,1508,1508,1508,1508,1508,1508,1508,1508,1508,1508,1508,1508,1508,1508,1508,1508,1508,1508,1508,1508,1508,1508,1508,1508,1508,1508,1508,1508,1508,1508,1508,1508,1508,1508,1508,1508,1508,1508,1508,1508,1508,
1508,1508,1508,1508,1508,1508,1508,1508,1508,1508,1508,1508,1508,1508,1508,1508,1508,1508,1508,1508,1508,1508,1508,1508,1508,1508,1508,1508,1508,1508,1508,1508,1508,1508,1508,1508,1508,1508,1508,1508,1508,1508,1508,1508,1508,1508,1508,1508,1508,1508,1508,1508,1508,1508,1508,1508,1508,1508,1508,1508,1508,1508,1508,1508,
1508,1508,1508,1508,1508,1508,1508,1508,1508,0,1505,1505,0,1508,1508,1508,1508,1508,1508,1508,1508,0,1505,1505,0,1508,1508,1508,1508,1508,1508,1508,1508,1508,1508,1508,1508,1508,1508,0,1505,1505,0,1508,1508,1508,1508,1508,1508,1508,1508,0,1505,1505,0,1508,1508,1508,1508,1508,1508,1508,1508,1508,
1508,1508,1508,1508,1508,1508,1508,1508,1508,0,1505,1505,0,1508,1508,1508,1508,1508,1508,1508,1508,0,1505,1505,0,1508,1508,1508,1508,1508,1508,1508,1508,1508,1508,1508,1508,1508,1508,0,1505,1505,0,1508,1508,1508,1508,1508,1508,1508,1508,0,1505,1505,0,1508,1508,1508,1508,1508,1508,1508,1508,1508,
1508,1508,1508,1508,1508,1508,1505,1505,1505,1505,1505,1505,1505,1505,1505,1505,1505,1505,1505,1505,1505,1505,1505,1505,1505,1505,1505,1505,1508,1508,1508,1508,1508,1508,1508,1508,1505,1505,1505,1505,1505,1505,1505,1505,1505,1505,1505,1505,1505,1505,1505,0,1505,1505,0,1505,1505,1505,1508,1508,1508,1508,1508,1508,
1508,1508,1508,1508,1508,1508,1505,1505,1505,1505,1505,1505,1505,1505,1505,1505,1505,1505,1505,1505,1505,1505,1505,1505,1505,1505,1505,1505,1505,1505,1505,1505,1505,1505,1505,1505,1505,1505,1505,1505,1505,1505,1505,1505,1505,1505,1505,1505,1505,1505,1505,1505,1505,1505,1505,1505,1505,1505,1508,1508,1508,1508,1508,1508,
1508,1508,1508,1508,1508,1508,1505,1505,1505,1505,1505,1505,1505,1505,1505,1505,1505,1505,1505,1505,1505,1505,1505,1505,1505,1505,1505,1505,1505,1505,1505,1505,1505,1505,1505,1505,1505,1505,1505,1505,1505,1505,1505,1505,1505,1505,1505,1505,1505,1505,1505,1505,1505,1505,1505,1505,1505,1505,1508,1508,1508,1508,1508,1508,
1508,1508,1508,1508,1508,1508,1505,1505,1505,1505,1505,1508,1508,1508,1508,1508,1508,1508,1508,1508,1508,1508,1508,1508,1508,1508,1508,1505,1505,1505,1505,1505,1505,1505,1505,1505,1505,1508,1508,1508,1508,1508,1508,1508,1508,1508,1508,1508,1508,1508,1508,1508,1508,1505,1505,1505,1505,1505,1508,1508,1508,1508,1508,1508,
1508,1508,1508,1508,1508,1508,1505,1505,1505,1505,1505,1508,1508,1508,1508,1508,1508,1508,1508,1508,1508,1508,1508,1508,1508,1508,1508,1505,1505,1505,1505,1505,1505,1505,1505,1505,1505,1508,1508,1508,1508,1508,1508,1508,1508,1508,1508,1508,1508,1508,1508,1508,1508,1505,1505,1505,1505,1505,1508,1508,1508,1508,1508,1508,
1508,1508,1508,1508,1508,1508,1505,1505,1505,1505,1505,1508,1508,1508,1508,1508,1508,1508,1508,1508,1508,1508,1508,1508,1508,1508,1508,1505,1505,1505,1505,1505,1505,1505,1505,1505,1505,1508,1508,1508,1508,1508,1508,1508,1508,1508,1508,1508,1508,1508,1508,1508,1508,1505,1505,1505,1505,1505,1508,1508,1508,1508,1508,1508,
1508,1508,1508,1508,1508,1508,1505,1505,1505,1505,1505,1508,1508,1508,1508,1508,1508,1508,1508,1508,1508,1508,1508,1508,1508,1508,1508,1505,1505,1505,1505,1505,1505,1505,1505,1505,1505,1508,1508,1508,1508,1508,1508,1508,1508,1508,1508,1508,1508,1508,1508,1508,1508,1505,1505,1505,1505,1505,1508,1508,1508,1508,1508,1508,
1508,1508,1508,1508,1508,1508,1505,1505,1505,1505,1505,1508,1508,1508,1508,1508,1508,1508,1508,1508,1508,1508,1508,1508,1508,1508,1508,1508,1508,1508,1508,1508,1508,1508,1508,1508,1508,1508,1508,1508,1508,1508,1508,1508,1508,1508,1508,1508,1508,1508,1508,1508,1508,1505,1505,1505,1505,1505,1508,1508,1508,1508,1508,1508,
1508,1508,1508,1508,1508,1508,1505,1505,1505,1505,1505,1508,1508,1508,1508,1508,1508,1508,1508,1508,1508,1508,1508,1508,1508,1508,1508,1508,1508,1508,1508,1508,1508,1508,1508,1508,1508,1508,1508,1508,1508,1508,1508,1508,1508,1508,1508,1508,1508,1508,1508,1508,1508,1505,1505,1505,1505,1505,1508,1508,1508,1508,1508,1508,
1508,1508,1508,1508,1508,1508,1505,1505,1505,1505,1505,1508,1508,1508,1508,1508,1508,1508,1508,1508,1508,1508,1508,1508,1508,1508,1508,1508,1508,1508,1508,1508,1508,1508,1508,1508,1508,1508,1508,1508,1508,1508,1508,1508,1508,1508,1508,1508,1508,1508,1508,1508,1508,1505,1505,1505,1505,1505,1508,1508,1508,1508,1508,1508,
1508,1508,1508,1508,1508,1508,1505,1505,1505,1505,1505,1508,1508,1508,1508,1508,1508,1508,1508,1508,1508,1508,1508,1508,1508,1508,1508,1508,1508,1508,1508,1508,1508,1508,1508,1508,1508,1508,1508,1508,1508,1508,1508,1508,1508,1508,1508,1508,1508,1508,1508,1508,1508,1505,1505,1505,1505,1505,1508,1508,1508,1508,1508,1508,
1508,1508,1508,1508,1508,1508,1505,1505,1505,1505,1505,1508,1508,1508,1508,1508,1508,1508,1508,1508,1508,1508,1508,1508,1508,1508,1508,1508,1508,1508,1508,1508,1508,1508,1508,1508,1508,1508,1508,1508,1508,1508,1508,1508,1508,1508,1508,1508,1508,1508,1508,1508,1508,1505,1505,1505,1505,1505,1508,1508,1508,1508,1508,1508,
1508,1508,1508,1508,1508,1508,1505,1505,1505,1505,1505,1508,1508,1508,1508,1508,1508,1508,1508,1508,1508,1508,1508,1508,1508,1508,1508,1508,1508,1508,1508,1508,1508,1508,1508,1508,1508,1508,1508,1508,1508,1508,1508,1508,1508,1508,1508,1508,1508,1508,1508,1508,1508,1505,1505,1505,1505,1505,1508,1508,1508,1508,1508,1508,
1508,1508,1508,1508,1508,1508,1505,1505,1505,1505,1505,1508,1508,1508,1508,1508,1508,1508,1508,1508,1508,1508,1508,1508,1508,1508,1508,1508,1508,1508,1508,1508,1508,1508,1508,1508,1508,1508,1508,1508,1508,1508,1508,1508,1508,1508,1508,1508,1508,1508,1508,1508,1508,1505,1505,1505,1505,1505,1508,1508,1508,1508,1508,1508,
1508,1508,1508,1508,1508,1508,1505,1505,1505,1505,1505,1508,1508,1508,1505,1505,1505,1505,1505,1505,1505,1505,1508,1508,1508,1508,1508,1508,1508,1508,1508,1508,1508,1508,1508,1508,1508,1508,1508,1508,1508,1508,1508,1505,1505,1505,1505,1505,1505,1508,1508,1508,1508,1505,1505,1505,1505,1505,1508,1508,1508,1508,1508,1508,
1508,1508,1508,1505,1505,1505,1505,1505,1505,1505,1505,1508,1508,1508,1505,1505,1505,1505,1505,1505,1505,1505,1508,1508,1508,1508,1508,1508,1508,1508,1508,1508,1508,1508,1508,1508,1508,1508,1508,1508,1508,1505,1505,1505,1505,1505,1505,1505,1505,1508,1508,1508,1508,1505,1505,1505,1505,1505,1508,1508,1508,1508,1508,1508,
1508,1508,1508,1505,1505,1505,1505,1505,1505,1505,1505,1508,1508,1508,1505,1505,1505,1505,1505,1505,1505,1505,1505,1505,1505,1505,1505,1505,1505,1505,1505,1505,1505,1505,1505,1505,1505,1505,1505,1505,1505,1505,1505,1505,1505,1505,1505,1505,1505,1508,1508,1508,1508,1505,1505,1505,1505,1505,1508,1508,1508,1508,1508,1508,
1508,1508,1508,1505,1505,1505,1505,1505,1505,1505,1505,1508,1508,1508,1508,1505,1505,1505,1505,1505,1505,1505,1505,1505,1505,1505,1505,1505,1505,1505,1505,1505,1505,1505,1505,1505,1505,1505,1505,1505,1505,1505,1505,1505,1505,1505,1505,1505,1505,1508,1508,1508,1508,1505,1505,1505,1505,1505,1508,1508,1508,1508,1508,1508,
1508,1508,1508,1505,1505,1505,1505,1505,1505,1505,1505,1508,1508,1508,1508,1505,1505,1505,1505,1505,1505,1505,1505,1505,1505,1505,1505,1505,1505,1505,1505,1505,1505,1505,1505,1505,1505,1505,1505,1505,1505,1505,1505,1505,1505,1505,1505,1505,1505,1508,1508,1508,1508,1505,1505,1505,1505,1505,1508,1508,1508,1508,1508,1508,
1508,1508,1508,1508,1508,1508,1505,1505,1505,1505,1505,1508,1508,1508,1508,1505,1505,1505,1505,1505,1505,1505,1505,1505,1505,1505,1505,1505,1505,1505,1505,1505,1505,1505,1505,1505,1505,1508,1508,1508,1508,1508,1508,1508,1508,1505,1505,1505,1505,1505,1508,1508,1508,1505,1505,1505,1505,1505,1508,1508,1508,1508,1508,1508,
1508,1508,1508,1508,1508,1508,1505,1505,1505,1505,1505,1508,1508,1508,1508,1505,1505,1505,1505,1505,1505,1505,1505,1505,1505,1505,1505,1505,1505,1505,1505,1505,1505,1505,1505,1505,1508,1508,1508,1508,1508,1508,1508,1508,1508,1508,1505,1505,1505,1505,1508,1508,1508,1505,1505,1505,1505,1505,1508,1508,1508,1508,1508,1508,
1508,1508,1508,1508,1508,1508,1505,1505,1505,1505,1505,1508,1508,1508,1508,1505,1505,1505,1505,1505,1505,1505,1505,1505,1508,1508,1508,1505,1505,1505,1505,1505,1505,1505,1505,1505,1508,1508,1508,1508,1508,1508,1508,1508,1508,1508,1505,1505,1507,1507,1508,1508,1508,1505,1505,1505,1505,1505,1508,1508,1508,1508,1508,1508,
1508,1508,1508,1508,1508,1508,1505,1505,1505,1505,1505,1508,1508,1508,1508,1505,1505,1505,1505,1505,1505,1505,1505,1505,1508,1508,1508,1507,1507,1505,1505,1505,1505,1505,1505,1507,1508,1508,1508,1508,1508,1508,1508,1508,1508,1508,1507,1505,1505,1505,1508,1508,1508,1505,1505,1505,1505,1505,1508,1508,1508,1508,1508,1508,
1508,1508,1508,1508,1508,1508,1505,1505,1505,1505,1505,1508,1508,1508,1508,1505,1505,1505,1505,1505,1505,1505,1505,1505,1508,1508,1508,1505,1505,1505,1505,1505,1505,1505,1505,1507,1508,1508,1508,1508,1508,1508,1508,1508,1508,1508,1507,1505,1505,1505,1508,1508,1508,1505,1505,1505,1505,1505,1508,1508,1508,1508,1508,1508,
1508,1508,1508,1508,1508,1508,1505,1505,1505,1505,1505,1508,1508,1508,1508,1505,1505,1505,1505,1505,1505,1505,1505,1505,1508,1508,1508,1505,1505,1505,1505,1505,1505,1505,1505,1505,1508,1508,1508,1508,1508,1508,1508,1508,1508,1508,1505,1505,1505,1505,1508,1508,1508,1505,1505,1505,1505,1505,1508,1508,1508,1508,1508,1508,
1508,1508,1508,1508,1508,1508,1505,1505,1505,1505,1505,1508,1508,1508,1508,1505,1505,1505,1505,1505,1505,1505,1505,1505,1508,1508,1508,1507,1507,1505,1505,1505,1505,1505,1505,1505,1508,1508,1508,1508,1508,1508,1508,1508,1508,1508,1505,1505,1507,1507,1508,1508,1508,1505,1505,1505,1505,1505,1508,1508,1508,1508,1508,1508,
1508,1508,1508,1508,1508,1508,1505,1505,1505,1505,1505,1508,1508,1508,1508,1505,1505,1505,1505,1505,1505,1505,1505,1505,1508,1508,1508,1505,1505,1505,1505,1505,1505,1505,1505,1505,1505,1508,1508,1508,1508,1508,1508,1508,1508,1505,1505,1505,1505,1505,1508,1508,1508,1505,1505,1505,1505,1505,1508,1508,1508,1508,1508,1508,
1508,1508,1508,1508,1508,1508,1505,1505,1505,1505,1505,1508,1508,1508,1508,1505,1505,1505,1505,1505,1505,1505,1505,1505,1508,1508,1508,1505,1505,1505,1505,1505,1505,1505,1505,1505,1505,1505,1505,1505,1505,1505,1505,1505,1505,1505,1505,1505,1505,1508,1508,1508,1508,1505,1505,1505,1505,1505,1508,1508,1508,1508,1508,1508,
1508,1508,1508,1508,1508,1508,1505,1505,1505,1505,1505,1508,1508,1508,1508,1505,1505,1505,1505,1505,1505,1505,1505,1505,1508,1508,1508,1507,1507,1505,1505,1505,1505,1505,1505,1505,1505,1505,1505,1505,1505,1505,1505,1505,1505,1505,1505,1505,1505,1508,1508,1508,1508,1505,1505,1505,1505,1505,1508,1508,1508,1508,1508,1508,
1508,1508,1508,1508,1508,1508,1505,1505,1505,1505,1505,1508,1508,1508,1508,1505,1505,1505,1505,1505,1505,1505,1505,1505,1508,1508,1508,1505,1505,1505,1505,1505,1505,1505,1505,1505,1505,1508,1508,1508,1508,1508,1508,1508,1508,1505,1505,1505,1505,1505,1508,1508,1508,1505,1505,1505,1505,1505,1508,1508,1508,1508,1508,1508,
1508,1508,1508,1508,1508,1508,1505,1505,1505,1505,1505,1508,1508,1508,1508,1505,1505,1505,1505,1505,1505,1505,1505,1505,1508,1508,1508,1505,1505,1505,1505,1505,1505,1505,1505,1505,1508,1508,1508,1508,1508,1508,1508,1508,1508,1508,1505,1505,1505,1505,1508,1508,1508,1505,1505,1505,1505,1505,1508,1508,1508,1508,1508,1508,
1508,1508,1508,1508,1508,1508,1505,1505,1505,1505,1505,1508,1508,1508,1508,1505,1505,1505,1505,1505,1505,1505,1505,1505,1508,1508,1508,1507,1507,1505,1505,1505,1505,1505,1505,1505,1508,1508,1508,1508,1508,1508,1508,1508,1508,1508,1505,1505,1507,1507,1508,1508,1508,1505,1505,1505,1505,1505,1508,1508,1508,1508,1508,1508,
1508,1508,1508,1508,1508,1508,1505,1505,1505,1505,1505,1508,1508,1508,1508,1508,1508,1508,1508,1508,1508,1508,1508,1508,1508,1508,1508,1505,1505,1505,1505,1505,1505,1505,1505,1507,1508,1508,1508,1508,1508,1508,1508,1508,1508,1508,1507,1505,1505,1505,1508,1508,1508,1505,1505,1505,1505,1505,1508,1508,1508,1508,1508,1508,
1508,1508,1508,1508,1508,1508,1505,1505,1505,1505,1505,1508,1508,1508,1508,1508,1508,1508,1508,1508,1508,1508,1508,1508,1508,1508,1508,1505,1505,1505,1505,1505,1505,1505,1505,1507,1508,1508,1508,1508,1508,1508,1508,1508,1508,1508,1507,1505,1505,1505,1508,1508,1508,1505,1505,1505,1505,1505,1508,1508,1508,1508,1508,1508,
1508,1508,1508,1508,1508,1508,1505,1505,1505,1505,1505,1508,1508,1508,1508,1508,1508,1508,1508,1508,1508,1508,1508,1508,1508,1508,1508,1505,1505,1505,1505,1505,1505,1505,1505,1505,1508,1508,1508,1508,1508,1508,1508,1508,1508,1508,1505,1505,1505,1505,1508,1508,1508,1505,1505,1505,1505,1505,1508,1508,1508,1508,1508,1508,
1508,1508,1508,1508,1508,1508,1505,1505,1505,1505,1505,1507,1507,1505,1505,1505,1505,1505,1505,1505,1505,1505,1505,1505,1505,1505,1505,1505,1505,1505,1505,1505,1505,1505,1505,1505,1508,1508,1508,1508,1508,1508,1508,1508,1508,1508,1505,1505,1507,1507,1508,1508,1508,1505,1505,1505,1505,1505,1508,1508,1508,1508,1508,1508,
1508,1508,1508,1508,1508,1508,1505,1505,1505,1505,1505,1507,1507,1505,1505,1505,1505,1505,1505,1505,1505,1505,1505,1505,1505,1505,1505,1505,1505,1505,1505,1505,1505,1505,1505,1505,1505,1508,1508,1508,1508,1508,1508,1508,1508,1505,1505,1505,1505,1505,1508,1508,1508,1505,1505,1505,1505,1505,1508,1508,1508,1508,1508,1508,
1508,1508,1508,1508,1508,1508,1505,1505,1505,1505,1505,1507,1507,1505,1505,1505,1505,1505,1505,1505,1505,1505,1505,1505,1505,1505,1505,1505,1505,1505,1505,1505,1505,1505,1505,1505,1505,1505,1505,1505,1505,1505,1505,1505,1505,1505,1505,1505,1505,1505,1505,1507,1507,1505,1505,1505,1505,1505,1508,1508,1508,1508,1508,1508,
1508,1508,1508,1508,1508,1508,1505,1505,1505,1505,1505,1507,1507,1505,1505,1505,1505,1505,1505,1505,1505,1505,1505,1505,1505,1505,1505,1505,1505,1505,1505,1505,1505,1505,1505,1505,1505,1505,1505,1505,1505,1505,1505,1505,1505,1505,1505,1505,1505,1505,1505,1507,1507,1505,1505,1505,1505,1505,1508,1508,1508,1508,1508,1508,
1508,1508,1508,1508,1508,1508,1505,1505,1505,1505,1505,1505,1505,1505,1505,1505,1505,1505,1505,1505,1505,1505,1505,1505,1505,1505,1505,1505,1505,1505,1505,1505,1505,1505,1505,1505,1505,1505,1505,1505,1505,1505,1505,1505,1505,1505,1505,1505,1505,1505,1505,1505,1505,1505,1505,1505,1505,1505,1508,1508,1508,1508,1508,1508,
1508,1508,1508,1508,1508,1508,1505,1505,1505,1505,1505,1505,1505,1505,1505,1505,1505,1505,1505,1505,1505,1505,1505,1505,1505,1505,1505,1505,1505,1505,1505,1505,1505,1505,1505,1505,1505,1505,1505,1505,1505,1505,1505,1505,1505,1505,1505,1505,1505,1505,1505,1505,1505,1505,1505,1505,1505,1505,1508,1508,1508,1508,1508,1508,
1508,1508,1508,1508,1508,1508,1505,1505,1505,1505,1505,1505,1505,1505,1505,1505,1505,1505,1505,1505,1505,1505,1505,1505,1505,1505,1505,1505,1505,1505,1505,1505,1505,1505,1505,1505,1505,1505,1505,1505,1505,1505,1505,1505,1505,1505,1505,1505,1505,1505,1505,1505,1505,1505,1505,1505,1505,1505,1508,1508,1508,1508,1508,1508,
1508,1508,1508,1508,1508,1508,1505,1505,1505,1505,1505,1505,1505,1505,1505,1505,1505,1505,1505,1505,1505,1505,1505,1505,1505,1505,1505,1505,1505,1505,1505,1505,1505,1505,1505,1505,1505,1505,1505,1505,1505,1505,1505,1505,1505,1505,1505,1505,1505,1505,1505,1505,1505,1505,1505,1505,1505,1505,1508,1508,1508,1508,1508,1508,
1508,1508,1508,1508,1508,1508,1505,1505,1505,1505,1505,1505,1505,1505,1505,1505,1505,1505,1505,1505,1505,1505,1505,1505,1505,1505,1505,1505,1505,1505,1505,1505,1505,1505,1505,1505,1505,1505,1505,1505,1505,1505,1505,1505,1505,1505,1505,1505,1505,1505,1505,1505,1505,1505,1505,1505,1505,1505,1508,1508,1508,1508,1508,1508,
1508,1508,1508,1508,1508,1508,1505,1505,1505,1505,1505,1505,1505,1505,1505,1505,1505,1505,1505,1505,1505,1505,1505,1505,1505,1505,1505,1505,1505,1505,1505,1505,1505,1505,1505,1505,1505,1505,1505,1505,1505,1505,1505,1505,1505,1505,1505,1505,1505,1505,1505,1505,1505,1505,1505,1505,1505,1505,1508,1508,1508,1508,1508,1508,
1508,1508,1508,1508,1508,1508,1508,1508,1508,1508,1508,1508,1508,1508,1508,1508,1508,1508,1508,1508,1508,1508,1508,1508,1508,1508,1508,1508,1508,1508,1505,1505,1505,1505,1508,1508,1508,1508,1508,1508,1508,1508,1508,1508,1508,1508,1508,1508,1508,1508,1508,1508,1508,1508,1508,1508,1508,1508,1508,1508,1508,1508,1508,1508,
1508,1508,1508,1508,1508,1508,1508,1508,1508,1508,1508,1508,1508,1508,1508,1508,1508,1508,1508,1508,1508,1508,1508,1508,1508,1508,1508,1508,1508,1508,1505,1505,1505,1505,1508,1508,1508,1508,1508,1508,1508,1508,1508,1508,1508,1508,1508,1508,1508,1508,1508,1508,1508,1508,1508,1508,1508,1508,1508,1508,1508,1508,1508,1508,
1508,1508,1508,1508,1508,1508,1508,1508,1508,1508,1508,1508,1508,1508,1508,1508,1508,1508,1508,1508,1508,1508,1508,1508,1508,1508,1508,1508,1508,1508,1505,1505,1505,1505,1508,1508,1508,1508,1508,1508,1508,1508,1508,1508,1508,1508,1508,1508,1508,1508,1508,1508,1508,1508,1508,1508,1508,1508,1508,1508,1508,1508,1508,1508,
1508,1508,1508,1508,1508,1508,1508,1508,1508,1508,1508,1508,1508,1508,1508,1508,1508,1508,1508,1508,1508,1508,1508,1508,1508,1508,1508,1508,1508,1508,1505,1505,1505,1505,1508,1508,1508,1508,1508,1508,1508,1508,1508,1508,1508,1508,1508,1508,1508,1508,1508,1508,1508,1508,1508,1508,1508,1508,1508,1508,1508,1508,1508,1508,
1508,1508,1508,1508,1508,1508,1508,1508,1508,1508,1508,1508,1508,1508,1508,1508,1508,1508,1508,1508,1508,1508,1508,1508,1508,1508,1508,1508,1508,1508,1505,1505,1505,1505,1508,1508,1508,1508,1508,1508,1508,1508,1508,1508,1508,1508,1508,1508,1508,1508,1508,1508,1508,1508,1508,1508,1508,1508,1508,1508,1508,1508,1508,1508,
1508,1508,1508,1508,1508,1508,1508,1508,1508,1508,1508,1508,1508,1508,1508,1508,1508,1508,1508,1508,1508,1508,1508,1508,1508,1508,1508,1508,1508,1508,1505,1505,1505,1505,1508,1508,1508,1508,1508,1508,1508,1508,1508,1508,1508,1508,1508,1508,1508,1508,1508,1508,1508,1508,1508,1508,1508,1508,1508,1508,1508,1508,1508,1508
</data>
 </layer>
 <layer id="17" name="Tiles_Rules" width="64" height="66" visible="0">
  <properties>
   <property name="maybe_animation_id" value="f525790c1101b1a1"/>
   <property name="maybe_tileset_id" value="a3b6ca91b299d4f5"/>
   <property name="tile_size" type="int" value="8"/>
  </properties>
  <data encoding="csv">
0,0,0,0,0,0,0,0,0,0,0,0,0,0,0,0,0,0,0,0,0,0,0,0,0,0,0,0,0,0,0,0,0,0,0,0,0,0,0,0,0,0,0,0,0,0,0,0,0,0,0,0,0,0,0,0,0,0,0,0,0,0,0,0,
0,0,0,0,0,0,0,0,0,0,0,0,0,0,0,0,0,0,0,0,0,0,0,0,0,0,0,0,0,0,0,0,0,0,0,0,0,0,0,0,0,0,0,0,0,0,0,0,0,0,0,0,0,0,0,0,0,0,0,0,0,0,0,0,
0,0,0,0,0,0,0,0,0,0,0,0,0,0,0,0,0,0,0,0,0,0,0,0,0,0,0,0,0,0,0,0,0,0,0,0,0,0,0,0,0,0,0,0,0,0,0,0,0,0,0,0,0,0,0,0,0,0,0,0,0,0,0,0,
0,0,0,0,0,0,0,0,0,0,0,0,0,0,0,0,0,0,0,0,0,0,0,0,0,0,0,0,0,0,0,0,0,0,0,0,0,0,0,0,0,0,0,0,0,0,0,0,0,0,0,0,0,0,0,0,0,0,0,0,0,0,0,0,
0,0,0,0,0,0,0,0,0,0,0,0,0,0,0,0,0,0,0,0,0,0,0,0,0,0,0,0,0,0,0,0,0,0,0,0,0,0,0,0,0,0,0,0,0,0,0,0,0,0,0,0,0,0,0,0,0,0,0,0,0,0,0,0,
0,0,0,0,0,0,0,0,0,0,0,0,0,0,0,0,0,0,0,0,0,0,0,0,0,0,0,0,0,0,0,0,0,0,0,0,0,0,0,0,0,0,0,0,0,0,0,0,0,0,0,0,0,0,0,0,0,0,0,0,0,0,0,0,
0,0,0,0,0,0,0,0,0,0,0,0,0,0,0,0,0,0,0,0,0,0,0,0,0,0,0,0,0,0,0,0,0,0,0,0,0,0,0,0,0,0,0,0,0,0,0,0,0,0,0,0,0,0,0,0,0,0,0,0,0,0,0,0,
0,0,0,0,0,0,0,0,0,0,0,0,0,0,0,0,0,0,0,0,0,0,0,0,0,0,0,0,0,0,0,0,0,0,0,0,0,0,0,0,0,0,0,0,0,0,0,0,0,0,0,0,0,0,0,0,0,0,0,0,0,0,0,0,
0,0,0,0,0,0,0,0,0,0,0,0,0,0,0,0,0,0,0,0,0,0,0,0,0,0,0,0,0,0,0,0,0,0,0,0,0,0,0,0,0,0,0,0,0,0,0,0,0,0,0,0,0,0,0,0,0,0,0,0,0,0,0,0,
0,0,0,0,0,0,0,0,0,0,0,0,0,0,0,0,0,0,0,0,0,0,0,0,0,0,0,0,0,0,0,0,0,0,0,0,0,0,0,0,0,0,0,0,0,0,0,0,0,0,0,0,0,0,0,0,0,0,0,0,0,0,0,0,
0,0,0,0,0,0,0,0,0,0,0,0,0,0,0,0,0,0,0,0,0,0,0,0,0,0,0,0,0,0,0,0,0,0,0,0,0,0,0,0,0,0,0,0,0,0,0,0,0,0,0,0,0,0,0,0,0,0,0,0,0,0,0,0,
0,0,0,0,0,0,0,0,0,0,0,0,0,0,0,0,0,0,0,0,0,0,0,0,0,0,0,0,0,0,0,0,0,0,0,0,0,0,0,0,0,0,0,0,0,0,0,0,0,0,0,0,0,0,0,0,0,0,0,0,0,0,0,0,
0,0,0,0,0,0,0,0,0,0,0,0,0,0,0,0,0,0,0,0,0,0,0,0,0,0,0,0,0,0,0,0,0,0,0,0,0,0,0,0,0,0,0,0,0,0,0,0,0,0,0,0,0,0,0,0,0,0,0,0,0,0,0,0,
0,0,0,0,0,0,0,0,0,0,0,0,0,0,0,0,0,0,0,0,0,0,0,0,0,0,0,0,0,0,0,0,0,0,0,0,0,0,0,0,0,0,0,0,0,0,0,0,0,0,0,0,0,0,0,0,0,0,0,0,0,0,0,0,
0,0,0,0,0,0,0,0,0,0,0,0,0,0,0,0,0,0,0,0,0,0,0,0,0,0,0,0,0,0,0,0,0,0,0,0,0,0,0,0,0,0,0,0,0,0,0,0,0,0,0,0,0,0,0,0,0,0,0,0,0,0,0,0,
0,0,0,0,0,0,0,0,0,0,0,0,0,0,0,0,0,0,0,0,0,0,0,0,0,0,0,0,0,0,0,0,0,0,0,0,0,0,0,0,0,0,0,0,0,0,0,0,0,0,0,0,0,0,0,0,0,0,0,0,0,0,0,0,
0,0,0,0,0,0,0,0,0,0,0,0,0,0,0,0,0,0,0,0,0,0,0,0,0,0,0,0,0,0,0,0,0,0,0,0,0,0,0,0,0,0,0,0,0,0,0,0,0,0,0,0,0,0,0,0,0,0,0,0,0,0,0,0,
0,0,0,0,0,0,0,0,0,0,0,0,0,0,0,0,0,0,0,0,0,0,0,0,0,0,0,0,0,0,0,0,0,0,0,0,0,0,0,0,0,0,0,0,0,0,0,0,0,0,0,0,0,0,0,0,0,0,0,0,0,0,0,0,
0,0,0,0,0,0,0,0,0,0,0,0,0,0,0,0,0,0,0,0,0,0,0,0,0,0,0,0,0,0,0,0,0,0,0,0,0,0,0,0,0,0,0,0,0,0,0,0,0,0,0,0,0,0,0,0,0,0,0,0,0,0,0,0,
0,0,0,0,0,0,0,0,0,0,0,0,0,0,0,0,0,0,0,0,0,0,0,0,0,0,0,0,0,0,0,0,0,0,0,0,0,0,0,0,0,0,0,0,0,0,0,0,0,0,0,0,0,0,0,0,0,0,0,0,0,0,0,0,
0,0,0,0,0,0,0,0,0,0,0,0,0,0,0,0,0,0,0,0,0,0,0,0,0,0,0,0,0,0,0,0,0,0,0,0,0,0,0,0,0,0,0,0,0,0,0,0,0,0,0,0,0,0,0,0,0,0,0,0,0,0,0,0,
0,0,0,0,0,0,0,0,0,0,0,0,0,0,0,0,0,0,0,0,0,0,0,0,0,0,0,0,0,0,0,0,0,0,0,0,0,0,0,0,0,0,0,0,0,0,0,0,0,0,0,0,0,0,0,0,0,0,0,0,0,0,0,0,
0,0,0,0,0,0,0,0,0,0,0,0,0,0,0,0,0,0,0,0,0,0,0,0,0,0,0,0,0,0,0,0,0,0,0,0,0,0,0,0,0,0,0,0,0,0,0,0,0,0,0,0,0,0,0,0,0,0,0,0,0,0,0,0,
0,0,0,0,0,0,0,0,0,0,0,0,0,0,0,0,0,0,0,0,0,0,0,0,0,0,0,0,0,0,0,0,0,0,0,0,0,0,0,0,0,0,0,0,0,0,0,0,0,0,0,0,0,0,0,0,0,0,0,0,0,0,0,0,
0,0,0,0,0,0,0,0,0,0,0,0,0,0,0,0,0,0,0,0,0,0,0,0,0,0,0,0,0,0,0,0,0,0,0,0,0,0,0,0,0,0,0,0,0,0,0,0,0,0,0,0,0,0,0,0,0,0,0,0,0,0,0,0,
0,0,0,0,0,0,0,0,0,0,0,0,0,0,0,0,0,0,0,0,0,0,0,0,0,0,0,0,0,0,0,0,0,0,0,0,0,0,0,0,0,0,0,0,0,0,0,0,0,0,0,0,0,0,0,0,0,0,0,0,0,0,0,0,
0,0,0,0,0,0,0,0,0,0,0,0,0,0,0,0,0,0,0,0,0,0,0,0,0,0,0,0,0,0,0,0,0,0,0,0,0,0,0,0,0,0,0,0,0,0,0,0,0,0,0,0,0,0,0,0,0,0,0,0,0,0,0,0,
0,0,0,0,0,0,0,0,0,0,0,0,0,0,0,0,0,0,0,0,0,0,0,0,0,0,0,0,0,0,0,0,0,0,0,0,0,0,0,0,0,0,0,0,0,0,0,0,0,0,0,0,0,0,0,0,0,0,0,0,0,0,0,0,
0,0,0,0,0,0,0,0,0,0,0,0,0,0,0,0,0,0,0,0,0,0,0,0,0,0,0,0,0,0,0,0,0,0,0,0,0,0,0,0,0,0,0,0,0,0,0,0,0,0,0,0,0,0,0,0,0,0,0,0,0,0,0,0,
0,0,0,0,0,0,0,0,0,0,0,0,0,0,0,0,0,0,0,0,0,0,0,0,0,0,0,0,0,0,0,0,0,0,0,0,0,0,0,0,0,0,0,0,0,0,0,0,0,0,0,0,0,0,0,0,0,0,0,0,0,0,0,0,
0,0,0,0,0,0,0,0,0,0,0,0,0,0,0,0,0,0,0,0,0,0,0,0,0,0,0,0,0,0,0,0,0,0,0,0,0,0,0,0,0,0,0,0,0,0,0,0,0,0,0,0,0,0,0,0,0,0,0,0,0,0,0,0,
0,0,0,0,0,0,0,0,0,0,0,0,0,0,0,0,0,0,0,0,0,0,0,0,0,0,0,0,0,0,0,0,0,0,0,0,0,0,0,0,0,0,0,0,0,0,0,0,0,0,0,0,0,0,0,0,0,0,0,0,0,0,0,0,
0,0,0,0,0,0,0,0,0,0,0,0,0,0,0,0,0,0,0,0,0,0,0,0,0,0,0,0,0,0,0,0,0,0,0,0,0,0,0,0,0,0,0,0,0,0,0,0,0,0,0,0,0,0,0,0,0,0,0,0,0,0,0,0,
0,0,0,0,0,0,0,0,0,0,0,0,0,0,0,0,0,0,0,0,0,0,0,0,0,0,0,0,0,0,0,0,0,0,0,0,0,0,0,0,0,0,0,0,0,0,0,0,0,0,0,0,0,0,0,0,0,0,0,0,0,0,0,0,
0,0,0,0,0,0,0,0,0,0,0,0,0,0,0,0,0,0,0,0,0,0,0,0,0,0,0,0,0,0,0,0,0,0,0,0,0,0,0,0,0,0,0,0,0,0,0,0,0,0,0,0,0,0,0,0,0,0,0,0,0,0,0,0,
0,0,0,0,0,0,0,0,0,0,0,0,0,0,0,0,0,0,0,0,0,0,0,0,0,0,0,0,0,0,0,0,0,0,0,0,0,0,0,0,0,0,0,0,0,0,0,0,0,0,0,0,0,0,0,0,0,0,0,0,0,0,0,0,
0,0,0,0,0,0,0,0,0,0,0,0,0,0,0,0,0,0,0,0,0,0,0,0,0,0,0,0,0,0,0,0,0,0,0,0,0,0,0,0,0,0,0,0,0,0,0,0,0,0,0,0,0,0,0,0,0,0,0,0,0,0,0,0,
0,0,0,0,0,0,0,0,0,0,0,0,0,0,0,0,0,0,0,0,0,0,0,0,0,0,0,0,0,0,0,0,0,0,0,0,0,0,0,0,0,0,0,0,0,0,0,0,0,0,0,0,0,0,0,0,0,0,0,0,0,0,0,0,
0,0,0,0,0,0,0,0,0,0,0,0,0,0,0,0,0,0,0,0,0,0,0,0,0,0,0,0,0,0,0,0,0,0,0,0,0,0,0,0,0,0,0,0,0,0,0,0,0,0,0,0,0,0,0,0,0,0,0,0,0,0,0,0,
0,0,0,0,0,0,0,0,0,0,0,0,0,0,0,0,0,0,0,0,0,0,0,0,0,0,0,0,0,0,0,0,0,0,0,0,0,0,0,0,0,0,0,0,0,0,0,0,0,0,0,0,0,0,0,0,0,0,0,0,0,0,0,0,
0,0,0,0,0,0,0,0,0,0,0,0,0,0,0,0,0,0,0,0,0,0,0,0,0,0,0,0,0,0,0,0,0,0,0,0,0,0,0,0,0,0,0,0,0,0,0,0,0,0,0,0,0,0,0,0,0,0,0,0,0,0,0,0,
0,0,0,0,0,0,0,0,0,0,0,0,0,0,0,0,0,0,0,0,0,0,0,0,0,0,0,0,0,0,0,0,0,0,0,0,0,0,0,0,0,0,0,0,0,0,0,0,0,0,0,0,0,0,0,0,0,0,0,0,0,0,0,0,
0,0,0,0,0,0,0,0,0,0,0,0,0,0,0,0,0,0,0,0,0,0,0,0,0,0,0,0,0,0,0,0,0,0,0,0,0,0,0,0,0,0,0,0,0,0,0,0,0,0,0,0,0,0,0,0,0,0,0,0,0,0,0,0,
0,0,0,0,0,0,0,0,0,0,0,0,0,0,0,0,0,0,0,0,0,0,0,0,0,0,0,0,0,0,0,0,0,0,0,0,0,0,0,0,0,0,0,0,0,0,0,0,0,0,0,0,0,0,0,0,0,0,0,0,0,0,0,0,
0,0,0,0,0,0,0,0,0,0,0,0,0,0,0,0,0,0,0,0,0,0,0,0,0,0,0,0,0,0,0,0,0,0,0,0,0,0,0,0,0,0,0,0,0,0,0,0,0,0,0,0,0,0,0,0,0,0,0,0,0,0,0,0,
0,0,0,0,0,0,0,0,0,0,0,0,0,0,0,0,0,0,0,0,0,0,0,0,0,0,0,0,0,0,0,0,0,0,0,0,0,0,0,0,0,0,0,0,0,0,0,0,0,0,0,0,0,0,0,0,0,0,0,0,0,0,0,0,
0,0,0,0,0,0,0,0,0,0,0,0,0,0,0,0,0,0,0,0,0,0,0,0,0,0,0,0,0,0,0,0,0,0,0,0,0,0,0,0,0,0,0,0,0,0,0,0,0,0,0,0,0,0,0,0,0,0,0,0,0,0,0,0,
0,0,0,0,0,0,0,0,0,0,0,0,0,0,0,0,0,0,0,0,0,0,0,0,0,0,0,0,0,0,0,0,0,0,0,0,0,0,0,0,0,0,0,0,0,0,0,0,0,0,0,0,0,0,0,0,0,0,0,0,0,0,0,0,
0,0,0,0,0,0,0,0,0,0,0,0,0,0,0,0,0,0,0,0,0,0,0,0,0,0,0,0,0,0,0,0,0,0,0,0,0,0,0,0,0,0,0,0,0,0,0,0,0,0,0,0,0,0,0,0,0,0,0,0,0,0,0,0,
0,0,0,0,0,0,0,0,0,0,0,0,0,0,0,0,0,0,0,0,0,0,0,0,0,0,0,0,0,0,0,0,0,0,0,0,0,0,0,0,0,0,0,0,0,0,0,0,0,0,0,0,0,0,0,0,0,0,0,0,0,0,0,0,
0,0,0,0,0,0,0,0,0,0,0,0,0,0,0,0,0,0,0,0,0,0,0,0,0,0,0,0,0,0,0,0,0,0,0,0,0,0,0,0,0,0,0,0,0,0,0,0,0,0,0,0,0,0,0,0,0,0,0,0,0,0,0,0,
0,0,0,0,0,0,0,0,0,0,0,0,0,0,0,0,0,0,0,0,0,0,0,0,0,0,0,0,0,0,0,0,0,0,0,0,0,0,0,0,0,0,0,0,0,0,0,0,0,0,0,0,0,0,0,0,0,0,0,0,0,0,0,0,
0,0,0,0,0,0,0,0,0,0,0,0,0,0,0,0,0,0,0,0,0,0,0,0,0,0,0,0,0,0,0,0,0,0,0,0,0,0,0,0,0,0,0,0,0,0,0,0,0,0,0,0,0,0,0,0,0,0,0,0,0,0,0,0,
0,0,0,0,0,0,0,0,0,0,0,0,0,0,0,0,0,0,0,0,0,0,0,0,0,0,0,0,0,0,0,0,0,0,0,0,0,0,0,0,0,0,0,0,0,0,0,0,0,0,0,0,0,0,0,0,0,0,0,0,0,0,0,0,
0,0,0,0,0,0,0,0,0,0,0,0,0,0,0,0,0,0,0,0,0,0,0,0,0,0,0,0,0,0,0,0,0,0,0,0,0,0,0,0,0,0,0,0,0,0,0,0,0,0,0,0,0,0,0,0,0,0,0,0,0,0,0,0,
0,0,0,0,0,0,0,0,0,0,0,0,0,0,0,0,0,0,0,0,0,0,0,0,0,0,0,0,0,0,0,0,0,0,0,0,0,0,0,0,0,0,0,0,0,0,0,0,0,0,0,0,0,0,0,0,0,0,0,0,0,0,0,0,
0,0,0,0,0,0,0,0,0,0,0,0,0,0,0,0,0,0,0,0,0,0,0,0,0,0,0,0,0,0,0,0,0,0,0,0,0,0,0,0,0,0,0,0,0,0,0,0,0,0,0,0,0,0,0,0,0,0,0,0,0,0,0,0,
0,0,0,0,0,0,0,0,0,0,0,0,0,0,0,0,0,0,0,0,0,0,0,0,0,0,0,0,0,0,0,0,0,0,0,0,0,0,0,0,0,0,0,0,0,0,0,0,0,0,0,0,0,0,0,0,0,0,0,0,0,0,0,0,
0,0,0,0,0,0,0,0,0,0,0,0,0,0,0,0,0,0,0,0,0,0,0,0,0,0,0,0,0,0,0,0,0,0,0,0,0,0,0,0,0,0,0,0,0,0,0,0,0,0,0,0,0,0,0,0,0,0,0,0,0,0,0,0,
0,0,0,0,0,0,0,0,0,0,0,0,0,0,0,0,0,0,0,0,0,0,0,0,0,0,0,0,0,0,0,0,0,0,0,0,0,0,0,0,0,0,0,0,0,0,0,0,0,0,0,0,0,0,0,0,0,0,0,0,0,0,0,0,
0,0,0,0,0,0,0,0,0,0,0,0,0,0,0,0,0,0,0,0,0,0,0,0,0,0,0,0,0,0,0,0,0,0,0,0,0,0,0,0,0,0,0,0,0,0,0,0,0,0,0,0,0,0,0,0,0,0,0,0,0,0,0,0,
0,0,0,0,0,0,0,0,0,0,0,0,0,0,0,0,0,0,0,0,0,0,0,0,0,0,0,0,0,0,0,0,0,0,0,0,0,0,0,0,0,0,0,0,0,0,0,0,0,0,0,0,0,0,0,0,0,0,0,0,0,0,0,0,
0,0,0,0,0,0,0,0,0,0,0,0,0,0,0,0,0,0,0,0,0,0,0,0,0,0,0,0,0,0,0,0,0,0,0,0,0,0,0,0,0,0,0,0,0,0,0,0,0,0,0,0,0,0,0,0,0,0,0,0,0,0,0,0,
0,0,0,0,0,0,0,0,0,0,0,0,0,0,0,0,0,0,0,0,0,0,0,0,0,0,0,0,0,0,0,0,0,0,0,0,0,0,0,0,0,0,0,0,0,0,0,0,0,0,0,0,0,0,0,0,0,0,0,0,0,0,0,0,
0,0,0,0,0,0,0,0,0,0,0,0,0,0,0,0,0,0,0,0,0,0,0,0,0,0,0,0,0,0,0,0,0,0,0,0,0,0,0,0,0,0,0,0,0,0,0,0,0,0,0,0,0,0,0,0,0,0,0,0,0,0,0,0,
0,0,0,0,0,0,0,0,0,0,0,0,0,0,0,0,0,0,0,0,0,0,0,0,0,0,0,0,0,0,0,0,0,0,0,0,0,0,0,0,0,0,0,0,0,0,0,0,0,0,0,0,0,0,0,0,0,0,0,0,0,0,0,0
</data>
 </layer>
 <layer id="18" name="Pathfinding" width="64" height="66" visible="0">
  <properties>
   <property name="maybe_animation_id" value="6d2460f008fb99d4"/>
   <property name="maybe_tileset_id" value="264fe6c9523400a1"/>
   <property name="tile_size" type="int" value="8"/>
  </properties>
  <data encoding="csv">
0,0,0,0,0,0,0,0,0,0,0,0,0,0,0,0,0,0,0,0,0,0,0,0,0,0,0,0,0,0,0,0,0,0,0,0,0,0,0,0,0,0,0,0,0,0,0,0,0,0,0,0,0,0,0,0,0,0,0,0,0,0,0,0,
0,0,0,0,0,0,0,0,0,0,0,0,0,0,0,0,0,0,0,0,0,0,0,0,0,0,0,0,0,0,0,0,0,0,0,0,0,0,0,0,0,0,0,0,0,0,0,0,0,0,0,0,0,0,0,0,0,0,0,0,0,0,0,0,
0,0,0,0,0,0,0,0,0,0,0,0,0,0,0,0,0,0,0,0,0,0,0,0,0,0,0,0,0,0,0,0,0,0,0,0,0,0,0,0,0,0,0,0,0,0,0,0,0,0,0,0,0,0,0,0,0,0,0,0,0,0,0,0,
0,0,0,0,0,0,0,0,0,0,0,0,0,0,0,0,0,0,0,0,0,0,0,0,0,0,0,0,0,0,0,0,0,0,0,0,0,0,0,0,0,0,0,0,0,0,0,0,0,0,0,0,0,0,0,0,0,0,0,0,0,0,0,0,
0,0,0,0,0,0,0,0,0,0,0,0,0,0,0,0,0,0,0,0,0,0,0,0,0,0,0,0,0,0,0,0,0,0,0,0,0,0,0,0,0,0,0,0,0,0,0,0,0,0,0,0,0,0,0,0,0,0,0,0,0,0,0,0,
0,0,0,0,0,0,0,0,0,0,0,0,0,0,0,0,0,0,0,0,0,0,0,0,0,0,0,0,0,0,0,0,0,0,0,0,0,0,0,0,0,0,0,0,0,0,0,0,0,0,0,0,0,0,0,0,0,0,0,0,0,0,0,0,
0,0,0,0,0,0,0,0,0,0,0,0,0,0,0,0,0,0,0,0,0,0,0,0,0,0,0,0,0,0,0,0,0,0,0,0,0,0,0,0,0,0,0,0,0,0,0,0,0,0,0,0,0,0,0,0,0,0,0,0,0,0,0,0,
0,0,0,0,0,0,0,0,0,0,0,0,0,0,0,0,0,0,0,0,0,0,0,0,0,0,0,0,0,0,0,0,0,0,0,0,0,0,0,0,0,0,0,0,0,0,0,0,0,0,0,0,0,0,0,0,0,0,0,0,0,0,0,0,
0,0,0,0,0,0,0,0,0,0,0,0,0,0,0,0,0,0,0,0,0,0,0,0,0,0,0,0,0,0,0,0,0,0,0,0,0,0,0,0,0,0,0,0,0,0,0,0,0,0,0,0,0,0,0,0,0,0,0,0,0,0,0,0,
0,0,0,0,0,0,0,0,0,0,0,0,0,0,0,0,0,0,0,0,0,0,0,0,0,0,0,0,0,0,0,0,0,0,0,0,0,0,0,0,0,0,0,0,0,0,0,0,0,0,0,0,0,0,0,0,0,0,0,0,0,0,0,0,
0,0,0,0,0,0,0,0,0,0,0,0,0,0,0,0,0,0,0,0,0,0,0,0,0,0,0,0,0,0,0,0,0,0,0,0,0,0,0,0,0,0,0,0,0,0,0,0,0,0,0,0,0,0,0,0,0,0,0,0,0,0,0,0,
0,0,0,0,0,0,0,0,0,0,0,0,0,0,0,0,0,0,0,0,0,0,0,0,0,0,0,0,0,0,0,0,0,0,0,0,0,0,0,0,0,0,0,0,0,0,0,0,0,0,0,0,0,0,0,0,0,0,0,0,0,0,0,0,
0,0,0,0,0,0,0,0,0,0,0,0,0,0,0,0,0,0,0,0,0,0,0,0,0,0,0,0,0,0,0,0,0,0,0,0,0,0,0,0,0,0,0,0,0,0,0,0,0,0,0,0,0,0,0,0,0,0,0,0,0,0,0,0,
0,0,0,0,0,0,0,0,0,0,0,0,0,0,0,0,0,0,0,0,0,0,0,0,0,0,0,0,0,0,0,0,0,0,0,0,0,0,0,0,0,0,0,0,0,0,0,0,0,0,0,0,0,0,0,0,0,0,0,0,0,0,0,0,
0,0,0,0,0,0,0,0,0,0,0,0,0,0,0,0,0,0,0,0,0,0,0,0,0,0,0,0,0,0,0,0,0,0,0,0,0,0,0,0,0,0,0,0,0,0,0,0,0,0,0,0,0,0,0,0,0,0,0,0,0,0,0,0,
0,0,0,0,0,0,0,0,0,0,0,0,0,0,0,0,0,0,0,0,0,0,0,0,0,0,0,0,0,0,0,0,0,0,0,0,0,0,0,0,0,0,0,0,0,0,0,0,0,0,0,0,0,0,0,0,0,0,0,0,0,0,0,0,
0,0,0,0,0,0,6010,6009,6009,6009,6009,6009,6009,6009,6009,6009,6009,6009,6009,6009,6009,6009,6009,6009,6009,6009,6009,6009,6009,6009,6009,6009,6009,6009,6009,6009,6009,6009,6009,6009,6009,6009,6009,6009,6009,6009,6009,6009,6009,6009,6009,6009,6009,6009,6009,6009,6009,6010,0,0,0,0,0,0,
0,0,0,0,0,0,6010,6009,6009,6009,6009,6009,6009,6009,6009,6009,6009,6009,6009,6009,6009,6009,6009,6009,6009,6009,6009,6009,6009,6009,6009,6009,6009,6009,6009,6009,6009,6009,6009,6009,6009,6009,6009,6009,6009,6009,6009,6009,6009,6009,6009,6009,6009,6009,6009,6009,6009,6010,0,0,0,0,0,0,
0,0,0,0,0,0,6010,6009,6009,6009,6010,6008,0,0,0,0,0,0,0,0,0,0,0,0,0,0,0,6009,6009,6009,6009,6009,6009,6009,6009,6009,6009,0,0,0,0,0,0,0,0,0,0,0,0,0,0,0,0,6010,6009,6009,6009,6010,0,0,0,0,0,0,
0,0,0,0,0,0,6010,6009,6009,6009,6010,0,0,0,0,0,0,0,0,0,0,0,0,0,0,0,0,6009,6009,6009,6009,6009,6009,6009,6009,6009,6009,0,0,0,0,0,0,0,0,0,0,0,0,0,0,0,0,6010,6009,6009,6009,6010,0,0,0,0,0,0,
0,0,0,0,0,0,6010,6009,6009,6009,6010,0,0,0,0,0,0,0,0,0,0,0,0,0,0,0,0,6009,6009,6009,6009,6009,6009,6009,6009,6009,6009,0,0,0,0,0,0,0,0,0,0,0,0,0,0,0,0,6010,6009,6009,6009,6010,0,0,0,0,0,0,
0,0,0,0,0,0,6010,6009,6009,6009,6010,0,0,0,0,0,0,0,0,0,0,0,0,0,0,0,0,6009,6009,6009,6009,6009,6009,6009,6009,6009,6009,0,0,0,0,0,0,0,0,0,0,0,0,0,0,0,0,6010,6009,6009,6009,6010,0,0,0,0,0,0,
0,0,0,0,0,0,6010,6009,6009,6009,6010,0,0,0,0,0,0,0,0,0,0,0,0,0,0,0,0,0,0,0,0,0,0,0,0,0,0,0,0,0,0,0,0,0,0,0,0,0,0,0,0,0,0,6010,6009,6009,6009,6010,0,0,0,0,0,0,
0,0,0,0,0,0,6010,6009,6009,6009,6010,0,0,0,0,0,0,0,0,0,0,0,0,0,0,0,0,0,0,0,0,0,0,0,0,0,0,0,0,0,0,0,0,0,0,0,0,0,0,0,0,0,0,6010,6009,6009,6009,6010,0,0,0,0,0,0,
0,0,0,0,0,0,6010,6009,6009,6009,6010,0,0,0,0,0,0,0,0,0,0,0,0,0,0,0,0,0,0,0,0,0,0,0,0,0,0,0,0,0,0,0,0,0,0,0,0,0,0,0,0,0,0,6010,6009,6009,6009,6010,0,0,0,0,0,0,
0,0,0,0,0,0,6010,6009,6009,6009,6010,0,0,0,0,0,0,0,0,0,0,0,0,0,0,0,0,0,0,0,0,0,0,0,0,0,0,0,0,0,0,0,0,0,0,0,0,0,0,0,0,0,0,6010,6009,6009,6009,6010,0,0,0,0,0,0,
0,0,0,0,0,0,6010,6009,6009,6009,6010,0,0,0,0,0,0,0,0,0,0,0,0,0,0,0,0,0,0,0,0,0,0,0,0,0,0,0,0,0,0,0,0,0,0,0,0,0,0,0,0,0,0,6010,6009,6009,6009,6010,0,0,0,0,0,0,
0,0,0,0,0,0,6010,6009,6009,6009,6010,0,0,0,0,0,0,0,0,0,0,0,0,0,0,0,0,0,0,0,0,0,0,0,0,0,0,0,0,0,0,0,0,0,0,0,0,0,0,0,0,0,0,6010,6009,6009,6009,6010,0,0,0,0,0,0,
0,0,0,0,0,0,6010,6009,6009,6009,6010,0,0,0,0,0,0,0,0,0,0,0,0,0,0,0,0,0,0,0,0,0,0,0,0,0,0,0,0,0,0,0,0,0,0,0,0,0,0,0,0,0,0,6010,6009,6009,6009,6010,0,0,0,0,0,0,
0,0,0,0,0,0,6010,6009,6009,6009,6010,0,0,0,0,0,0,0,0,0,0,0,0,0,0,0,0,0,0,0,0,0,0,0,0,0,0,0,0,0,0,0,0,0,0,0,0,0,0,0,0,0,0,6010,6009,6009,6009,6010,0,0,0,0,0,0,
0,0,0,0,0,0,6010,6009,6009,6009,6010,0,0,0,0,0,0,0,0,0,0,0,0,0,0,0,0,0,0,0,0,0,0,0,0,0,0,0,0,0,0,0,0,0,0,0,0,0,0,0,0,0,0,6010,6009,6009,6009,6010,0,0,0,0,0,0,
0,0,0,0,0,0,6010,6009,6009,6009,6010,0,0,0,0,0,0,0,0,0,0,0,0,0,0,0,0,0,0,0,0,0,0,0,0,0,6008,6008,6008,6008,6008,6008,6008,6008,6008,0,0,0,0,0,0,0,0,6010,6009,6009,6009,6010,0,0,0,0,0,0,
0,0,0,0,0,0,6010,6009,6009,6009,6010,0,0,0,0,0,0,0,0,0,0,0,0,0,0,0,0,0,0,0,0,0,0,0,0,6008,6008,0,0,0,0,0,0,0,6008,0,0,0,0,0,0,0,0,6010,6009,6009,6009,6010,0,0,0,0,0,0,
0,0,0,0,0,0,6010,6009,6009,6009,6010,0,0,0,0,0,0,0,0,0,0,0,0,0,0,6008,6008,0,0,0,0,0,0,0,0,6008,0,0,0,0,0,0,0,0,0,0,0,0,0,0,0,0,0,6010,6009,6009,6009,6010,0,0,0,0,0,0,
0,0,0,0,0,0,6010,6009,6009,6009,6010,0,0,0,0,0,0,0,0,0,0,0,0,0,0,6008,6008,6008,0,6008,6009,6009,6009,6009,0,6008,0,6013,6013,0,6013,6013,6008,6013,6013,6008,6008,6008,6008,0,0,0,0,6010,6009,6009,6009,6010,0,0,0,0,0,0,
0,0,0,0,0,0,6010,6009,6009,6009,6010,0,0,0,0,0,0,0,0,0,0,0,0,0,0,0,6008,0,0,0,6009,6009,6009,6009,6008,6008,6008,6013,6013,0,6013,6013,0,6013,6013,6008,6008,6008,0,0,0,0,0,6010,6009,6009,6009,6010,0,0,0,0,0,0,
0,0,0,0,0,0,6010,6009,6009,6009,6010,0,0,0,0,0,0,0,0,0,0,0,0,0,0,6008,6008,0,0,0,6009,6009,6009,6009,0,6008,0,0,0,0,0,0,0,0,6008,6008,0,0,6013,6013,0,0,0,6010,6009,6009,6009,6010,0,0,0,0,0,0,
0,0,0,0,0,0,6010,6009,6009,6009,6010,0,0,0,0,0,0,0,0,0,0,0,0,0,0,6008,6008,6013,6013,0,6009,6009,6009,6009,0,6013,6008,6008,6008,6008,6008,6008,6008,6008,6008,6008,6013,0,0,0,0,0,0,6010,6009,6009,6009,6010,0,0,0,0,0,0,
0,0,0,0,0,0,6010,6009,6009,6009,6010,0,0,0,0,0,0,0,0,0,0,0,0,0,0,6008,6008,0,0,0,6009,6009,6009,6009,0,6013,0,0,0,0,0,0,0,0,0,6008,6013,0,0,0,0,0,0,6010,6009,6009,6009,6010,0,0,0,0,0,0,
0,0,0,0,0,0,6010,6009,6009,6009,6010,0,0,0,0,0,0,0,0,0,0,0,0,0,0,6008,6008,0,0,0,6009,6009,6009,6009,0,0,0,0,0,0,0,0,0,0,0,6008,0,0,0,0,0,0,0,6010,6009,6009,6009,6010,0,0,0,0,0,0,
0,0,0,0,0,0,6010,6009,6009,6009,6010,0,0,0,0,0,0,0,0,0,0,0,0,0,0,6008,6008,6013,6013,0,6009,6009,6009,6009,0,0,0,0,0,0,0,0,0,0,0,6008,0,0,6013,6013,0,0,0,6010,6009,6009,6009,6010,0,0,0,0,0,0,
0,0,0,0,0,0,6010,6009,6009,6009,6010,0,0,0,0,0,0,0,0,0,0,0,0,0,0,6008,6008,6008,6008,0,6009,6009,6009,6009,0,0,6008,6013,6013,6008,6013,6013,6008,6013,6013,6008,0,0,0,0,0,0,0,6010,6009,6009,6009,6010,0,0,0,0,0,0,
0,0,0,0,0,0,6010,6009,6009,6009,6010,0,0,0,0,0,0,0,0,0,0,0,0,0,0,6008,6008,6008,6008,0,6009,6009,6009,6009,0,0,0,0,0,0,0,0,6008,0,0,6008,6008,0,0,0,0,0,0,6010,6009,6009,6009,6010,0,0,0,0,0,0,
0,0,0,0,0,0,6010,6009,6009,6009,6010,0,0,0,0,0,0,0,0,0,0,0,0,0,0,0,6008,6013,6013,0,6009,6009,6009,6009,0,0,0,0,0,0,0,0,6008,0,0,6008,6008,0,0,0,0,0,0,6010,6010,6010,6010,6010,0,0,0,0,0,0,
0,0,0,0,0,0,6010,6009,6009,6009,6010,0,0,0,0,0,0,0,0,0,0,0,0,0,0,6008,6008,0,0,0,6009,6009,6009,6009,6008,6008,0,6013,6013,0,6013,6013,0,6013,6013,6008,0,6008,0,0,0,0,0,6010,6010,6010,6010,6010,0,0,0,0,0,0,
0,0,0,0,0,0,6010,6009,6009,6009,6010,0,0,0,0,0,0,0,0,0,0,0,0,0,0,0,6008,6008,6008,6008,6009,6009,6009,6009,0,0,0,6013,6013,0,6013,6013,0,6013,6013,0,6008,6008,0,0,0,0,0,6010,6010,6010,6010,6010,0,0,0,0,0,0,
0,0,0,0,0,0,6010,6009,6009,6009,6010,0,0,0,0,0,0,0,0,0,0,0,0,0,0,0,6008,6013,6013,6008,6009,6009,6009,6009,0,0,0,0,0,0,0,0,0,6008,0,0,0,0,6013,6013,0,0,0,6010,6010,6010,6010,6010,0,0,0,0,0,0,
0,0,0,0,0,0,6010,6009,6009,6009,6010,0,0,0,0,0,0,0,0,0,0,0,0,0,0,0,0,0,0,0,6009,6009,6009,6009,0,6013,6008,6008,6008,6008,6008,6008,6008,6008,6008,0,6013,0,0,0,0,0,0,6010,6010,6010,6010,6010,0,0,0,0,0,0,
0,0,0,0,0,0,6010,6009,6009,6009,6010,0,0,0,0,0,0,0,0,0,0,0,0,0,0,0,0,0,0,0,6009,6009,6009,6009,0,6013,0,0,0,0,0,0,0,0,0,0,6013,0,0,0,0,0,0,6010,6010,6010,6010,6010,0,0,0,0,0,0,
0,0,0,0,0,0,6010,6009,6009,6009,6010,0,0,0,0,0,0,0,0,0,0,0,0,0,0,0,0,6008,6008,0,6009,6009,6009,6009,0,0,0,0,0,0,0,0,0,0,0,0,0,0,0,0,0,0,0,6010,6010,6010,6010,6010,0,0,0,0,0,0,
0,0,0,0,0,0,6010,6009,6009,6009,6010,0,0,0,0,0,0,0,0,0,0,0,0,0,0,0,0,0,0,6009,6009,6009,6009,6009,0,0,0,0,0,0,0,0,0,0,0,0,0,0,6013,6013,0,0,0,6010,6010,6010,6010,6010,0,0,0,0,0,0,
0,0,0,0,0,0,6010,6009,6009,6009,6010,0,0,0,0,0,0,0,0,0,0,0,0,0,0,0,0,0,0,6009,6009,6009,6009,6009,0,0,0,6013,6013,0,6013,6013,0,6013,6013,0,0,0,0,0,0,0,0,6010,6010,6010,6010,6010,0,0,0,0,0,0,
0,0,0,0,0,0,6010,6009,6009,6009,6010,0,0,0,0,0,0,0,0,0,0,0,0,0,0,0,0,0,0,6009,6009,6009,6009,6009,0,0,0,0,0,0,0,0,0,0,0,0,0,0,0,0,0,0,0,6010,6010,6010,6010,6010,0,0,0,0,0,0,
0,0,0,0,0,0,6010,6009,6009,6009,6010,0,0,6010,6010,6010,6010,6010,6010,6010,6010,6010,6010,6010,6010,6010,6010,6010,6010,6009,6009,6009,6009,6009,6010,6010,6010,6010,6010,6010,6010,6010,6010,6010,6010,6010,6010,6010,6010,6010,6010,0,0,6010,6010,6010,6010,6010,0,0,0,0,0,0,
0,0,0,0,0,6008,6010,6009,6009,6009,6009,6009,6009,6009,6009,6009,6009,6009,6009,6009,6009,6009,6009,6009,6009,6009,6009,6009,6009,6009,6009,6009,6009,6009,6009,6009,6009,6009,6009,6009,6009,6009,6009,6009,6009,6009,6009,6009,6009,6009,6009,6009,6009,6009,6009,6009,6009,0,0,0,0,0,0,0,
0,0,0,0,0,6008,6010,6009,6009,6009,6009,6009,6009,6009,6009,6009,6009,6009,6009,6009,6009,6009,6009,6009,6009,6009,6009,6009,6009,6009,6009,6009,6009,6009,6009,6009,6009,6009,6009,6009,6009,6009,6009,6009,6009,6009,6009,6009,6009,6009,6009,6009,6009,6009,6009,6009,6009,0,0,0,0,0,0,0,
0,0,0,0,0,6008,6010,6009,6009,6009,6009,6009,6009,6009,6009,6009,6009,6009,6009,6009,6009,6009,6009,6009,6009,6009,6009,6009,6009,6009,6009,6009,6009,6009,6009,6009,6009,6009,6009,6009,6009,6009,6009,6009,6009,6009,6009,6009,6009,6009,6009,6009,6009,6009,6009,6009,6009,0,0,0,0,0,0,0,
0,0,0,0,0,0,6010,6009,6009,6009,6009,6009,6009,6009,6009,6009,6009,6009,6009,6009,6009,6009,6009,6009,6009,6009,6009,6009,6009,6009,6009,6009,6009,6009,6009,6009,6009,6009,6009,6009,6009,6009,6009,6009,6009,6009,6009,6009,6009,6009,6009,6009,6009,6009,6009,6009,6009,0,0,0,0,0,0,0,
0,0,0,0,0,0,6010,6009,6009,6009,6009,6009,6009,6009,6009,6009,6009,6009,6009,6009,6009,6009,6009,6009,6009,6009,6009,6009,6009,6009,6009,6009,6009,6009,6009,6009,6009,6009,6009,6009,6009,6009,6009,6009,6009,6009,6009,6009,6009,6009,6009,6009,6009,6009,6009,6009,6009,0,0,0,0,0,0,0,
0,0,0,0,0,0,0,0,0,0,0,0,0,0,0,0,0,0,0,0,0,0,0,0,0,0,0,0,0,0,6009,6009,6009,6009,0,0,0,0,0,0,0,0,0,0,0,0,0,0,0,0,0,0,0,0,0,0,0,0,0,0,0,0,0,0,
0,0,0,0,0,0,0,0,0,0,0,0,0,0,0,0,0,0,0,0,0,0,0,0,0,0,0,0,0,0,6009,6009,6009,6009,0,0,0,0,0,0,0,0,0,0,0,0,0,0,0,0,0,0,0,0,0,0,0,0,0,0,0,0,0,0,
0,0,0,0,0,0,0,0,0,0,0,0,0,0,0,0,0,0,0,0,0,0,0,0,0,0,0,0,0,0,0,0,0,0,0,0,0,0,0,0,0,0,0,0,0,0,0,0,0,0,0,0,0,0,0,0,0,0,0,0,0,0,0,0,
0,0,0,0,0,0,0,0,0,0,0,0,0,0,0,0,0,0,0,0,0,0,0,0,0,0,0,0,0,0,0,0,0,0,0,0,0,0,0,0,0,0,0,0,0,0,0,0,0,0,0,0,0,0,0,0,0,0,0,0,0,0,0,0,
0,0,0,0,0,0,0,0,0,0,0,0,0,0,0,0,0,0,0,0,0,0,0,0,0,0,0,0,0,0,0,0,0,0,0,0,0,0,0,0,0,0,0,0,0,0,0,0,0,0,0,0,0,0,0,0,0,0,0,0,0,0,0,0,
0,0,0,0,0,0,0,0,0,0,0,0,0,0,0,0,0,0,0,0,0,0,0,0,0,0,0,0,0,0,0,0,0,0,0,0,0,0,0,0,0,0,0,0,0,0,0,0,0,0,0,0,0,0,0,0,0,0,0,0,0,0,0,0,
0,0,0,0,0,0,0,0,0,0,0,0,0,0,0,0,0,0,0,0,0,0,0,0,0,0,0,0,0,0,0,0,0,0,0,0,0,0,0,0,0,0,0,0,0,0,0,0,0,0,0,0,0,0,0,0,0,0,0,0,0,0,0,0
</data>
 </layer>
 <objectgroup draworder="index" id="19" name="Lighting" visible="0">
  <object id="137" template="../../../templates/system/lighting/lights/obj_light_xs.tx" type="obj_light_xs" x="94" y="119"/>
  <object id="138" template="../../../templates/system/lighting/lights/obj_light_xs.tx" type="obj_light_xs" x="129" y="119"/>
  <object id="139" template="../../../templates/system/lighting/lights/obj_light_xs.tx" type="obj_light_xs" x="334" y="119"/>
  <object id="140" template="../../../templates/system/lighting/lights/obj_light_xs.tx" type="obj_light_xs" x="369" y="119"/>
  <object id="141" template="../../../templates/system/lighting/lights/obj_light_128.tx" type="obj_light_128" x="192" y="306"/>
 </objectgroup>
 <objectgroup draworder="index" id="20" name="Meta">
  <object id="142" template="../../../templates/obj_roomtransition.tx" type="obj_roomtransition" x="240" y="504" width="32" height="16">
   <properties>
    <property name="destination_id" propertytype="LocationId" value="town"/>
    <property name="player_direction" type="int" value="270"/>
   </properties>
  </object>
  <object id="143" template="../../../templates/obj_roomtransition.tx" type="obj_roomtransition" x="24" y="272" width="16" height="32">
   <properties>
    <property name="destination_id" propertytype="LocationId" value="balors_room"/>
    <property name="player_direction" type="int" value="180"/>
   </properties>
  </object>
  <object id="144" template="../../../templates/obj_roomtransition.tx" type="obj_roomtransition" x="72" y="120" width="32" height="16">
   <properties>
    <property name="destination_id" propertytype="LocationId" value="jo_and_hemlocks_room"/>
    <property name="player_direction" type="int" value="90"/>
   </properties>
  </object>
  <object id="145" template="../../../templates/obj_roomtransition.tx" type="obj_roomtransition" x="168" y="120" width="32" height="16">
   <properties>
    <property name="destination_id" propertytype="LocationId" value="lucs_room"/>
   </properties>
  </object>
  <object id="146" template="../../../templates/obj_roomtransition.tx" type="obj_roomtransition" x="312" y="120" width="32" height="16">
   <properties>
    <property name="destination_id" propertytype="LocationId" value="maples_room"/>
   </properties>
  </object>
  <object id="147" template="../../../templates/obj_roomtransition.tx" type="obj_roomtransition" x="408" y="120" width="32" height="16">
   <properties>
    <property name="destination_id" propertytype="LocationId" value="reinas_room"/>
   </properties>
  </object>
  <object id="148" template="../../../templates/ledgers/obj_inn.tx" type="obj_inn" x="184" y="387"/>
  <object id="149" template="../../../templates/meta/obj_sound_emitter.tx" type="obj_sound_emitter" x="240" y="248" width="32" height="24">
   <properties>
    <property name="sound_asset" value="SoundEffects/Environment/SoupPot"/>
   </properties>
  </object>
 </objectgroup>
 <objectgroup draworder="index" id="21" name="TrellisPoints" visible="0">
  <object id="150" template="../../../templates/meta/obj_trellis_point_default.tx" name="Inn Register" type="obj_trellis_point_default" x="148" y="388"/>
  <object id="151" template="../../../templates/meta/obj_trellis_point_default.tx" name="Soup Pot" type="obj_trellis_point_default" x="244" y="265">
   <properties>
    <property name="direction" type="int" propertytype="Cardinal" value="1"/>
   </properties>
  </object>
  <object id="152" template="../../../templates/meta/obj_trellis_point_seat.tx" name="Top Bar Seat" type="obj_trellis_point_seat" x="212" y="312">
   <properties>
    <property name="direction" type="int" propertytype="Cardinal" value="2"/>
   </properties>
  </object>
  <object id="153" template="../../../templates/meta/obj_trellis_point_seat.tx" name="Top-Middle Bar Seat" type="obj_trellis_point_seat" x="212" y="336">
   <properties>
    <property name="direction" type="int" propertytype="Cardinal" value="2"/>
   </properties>
  </object>
  <object id="154" template="../../../templates/meta/obj_trellis_point_seat.tx" name="Bottom-Middle Bar Seat" type="obj_trellis_point_seat" x="212" y="360">
   <properties>
    <property name="direction" type="int" propertytype="Cardinal" value="2"/>
   </properties>
  </object>
  <object id="155" template="../../../templates/meta/obj_trellis_point_seat.tx" name="Bottom Bar Seat" type="obj_trellis_point_seat" x="212" y="384">
   <properties>
    <property name="direction" type="int" propertytype="Cardinal" value="2"/>
   </properties>
  </object>
  <object id="156" template="../../../templates/meta/obj_trellis_point_default.tx" name="Stove-Top Kitchen" type="obj_trellis_point_default" x="145" y="249">
   <properties>
    <property name="direction" type="int" propertytype="Cardinal" value="1"/>
   </properties>
  </object>
  <object id="157" template="../../../templates/meta/obj_trellis_point_transition.tx" name="Exit to Town" type="obj_trellis_point_transition" x="244" y="493">
   <properties>
    <property name="direction" type="int" propertytype="Cardinal" value="3"/>
   </properties>
  </object>
  <object id="158" template="../../../templates/meta/obj_trellis_point_transition.tx" name="Balor's Room Door" type="obj_trellis_point_transition" x="36" y="269">
   <properties>
    <property name="direction" type="int" propertytype="Cardinal" value="2"/>
   </properties>
  </object>
  <object id="159" template="../../../templates/meta/obj_trellis_point_door.tx" name="Jo and Hemlock's Room Door" type="obj_trellis_point_door" x="76" y="141"/>
  <object id="160" template="../../../templates/meta/obj_trellis_point_door.tx" name="Luc's Room Door" type="obj_trellis_point_door" x="172" y="141"/>
  <object id="161" template="../../../templates/meta/obj_trellis_point_door.tx" name="Maple's Room Door" type="obj_trellis_point_door" x="316" y="141"/>
  <object id="162" template="../../../templates/meta/obj_trellis_point_door.tx" name="Reina's Room Door" type="obj_trellis_point_door" x="412" y="141"/>
  <object id="163" template="../../../templates/meta/obj_trellis_point_seat.tx" name="North Table Bottom 1" type="obj_trellis_point_seat" x="293" y="347">
   <properties>
    <property name="direction" type="int" propertytype="Cardinal" value="1"/>
   </properties>
  </object>
  <object id="164" template="../../../templates/meta/obj_trellis_point_seat.tx" name="South Table Left End" type="obj_trellis_point_seat" x="271" y="399">
   <properties>
    <property name="direction" type="int" propertytype="Cardinal" value="0"/>
   </properties>
  </object>
  <object id="165" template="../../../templates/meta/obj_trellis_point_seat.tx" name="South Table Bottom 1" type="obj_trellis_point_seat" x="293" y="427">
   <properties>
    <property name="direction" type="int" propertytype="Cardinal" value="1"/>
   </properties>
  </object>
  <object id="166" template="../../../templates/meta/obj_trellis_point_default.tx" name="Bartender 1" type="obj_trellis_point_default" x="174" y="312">
   <properties>
    <property name="direction" type="int" propertytype="Cardinal" value="0"/>
   </properties>
  </object>
  <object id="167" template="../../../templates/meta/obj_trellis_point_default.tx" name="Bartender 2" type="obj_trellis_point_default" x="174" y="336">
   <properties>
    <property name="direction" type="int" propertytype="Cardinal" value="0"/>
   </properties>
  </object>
  <object id="168" template="../../../templates/meta/obj_trellis_point_default.tx" name="Inventory" type="obj_trellis_point_default" x="364" y="253">
   <properties>
    <property name="direction" type="int" propertytype="Cardinal" value="1"/>
   </properties>
  </object>
  <object id="169" template="../../../templates/meta/obj_trellis_point_default.tx" name="Cutting Board" type="obj_trellis_point_default" x="108" y="245">
   <properties>
    <property name="direction" type="int" propertytype="Cardinal" value="1"/>
   </properties>
  </object>
  <object id="170" template="../../../templates/meta/obj_trellis_point_seat.tx" name="North Table Bottom 2" type="obj_trellis_point_seat" x="316" y="347">
   <properties>
    <property name="direction" type="int" propertytype="Cardinal" value="1"/>
   </properties>
  </object>
  <object id="171" template="../../../templates/meta/obj_trellis_point_seat.tx" name="North Table Top 1" type="obj_trellis_point_seat" x="293" y="293">
   <properties>
    <property name="direction" type="int" propertytype="Cardinal" value="3"/>
   </properties>
  </object>
  <object id="172" template="../../../templates/meta/obj_trellis_point_seat.tx" name="South Table Top 1" type="obj_trellis_point_seat" x="293" y="373">
   <properties>
    <property name="direction" type="int" propertytype="Cardinal" value="3"/>
   </properties>
  </object>
  <object id="173" template="../../../templates/meta/obj_trellis_point_seat.tx" name="South Table Top 2" type="obj_trellis_point_seat" x="316" y="373">
   <properties>
    <property name="direction" type="int" propertytype="Cardinal" value="3"/>
   </properties>
  </object>
  <object id="174" template="../../../templates/meta/obj_trellis_point_seat.tx" name="South Table Top 3" type="obj_trellis_point_seat" x="339" y="373">
   <properties>
    <property name="direction" type="int" propertytype="Cardinal" value="3"/>
   </properties>
  </object>
  <object id="627" template="../../../templates/meta/obj_trellis_point_seat.tx" name="South Table Right End" type="obj_trellis_point_seat" x="360" y="399">
   <properties>
    <property name="direction" type="int" propertytype="Cardinal" value="2"/>
   </properties>
  </object>
  <object id="175" template="../../../templates/meta/obj_trellis_point_seat.tx" name="South Table Bottom 2" type="obj_trellis_point_seat" x="316" y="427">
   <properties>
    <property name="direction" type="int" propertytype="Cardinal" value="1"/>
   </properties>
  </object>
  <object id="176" template="../../../templates/meta/obj_trellis_point_seat.tx" name="South Table Bottom 3" type="obj_trellis_point_seat" x="339" y="427">
   <properties>
    <property name="direction" type="int" propertytype="Cardinal" value="1"/>
   </properties>
  </object>
  <object id="177" template="../../../templates/meta/obj_trellis_point_seat.tx" name="North Table Top 2" type="obj_trellis_point_seat" x="316" y="293">
   <properties>
    <property name="direction" type="int" propertytype="Cardinal" value="3"/>
   </properties>
  </object>
  <object id="178" template="../../../templates/meta/obj_trellis_point_seat.tx" name="North Table Top 3" type="obj_trellis_point_seat" x="339" y="293">
   <properties>
    <property name="direction" type="int" propertytype="Cardinal" value="3"/>
   </properties>
  </object>
  <object id="179" template="../../../templates/meta/obj_trellis_point_seat.tx" name="North Table Bottom 3" type="obj_trellis_point_seat" x="339" y="347">
   <properties>
    <property name="direction" type="int" propertytype="Cardinal" value="1"/>
   </properties>
  </object>
  <object id="180" template="../../../templates/meta/obj_trellis_point_default.tx" name="Bartender 3" type="obj_trellis_point_default" x="174" y="360">
   <properties>
    <property name="direction" type="int" propertytype="Cardinal" value="0"/>
   </properties>
  </object>
  <object id="181" template="../../../templates/meta/obj_trellis_point_default.tx" name="Balcony Hang 1" type="obj_trellis_point_default" x="231" y="185">
   <properties>
    <property name="direction" type="int" propertytype="Cardinal" value="0"/>
   </properties>
  </object>
  <object id="182" template="../../../templates/meta/obj_trellis_point_default.tx" name="Balcony Hang 2" type="obj_trellis_point_default" x="244" y="173"/>
  <object id="183" template="../../../templates/meta/obj_trellis_point_default.tx" name="Balcony Hang 3" type="obj_trellis_point_default" x="256" y="184">
   <properties>
    <property name="direction" type="int" propertytype="Cardinal" value="2"/>
   </properties>
  </object>
  <object id="184" template="../../../templates/meta/obj_trellis_point_default.tx" name="Storyteller" type="obj_trellis_point_default" x="349" y="445"/>
  <object id="185" template="../../../templates/meta/obj_trellis_point_default.tx" name="Story Listener 1" type="obj_trellis_point_default" x="332" y="463">
   <properties>
    <property name="direction" type="int" propertytype="Cardinal" value="1"/>
   </properties>
  </object>
  <object id="186" template="../../../templates/meta/obj_trellis_point_default.tx" name="Story Listener 2" type="obj_trellis_point_default" x="349" y="470">
   <properties>
    <property name="direction" type="int" propertytype="Cardinal" value="1"/>
   </properties>
  </object>
  <object id="187" template="../../../templates/meta/obj_trellis_point_default.tx" name="Story Listener 3" type="obj_trellis_point_default" x="366" y="463">
   <properties>
    <property name="direction" type="int" propertytype="Cardinal" value="1"/>
   </properties>
  </object>
  <object id="188" template="../../../templates/meta/obj_trellis_point_default.tx" name="Bar Stand North" type="obj_trellis_point_default" x="228" y="325">
   <properties>
    <property name="direction" type="int" propertytype="Cardinal" value="2"/>
   </properties>
  </object>
  <object id="189" template="../../../templates/meta/obj_trellis_point_default.tx" name="Bar Stand Middle" type="obj_trellis_point_default" x="244" y="341">
   <properties>
    <property name="direction" type="int" propertytype="Cardinal" value="2"/>
   </properties>
  </object>
  <object id="190" template="../../../templates/meta/obj_trellis_point_default.tx" name="Bar Stand South" type="obj_trellis_point_default" x="228" y="357">
   <properties>
    <property name="direction" type="int" propertytype="Cardinal" value="2"/>
   </properties>
  </object>
  <object id="191" template="../../../templates/meta/obj_trellis_point_default.tx" name="Jo Singing" type="obj_trellis_point_default" x="236" y="285"/>
  <object id="192" template="../../../templates/meta/obj_trellis_point_default.tx" name="Hemlock Playing" type="obj_trellis_point_default" x="254" y="279"/>
  <object id="193" template="../../../templates/meta/obj_trellis_point_default.tx" name="Top Bar Hang" type="obj_trellis_point_default" x="192" y="300"/>
  <object id="194" template="../../../templates/meta/obj_trellis_point_default.tx" name="North Table Service" type="obj_trellis_point_default" x="260" y="305">
   <properties>
    <property name="direction" type="int" propertytype="Cardinal" value="0"/>
   </properties>
  </object>
  <object id="195" template="../../../templates/meta/obj_trellis_point_default.tx" name="South Table Service" type="obj_trellis_point_default" x="260" y="381">
   <properties>
    <property name="direction" type="int" propertytype="Cardinal" value="0"/>
   </properties>
  </object>
  <object id="196" template="../../../templates/meta/obj_trellis_point_default.tx" name="sing" type="obj_trellis_point_default" x="364" y="357"/>
  <object id="197" template="../../../templates/meta/obj_trellis_point_default.tx" name="Kitchen Shelf" type="obj_trellis_point_default" x="116" y="336">
   <properties>
    <property name="direction" type="int" propertytype="Cardinal" value="2"/>
   </properties>
  </object>
  <object id="198" template="../../../templates/meta/obj_trellis_point_default.tx" name="Sweeping 2" type="obj_trellis_point_default" x="308" y="477"/>
  <object id="199" template="../../../templates/meta/obj_trellis_point_default.tx" name="Sweeping 1" type="obj_trellis_point_default" x="364" y="277"/>
  <object id="200" template="../../../templates/meta/obj_trellis_point_seat.tx" name="North Table Left End" type="obj_trellis_point_seat" x="271" y="319">
   <properties>
    <property name="direction" type="int" propertytype="Cardinal" value="0"/>
   </properties>
  </object>
  <object id="201" template="../../../templates/meta/obj_trellis_point_default.tx" name="register_to_bartender" type="obj_trellis_point_default" x="164" y="381">
   <properties>
    <property name="direction" type="int" propertytype="Cardinal" value="1"/>
   </properties>
  </object>
  <object id="202" template="../../../templates/meta/obj_trellis_point_default.tx" name="bartender_to_food_service" type="obj_trellis_point_default" x="174" y="293"/>
  <object id="203" template="../../../templates/meta/obj_trellis_point_default.tx" name="food_service_to_register" type="obj_trellis_point_default" x="148" y="373">
   <properties>
    <property name="direction" type="int" propertytype="Cardinal" value="3"/>
   </properties>
  </object>
  <object id="204" template="../../../templates/meta/obj_trellis_point_default.tx" name="food_service_entrance" type="obj_trellis_point_default" x="244" y="469">
   <properties>
    <property name="direction" type="int" propertytype="Cardinal" value="1"/>
   </properties>
  </object>
  <object id="205" template="../../../templates/meta/obj_trellis_point_default.tx" name="bartender_entrance" type="obj_trellis_point_default" x="244" y="445">
   <properties>
    <property name="direction" type="int" propertytype="Cardinal" value="1"/>
   </properties>
  </object>
  <object id="206" template="../../../templates/meta/obj_trellis_point_default.tx" name="chores_entrance" type="obj_trellis_point_default" x="244" y="485">
   <properties>
    <property name="direction" type="int" propertytype="Cardinal" value="1"/>
   </properties>
  </object>
  <object id="207" template="../../../templates/meta/obj_trellis_point_default.tx" name="chores_to_food_service" type="obj_trellis_point_default" x="252" y="293"/>
  <object id="208" template="../../../templates/meta/obj_trellis_point_default.tx" name="Hot Pass" type="obj_trellis_point_default" x="116" y="312">
   <properties>
    <property name="direction" type="int" propertytype="Cardinal" value="2"/>
   </properties>
  </object>
  <object id="209" template="../../../templates/meta/obj_trellis_point_default.tx" name="Song Listening 1" type="obj_trellis_point_default" x="292" y="269">
   <properties>
    <property name="direction" type="int" propertytype="Cardinal" value="2"/>
   </properties>
  </object>
  <object id="210" template="../../../templates/meta/obj_trellis_point_default.tx" name="Song Listening 2" type="obj_trellis_point_default" x="280" y="285">
   <properties>
    <property name="direction" type="int" propertytype="Cardinal" value="2"/>
   </properties>
  </object>
  <object id="211" template="../../../templates/meta/obj_trellis_point_default.tx" name="Kid Drop Off" type="obj_trellis_point_default" x="244" y="145"/>
  <object id="212" template="../../../templates/meta/obj_trellis_point_default.tx" name="Bartender 4" type="obj_trellis_point_default" x="174" y="384">
   <properties>
    <property name="direction" type="int" propertytype="Cardinal" value="0"/>
   </properties>
  </object>
  <object id="213" template="../../../templates/meta/obj_trellis_point_default.tx" name="work_chat_2" type="obj_trellis_point_default" x="332" y="277">
   <properties>
    <property name="direction" type="int" propertytype="Cardinal" value="2"/>
   </properties>
  </object>
  <object id="214" template="../../../templates/meta/obj_trellis_point_default.tx" name="work_chat_1" type="obj_trellis_point_default" x="308" y="277">
   <properties>
    <property name="direction" type="int" propertytype="Cardinal" value="0"/>
   </properties>
  </object>
  <object id="215" template="../../../templates/meta/obj_trellis_point_default.tx" name="fnati_art_model" type="obj_trellis_point_default" x="316" y="281"/>
  <object id="216" template="../../../templates/meta/obj_trellis_point_seat.tx" name="North Table Right End" type="obj_trellis_point_seat" x="360" y="319">
   <properties>
    <property name="direction" type="int" propertytype="Cardinal" value="2"/>
   </properties>
  </object>
  <object id="217" template="../../../templates/meta/obj_trellis_point_default.tx" name="Storyteller Duo 1" type="obj_trellis_point_default" x="340" y="445"/>
  <object id="218" template="../../../templates/meta/obj_trellis_point_default.tx" name="Storyteller Duo 2" type="obj_trellis_point_default" x="360" y="445"/>
  <object id="219" template="../../../templates/meta/obj_trellis_point_default.tx" name="balors_room_cutscene_exit" type="obj_trellis_point_default" x="56" y="269">
   <properties>
    <property name="direction" type="int" propertytype="Cardinal" value="0"/>
   </properties>
  </object>
  <object id="220" template="../../../templates/meta/obj_trellis_point_default.tx" name="cooking_tutorial_2" type="obj_trellis_point_default" x="128" y="277">
   <properties>
    <property name="direction" type="int" propertytype="Cardinal" value="1"/>
   </properties>
  </object>
  <object id="221" template="../../../templates/meta/obj_trellis_point_default.tx" name="cooking_tutorial_1" type="obj_trellis_point_default" x="144" y="261"/>
  <object id="222" template="../../../templates/meta/obj_trellis_point_default.tx" name="cooking_tutorial_3" type="obj_trellis_point_default" x="144" y="289">
   <properties>
    <property name="direction" type="int" propertytype="Cardinal" value="1"/>
   </properties>
  </object>
  <object id="223" template="../../../templates/meta/obj_trellis_point_default.tx" name="cooking_tutorial_4" type="obj_trellis_point_default" x="160" y="277">
   <properties>
    <property name="direction" type="int" propertytype="Cardinal" value="1"/>
   </properties>
  </object>
  <object id="224" template="../../../templates/meta/obj_trellis_point_default.tx" name="Second Singer" type="obj_trellis_point_default" x="272" y="285"/>
  <object id="225" template="../../../templates/meta/obj_trellis_point_default.tx" name="dragonguard_2" type="obj_trellis_point_default" x="214" y="165">
   <properties>
    <property name="direction" type="int" propertytype="Cardinal" value="1"/>
   </properties>
  </object>
  <object id="226" template="../../../templates/meta/obj_trellis_point_default.tx" name="dragonguard_1" type="obj_trellis_point_default" x="244" y="149"/>
  <object id="227" template="../../../templates/meta/obj_trellis_point_default.tx" name="dragonguard_3" type="obj_trellis_point_default" x="230" y="175">
   <properties>
    <property name="direction" type="int" propertytype="Cardinal" value="1"/>
   </properties>
  </object>
  <object id="228" template="../../../templates/meta/obj_trellis_point_default.tx" name="dragonguard_4" type="obj_trellis_point_default" x="258" y="175">
   <properties>
    <property name="direction" type="int" propertytype="Cardinal" value="1"/>
   </properties>
  </object>
  <object id="229" template="../../../templates/meta/obj_trellis_point_default.tx" name="dragonguard_5" type="obj_trellis_point_default" x="274" y="165">
   <properties>
    <property name="direction" type="int" propertytype="Cardinal" value="1"/>
   </properties>
  </object>
  <object id="230" template="../../../templates/meta/obj_trellis_point_default.tx" name="balcony_performance_watch_1" type="obj_trellis_point_default" x="230" y="187"/>
  <object id="231" template="../../../templates/meta/obj_trellis_point_default.tx" name="balcony_performance_watch_2" type="obj_trellis_point_default" x="256" y="187"/>
  <object id="649" template="../../../templates/meta/obj_trellis_point_default.tx" name="capital_club_1" type="obj_trellis_point_default" x="228" y="179">
   <properties>
    <property name="direction" type="int" propertytype="Cardinal" value="0"/>
   </properties>
  </object>
  <object id="650" template="../../../templates/meta/obj_trellis_point_default.tx" name="capital_club_2" type="obj_trellis_point_default" x="243" y="160"/>
  <object id="651" template="../../../templates/meta/obj_trellis_point_default.tx" name="capital_club_3" type="obj_trellis_point_default" x="258" y="179">
   <properties>
    <property name="direction" type="int" propertytype="Cardinal" value="2"/>
   </properties>
  </object>
 </objectgroup>
 <objectgroup id="43" name="TrellisPoints_Mistril_Rank" visible="0">
  <object id="644" template="../../../templates/meta/obj_trellis_point_camera.tx" name="mr_camera_inn_1" type="obj_trellis_point_camera" x="426" y="304"/>
  <object id="645" template="../../../templates/meta/obj_trellis_point_camera.tx" name="mr_camera_inn_2" type="obj_trellis_point_camera" x="302" y="304"/>
  <object id="646" template="../../../templates/meta/obj_trellis_point_camera.tx" name="mr_camera_inn_3" type="obj_trellis_point_camera" x="302" y="226"/>
 </objectgroup>
 <objectgroup draworder="index" id="22" name="TrellisPoints_Reina_8h" visible="0">
  <object id="232" template="../../../templates/meta/obj_trellis_point_default.tx" name="r8h_ari_entrance" type="obj_trellis_point_default" x="242" y="521"/>
  <object id="233" template="../../../templates/meta/obj_trellis_point_default.tx" name="r8h_reina_start" type="obj_trellis_point_default" x="190" y="286"/>
  <object id="234" template="../../../templates/meta/obj_trellis_point_default.tx" name="r8h_ari_start" type="obj_trellis_point_default" x="242" y="393"/>
  <object id="235" template="../../../templates/meta/obj_trellis_point_default.tx" name="r8h_ari_chat" type="obj_trellis_point_default" x="254" y="331"/>
  <object id="236" template="../../../templates/meta/obj_trellis_point_default.tx" name="r8h_reina_chat" type="obj_trellis_point_default" x="232" y="331"/>
  <object id="237" template="../../../templates/meta/obj_trellis_point_default.tx" name="r8h_josephine_entrance" type="obj_trellis_point_default" x="294" y="271"/>
  <object id="238" template="../../../templates/meta/obj_trellis_point_default.tx" name="r8h_maple_entrance" type="obj_trellis_point_default" x="350" y="267"/>
  <object id="239" template="../../../templates/meta/obj_trellis_point_default.tx" name="r8h_luc_entrance" type="obj_trellis_point_default" x="370" y="267"/>
  <object id="240" template="../../../templates/meta/obj_trellis_point_default.tx" name="r8h_josephine_start" type="obj_trellis_point_default" x="244" y="295"/>
  <object id="241" template="../../../templates/meta/obj_trellis_point_default.tx" name="r8h_maple_start" type="obj_trellis_point_default" x="268" y="285"/>
  <object id="242" template="../../../templates/meta/obj_trellis_point_default.tx" name="r8h_luc_start" type="obj_trellis_point_default" x="284" y="279"/>
  <object id="243" template="../../../templates/meta/obj_trellis_point_default.tx" name="r8h_josephine_back" type="obj_trellis_point_default" x="244" y="291"/>
  <object id="244" template="../../../templates/meta/obj_trellis_point_default.tx" name="r8h_maple_forward" type="obj_trellis_point_default" x="232" y="309"/>
  <object id="245" template="../../../templates/meta/obj_trellis_point_default.tx" name="r8h_luc_forward" type="obj_trellis_point_default" x="254" y="309"/>
  <object id="246" template="../../../templates/meta/obj_trellis_point_default.tx" name="r8h_maple_cabinet" type="obj_trellis_point_default" x="348" y="259"/>
  <object id="247" template="../../../templates/meta/obj_trellis_point_default.tx" name="r8h_luc_cabinet" type="obj_trellis_point_default" x="368" y="259"/>
  <object id="248" template="../../../templates/meta/obj_trellis_point_default.tx" name="r8h_luc_table" type="obj_trellis_point_default" x="304" y="284"/>
  <object id="249" template="../../../templates/meta/obj_trellis_point_default.tx" name="r8h_maple_table" type="obj_trellis_point_default" x="326" y="284"/>
  <object id="250" template="../../../templates/meta/obj_trellis_point_default.tx" name="r8h_josephine_supervise" type="obj_trellis_point_default" x="314" y="267"/>
  <object id="251" template="../../../templates/meta/obj_trellis_point_default.tx" name="r8h_ari_kitchen_chat" type="obj_trellis_point_default" x="132" y="287"/>
  <object id="252" template="../../../templates/meta/obj_trellis_point_default.tx" name="r8h_reina_kitchen_chat" type="obj_trellis_point_default" x="156" y="288"/>
  <object id="253" template="../../../templates/meta/obj_trellis_point_default.tx" name="r8h_josephine_fix" type="obj_trellis_point_default" x="270" y="301"/>
  <object id="254" template="../../../templates/meta/obj_trellis_point_default.tx" name="r8h_maple_lookout" type="obj_trellis_point_default" x="232" y="485"/>
  <object id="255" template="../../../templates/meta/obj_trellis_point_default.tx" name="r8h_luc_lookout" type="obj_trellis_point_default" x="254" y="485"/>
  <object id="256" template="../../../templates/meta/obj_trellis_point_default.tx" name="r8h_luc_greeting" type="obj_trellis_point_default" x="296" y="479"/>
  <object id="257" template="../../../templates/meta/obj_trellis_point_default.tx" name="r8h_maple_greeting" type="obj_trellis_point_default" x="296" y="457"/>
  <object id="258" template="../../../templates/meta/obj_trellis_point_default.tx" name="r8h_taliferro_entrance" type="obj_trellis_point_default" x="244" y="453"/>
  <object id="259" template="../../../templates/meta/obj_trellis_point_default.tx" name="r8h_darcy_entrance" type="obj_trellis_point_default" x="230" y="473"/>
  <object id="260" template="../../../templates/meta/obj_trellis_point_default.tx" name="r8h_vera_entrance" type="obj_trellis_point_default" x="258" y="473"/>
  <object id="261" template="../../../templates/meta/obj_trellis_point_default.tx" name="r8h_josephine_host" type="obj_trellis_point_default" x="244" y="387"/>
  <object id="262" template="../../../templates/meta/obj_trellis_point_default.tx" name="r8h_josephine_show_table" type="obj_trellis_point_default" x="258" y="277"/>
  <object id="263" template="../../../templates/meta/obj_trellis_point_default.tx" name="r8h_hemlock_entrance" type="obj_trellis_point_default" x="316" y="351"/>
  <object id="264" template="../../../templates/meta/obj_trellis_point_default.tx" name="r8h_hemlock_serving" type="obj_trellis_point_default" x="326" y="273"/>
  <object id="265" template="../../../templates/meta/obj_trellis_point_default.tx" name="r8h_josephine_serving" type="obj_trellis_point_default" x="304" y="273"/>
  <object id="266" template="../../../templates/meta/obj_trellis_point_default.tx" name="r8h_reina_presenting" type="obj_trellis_point_default" x="316" y="354"/>
  <object id="267" template="../../../templates/meta/obj_trellis_point_default.tx" name="r8h_ari_presenting" type="obj_trellis_point_default" x="294" y="360"/>
  <object id="268" template="../../../templates/meta/obj_trellis_point_default.tx" name="r8h_ari_side" type="obj_trellis_point_default" x="232" y="357"/>
  <object id="269" template="../../../templates/meta/obj_trellis_point_default.tx" name="r8h_reina_side" type="obj_trellis_point_default" x="232" y="339"/>
  <object id="270" template="../../../templates/meta/obj_trellis_point_default.tx" name="r8h_hemlock_judging" type="obj_trellis_point_default" x="226" y="303"/>
  <object id="271" template="../../../templates/meta/obj_trellis_point_default.tx" name="r8h_josephine_judging" type="obj_trellis_point_default" x="226" y="321"/>
  <object id="272" template="../../../templates/meta/obj_trellis_point_default.tx" name="r8h_maple_judging" type="obj_trellis_point_default" x="244" y="303"/>
  <object id="273" template="../../../templates/meta/obj_trellis_point_default.tx" name="r8h_luc_judging" type="obj_trellis_point_default" x="244" y="321"/>
  <object id="274" template="../../../templates/meta/obj_trellis_point_default.tx" name="r8h_maple_exit" type="obj_trellis_point_default" x="254" y="281"/>
  <object id="275" template="../../../templates/meta/obj_trellis_point_default.tx" name="r8h_luc_exit" type="obj_trellis_point_default" x="234" y="281"/>
  <object id="276" template="../../../templates/meta/obj_trellis_point_default.tx" name="r8h_josephine_exit" type="obj_trellis_point_default" x="228" y="307"/>
  <object id="277" template="../../../templates/meta/obj_trellis_point_default.tx" name="r8h_hemlock_exit" type="obj_trellis_point_default" x="260" y="307"/>
  <object id="278" template="../../../templates/meta/obj_trellis_point_default.tx" name="r8h_ari_final" type="obj_trellis_point_default" x="234" y="329"/>
  <object id="279" template="../../../templates/meta/obj_trellis_point_default.tx" name="r8h_reina_final" type="obj_trellis_point_default" x="256" y="329"/>
  <object id="280" template="../../../templates/meta/obj_trellis_point_default.tx" name="r8h_ari_exit" type="obj_trellis_point_default" x="234" y="433"/>
  <object id="281" template="../../../templates/meta/obj_trellis_point_default.tx" name="r8h_reina_exit" type="obj_trellis_point_default" x="256" y="433"/>
  <object id="282" template="../../../templates/meta/obj_trellis_point_prop.tx" name="r8h_table_runner" type="obj_trellis_point_prop" x="316" y="295">
   <properties>
    <property name="prop_name" value="r8h_table_runner"/>
   </properties>
  </object>
  <object id="283" template="../../../templates/meta/obj_trellis_point_prop.tx" name="r8h_darcy_dragonhorn" type="obj_trellis_point_prop" x="293" y="292">
   <properties>
    <property name="prop_name" value="r8h_dragonhorn"/>
   </properties>
  </object>
  <object id="284" template="../../../templates/meta/obj_trellis_point_prop.tx" name="r8h_darcy_dragonhorn_empty" type="obj_trellis_point_prop" x="293" y="292">
   <properties>
    <property name="prop_name" value="r8h_dragonhorn_empty"/>
   </properties>
  </object>
  <object id="285" template="../../../templates/meta/obj_trellis_point_prop.tx" name="r8h_darcy_curry" type="obj_trellis_point_prop" x="293" y="292">
   <properties>
    <property name="prop_name" value="r8h_curry"/>
   </properties>
  </object>
  <object id="286" template="../../../templates/meta/obj_trellis_point_prop.tx" name="r8h_darcy_curry_empty" type="obj_trellis_point_prop" x="293" y="292">
   <properties>
    <property name="prop_name" value="r8h_curry_empty"/>
   </properties>
  </object>
  <object id="287" template="../../../templates/meta/obj_trellis_point_prop.tx" name="r8h_darcy_pie" type="obj_trellis_point_prop" x="293" y="292">
   <properties>
    <property name="prop_name" value="r8h_pie"/>
   </properties>
  </object>
  <object id="288" template="../../../templates/meta/obj_trellis_point_prop.tx" name="r8h_darcy_pie_empty" type="obj_trellis_point_prop" x="293" y="292">
   <properties>
    <property name="prop_name" value="r8h_pie_empty"/>
   </properties>
  </object>
  <object id="289" template="../../../templates/meta/obj_trellis_point_prop.tx" name="r8h_taliferro_dragonhorn" type="obj_trellis_point_prop" x="316" y="292">
   <properties>
    <property name="prop_name" value="r8h_dragonhorn"/>
   </properties>
  </object>
  <object id="290" template="../../../templates/meta/obj_trellis_point_prop.tx" name="r8h_taliferro_dragonhorn_empty" type="obj_trellis_point_prop" x="316" y="292">
   <properties>
    <property name="prop_name" value="r8h_dragonhorn_empty"/>
   </properties>
  </object>
  <object id="291" template="../../../templates/meta/obj_trellis_point_prop.tx" name="r8h_taliferro_curry" type="obj_trellis_point_prop" x="316" y="292">
   <properties>
    <property name="prop_name" value="r8h_curry"/>
   </properties>
  </object>
  <object id="292" template="../../../templates/meta/obj_trellis_point_prop.tx" name="r8h_taliferro_curry_empty" type="obj_trellis_point_prop" x="316" y="292">
   <properties>
    <property name="prop_name" value="r8h_curry_empty"/>
   </properties>
  </object>
  <object id="293" template="../../../templates/meta/obj_trellis_point_prop.tx" name="r8h_taliferro_pie" type="obj_trellis_point_prop" x="316" y="292">
   <properties>
    <property name="prop_name" value="r8h_pie"/>
   </properties>
  </object>
  <object id="294" template="../../../templates/meta/obj_trellis_point_prop.tx" name="r8h_taliferro_pie_empty" type="obj_trellis_point_prop" x="316" y="292">
   <properties>
    <property name="prop_name" value="r8h_pie_empty"/>
   </properties>
  </object>
  <object id="295" template="../../../templates/meta/obj_trellis_point_prop.tx" name="r8h_vera_dragonhorn" type="obj_trellis_point_prop" x="339" y="292">
   <properties>
    <property name="prop_name" value="r8h_dragonhorn"/>
   </properties>
  </object>
  <object id="296" template="../../../templates/meta/obj_trellis_point_prop.tx" name="r8h_vera_dragonhorn_empty" type="obj_trellis_point_prop" x="339" y="292">
   <properties>
    <property name="prop_name" value="r8h_dragonhorn_empty"/>
   </properties>
  </object>
  <object id="297" template="../../../templates/meta/obj_trellis_point_prop.tx" name="r8h_vera_curry" type="obj_trellis_point_prop" x="339" y="292">
   <properties>
    <property name="prop_name" value="r8h_curry"/>
   </properties>
  </object>
  <object id="298" template="../../../templates/meta/obj_trellis_point_prop.tx" name="r8h_vera_curry_empty" type="obj_trellis_point_prop" x="339" y="292">
   <properties>
    <property name="prop_name" value="r8h_curry_empty"/>
   </properties>
  </object>
  <object id="299" template="../../../templates/meta/obj_trellis_point_prop.tx" name="r8h_vera_pie" type="obj_trellis_point_prop" x="339" y="292">
   <properties>
    <property name="prop_name" value="r8h_pie"/>
   </properties>
  </object>
  <object id="300" template="../../../templates/meta/obj_trellis_point_prop.tx" name="r8h_vera_pie_empty" type="obj_trellis_point_prop" x="339" y="292">
   <properties>
    <property name="prop_name" value="r8h_pie_empty"/>
   </properties>
  </object>
  <object id="301" template="../../../templates/meta/obj_trellis_point_prop.tx" name="r8h_darcy_tea" type="obj_trellis_point_prop" x="301" y="300">
   <properties>
    <property name="prop_name" value="r8h_tea"/>
   </properties>
  </object>
  <object id="302" template="../../../templates/meta/obj_trellis_point_prop.tx" name="r8h_taliferro_tea" type="obj_trellis_point_prop" x="325" y="300">
   <properties>
    <property name="prop_name" value="r8h_tea"/>
   </properties>
  </object>
  <object id="303" template="../../../templates/meta/obj_trellis_point_prop.tx" name="r8h_vera_tea" type="obj_trellis_point_prop" x="347" y="300">
   <properties>
    <property name="prop_name" value="r8h_tea"/>
   </properties>
  </object>
  <object id="304" template="../../../templates/meta/obj_trellis_point_prop.tx" name="r8h_darcy_napkin" type="obj_trellis_point_prop" x="284" y="294">
   <properties>
    <property name="prop_name" value="r8h_napkin"/>
   </properties>
  </object>
  <object id="305" template="../../../templates/meta/obj_trellis_point_prop.tx" name="r8h_taliferro_napkin" type="obj_trellis_point_prop" x="307" y="294">
   <properties>
    <property name="prop_name" value="r8h_napkin"/>
   </properties>
  </object>
  <object id="306" template="../../../templates/meta/obj_trellis_point_prop.tx" name="r8h_vera_napkin" type="obj_trellis_point_prop" x="330" y="294">
   <properties>
    <property name="prop_name" value="r8h_napkin"/>
   </properties>
  </object>
  <object id="307" template="../../../templates/meta/obj_trellis_point_prop.tx" name="r8h_pan" type="obj_trellis_point_prop" x="144" y="242">
   <properties>
    <property name="prop_name" value="r8h_pan"/>
   </properties>
  </object>
  <object id="308" template="../../../templates/meta/obj_trellis_point_camera.tx" name="r8h_camera_1" type="obj_trellis_point_camera" x="244" y="423"/>
  <object id="309" template="../../../templates/meta/obj_trellis_point_camera.tx" name="r8h_camera_2" type="obj_trellis_point_camera" x="200" y="316"/>
  <object id="310" template="../../../templates/meta/obj_trellis_point_camera.tx" name="r8h_camera_3" type="obj_trellis_point_camera" x="245" y="316"/>
  <object id="311" template="../../../templates/meta/obj_trellis_point_camera.tx" name="r8h_camera_4" type="obj_trellis_point_camera" x="190" y="316"/>
  <object id="312" template="../../../templates/meta/obj_trellis_point_camera.tx" name="r8h_camera_5" type="obj_trellis_point_camera" x="245" y="277"/>
  <object id="313" template="../../../templates/meta/obj_trellis_point_camera.tx" name="r8h_camera_6" type="obj_trellis_point_camera" x="245" y="300"/>
  <object id="314" template="../../../templates/meta/obj_trellis_point_camera.tx" name="r8h_camera_7" type="obj_trellis_point_camera" x="245" y="230"/>
  <object id="315" template="../../../templates/meta/obj_trellis_point_camera.tx" name="r8h_camera_8" type="obj_trellis_point_camera" x="245" y="198"/>
  <object id="316" template="../../../templates/meta/obj_trellis_point_camera.tx" name="r8h_camera_9" type="obj_trellis_point_camera" x="245" y="334"/>
  <object id="317" template="../../../templates/meta/obj_trellis_point_camera.tx" name="r8h_camera_10" type="obj_trellis_point_camera" x="144" y="309"/>
  <object id="318" template="../../../templates/meta/obj_trellis_point_camera.tx" name="r8h_camera_11" type="obj_trellis_point_camera" x="243" y="504"/>
  <object id="319" template="../../../templates/meta/obj_trellis_point_camera.tx" name="r8h_camera_12" type="obj_trellis_point_camera" x="244" y="417"/>
  <object id="320" template="../../../templates/meta/obj_trellis_point_camera.tx" name="r8h_camera_13" type="obj_trellis_point_camera" x="244" y="388"/>
  <object id="321" template="../../../templates/meta/obj_trellis_point_camera.tx" name="r8h_camera_14" type="obj_trellis_point_camera" x="316" y="305"/>
  <object id="322" template="../../../templates/meta/obj_trellis_point_camera.tx" name="r8h_camera_15" type="obj_trellis_point_camera" x="156" y="292"/>
  <object id="323" template="../../../templates/meta/obj_trellis_point_camera.tx" name="r8h_camera_16" type="obj_trellis_point_camera" x="316" y="332"/>
  <object id="324" template="../../../templates/meta/obj_trellis_point_camera.tx" name="r8h_camera_17" type="obj_trellis_point_camera" x="232" y="334"/>
  <object id="325" template="../../../templates/meta/obj_trellis_point_camera.tx" name="r8h_camera_18" type="obj_trellis_point_camera" x="273" y="315"/>
  <object id="326" template="../../../templates/meta/obj_trellis_point_camera.tx" name="r8h_camera_19" type="obj_trellis_point_camera" x="304" y="360"/>
  <object id="327" template="../../../templates/meta/obj_trellis_point_camera.tx" name="r8h_camera_20" type="obj_trellis_point_camera" x="245" y="317"/>
  <object id="328" template="../../../templates/meta/obj_trellis_point_camera.tx" name="r8h_camera_21" type="obj_trellis_point_camera" x="244" y="438"/>
  <object id="329" template="../../../templates/meta/obj_trellis_point_default.tx" name="r8h_ari_cutting_board" type="obj_trellis_point_default" x="108" y="248"/>
  <object id="330" template="../../../templates/meta/obj_trellis_point_default.tx" name="r8h_reina_middle" type="obj_trellis_point_default" x="243" y="331"/>
  <object id="331" template="../../../templates/meta/obj_trellis_point_camera.tx" name="r8h_camera_eat" type="obj_trellis_point_camera" x="316" y="298"/>
  <object id="332" template="../../../templates/meta/obj_trellis_point_default.tx" name="r8h_darcy_doorway" type="obj_trellis_point_default" x="230" y="519"/>
  <object id="333" template="../../../templates/meta/obj_trellis_point_default.tx" name="r8h_vera_doorway" type="obj_trellis_point_default" x="258" y="518"/>
  <object id="334" template="../../../templates/meta/obj_trellis_point_default.tx" name="r8h_reina_presenting_back" type="obj_trellis_point_default" x="316" y="360"/>
 </objectgroup>
 <objectgroup draworder="index" id="23" name="TrellisPoints_Adeline_6h" visible="0">
  <object id="335" template="../../../templates/meta/obj_trellis_point_camera.tx" name="a6h_camera_23" type="obj_trellis_point_camera" x="444" y="313"/>
  <object id="336" template="../../../templates/meta/obj_trellis_point_camera.tx" name="a6h_camera_24" type="obj_trellis_point_camera" x="250" y="313"/>
  <object id="337" template="../../../templates/meta/obj_trellis_point_prop.tx" name="a6h_vegetable_soup" type="obj_trellis_point_prop" x="316" y="321">
   <properties>
    <property name="prop_name" value="a6h_vegetable_soup"/>
   </properties>
  </object>
 </objectgroup>
 <objectgroup draworder="index" id="24" name="TrellisPoints_Reina_6h" visible="0">
  <object id="338" template="../../../templates/meta/obj_trellis_point_default.tx" name="r6h_ari_entrance" type="obj_trellis_point_default" x="226" y="433"/>
  <object id="339" template="../../../templates/meta/obj_trellis_point_default.tx" name="r6h_ari_start" type="obj_trellis_point_default" x="222" y="291"/>
  <object id="340" template="../../../templates/meta/obj_trellis_point_default.tx" name="r6h_reina_entrance" type="obj_trellis_point_default" x="184" y="291"/>
  <object id="341" template="../../../templates/meta/obj_trellis_point_default.tx" name="r6h_josephine_entrance" type="obj_trellis_point_default" x="164" y="321"/>
  <object id="342" template="../../../templates/meta/obj_trellis_point_default.tx" name="r6h_reina_start" type="obj_trellis_point_default" x="132" y="291"/>
  <object id="343" template="../../../templates/meta/obj_trellis_point_default.tx" name="r6h_ari_encouragement" type="obj_trellis_point_default" x="156" y="291"/>
  <object id="344" template="../../../templates/meta/obj_trellis_point_default.tx" name="r6h_reina_discussion" type="obj_trellis_point_default" x="132" y="277"/>
  <object id="345" template="../../../templates/meta/obj_trellis_point_default.tx" name="r6h_ari_discussion" type="obj_trellis_point_default" x="156" y="277"/>
  <object id="346" template="../../../templates/meta/obj_trellis_point_default.tx" name="r6h_reina_feedback" type="obj_trellis_point_default" x="254" y="311"/>
  <object id="347" template="../../../templates/meta/obj_trellis_point_default.tx" name="r6h_reina_back" type="obj_trellis_point_default" x="268" y="283"/>
  <object id="348" template="../../../templates/meta/obj_trellis_point_default.tx" name="r6h_west_service" type="obj_trellis_point_default" x="270" y="301"/>
  <object id="349" template="../../../templates/meta/obj_trellis_point_default.tx" name="r6h_east_service" type="obj_trellis_point_default" x="332" y="281"/>
  <object id="350" template="../../../templates/meta/obj_trellis_point_default.tx" name="r6h_ari_back" type="obj_trellis_point_default" x="288" y="271"/>
  <object id="351" template="../../../templates/meta/obj_trellis_point_default.tx" name="r6h_ari_comfort" type="obj_trellis_point_default" x="158" y="261"/>
  <object id="352" template="../../../templates/meta/obj_trellis_point_default.tx" name="r6h_balor_entrance" type="obj_trellis_point_default" x="236" y="517"/>
  <object id="353" template="../../../templates/meta/obj_trellis_point_default.tx" name="r6h_balor_exit" type="obj_trellis_point_default" x="58" y="423"/>
  <object id="354" template="../../../templates/meta/obj_trellis_point_camera.tx" name="r6h_camera_1" type="obj_trellis_point_camera" x="144" y="259"/>
  <object id="355" template="../../../templates/meta/obj_trellis_point_camera.tx" name="r6h_camera_2" type="obj_trellis_point_camera" x="202" y="287"/>
  <object id="356" template="../../../templates/meta/obj_trellis_point_default.tx" name="r6h_balor_start" type="obj_trellis_point_default" x="228" y="339"/>
  <object id="357" template="../../../templates/meta/obj_trellis_point_camera.tx" name="r6h_camera_3" type="obj_trellis_point_camera" x="164" y="337"/>
  <object id="358" template="../../../templates/meta/obj_trellis_point_camera.tx" name="r6h_camera_4" type="obj_trellis_point_camera" x="178" y="301"/>
  <object id="359" template="../../../templates/meta/obj_trellis_point_camera.tx" name="r6h_camera_5" type="obj_trellis_point_camera" x="244" y="411"/>
  <object id="360" template="../../../templates/meta/obj_trellis_point_camera.tx" name="r6h_camera_6" type="obj_trellis_point_camera" x="202" y="341"/>
  <object id="361" template="../../../templates/meta/obj_trellis_point_camera.tx" name="r6h_camera_7" type="obj_trellis_point_camera" x="144" y="297"/>
  <object id="362" template="../../../templates/meta/obj_trellis_point_camera.tx" name="r6h_camera_8" type="obj_trellis_point_camera" x="144" y="273"/>
  <object id="363" template="../../../templates/meta/obj_trellis_point_camera.tx" name="r6h_camera_9" type="obj_trellis_point_camera" x="116" y="317"/>
  <object id="364" template="../../../templates/meta/obj_trellis_point_camera.tx" name="r6h_camera_10" type="obj_trellis_point_camera" x="294" y="307"/>
  <object id="365" template="../../../templates/meta/obj_trellis_point_prop.tx" name="r6h_table_runner" type="obj_trellis_point_prop" x="316" y="295">
   <properties>
    <property name="prop_name" value="r6h_table_runner"/>
   </properties>
  </object>
  <object id="366" template="../../../templates/meta/obj_trellis_point_prop.tx" name="r6h_modernist_plate" type="obj_trellis_point_prop" x="316" y="321">
   <properties>
    <property name="prop_name" value="r6h_modernist_plate"/>
   </properties>
  </object>
  <object id="367" template="../../../templates/meta/obj_trellis_point_prop.tx" name="r6h_spicy_cake" type="obj_trellis_point_prop" x="316" y="292">
   <properties>
    <property name="prop_name" value="r6h_spicy_cake"/>
   </properties>
  </object>
  <object id="368" template="../../../templates/meta/obj_trellis_point_prop.tx" name="r6h_thick_drink_2" type="obj_trellis_point_prop" x="326" y="308">
   <properties>
    <property name="prop_name" value="r6h_thick_drink"/>
   </properties>
  </object>
  <object id="369" template="../../../templates/meta/obj_trellis_point_prop.tx" name="r6h_modernist_specks" type="obj_trellis_point_prop" x="293" y="321">
   <properties>
    <property name="prop_name" value="r6h_modernist_specks"/>
   </properties>
  </object>
  <object id="370" template="../../../templates/meta/obj_trellis_point_prop.tx" name="r6h_honey_curry" type="obj_trellis_point_prop" x="293" y="292">
   <properties>
    <property name="prop_name" value="r6h_honey_curry"/>
   </properties>
  </object>
  <object id="371" template="../../../templates/meta/obj_trellis_point_prop.tx" name="r6h_thick_drink_1" type="obj_trellis_point_prop" x="288" y="308">
   <properties>
    <property name="prop_name" value="r6h_thick_drink"/>
   </properties>
  </object>
  <object id="372" template="../../../templates/meta/obj_trellis_point_default.tx" name="r6h_side_table" type="obj_trellis_point_default" x="178" y="267"/>
  <object id="373" template="../../../templates/meta/obj_trellis_point_camera.tx" name="r6h_camera_11" type="obj_trellis_point_camera" x="144" y="327"/>
  <object id="374" template="../../../templates/meta/obj_trellis_point_default.tx" name="r6h_ari_final" type="obj_trellis_point_default" x="132" y="312"/>
  <object id="375" template="../../../templates/meta/obj_trellis_point_default.tx" name="r6h_reina_final" type="obj_trellis_point_default" x="154" y="312"/>
  <object id="376" template="../../../templates/meta/obj_trellis_point_camera.tx" name="r6h_camera_bounce" type="obj_trellis_point_camera" x="202" y="315">
   <properties>
    <property name="direction" type="int" propertytype="Cardinal" value="3"/>
   </properties>
  </object>
  <object id="377" template="../../../templates/meta/obj_trellis_point_camera.tx" name="r6h_camera_notes" type="obj_trellis_point_camera" x="262" y="311"/>
  <object id="378" template="../../../templates/meta/obj_trellis_point_camera.tx" name="r6h_camera_support" type="obj_trellis_point_camera" x="144" y="291"/>
  <object id="379" template="../../../templates/meta/obj_trellis_point_prop.tx" name="r6h_pan" type="obj_trellis_point_prop" x="144" y="242">
   <properties>
    <property name="prop_name" value="r6h_pan"/>
   </properties>
  </object>
 </objectgroup>
 <objectgroup draworder="index" id="25" name="TrellisPoints_Balor_6h" visible="0">
  <object id="380" template="../../../templates/meta/obj_trellis_point_default.tx" name="b6h_ari_entrance" type="obj_trellis_point_default" x="244" y="517">
   <properties>
    <property name="direction" type="int" propertytype="Cardinal" value="1"/>
   </properties>
  </object>
  <object id="381" template="../../../templates/meta/obj_trellis_point_default.tx" name="b6h_ari_start" type="obj_trellis_point_default" x="244" y="431">
   <properties>
    <property name="direction" type="int" propertytype="Cardinal" value="1"/>
   </properties>
  </object>
  <object id="382" template="../../../templates/meta/obj_trellis_point_default.tx" name="b6h_ari_chat" type="obj_trellis_point_default" x="244" y="375"/>
  <object id="383" template="../../../templates/meta/obj_trellis_point_default.tx" name="b6h_balor_entrance" type="obj_trellis_point_default" x="244" y="336"/>
  <object id="384" template="../../../templates/meta/obj_trellis_point_default.tx" name="b6h_wheedle_start" type="obj_trellis_point_default" x="244" y="453"/>
  <object id="385" template="../../../templates/meta/obj_trellis_point_default.tx" name="b6h_wheedle_stand" type="obj_trellis_point_default" x="258" y="319"/>
  <object id="386" template="../../../templates/meta/obj_trellis_point_default.tx" name="b6h_wheedle_pause" type="obj_trellis_point_default" x="244" y="333"/>
  <object id="387" template="../../../templates/meta/obj_trellis_point_default.tx" name="b6h_hemlock_pause" type="obj_trellis_point_default" x="244" y="305"/>
  <object id="388" template="../../../templates/meta/obj_trellis_point_camera.tx" name="b6h_camera_1" type="obj_trellis_point_camera" x="244" y="539"/>
  <object id="389" template="../../../templates/meta/obj_trellis_point_camera.tx" name="b6h_camera_2" type="obj_trellis_point_camera" x="244" y="415"/>
  <object id="390" template="../../../templates/meta/obj_trellis_point_camera.tx" name="b6h_camera_3" type="obj_trellis_point_camera" x="244" y="343"/>
  <object id="391" template="../../../templates/meta/obj_trellis_point_camera.tx" name="b6h_camera_4" type="obj_trellis_point_camera" x="278" y="319"/>
  <object id="392" template="../../../templates/meta/obj_trellis_point_camera.tx" name="b6h_camera_5" type="obj_trellis_point_camera" x="244" y="459"/>
  <object id="393" template="../../../templates/meta/obj_trellis_point_camera.tx" name="b6h_camera_6" type="obj_trellis_point_camera" x="292" y="319"/>
  <object id="394" template="../../../templates/meta/obj_trellis_point_camera.tx" name="b6h_camera_7" type="obj_trellis_point_camera" x="244" y="365"/>
  <object id="395" template="../../../templates/meta/obj_trellis_point_prop.tx" name="b6h_wine" type="obj_trellis_point_prop" x="286" y="297">
   <properties>
    <property name="prop_name" value="b6h_wine"/>
   </properties>
  </object>
  <object id="396" template="../../../templates/meta/obj_trellis_point_prop.tx" name="b6h_lemonade_ari" type="obj_trellis_point_prop" x="286" y="319">
   <properties>
    <property name="prop_name" value="b6h_lemonade"/>
   </properties>
  </object>
  <object id="397" template="../../../templates/meta/obj_trellis_point_prop.tx" name="b6h_contract" type="obj_trellis_point_prop" x="292" y="307">
   <properties>
    <property name="prop_name" value="b6h_contract"/>
   </properties>
  </object>
  <object id="398" template="../../../templates/meta/obj_trellis_point_prop.tx" name="b6h_wine_glass_ari" type="obj_trellis_point_prop" x="286" y="323">
   <properties>
    <property name="prop_name" value="b6h_wine_glass"/>
   </properties>
  </object>
  <object id="399" template="../../../templates/meta/obj_trellis_point_prop.tx" name="b6h_wine_glass_balor" type="obj_trellis_point_prop" x="294" y="295">
   <properties>
    <property name="prop_name" value="b6h_wine_glass"/>
   </properties>
  </object>
  <object id="400" template="../../../templates/meta/obj_trellis_point_default.tx" name="b6h_hemlock_lemonade_grab" type="obj_trellis_point_default" x="262" y="333"/>
  <object id="401" template="../../../templates/meta/obj_trellis_point_default.tx" name="b6h_wheedle_wine_grab" type="obj_trellis_point_default" x="270" y="297"/>
 </objectgroup>
 <objectgroup draworder="index" id="26" name="TrellisPoints_Repair_the_Inn_Pt_1" visible="0">
  <object id="402" template="../../../templates/meta/obj_trellis_point_default.tx" name="rti1_adeline_entrance" type="obj_trellis_point_default" x="244" y="365"/>
  <object id="403" template="../../../templates/meta/obj_trellis_point_default.tx" name="rti1_hemlock_entrance" type="obj_trellis_point_default" x="232" y="337"/>
  <object id="404" template="../../../templates/meta/obj_trellis_point_default.tx" name="rti1_josephine_entrance" type="obj_trellis_point_default" x="254" y="337"/>
  <object id="405" template="../../../templates/meta/obj_trellis_point_default.tx" name="rti1_adeline_start" type="obj_trellis_point_default" x="254" y="365"/>
  <object id="406" template="../../../templates/meta/obj_trellis_point_default.tx" name="rti1_ari_start" type="obj_trellis_point_default" x="232" y="365"/>
  <object id="407" template="../../../templates/meta/obj_trellis_point_default.tx" name="rti1_ari_pause" type="obj_trellis_point_default" x="244" y="425"/>
  <object id="408" template="../../../templates/meta/obj_trellis_point_default.tx" name="rti1_ari_entrance" type="obj_trellis_point_default" x="244" y="517"/>
  <object id="409" template="../../../templates/meta/obj_trellis_point_default.tx" name="rti1_reina_entrance" type="obj_trellis_point_default" x="244" y="451"/>
  <object id="410" template="../../../templates/meta/obj_trellis_point_camera.tx" name="rti1_camera_1" type="obj_trellis_point_camera" x="244" y="487"/>
  <object id="411" template="../../../templates/meta/obj_trellis_point_camera.tx" name="rti1_camera_2" type="obj_trellis_point_camera" x="244" y="397"/>
  <object id="412" template="../../../templates/meta/obj_trellis_point_camera.tx" name="rti1_camera_3" type="obj_trellis_point_camera" x="244" y="347"/>
  <object id="413" template="../../../templates/meta/obj_trellis_point_camera.tx" name="rti1_camera_4" type="obj_trellis_point_camera" x="192" y="329"/>
  <object id="414" template="../../../templates/meta/obj_trellis_point_camera.tx" name="rti1_camera_5" type="obj_trellis_point_camera" x="192" y="307"/>
  <object id="415" template="../../../templates/meta/obj_trellis_point_prop.tx" name="rti1_drink_adeline_1" type="obj_trellis_point_prop" x="193" y="300">
   <properties>
    <property name="prop_name" value="rti1_drink_fruity"/>
   </properties>
  </object>
  <object id="416" template="../../../templates/meta/obj_trellis_point_prop.tx" name="rti1_drink_ari_1" type="obj_trellis_point_prop" x="193" y="324">
   <properties>
    <property name="prop_name" value="rti1_drink_fruity"/>
   </properties>
  </object>
  <object id="417" template="../../../templates/meta/obj_trellis_point_prop.tx" name="rti1_drink_adeline_2" type="obj_trellis_point_prop" x="193" y="300">
   <properties>
    <property name="prop_name" value="rti1_drink_bitter"/>
   </properties>
  </object>
  <object id="418" template="../../../templates/meta/obj_trellis_point_prop.tx" name="rti1_drink_ari_2" type="obj_trellis_point_prop" x="193" y="324">
   <properties>
    <property name="prop_name" value="rti1_drink_bitter"/>
   </properties>
  </object>
  <object id="419" template="../../../templates/meta/obj_trellis_point_prop.tx" name="rti1_drink_adeline_3" type="obj_trellis_point_prop" x="193" y="300">
   <properties>
    <property name="prop_name" value="rti1_drink_water"/>
   </properties>
  </object>
  <object id="420" template="../../../templates/meta/obj_trellis_point_prop.tx" name="rti1_drink_ari_3" type="obj_trellis_point_prop" x="193" y="324">
   <properties>
    <property name="prop_name" value="rti1_drink_water"/>
   </properties>
  </object>
  <object id="421" template="../../../templates/meta/obj_trellis_point_prop.tx" name="rti1_proposal" type="obj_trellis_point_prop" x="192" y="304">
   <properties>
    <property name="prop_name" value="rti1_proposal"/>
   </properties>
  </object>
 </objectgroup>
 <objectgroup draworder="index" id="27" name="TrellisPoints_Repair_the_Inn_Pt_2" visible="0">
  <object id="422" template="../../../templates/meta/obj_trellis_point_default.tx" name="rti2_josephine_inn_start" type="obj_trellis_point_default" x="258" y="363"/>
  <object id="423" template="../../../templates/meta/obj_trellis_point_default.tx" name="rti2_hemlock_inn_start" type="obj_trellis_point_default" x="230" y="363"/>
  <object id="424" template="../../../templates/meta/obj_trellis_point_default.tx" name="rti2_adeline_inn_entrance" type="obj_trellis_point_default" x="244" y="383"/>
  <object id="425" template="../../../templates/meta/obj_trellis_point_default.tx" name="rti2_josephine_inn_entrance" type="obj_trellis_point_default" x="258" y="465"/>
  <object id="426" template="../../../templates/meta/obj_trellis_point_default.tx" name="rti2_hemlock_inn_entrance" type="obj_trellis_point_default" x="230" y="465"/>
  <object id="427" template="../../../templates/meta/obj_trellis_point_default.tx" name="rti2_general_inn_entrance" type="obj_trellis_point_default" x="244" y="517"/>
  <object id="428" template="../../../templates/meta/obj_trellis_point_default.tx" name="rti2_ari_inn_entrance" type="obj_trellis_point_default" x="244" y="523"/>
  <object id="429" template="../../../templates/meta/obj_trellis_point_default.tx" name="rti2_reina_inn_entrance" type="obj_trellis_point_default" x="244" y="327"/>
  <object id="430" template="../../../templates/meta/obj_trellis_point_default.tx" name="rti2_balor_inn_entrance" type="obj_trellis_point_default" x="160" y="281"/>
  <object id="431" template="../../../templates/meta/obj_trellis_point_default.tx" name="rti2_olric_inn_entrance" type="obj_trellis_point_default" x="194" y="279"/>
  <object id="432" template="../../../templates/meta/obj_trellis_point_default.tx" name="rti2_dell_inn_entrance" type="obj_trellis_point_default" x="258" y="277"/>
  <object id="433" template="../../../templates/meta/obj_trellis_point_default.tx" name="rti2_luc_inn_entrance" type="obj_trellis_point_default" x="272" y="291"/>
  <object id="434" template="../../../templates/meta/obj_trellis_point_default.tx" name="rti2_maple_inn_entrance" type="obj_trellis_point_default" x="244" y="291"/>
  <object id="435" template="../../../templates/meta/obj_trellis_point_default.tx" name="rti2_eiland_inn_entrance" type="obj_trellis_point_default" x="208" y="437"/>
  <object id="436" template="../../../templates/meta/obj_trellis_point_default.tx" name="rti2_celine_inn_entrance" type="obj_trellis_point_default" x="280" y="447"/>
  <object id="437" template="../../../templates/meta/obj_trellis_point_default.tx" name="rti2_errol_inn_entrance" type="obj_trellis_point_default" x="190" y="451"/>
  <object id="438" template="../../../templates/meta/obj_trellis_point_default.tx" name="rti2_ari_inn_start" type="obj_trellis_point_default" x="244" y="435"/>
  <object id="439" template="../../../templates/meta/obj_trellis_point_default.tx" name="rti2_hemlock_inn_bar" type="obj_trellis_point_default" x="160" y="347"/>
  <object id="440" template="../../../templates/meta/obj_trellis_point_default.tx" name="rti2_hayden_inn_entrance" type="obj_trellis_point_default" x="306" y="451"/>
  <object id="441" template="../../../templates/meta/obj_trellis_point_default.tx" name="rti2_juniper_inn_entrance" type="obj_trellis_point_default" x="272" y="469"/>
  <object id="442" template="../../../templates/meta/obj_trellis_point_default.tx" name="rti2_elsie_inn_entrance" type="obj_trellis_point_default" x="294" y="469"/>
  <object id="443" template="../../../templates/meta/obj_trellis_point_default.tx" name="rti2_landen_inn_entrance" type="obj_trellis_point_default" x="208" y="461"/>
  <object id="444" template="../../../templates/meta/obj_trellis_point_default.tx" name="rti2_holt_inn_entrance" type="obj_trellis_point_default" x="178" y="471"/>
  <object id="445" template="../../../templates/meta/obj_trellis_point_default.tx" name="rti2_terithia_inn_entrance" type="obj_trellis_point_default" x="252" y="457"/>
  <object id="446" template="../../../templates/meta/obj_trellis_point_default.tx" name="rti2_march_inn_entrance" type="obj_trellis_point_default" x="230" y="471"/>
  <object id="447" template="../../../templates/meta/obj_trellis_point_default.tx" name="rti2_ryis_inn_entrance" type="obj_trellis_point_default" x="200" y="477"/>
  <object id="448" template="../../../templates/meta/obj_trellis_point_default.tx" name="rti2_nora_inn_entrance" type="obj_trellis_point_default" x="270" y="485"/>
  <object id="449" template="../../../templates/meta/obj_trellis_point_default.tx" name="rti2_valen_inn_entrance" type="obj_trellis_point_default" x="242" y="485"/>
  <object id="450" template="../../../templates/meta/obj_trellis_point_camera.tx" name="rti2_camera_8" type="obj_trellis_point_camera" x="244" y="461"/>
  <object id="451" template="../../../templates/meta/obj_trellis_point_camera.tx" name="rti2_camera_9" type="obj_trellis_point_camera" x="244" y="395"/>
  <object id="452" template="../../../templates/meta/obj_trellis_point_camera.tx" name="rti2_camera_10" type="obj_trellis_point_camera" x="176" y="347"/>
  <object id="453" template="../../../templates/meta/obj_trellis_point_camera.tx" name="rti2_camera_11" type="obj_trellis_point_camera" x="244" y="345"/>
  <object id="454" template="../../../templates/meta/obj_trellis_point_camera.tx" name="rti2_camera_12" type="obj_trellis_point_camera" x="244" y="431"/>
 </objectgroup>
 <objectgroup draworder="index" id="28" name="TrellisPoints_Replenishing_Mistrias_Food_Reserves_2_Pt_2" visible="0">
  <object id="455" template="../../../templates/meta/obj_trellis_point_default.tx" name="rmfr2_2_stove_left" type="obj_trellis_point_default" x="132" y="251"/>
  <object id="456" template="../../../templates/meta/obj_trellis_point_default.tx" name="rmfr2_2_stove_right" type="obj_trellis_point_default" x="158" y="251"/>
  <object id="457" template="../../../templates/meta/obj_trellis_point_camera.tx" name="rmfr2_2_camera_1" type="obj_trellis_point_camera" x="146" y="335"/>
  <object id="458" template="../../../templates/meta/obj_trellis_point_camera.tx" name="rmfr2_2_camera_2" type="obj_trellis_point_camera" x="146" y="257"/>
  <object id="459" template="../../../templates/meta/obj_trellis_point_prop.tx" name="rmfr2_2_pan_full" type="obj_trellis_point_prop" x="132" y="243">
   <properties>
    <property name="prop_name" value="rmfr2_2_pan_full"/>
   </properties>
  </object>
  <object id="460" template="../../../templates/meta/obj_trellis_point_prop.tx" name="rmfr2_2_pan_empty" type="obj_trellis_point_prop" x="132" y="243">
   <properties>
    <property name="prop_name" value="rmfr2_2_pan_empty"/>
   </properties>
  </object>
  <object id="461" template="../../../templates/meta/obj_trellis_point_prop.tx" name="rmfr2_2_ari_rations" type="obj_trellis_point_prop" x="293" y="322">
   <properties>
    <property name="prop_name" value="rmfr2_2_ari_rations"/>
   </properties>
  </object>
  <object id="462" template="../../../templates/meta/obj_trellis_point_camera.tx" name="rmfr2_2_camera_3" type="obj_trellis_point_camera" x="300" y="317"/>
 </objectgroup>
 <objectgroup draworder="index" id="29" name="TrellisPoints_Balor_4h" visible="0">
  <object id="463" template="../../../templates/meta/obj_trellis_point_default.tx" name="b4h_ari_entrance" type="obj_trellis_point_default" x="244" y="519"/>
  <object id="464" template="../../../templates/meta/obj_trellis_point_default.tx" name="b4h_ari_start" type="obj_trellis_point_default" x="244" y="449"/>
  <object id="465" template="../../../templates/meta/obj_trellis_point_default.tx" name="b4h_ari_inn_exit" type="obj_trellis_point_default" x="62" y="367"/>
  <object id="466" template="../../../templates/meta/obj_trellis_point_camera.tx" name="b4h_camera_1" type="obj_trellis_point_camera" x="244" y="545"/>
  <object id="467" template="../../../templates/meta/obj_trellis_point_camera.tx" name="b4h_camera_2" type="obj_trellis_point_camera" x="244" y="429"/>
  <object id="468" template="../../../templates/meta/obj_trellis_point_camera.tx" name="b4h_camera_3" type="obj_trellis_point_camera" x="64" y="429"/>
 </objectgroup>
 <objectgroup draworder="index" id="30" name="TrellisPoints_Reina_2h" visible="0">
  <object id="469" template="../../../templates/meta/obj_trellis_point_prop.tx" name="reina_pie_1" type="obj_trellis_point_prop" x="193" y="302">
   <properties>
    <property name="prop_name" value="reina_pie"/>
   </properties>
  </object>
  <object id="470" template="../../../templates/meta/obj_trellis_point_default.tx" name="r2h_adeline_give" type="obj_trellis_point_default" x="174" y="289"/>
  <object id="471" template="../../../templates/meta/obj_trellis_point_default.tx" name="r2h_adeline_bar" type="obj_trellis_point_default" x="192" y="289"/>
  <object id="472" template="../../../templates/meta/obj_trellis_point_default.tx" name="r2h_ari_entrance" type="obj_trellis_point_default" x="244" y="517"/>
  <object id="473" template="../../../templates/meta/obj_trellis_point_default.tx" name="r2h_ari_start" type="obj_trellis_point_default" x="244" y="377"/>
  <object id="474" template="../../../templates/meta/obj_trellis_point_camera.tx" name="r2h_camera_1" type="obj_trellis_point_camera" x="244" y="453"/>
  <object id="475" template="../../../templates/meta/obj_trellis_point_camera.tx" name="r2h_camera_2" type="obj_trellis_point_camera" x="192" y="301"/>
  <object id="476" template="../../../templates/meta/obj_trellis_point_camera.tx" name="r2h_camera_3" type="obj_trellis_point_camera" x="192" y="333"/>
  <object id="477" template="../../../templates/meta/obj_trellis_point_default.tx" name="r2h_adeline_pause" type="obj_trellis_point_default" x="244" y="465"/>
 </objectgroup>
 <objectgroup draworder="index" id="31" name="TrellisPoints_Stillwell_2h" visible="0">
  <object id="478" template="../../../templates/meta/obj_trellis_point_default.tx" name="s2h_ari_start" type="obj_trellis_point_default" x="244" y="521"/>
  <object id="479" template="../../../templates/meta/obj_trellis_point_default.tx" name="s2h_ari_forward" type="obj_trellis_point_default" x="244" y="401"/>
  <object id="480" template="../../../templates/meta/obj_trellis_point_camera.tx" name="s2h_camera_1" type="obj_trellis_point_camera" x="244" y="537"/>
  <object id="481" template="../../../templates/meta/obj_trellis_point_camera.tx" name="s2h_camera_2" type="obj_trellis_point_camera" x="244" y="417"/>
  <object id="482" template="../../../templates/meta/obj_trellis_point_camera.tx" name="s2h_camera_3" type="obj_trellis_point_camera" x="293" y="363"/>
  <object id="483" template="../../../templates/meta/obj_trellis_point_camera.tx" name="s2h_camera_4" type="obj_trellis_point_camera" x="293" y="405"/>
  <object id="484" template="../../../templates/meta/obj_trellis_point_default.tx" name="s2h_ari_juniper" type="obj_trellis_point_default" x="244" y="319"/>
  <object id="485" template="../../../templates/meta/obj_trellis_point_camera.tx" name="s2h_camera_5" type="obj_trellis_point_camera" x="192" y="341"/>
  <object id="486" template="../../../templates/meta/obj_trellis_point_camera.tx" name="s2h_camera_6" type="obj_trellis_point_camera" x="244" y="341"/>
  <object id="487" template="../../../templates/meta/obj_trellis_point_camera.tx" name="s2h_camera_7" type="obj_trellis_point_camera" x="292" y="341"/>
  <object id="488" template="../../../templates/meta/obj_trellis_point_prop.tx" name="s2h_stillwell_plate" type="obj_trellis_point_prop" x="292" y="293">
   <properties>
    <property name="prop_name" value="stillwell_plate"/>
   </properties>
  </object>
  <object id="489" template="../../../templates/meta/obj_trellis_point_prop.tx" name="s2h_ari_plate" type="obj_trellis_point_prop" x="287" y="308">
   <properties>
    <property name="prop_name" value="ari_plate"/>
   </properties>
  </object>
 </objectgroup>
 <objectgroup draworder="index" id="32" name="TrellisPoints_Luc_2h" visible="0">
  <object id="490" template="../../../templates/meta/obj_trellis_point_default.tx" name="l2h_ari_start" type="obj_trellis_point_default" x="244" y="525"/>
  <object id="491" template="../../../templates/meta/obj_trellis_point_default.tx" name="l2h_luc_start" type="obj_trellis_point_default" x="420" y="469"/>
  <object id="492" template="../../../templates/meta/obj_trellis_point_default.tx" name="l2h_ari_forward" type="obj_trellis_point_default" x="244" y="469"/>
  <object id="493" template="../../../templates/meta/obj_trellis_point_default.tx" name="l2h_ari_talk" type="obj_trellis_point_default" x="336" y="469"/>
  <object id="494" template="../../../templates/meta/obj_trellis_point_camera.tx" name="l2h_camera_1" type="obj_trellis_point_camera" x="244" y="537"/>
  <object id="495" template="../../../templates/meta/obj_trellis_point_camera.tx" name="l2h_camera_2" type="obj_trellis_point_camera" x="244" y="461"/>
  <object id="496" template="../../../templates/meta/obj_trellis_point_camera.tx" name="l2h_camera_3" type="obj_trellis_point_camera" x="350" y="461"/>
  <object id="497" template="../../../templates/meta/obj_trellis_point_default.tx" name="l2h_luc_forward" type="obj_trellis_point_default" x="364" y="469"/>
 </objectgroup>
 <objectgroup draworder="index" id="33" name="TrellisPoints_Taliferro_2h" visible="0">
  <object id="498" template="../../../templates/meta/obj_trellis_point_camera.tx" name="t2h_camera_2" type="obj_trellis_point_camera" x="416" y="329"/>
  <object id="499" template="../../../templates/meta/obj_trellis_point_camera.tx" name="t2h_camera_1" type="obj_trellis_point_camera" x="192" y="329"/>
  <object id="500" template="../../../templates/meta/obj_trellis_point_default.tx" name="t2h_taliferro_center" type="obj_trellis_point_default" x="192" y="291"/>
  <object id="501" template="../../../templates/meta/obj_trellis_point_default.tx" name="t2h_taliferro_right" type="obj_trellis_point_default" x="220" y="291"/>
  <object id="502" template="../../../templates/meta/obj_trellis_point_default.tx" name="t2h_taliferro_left" type="obj_trellis_point_default" x="164" y="291"/>
  <object id="503" template="../../../templates/meta/obj_trellis_point_default.tx" name="t2h_taliferro_behold" type="obj_trellis_point_default" x="316" y="353"/>
  <object id="504" template="../../../templates/meta/obj_trellis_point_default.tx" name="t2h_taliferro_north" type="obj_trellis_point_default" x="174" y="288"/>
  <object id="505" template="../../../templates/meta/obj_trellis_point_default.tx" name="t2h_taliferro_bar" type="obj_trellis_point_default" x="168" y="312"/>
  <object id="506" template="../../../templates/meta/obj_trellis_point_default.tx" name="jcc_march_start" type="obj_trellis_point_default" x="244" y="461"/>
 </objectgroup>
 <objectgroup draworder="index" id="34" name="TrellisPoints_Jos_Cooking_Class" visible="0">
  <object id="507" template="../../../templates/meta/obj_trellis_point_default.tx" name="jcc_jo_start" type="obj_trellis_point_default" x="154" y="299">
   <properties>
    <property name="direction" type="int" propertytype="Cardinal" value="0"/>
   </properties>
  </object>
  <object id="508" template="../../../templates/meta/obj_trellis_point_default.tx" name="jcc_ari_start" type="obj_trellis_point_default" x="243" y="518">
   <properties>
    <property name="direction" type="int" propertytype="Cardinal" value="1"/>
   </properties>
  </object>
  <object id="509" template="../../../templates/meta/obj_trellis_point_default.tx" name="jcc_jo_meet" type="obj_trellis_point_default" x="244" y="380"/>
  <object id="510" template="../../../templates/meta/obj_trellis_point_default.tx" name="jcc_ari_meet" type="obj_trellis_point_default" x="244" y="407">
   <properties>
    <property name="direction" type="int" propertytype="Cardinal" value="1"/>
   </properties>
  </object>
  <object id="511" template="../../../templates/meta/obj_trellis_point_default.tx" name="jcc_jo" type="obj_trellis_point_default" x="180" y="281">
   <properties>
    <property name="direction" type="int" propertytype="Cardinal" value="0"/>
   </properties>
  </object>
  <object id="512" template="../../../templates/meta/obj_trellis_point_default.tx" name="jcc_ari" type="obj_trellis_point_default" x="202" y="281">
   <properties>
    <property name="direction" type="int" propertytype="Cardinal" value="2"/>
   </properties>
  </object>
  <object id="513" template="../../../templates/meta/obj_trellis_point_camera.tx" name="jcc_camera_1" type="obj_trellis_point_camera" x="192" y="331"/>
  <object id="514" template="../../../templates/meta/obj_trellis_point_camera.tx" name="jcc_camera_2" type="obj_trellis_point_camera" x="264" y="400"/>
  <object id="515" template="../../../templates/meta/obj_trellis_point_camera.tx" name="jcc_camera_3" type="obj_trellis_point_camera" x="189" y="285"/>
  <object id="516" template="../../../templates/meta/obj_trellis_point_camera.tx" name="jcc_camera_4" type="obj_trellis_point_camera" x="302" y="327"/>
  <object id="517" template="../../../templates/meta/obj_trellis_point_camera.tx" name="jcc_camera_5" type="obj_trellis_point_camera" x="157" y="332"/>
  <object id="518" template="../../../templates/meta/obj_trellis_point_camera.tx" name="jcc_camera_6" type="obj_trellis_point_camera" x="245" y="360"/>
  <object id="519" template="../../../templates/meta/obj_trellis_point_default.tx" name="jcc_balor_veggies" type="obj_trellis_point_default" x="161" y="253">
   <properties>
    <property name="direction" type="int" propertytype="Cardinal" value="0"/>
   </properties>
  </object>
  <object id="520" template="../../../templates/meta/obj_trellis_point_default.tx" name="jcc_ari_reina" type="obj_trellis_point_default" x="128" y="245">
   <properties>
    <property name="direction" type="int" propertytype="Cardinal" value="1"/>
   </properties>
  </object>
  <object id="521" template="../../../templates/meta/obj_trellis_point_prop.tx" name="jcc_vegetable_soup" type="obj_trellis_point_prop" x="316" y="321">
   <properties>
    <property name="prop_name" value="jcc_vegetable_soup"/>
   </properties>
  </object>
 </objectgroup>
 <objectgroup draworder="index" id="35" name="TrellisPoints_Somethings_Bugging_Me" visible="0">
  <object id="522" template="../../../templates/meta/obj_trellis_point_default.tx" name="sbm_hemlock_start" type="obj_trellis_point_default" x="230" y="286">
   <properties>
    <property name="direction" type="int" propertytype="Cardinal" value="0"/>
   </properties>
  </object>
  <object id="523" template="../../../templates/meta/obj_trellis_point_default.tx" name="sbm_luc_start" type="obj_trellis_point_default" x="257" y="286">
   <properties>
    <property name="direction" type="int" propertytype="Cardinal" value="2"/>
   </properties>
  </object>
  <object id="524" template="../../../templates/meta/obj_trellis_point_default.tx" name="sbm_ari_entrance" type="obj_trellis_point_default" x="243" y="522">
   <properties>
    <property name="direction" type="int" propertytype="Cardinal" value="1"/>
   </properties>
  </object>
  <object id="525" template="../../../templates/meta/obj_trellis_point_default.tx" name="sbm_ari_approach" type="obj_trellis_point_default" x="243" y="392">
   <properties>
    <property name="direction" type="int" propertytype="Cardinal" value="1"/>
   </properties>
  </object>
  <object id="526" template="../../../templates/meta/obj_trellis_point_default.tx" name="sbm_luc" type="obj_trellis_point_default" x="256" y="330"/>
  <object id="527" template="../../../templates/meta/obj_trellis_point_default.tx" name="sbm_hemlock" type="obj_trellis_point_default" x="231" y="331"/>
  <object id="528" template="../../../templates/meta/obj_trellis_point_default.tx" name="sbm_ari" type="obj_trellis_point_default" x="243" y="353">
   <properties>
    <property name="direction" type="int" propertytype="Cardinal" value="1"/>
   </properties>
  </object>
  <object id="529" template="../../../templates/meta/obj_trellis_point_default.tx" name="sbm_luc_gift" type="obj_trellis_point_default" x="249" y="342">
   <properties>
    <property name="direction" type="int" propertytype="Cardinal" value="3"/>
   </properties>
  </object>
  <object id="530" template="../../../templates/meta/obj_trellis_point_default.tx" name="sbm_hemlock_back" type="obj_trellis_point_default" x="220" y="286">
   <properties>
    <property name="direction" type="int" propertytype="Cardinal" value="0"/>
   </properties>
  </object>
  <object id="531" template="../../../templates/meta/obj_trellis_point_camera.tx" name="sbm_camera_1" type="obj_trellis_point_camera" x="245" y="279"/>
  <object id="532" template="../../../templates/meta/obj_trellis_point_camera.tx" name="sbm_camera_2" type="obj_trellis_point_camera" x="243" y="378"/>
  <object id="533" template="../../../templates/meta/obj_trellis_point_camera.tx" name="sbm_camera_3" type="obj_trellis_point_camera" x="278" y="342"/>
  <object id="534" template="../../../templates/meta/obj_trellis_point_camera.tx" name="sbm_camera_4" type="obj_trellis_point_camera" x="243" y="359"/>
 </objectgroup>
 <objectgroup draworder="index" id="36" name="TrellisPoints_Darcy_2h" visible="0">
  <object id="535" template="../../../templates/meta/obj_trellis_point_camera.tx" name="darcy_2h_camera_3" type="obj_trellis_point_camera" x="145" y="285"/>
  <object id="536" template="../../../templates/meta/obj_trellis_point_camera.tx" name="darcy_2h_camera_2" type="obj_trellis_point_camera" x="244" y="429"/>
  <object id="537" template="../../../templates/meta/obj_trellis_point_camera.tx" name="darcy_2h_camera_1" type="obj_trellis_point_camera" x="244" y="479"/>
  <object id="538" template="../../../templates/meta/obj_trellis_point_camera.tx" name="darcy_2h_camera_4" type="obj_trellis_point_camera" x="192" y="312"/>
  <object id="539" template="../../../templates/meta/obj_trellis_point_camera.tx" name="darcy_2h_camera_5" type="obj_trellis_point_camera" x="192" y="336"/>
  <object id="540" template="../../../templates/meta/obj_trellis_point_camera.tx" name="darcy_2h_camera_6" type="obj_trellis_point_camera" x="192" y="360"/>
  <object id="541" template="../../../templates/meta/obj_trellis_point_default.tx" name="d2h_ari_stand_1" type="obj_trellis_point_default" x="212" y="317"/>
  <object id="542" template="../../../templates/meta/obj_trellis_point_default.tx" name="d2h_ari_stand_2" type="obj_trellis_point_default" x="212" y="341"/>
  <object id="543" template="../../../templates/meta/obj_trellis_point_default.tx" name="d2h_ari_stand_3" type="obj_trellis_point_default" x="212" y="365"/>
  <object id="544" template="../../../templates/meta/obj_trellis_point_default.tx" name="d2h_ari_zip" type="obj_trellis_point_default" x="244" y="405"/>
  <object id="545" template="../../../templates/meta/obj_trellis_point_prop.tx" name="darcy_coffee_1" type="obj_trellis_point_prop" x="193" y="300">
   <properties>
    <property name="prop_name" value="darcy_coffee"/>
   </properties>
  </object>
  <object id="546" template="../../../templates/meta/obj_trellis_point_prop.tx" name="darcy_coffee_2" type="obj_trellis_point_prop" x="193" y="324">
   <properties>
    <property name="prop_name" value="darcy_espresso"/>
   </properties>
  </object>
  <object id="547" template="../../../templates/meta/obj_trellis_point_prop.tx" name="darcy_coffee_3" type="obj_trellis_point_prop" x="193" y="348">
   <properties>
    <property name="prop_name" value="darcy_latte"/>
   </properties>
  </object>
 </objectgroup>
 <objectgroup draworder="index" id="37" name="TrellisPoints_Hemlock_2h" visible="0">
  <object id="548" template="../../../templates/meta/obj_trellis_point_default.tx" name="h2h_taliferro_start" type="obj_trellis_point_default" x="180" y="285"/>
  <object id="549" template="../../../templates/meta/obj_trellis_point_default.tx" name="h2h_zorel_start" type="obj_trellis_point_default" x="204" y="285"/>
  <object id="550" template="../../../templates/meta/obj_trellis_point_camera.tx" name="h2h_camera_1" type="obj_trellis_point_camera" x="192" y="317"/>
  <object id="551" template="../../../templates/meta/obj_trellis_point_camera.tx" name="h2h_camera_2" type="obj_trellis_point_camera" x="52" y="317"/>
  <object id="552" template="../../../templates/meta/obj_trellis_point_camera.tx" name="h2h_camera_3" type="obj_trellis_point_camera" x="292" y="317"/>
  <object id="553" template="../../../templates/meta/obj_trellis_point_default.tx" name="h2h_ari_waiter" type="obj_trellis_point_default" x="260" y="317"/>
  <object id="554" template="../../../templates/meta/obj_trellis_point_default.tx" name="h2h_ari_bother" type="obj_trellis_point_default" x="148" y="269"/>
  <object id="555" template="../../../templates/meta/obj_trellis_point_camera.tx" name="h2h_camera_4" type="obj_trellis_point_camera" x="460" y="317"/>
  <object id="556" template="../../../templates/meta/obj_trellis_point_prop.tx" name="h2h_empty_plates" type="obj_trellis_point_prop" x="316" y="309">
   <properties>
    <property name="prop_name" value="hemlock_place_setting_empty"/>
   </properties>
  </object>
  <object id="557" template="../../../templates/meta/obj_trellis_point_prop.tx" name="h2h_plates_crumb" type="obj_trellis_point_prop" x="316" y="309">
   <properties>
    <property name="prop_name" value="hemlock_place_setting_crumb"/>
   </properties>
  </object>
 </objectgroup>
 <objectgroup draworder="index" id="38" name="TrellisPoints_Balor_8h" visible="0">
  <object id="558" template="../../../templates/meta/obj_trellis_point_camera.tx" name="b8h_camera_5" type="obj_trellis_point_camera" x="8" y="263"/>
  <object id="559" template="../../../templates/meta/obj_trellis_point_camera.tx" name="b8h_camera_6" type="obj_trellis_point_camera" x="68" y="263"/>
  <object id="560" template="../../../templates/meta/obj_trellis_point_default.tx" name="b8h_balor_inn_landing_entrance" type="obj_trellis_point_default" x="22" y="275"/>
  <object id="561" template="../../../templates/meta/obj_trellis_point_default.tx" name="b8h_balor_inn_landing_start" type="obj_trellis_point_default" x="44" y="275"/>
  <object id="562" template="../../../templates/meta/obj_trellis_point_default.tx" name="b8h_josephine_inn_landing" type="obj_trellis_point_default" x="70" y="275"/>
  <object id="563" template="../../../templates/meta/obj_trellis_point_default.tx" name="b8h_hemlock_entrance" type="obj_trellis_point_default" x="174" y="335"/>
  <object id="564" template="../../../templates/meta/obj_trellis_point_prop.tx" name="b8h_wine_wheedle" type="obj_trellis_point_prop" x="286" y="297">
   <properties>
    <property name="prop_name" value="b8h_wine_wheedle"/>
   </properties>
  </object>
  <object id="565" template="../../../templates/meta/obj_trellis_point_default.tx" name="b8h_josephine_inn_landing_forward" type="obj_trellis_point_default" x="62" y="275"/>
  <object id="566" template="../../../templates/meta/obj_trellis_point_default.tx" name="b8h_josephine_inn_landing_exit" type="obj_trellis_point_default" x="58" y="397"/>
  <object id="567" template="../../../templates/meta/obj_trellis_point_default.tx" name="b8h_balor_inn_entrance" type="obj_trellis_point_default" x="148" y="469"/>
  <object id="568" template="../../../templates/meta/obj_trellis_point_default.tx" name="b8h_ari_inn_entrance" type="obj_trellis_point_default" x="120" y="469"/>
  <object id="569" template="../../../templates/meta/obj_trellis_point_default.tx" name="b8h_balor_inn_start" type="obj_trellis_point_default" x="266" y="335"/>
  <object id="570" template="../../../templates/meta/obj_trellis_point_default.tx" name="b8h_ari_inn_start" type="obj_trellis_point_default" x="252" y="355"/>
  <object id="571" template="../../../templates/meta/obj_trellis_point_default.tx" name="b8h_ari_inn_forward" type="obj_trellis_point_default" x="248" y="335"/>
  <object id="572" template="../../../templates/meta/obj_trellis_point_default.tx" name="b8h_ari_inn_exit" type="obj_trellis_point_default" x="236" y="453"/>
  <object id="573" template="../../../templates/meta/obj_trellis_point_default.tx" name="b8h_ari_inn_back" type="obj_trellis_point_default" x="234" y="335"/>
  <object id="574" template="../../../templates/meta/obj_trellis_point_default.tx" name="b8h_wheedle_entrance" type="obj_trellis_point_default" x="256" y="295"/>
  <object id="575" template="../../../templates/meta/obj_trellis_point_default.tx" name="b8h_josephine_inn_wheedle" type="obj_trellis_point_default" x="268" y="295"/>
  <object id="576" template="../../../templates/meta/obj_trellis_point_default.tx" name="b8h_inn_exit" type="obj_trellis_point_default" x="244" y="519"/>
  <object id="577" template="../../../templates/meta/obj_trellis_point_default.tx" name="b8h_balor_inn_side" type="obj_trellis_point_default" x="270" y="336"/>
  <object id="578" template="../../../templates/meta/obj_trellis_point_prop.tx" name="b8h_contract" type="obj_trellis_point_prop" x="290" y="317">
   <properties>
    <property name="prop_name" value="b8h_contract"/>
   </properties>
  </object>
  <object id="579" template="../../../templates/meta/obj_trellis_point_default.tx" name="b8h_josephine_inn_entrance" type="obj_trellis_point_default" x="174" y="311"/>
  <object id="580" template="../../../templates/meta/obj_trellis_point_default.tx" name="b8h_josephine_inn_start" type="obj_trellis_point_default" x="256" y="305"/>
  <object id="581" template="../../../templates/meta/obj_trellis_point_default.tx" name="b8h_hemlock_start" type="obj_trellis_point_default" x="234" y="305"/>
  <object id="582" template="../../../templates/meta/obj_trellis_point_camera.tx" name="b8h_camera_7" type="obj_trellis_point_camera" x="148" y="421"/>
  <object id="583" template="../../../templates/meta/obj_trellis_point_camera.tx" name="b8h_camera_8" type="obj_trellis_point_camera" x="274" y="317"/>
  <object id="584" template="../../../templates/meta/obj_trellis_point_camera.tx" name="b8h_camera_9" type="obj_trellis_point_camera" x="256" y="329"/>
  <object id="585" template="../../../templates/meta/obj_trellis_point_camera.tx" name="b8h_camera_10" type="obj_trellis_point_camera" x="256" y="305"/>
  <object id="586" template="../../../templates/meta/obj_trellis_point_camera.tx" name="b8h_camera_11" type="obj_trellis_point_camera" x="248" y="391"/>
  <object id="587" template="../../../templates/meta/obj_trellis_point_camera.tx" name="b8h_camera_12" type="obj_trellis_point_camera" x="246" y="327"/>
  <object id="588" template="../../../templates/meta/obj_trellis_point_camera.tx" name="b8h_camera_13" type="obj_trellis_point_camera" x="246" y="348"/>
  <object id="589" template="../../../templates/meta/obj_trellis_point_camera.tx" name="b8h_camera_wheedle" type="obj_trellis_point_camera" x="256" y="347"/>
  <object id="590" template="../../../templates/meta/obj_trellis_point_default.tx" name="b8h_josephine_inn_landing_arm" type="obj_trellis_point_default" x="58" y="275"/>
  <object id="591" template="../../../templates/meta/obj_trellis_point_default.tx" name="b8h_wheedle_start" type="obj_trellis_point_default" x="256" y="311"/>
  <object id="592" template="../../../templates/meta/obj_trellis_point_default.tx" name="b8h_balor_inn_exit" type="obj_trellis_point_default" x="256" y="453"/>
  <object id="593" template="../../../templates/meta/obj_trellis_point_default.tx" name="b8h_ari_inn_kiss" type="obj_trellis_point_default" x="252" y="335"/>
  <object id="594" template="../../../templates/meta/obj_trellis_point_default.tx" name="b8h_balor_inn_kiss" type="obj_trellis_point_default" x="270" y="336"/>
  <object id="595" template="../../../templates/meta/obj_trellis_point_default.tx" name="b8h_ari_inn_going" type="obj_trellis_point_default" x="224" y="453"/>
  <object id="596" template="../../../templates/meta/obj_trellis_point_default.tx" name="b8h_balor_inn_going" type="obj_trellis_point_default" x="246" y="468"/>
  <object id="597" template="../../../templates/meta/obj_trellis_point_default.tx" name="b8h_balor_inn_end" type="obj_trellis_point_default" x="256" y="335"/>
  <object id="598" template="../../../templates/meta/obj_trellis_point_default.tx" name="b8h_wheedle_storm" type="obj_trellis_point_default" x="256" y="341"/>
  <object id="599" template="../../../templates/meta/obj_trellis_point_camera.tx" name="b8h_camera_final" type="obj_trellis_point_camera" x="246" y="313"/>
 </objectgroup>
 <objectgroup draworder="index" id="39" name="TrellisPoints_Inn_Date" visible="0">
  <object id="600" template="../../../templates/meta/obj_trellis_point_camera.tx" name="id_camera_1" type="obj_trellis_point_camera" x="316" y="313"/>
  <object id="601" template="../../../templates/meta/obj_trellis_point_camera.tx" name="id_camera_2" type="obj_trellis_point_camera" x="246" y="313"/>
  <object id="602" template="../../../templates/meta/obj_trellis_point_camera.tx" name="id_camera_3" type="obj_trellis_point_camera" x="246" y="379"/>
  <object id="603" template="../../../templates/meta/obj_trellis_point_default.tx" name="id_partner_stand" type="obj_trellis_point_default" x="316" y="283"/>
  <object id="604" template="../../../templates/meta/obj_trellis_point_default.tx" name="id_ari_stand" type="obj_trellis_point_default" x="316" y="351"/>
  <object id="605" template="../../../templates/meta/obj_trellis_point_default.tx" name="id_ari_kiss" type="obj_trellis_point_default" x="254" y="317"/>
  <object id="606" template="../../../templates/meta/obj_trellis_point_default.tx" name="id_partner_kiss" type="obj_trellis_point_default" x="238" y="317"/>
  <object id="607" template="../../../templates/meta/obj_trellis_point_default.tx" name="id_ari_exit" type="obj_trellis_point_default" x="254" y="389"/>
  <object id="608" template="../../../templates/meta/obj_trellis_point_default.tx" name="id_partner_exit" type="obj_trellis_point_default" x="238" y="389"/>
  <object id="609" template="../../../templates/meta/obj_trellis_point_prop.tx" name="id_ari_bowl" type="obj_trellis_point_prop" x="316" y="292">
   <properties>
    <property name="prop_name" value="inn_date_plate"/>
   </properties>
  </object>
  <object id="610" template="../../../templates/meta/obj_trellis_point_prop.tx" name="id_ari_bowl_empty" type="obj_trellis_point_prop" x="316" y="292">
   <properties>
    <property name="prop_name" value="inn_date_empty_plate"/>
   </properties>
  </object>
  <object id="611" template="../../../templates/meta/obj_trellis_point_prop.tx" name="id_partner_bowl" type="obj_trellis_point_prop" x="316" y="321">
   <properties>
    <property name="prop_name" value="inn_date_plate"/>
   </properties>
  </object>
  <object id="612" template="../../../templates/meta/obj_trellis_point_prop.tx" name="id_partner_bowl_empty" type="obj_trellis_point_prop" x="316" y="321">
   <properties>
    <property name="prop_name" value="inn_date_empty_plate"/>
   </properties>
  </object>
 </objectgroup>
 <objectgroup draworder="index" id="40" name="TrellisPoints_Apiaries_and_Terrariums" visible="0">
  <object id="613" template="../../../templates/meta/obj_trellis_point_default.tx" name="aat_luc_entrance" type="obj_trellis_point_default" x="244" y="317"/>
  <object id="614" template="../../../templates/meta/obj_trellis_point_default.tx" name="aat_reina_entrance" type="obj_trellis_point_default" x="228" y="333"/>
  <object id="615" template="../../../templates/meta/obj_trellis_point_default.tx" name="aat_adeline_entrance" type="obj_trellis_point_default" x="260" y="333"/>
  <object id="616" template="../../../templates/meta/obj_trellis_point_default.tx" name="aat_ari_conversation" type="obj_trellis_point_default" x="244" y="351"/>
  <object id="617" template="../../../templates/meta/obj_trellis_point_default.tx" name="aat_ari_entrance" type="obj_trellis_point_default" x="244" y="517"/>
  <object id="618" template="../../../templates/meta/obj_trellis_point_default.tx" name="aat_ari_start" type="obj_trellis_point_default" x="244" y="415"/>
  <object id="619" template="../../../templates/meta/obj_trellis_point_default.tx" name="aat_luc_start" type="obj_trellis_point_default" x="244" y="375"/>
  <object id="620" template="../../../templates/meta/obj_trellis_point_camera.tx" name="aat_camera_1" type="obj_trellis_point_camera" x="244" y="475"/>
  <object id="621" template="../../../templates/meta/obj_trellis_point_camera.tx" name="aat_camera_2" type="obj_trellis_point_camera" x="244" y="405"/>
  <object id="622" template="../../../templates/meta/obj_trellis_point_camera.tx" name="aat_camera_3" type="obj_trellis_point_camera" x="244" y="319"/>
  <object id="623" template="../../../templates/meta/obj_trellis_point_camera.tx" name="aat_camera_4" type="obj_trellis_point_camera" x="244" y="331"/>
  <object id="624" template="../../../templates/meta/obj_trellis_point_default.tx" name="aat_luc_conversation" type="obj_trellis_point_default" x="244" y="313"/>
 </objectgroup>
 <objectgroup id="42" name="TrellisPoints_Wedding" visible="0">
  <object id="639" template="../../../templates/meta/obj_trellis_point_default.tx" name="south_table_7_stand" type="obj_trellis_point_default" x="271" y="386"/>
  <object id="638" template="../../../templates/meta/obj_trellis_point_default.tx" name="south_table_6_stand" type="obj_trellis_point_default" x="282" y="424"/>
  <object id="640" template="../../../templates/meta/obj_trellis_point_default.tx" name="south_table_0_stand" type="obj_trellis_point_default" x="292" y="362"/>
  <object id="636" template="../../../templates/meta/obj_trellis_point_default.tx" name="north_table_7_co_speech" type="obj_trellis_point_default" x="232" y="280"/>
  <object id="637" template="../../../templates/meta/obj_trellis_point_default.tx" name="north_table_6_co_speech" type="obj_trellis_point_default" x="256" y="280"/>
  <object id="628" template="../../../templates/meta/obj_trellis_point_default.tx" name="north_table_7_speech" type="obj_trellis_point_default" x="244" y="280"/>
  <object id="629" template="../../../templates/meta/obj_trellis_point_default.tx" name="north_table_7_stand" type="obj_trellis_point_default" x="271" y="306"/>
  <object id="635" template="../../../templates/meta/obj_trellis_point_default.tx" name="north_table_6_stand" type="obj_trellis_point_default" x="282" y="344"/>
  <object id="647" template="../../../templates/meta/obj_trellis_point_camera.tx" name="wed_camera_rec_4" type="obj_trellis_point_camera" x="277" y="296"/>
  <object id="632" template="../../../templates/meta/obj_trellis_point_camera.tx" name="wed_camera_rec_3" type="obj_trellis_point_camera" x="244" y="296"/>
  <object id="631" template="../../../templates/meta/obj_trellis_point_camera.tx" name="wed_camera_rec_2" type="obj_trellis_point_camera" x="304" y="296"/>
  <object id="630" template="../../../templates/meta/obj_trellis_point_camera.tx" name="wed_camera_rec_1" type="obj_trellis_point_camera" x="304" y="432"/>
  <object id="633" template="../../../templates/meta/obj_trellis_point_default.tx" name="henrietta_reception_place" type="obj_trellis_point_default" x="223" y="452"/>
  <object id="634" template="../../../templates/meta/obj_trellis_point_default.tx" name="dozy_reception_place" type="obj_trellis_point_default" x="252" y="452"/>
  <object id="641" template="../../../templates/meta/obj_trellis_point_default.tx" name="south_table_0_speech" type="obj_trellis_point_default" x="261" y="298"/>
  <object id="642" template="../../../templates/meta/obj_trellis_point_default.tx" name="south_table_6_speech" type="obj_trellis_point_default" x="244" y="303"/>
  <object id="643" template="../../../templates/meta/obj_trellis_point_default.tx" name="south_table_7_speech" type="obj_trellis_point_default" x="227" y="298"/>
  <object id="648" template="../../../templates/meta/obj_trellis_point_camera.tx" name="wed_camera_rec_5" type="obj_trellis_point_camera" x="277" y="368"/>
 </objectgroup>
</map>
