<?xml version="1.0" encoding="UTF-8"?>
<map version="1.10" tiledversion="1.11.2" orientation="orthogonal" renderorder="right-down" width="38" height="40" tilewidth="8" tileheight="8" infinite="0" backgroundcolor="#000000" nextlayerid="23" nextobjectid="80">
 <tileset firstgid="1" source="../../../__gm_import.tsx"/>
 <tileset firstgid="1504" source="../../../tile_sets/__META/tile_collision_info.tsx"/>
 <tileset firstgid="1511" source="../../../tile_sets/tile_footsteps.tsx"/>
 <tileset firstgid="1655" source="../../../tile_sets/_GENERIC/tile_main_interiors.tsx"/>
 <tileset firstgid="5751" source="../../../tile_sets/_GENERIC/tile_main_interiors_shadows.tsx"/>
 <tileset firstgid="6007" source="../../../tile_sets/__META/tile_pathfinding.tsx"/>
 <tileset firstgid="6013" source="../../../tile_sets/__META/tile_rules.tsx"/>
 <group id="1" name="Level_0">
  <layer id="2" name="Level_0_Floor" width="38" height="40">
   <properties>
    <property name="maybe_animation_id" value="75ea443e6634d96"/>
    <property name="maybe_tileset_id" value="d8b504e9a8480fbe"/>
    <property name="tile_size" type="int" value="16"/>
   </properties>
   <data encoding="csv">
1655,0,1655,0,1655,0,1655,0,1655,0,1655,0,1655,0,1655,0,1655,0,1655,0,1655,0,1655,0,1655,0,1655,0,1655,0,1655,0,1655,0,0,0,0,0,
0,0,0,0,0,0,0,0,0,0,0,0,0,0,0,0,0,0,0,0,0,0,0,0,0,0,0,0,0,0,0,0,0,0,0,0,0,0,
1655,0,1655,0,1655,0,1655,0,1655,0,1655,0,1655,0,1655,0,1655,0,1655,0,1655,0,1655,0,1655,0,1655,0,1655,0,1655,0,1655,0,0,0,0,0,
0,0,0,0,0,0,0,0,0,0,0,0,0,0,0,0,0,0,0,0,0,0,0,0,0,0,0,0,0,0,0,0,0,0,0,0,0,0,
1655,0,1655,0,1655,0,1655,0,1655,0,1655,0,1655,0,1655,0,1655,0,1655,0,1655,0,1655,0,1655,0,1655,0,1655,0,1655,0,1655,0,0,0,0,0,
0,0,0,0,0,0,0,0,0,0,0,0,0,0,0,0,0,0,0,0,0,0,0,0,0,0,0,0,0,0,0,0,0,0,0,0,0,0,
1655,0,1655,0,1655,0,1655,0,1655,0,1655,0,1655,0,1655,0,1655,0,1655,0,1655,0,1655,0,1655,0,1655,0,1655,0,1655,0,1655,0,0,0,0,0,
0,0,0,0,0,0,0,0,0,0,0,0,0,0,0,0,0,0,0,0,0,0,0,0,0,0,0,0,0,0,0,0,0,0,0,0,0,0,
1655,0,1655,0,1655,0,1655,0,1655,0,1655,0,1655,0,1655,0,1655,0,1655,0,1655,0,1655,0,1655,0,1655,0,1655,0,1655,0,1655,0,1655,0,1655,0,
0,0,0,0,0,0,0,0,0,0,0,0,0,0,0,0,0,0,0,0,0,0,0,0,0,0,0,0,0,0,0,0,0,0,0,0,0,0,
1655,0,1655,0,1655,0,1655,0,1655,0,1655,0,1655,0,1655,0,1655,0,1655,0,1655,0,1655,0,1655,0,1655,0,1655,0,1655,0,1655,0,1655,0,1655,0,
0,0,0,0,0,0,0,0,0,0,0,0,0,0,0,0,0,0,0,0,0,0,0,0,0,0,0,0,0,0,0,0,0,0,0,0,0,0,
1655,0,1655,0,1655,0,4055,0,4054,0,4055,0,4056,0,4057,0,4054,0,4055,0,4056,0,4057,0,4054,0,4055,0,4056,0,4057,0,4056,0,4057,0,4058,0,
0,0,0,0,0,0,0,0,0,0,0,0,0,0,0,0,0,0,0,0,0,0,0,0,0,0,0,0,0,0,0,0,0,0,0,0,0,0,
1655,0,1655,0,1655,0,4119,0,4118,0,4119,0,4120,0,4121,0,4118,0,4119,0,4120,0,4121,0,4118,0,4119,0,4120,0,4121,0,4120,0,4121,0,4122,0,
0,0,0,0,0,0,0,0,0,0,0,0,0,0,0,0,0,0,0,0,0,0,0,0,0,0,0,0,0,0,0,0,0,0,0,0,0,0,
1655,0,1655,0,1655,0,4055,0,4054,0,4055,0,4056,0,4057,0,4054,0,4055,0,4056,0,4057,0,4054,0,4055,0,4056,0,4057,0,4056,0,4057,0,4058,0,
0,0,0,0,0,0,0,0,0,0,0,0,0,0,0,0,0,0,0,0,0,0,0,0,0,0,0,0,0,0,0,0,0,0,0,0,0,0,
1655,0,1655,0,1655,0,4119,0,4118,0,4119,0,4118,0,4121,0,4120,0,4119,0,4118,0,4121,0,4120,0,4119,0,4118,0,4121,0,4120,0,4121,0,4122,0,
0,0,0,0,0,0,0,0,0,0,0,0,0,0,0,0,0,0,0,0,0,0,0,0,0,0,0,0,0,0,0,0,0,0,0,0,0,0,
1655,0,1655,0,1655,0,4055,0,4054,0,4057,0,4056,0,4055,0,4054,0,4057,0,4056,0,4055,0,4054,0,4057,0,4056,0,4057,0,4056,0,4057,0,4058,0,
0,0,0,0,0,0,0,0,0,0,0,0,0,0,0,0,0,0,0,0,0,0,0,0,0,0,0,0,0,0,0,0,0,0,0,0,0,0,
1655,0,1655,0,1655,0,4119,0,4118,0,4119,0,4120,0,4121,0,4118,0,4119,0,4120,0,4121,0,4118,0,4119,0,4120,0,4121,0,4120,0,4121,0,4122,0,
0,0,0,0,0,0,0,0,0,0,0,0,0,0,0,0,0,0,0,0,0,0,0,0,0,0,0,0,0,0,0,0,0,0,0,0,0,0,
1655,0,1655,0,1655,0,4055,0,4054,0,4055,0,4056,0,4057,0,4054,0,4055,0,4056,0,4057,0,4054,0,4055,0,4056,0,4057,0,4056,0,4057,0,4058,0,
0,0,0,0,0,0,0,0,0,0,0,0,0,0,0,0,0,0,0,0,0,0,0,0,0,0,0,0,0,0,0,0,0,0,0,0,0,0,
1655,0,1655,0,1655,0,4119,0,4118,0,4119,0,4118,0,4121,0,4120,0,4119,0,4118,0,4121,0,4120,0,4119,0,4118,0,4121,0,4120,0,4121,0,4122,0,
0,0,0,0,0,0,0,0,0,0,0,0,0,0,0,0,0,0,0,0,0,0,0,0,0,0,0,0,0,0,0,0,0,0,0,0,0,0,
1655,0,1655,0,1655,0,4055,0,4054,0,4057,0,4056,0,4055,0,4054,0,4057,0,4056,0,4055,0,4054,0,4057,0,4056,0,4057,0,4056,0,4057,0,4058,0,
0,0,0,0,0,0,0,0,0,0,0,0,0,0,0,0,0,0,0,0,0,0,0,0,0,0,0,0,0,0,0,0,0,0,0,0,0,0,
1655,0,1655,0,1655,0,4119,0,4118,0,4119,0,4120,0,4121,0,4118,0,4119,0,4120,0,4121,0,4118,0,4119,0,4120,0,4121,0,4120,0,4121,0,4122,0,
0,0,0,0,0,0,0,0,0,0,0,0,0,0,0,0,0,0,0,0,0,0,0,0,0,0,0,0,0,0,0,0,0,0,0,0,0,0,
1655,0,1655,0,1655,0,4055,0,4054,0,4055,0,4056,0,4057,0,4054,0,4055,0,4056,0,4057,0,4054,0,4055,0,4056,0,4057,0,4056,0,4057,0,4058,0,
0,0,0,0,0,0,0,0,0,0,0,0,0,0,0,0,0,0,0,0,0,0,0,0,0,0,0,0,0,0,0,0,0,0,0,0,0,0,
1655,0,1655,0,1655,0,4119,0,4118,0,4119,0,4120,0,4121,0,4118,0,4119,0,4120,0,4121,0,4118,0,4119,0,4120,0,4121,0,4120,0,4121,0,4122,0,
0,0,0,0,0,0,0,0,0,0,0,0,0,0,0,0,0,0,0,0,0,0,0,0,0,0,0,0,0,0,0,0,0,0,0,0,0,0,
1655,0,1655,0,1655,0,1655,0,1655,0,1655,0,1655,0,1655,0,1655,0,1655,0,1655,0,1655,0,1655,0,1655,0,1655,0,1655,0,1655,0,1655,0,1655,0,
0,0,0,0,0,0,0,0,0,0,0,0,0,0,0,0,0,0,0,0,0,0,0,0,0,0,0,0,0,0,0,0,0,0,0,0,0,0,
1655,0,1655,0,1655,0,1655,0,1655,0,1655,0,1655,0,1655,0,1655,0,1655,0,1655,0,1655,0,1655,0,1655,0,1655,0,1655,0,1655,0,1655,0,1655,0,
0,0,0,0,0,0,0,0,0,0,0,0,0,0,0,0,0,0,0,0,0,0,0,0,0,0,0,0,0,0,0,0,0,0,0,0,0,0
</data>
  </layer>
  <objectgroup draworder="index" id="3" name="Level_0_FloorSprites">
   <object id="1" type="asset" gid="701" x="99" y="241" width="67" height="103"/>
   <object id="2" type="asset" gid="556" x="65" y="208" width="17" height="33"/>
   <object id="3" type="asset" gid="1248" x="241" y="119" width="17" height="9"/>
  </objectgroup>
  <layer id="4" name="Level_0_Shadows" width="38" height="40">
   <properties>
    <property name="maybe_animation_id" value="babd09ade2b55c05"/>
    <property name="maybe_tileset_id" value="339411f6ba88c8f0"/>
    <property name="tile_size" type="int" value="16"/>
   </properties>
   <data encoding="csv">
0,0,0,0,0,0,0,0,0,0,0,0,0,0,0,0,0,0,0,0,0,0,0,0,0,0,0,0,0,0,0,0,0,0,0,0,0,0,
0,0,0,0,0,0,0,0,0,0,0,0,0,0,0,0,0,0,0,0,0,0,0,0,0,0,0,0,0,0,0,0,0,0,0,0,0,0,
0,0,0,0,0,0,0,0,0,0,0,0,0,0,0,0,0,0,0,0,0,0,0,0,0,0,0,0,0,0,0,0,0,0,0,0,0,0,
0,0,0,0,0,0,0,0,0,0,0,0,0,0,0,0,0,0,0,0,0,0,0,0,0,0,0,0,0,0,0,0,0,0,0,0,0,0,
0,0,0,0,0,0,0,0,0,0,0,0,0,0,0,0,0,0,0,0,0,0,0,0,0,0,0,0,0,0,0,0,0,0,0,0,0,0,
0,0,0,0,0,0,0,0,0,0,0,0,0,0,0,0,0,0,0,0,0,0,0,0,0,0,0,0,0,0,0,0,0,0,0,0,0,0,
0,0,0,0,0,0,0,0,0,0,0,0,0,0,0,0,0,0,0,0,0,0,0,0,0,0,0,0,0,0,0,0,0,0,0,0,0,0,
0,0,0,0,0,0,0,0,0,0,0,0,0,0,0,0,0,0,0,0,0,0,0,0,0,0,0,0,0,0,0,0,0,0,0,0,0,0,
0,0,0,0,0,0,0,0,0,0,0,0,0,0,0,0,0,0,0,0,0,0,0,0,0,0,0,0,0,0,0,0,0,0,0,0,0,0,
0,0,0,0,0,0,0,0,0,0,0,0,0,0,0,0,0,0,0,0,0,0,0,0,0,0,0,0,0,0,0,0,0,0,0,0,0,0,
0,0,0,0,0,0,0,0,0,0,0,0,0,0,0,0,0,0,5751,0,5751,0,5751,0,5751,0,5751,0,5751,0,5751,0,5751,0,5751,0,5751,0,
0,0,0,0,0,0,0,0,0,0,0,0,0,0,0,0,0,0,0,0,0,0,0,0,0,0,0,0,0,0,0,0,0,0,0,0,0,0,
0,0,5751,0,5751,0,5752,0,5752,0,5779,0,5753,0,5753,0,5753,0,5753,0,5753,0,5753,0,5753,0,5753,0,5753,0,5753,0,5753,0,5751,0,5751,0,
0,0,0,0,0,0,0,0,0,0,0,0,0,0,0,0,0,0,0,0,0,0,0,0,0,0,0,0,0,0,0,0,0,0,0,0,0,0,
0,0,5751,0,5751,0,5752,0,5752,0,5751,0,5751,0,5751,0,5751,0,5751,0,5751,0,5751,0,5751,0,5751,0,5751,0,5751,0,5751,0,5751,0,5751,0,
0,0,0,0,0,0,0,0,0,0,0,0,0,0,0,0,0,0,0,0,0,0,0,0,0,0,0,0,0,0,0,0,0,0,0,0,0,0,
0,0,5751,0,5751,0,5752,0,5752,0,5751,0,5751,0,5751,0,5751,0,5751,0,5751,0,5751,0,5751,0,5751,0,5751,0,5751,0,5751,0,5751,0,5751,0,
0,0,0,0,0,0,0,0,0,0,0,0,0,0,0,0,0,0,0,0,0,0,0,0,0,0,0,0,0,0,0,0,0,0,0,0,0,0,
0,0,5751,0,5751,0,5752,0,5752,0,5751,0,5751,0,5751,0,5751,0,5751,0,5751,0,5751,0,5751,0,5751,0,5751,0,5751,0,5751,0,5751,0,5751,0,
0,0,0,0,0,0,0,0,0,0,0,0,0,0,0,0,0,0,0,0,0,0,0,0,0,0,0,0,0,0,0,0,0,0,0,0,0,0,
0,0,5751,0,5751,0,5752,0,5752,0,5751,0,5751,0,5751,0,5751,0,5751,0,5751,0,5751,0,5751,0,5751,0,5751,0,5751,0,5751,0,5751,0,0,0,
0,0,0,0,0,0,0,0,0,0,0,0,0,0,0,0,0,0,0,0,0,0,0,0,0,0,0,0,0,0,0,0,0,0,0,0,0,0,
0,0,5751,0,5751,0,5752,0,5752,0,5751,0,5751,0,5751,0,5751,0,5751,0,5751,0,5751,0,5751,0,5751,0,5751,0,5751,0,5751,0,5751,0,0,0,
0,0,0,0,0,0,0,0,0,0,0,0,0,0,0,0,0,0,0,0,0,0,0,0,0,0,0,0,0,0,0,0,0,0,0,0,0,0,
0,0,5751,0,5751,0,5752,0,5752,0,5751,0,5751,0,5751,0,5751,0,5751,0,5751,0,5751,0,5751,0,5751,0,5751,0,5751,0,5751,0,5751,0,0,0,
0,0,0,0,0,0,0,0,0,0,0,0,0,0,0,0,0,0,0,0,0,0,0,0,0,0,0,0,0,0,0,0,0,0,0,0,0,0,
0,0,5751,0,5751,0,5752,0,5752,0,5751,0,5751,0,5751,0,5751,0,5751,0,5751,0,5751,0,5751,0,5751,0,5751,0,5751,0,5751,0,5751,0,0,0,
0,0,0,0,0,0,0,0,0,0,0,0,0,0,0,0,0,0,0,0,0,0,0,0,0,0,0,0,0,0,0,0,0,0,0,0,0,0,
0,0,5751,0,5751,0,5752,0,5752,0,5751,0,5751,0,5751,0,5751,0,5751,0,5751,0,5751,0,5751,0,5751,0,5751,0,5751,0,5751,0,5751,0,0,0,
0,0,0,0,0,0,0,0,0,0,0,0,0,0,0,0,0,0,0,0,0,0,0,0,0,0,0,0,0,0,0,0,0,0,0,0,0,0,
0,0,5751,0,5751,0,5752,0,5752,0,5751,0,5751,0,5751,0,5751,0,5751,0,5751,0,5751,0,5751,0,5751,0,5751,0,5751,0,5751,0,5751,0,0,0,
0,0,0,0,0,0,0,0,0,0,0,0,0,0,0,0,0,0,0,0,0,0,0,0,0,0,0,0,0,0,0,0,0,0,0,0,0,0,
0,0,5751,0,5751,0,5752,0,5752,0,5751,0,5751,0,5751,0,5751,0,5751,0,5751,0,5751,0,5751,0,5751,0,5751,0,5751,0,5751,0,5751,0,0,0,
0,0,0,0,0,0,0,0,0,0,0,0,0,0,0,0,0,0,0,0,0,0,0,0,0,0,0,0,0,0,0,0,0,0,0,0,0,0,
0,0,5751,0,5751,0,5752,0,5752,0,5751,0,5751,0,5751,0,5751,0,5751,0,5751,0,5751,0,5751,0,5751,0,5751,0,5751,0,5751,0,5751,0,0,0,
0,0,0,0,0,0,0,0,0,0,0,0,0,0,0,0,0,0,0,0,0,0,0,0,0,0,0,0,0,0,0,0,0,0,0,0,0,0,
0,0,5751,0,5751,0,5751,0,5751,0,5751,0,5751,0,5751,0,5751,0,5751,0,5751,0,5751,0,5751,0,5751,0,5751,0,5751,0,5751,0,5751,0,0,0,
0,0,0,0,0,0,0,0,0,0,0,0,0,0,0,0,0,0,0,0,0,0,0,0,0,0,0,0,0,0,0,0,0,0,0,0,0,0,
0,0,5751,0,5751,0,5751,0,5751,0,5751,0,5751,0,5751,0,5751,0,5751,0,5751,0,5751,0,5751,0,5751,0,5751,0,5751,0,5751,0,5751,0,0,0,
0,0,0,0,0,0,0,0,0,0,0,0,0,0,0,0,0,0,0,0,0,0,0,0,0,0,0,0,0,0,0,0,0,0,0,0,0,0
</data>
  </layer>
  <layer id="5" name="Level_0_Walls" width="38" height="40">
   <properties>
    <property name="maybe_animation_id" value="75ea443e6634d96"/>
    <property name="maybe_tileset_id" value="d8b504e9a8480fbe"/>
    <property name="tile_size" type="int" value="16"/>
   </properties>
   <data encoding="csv">
1655,0,1655,0,1655,0,1655,0,1655,0,1655,0,1655,0,1655,0,1655,0,1655,0,1655,0,1655,0,1655,0,1655,0,1655,0,1655,0,1655,0,1655,0,1655,0,
0,0,0,0,0,0,0,0,0,0,0,0,0,0,0,0,0,0,0,0,0,0,0,0,0,0,0,0,0,0,0,0,0,0,0,0,0,0,
1655,0,1655,0,1655,0,1655,0,1655,0,1655,0,1655,0,1655,0,1655,0,1655,0,1655,0,1655,0,1655,0,1655,0,1655,0,1655,0,1655,0,1655,0,1655,0,
0,0,0,0,0,0,0,0,0,0,0,0,0,0,0,0,0,0,0,0,0,0,0,0,0,0,0,0,0,0,0,0,0,0,0,0,0,0,
1655,0,1655,0,1655,0,4631,0,4631,0,4631,0,4631,0,4631,0,4631,0,4631,0,4631,0,4631,0,4631,0,4631,0,4631,0,4631,0,4631,0,1655,0,1655,0,
0,0,0,0,0,0,0,0,0,0,0,0,0,0,0,0,0,0,0,0,0,0,0,0,0,0,0,0,0,0,0,0,0,0,0,0,0,0,
1655,0,1655,0,1655,0,4695,0,4695,0,4695,0,4695,0,4695,0,4695,0,4695,0,4695,0,4695,0,4695,0,4695,0,4695,0,4695,0,4695,0,1655,0,1655,0,
0,0,0,0,0,0,0,0,0,0,0,0,0,0,0,0,0,0,0,0,0,0,0,0,0,0,0,0,0,0,0,0,0,0,0,0,0,0,
1655,0,1655,0,1655,0,4678,0,4678,0,4678,0,4678,0,4678,0,4678,0,4678,0,4678,0,4678,0,4678,0,4678,0,4678,0,4678,0,4678,0,1655,0,1655,0,
0,0,0,0,0,0,0,0,0,0,0,0,0,0,0,0,0,0,0,0,0,0,0,0,0,0,0,0,0,0,0,0,0,0,0,0,0,0,
1655,0,1655,0,1655,0,4759,0,4759,0,4759,0,4759,0,4759,0,4759,0,4759,0,4759,0,4759,0,4759,0,4759,0,4759,0,4759,0,4759,0,1655,0,1655,0,
0,0,0,0,0,0,0,0,0,0,0,0,0,0,0,0,0,0,0,0,0,0,0,0,0,0,0,0,0,0,0,0,0,0,0,0,0,0,
1655,0,1655,0,1655,0,4823,0,4823,0,4823,0,4823,0,4823,0,4823,0,4823,0,4823,0,4823,0,4823,0,4823,0,4823,0,4823,0,4823,0,1655,0,1655,0,
0,0,0,0,0,0,0,0,0,0,0,0,0,0,0,0,0,0,0,0,0,0,0,0,0,0,0,0,0,0,0,0,0,0,0,0,0,0,
1655,0,1655,0,1655,0,1655,0,1655,0,1655,0,1655,0,1655,0,1655,0,1655,0,1655,0,1655,0,1655,0,1655,0,1655,0,1655,0,1655,0,1655,0,1655,0,
0,0,0,0,0,0,0,0,0,0,0,0,0,0,0,0,0,0,0,0,0,0,0,0,0,0,0,0,0,0,0,0,0,0,0,0,0,0,
1655,0,1655,0,1655,0,1655,0,1655,0,1655,0,1655,0,1655,0,1655,0,1655,0,1655,0,1655,0,1655,0,1655,0,1655,0,1655,0,1655,0,1655,0,1655,0,
0,0,0,0,0,0,0,0,0,0,0,0,0,0,0,0,0,0,0,0,0,0,0,0,0,0,0,0,0,0,0,0,0,0,0,0,0,0,
1655,0,1655,0,1655,0,1655,0,1655,0,1655,0,1655,0,1655,0,1655,0,1655,0,1655,0,1655,0,1655,0,1655,0,1655,0,1655,0,1655,0,1655,0,1655,0,
0,0,0,0,0,0,0,0,0,0,0,0,0,0,0,0,0,0,0,0,0,0,0,0,0,0,0,0,0,0,0,0,0,0,0,0,0,0,
1655,0,1655,0,1655,0,1655,0,1655,0,1655,0,1655,0,1655,0,1655,0,1655,0,1655,0,1655,0,1655,0,1655,0,1655,0,1655,0,1655,0,1655,0,1655,0,
0,0,0,0,0,0,0,0,0,0,0,0,0,0,0,0,0,0,0,0,0,0,0,0,0,0,0,0,0,0,0,0,0,0,0,0,0,0,
1655,0,1655,0,1655,0,1655,0,1655,0,1655,0,1655,0,1655,0,1655,0,1655,0,1655,0,1655,0,1655,0,1655,0,1655,0,1655,0,1655,0,1655,0,1655,0,
0,0,0,0,0,0,0,0,0,0,0,0,0,0,0,0,0,0,0,0,0,0,0,0,0,0,0,0,0,0,0,0,0,0,0,0,0,0,
1655,0,1655,0,1655,0,1655,0,1655,0,1655,0,1655,0,1655,0,1655,0,1655,0,1655,0,1655,0,1655,0,1655,0,1655,0,1655,0,1655,0,1655,0,1655,0,
0,0,0,0,0,0,0,0,0,0,0,0,0,0,0,0,0,0,0,0,0,0,0,0,0,0,0,0,0,0,0,0,0,0,0,0,0,0,
1655,0,1655,0,1655,0,1655,0,1655,0,1655,0,1655,0,1655,0,1655,0,1655,0,1655,0,1655,0,1655,0,1655,0,1655,0,1655,0,1655,0,1655,0,1655,0,
0,0,0,0,0,0,0,0,0,0,0,0,0,0,0,0,0,0,0,0,0,0,0,0,0,0,0,0,0,0,0,0,0,0,0,0,0,0,
1655,0,1655,0,1655,0,1655,0,1655,0,1655,0,1655,0,1655,0,1655,0,1655,0,1655,0,1655,0,1655,0,1655,0,1655,0,1655,0,1655,0,1655,0,1655,0,
0,0,0,0,0,0,0,0,0,0,0,0,0,0,0,0,0,0,0,0,0,0,0,0,0,0,0,0,0,0,0,0,0,0,0,0,0,0,
1655,0,1655,0,1655,0,1655,0,1655,0,1655,0,1655,0,1655,0,1655,0,1655,0,1655,0,1655,0,1655,0,1655,0,1655,0,1655,0,1655,0,1655,0,1655,0,
0,0,0,0,0,0,0,0,0,0,0,0,0,0,0,0,0,0,0,0,0,0,0,0,0,0,0,0,0,0,0,0,0,0,0,0,0,0,
1655,0,1655,0,1655,0,1655,0,1655,0,1655,0,1655,0,1655,0,1655,0,1655,0,1655,0,1655,0,1655,0,1655,0,1655,0,1655,0,1655,0,1655,0,1655,0,
0,0,0,0,0,0,0,0,0,0,0,0,0,0,0,0,0,0,0,0,0,0,0,0,0,0,0,0,0,0,0,0,0,0,0,0,0,0,
1655,0,1655,0,1655,0,1655,0,1655,0,1655,0,1655,0,1655,0,1655,0,1655,0,1655,0,1655,0,1655,0,1655,0,1655,0,1655,0,1655,0,1655,0,1655,0,
0,0,0,0,0,0,0,0,0,0,0,0,0,0,0,0,0,0,0,0,0,0,0,0,0,0,0,0,0,0,0,0,0,0,0,0,0,0,
1655,0,1655,0,1655,0,1655,0,1655,0,1655,0,1655,0,1655,0,1655,0,1655,0,1655,0,1655,0,1655,0,1655,0,1655,0,1655,0,1655,0,1655,0,1655,0,
0,0,0,0,0,0,0,0,0,0,0,0,0,0,0,0,0,0,0,0,0,0,0,0,0,0,0,0,0,0,0,0,0,0,0,0,0,0,
1655,0,1655,0,1655,0,1655,0,1655,0,1655,0,1655,0,1655,0,1655,0,1655,0,1655,0,1655,0,1655,0,1655,0,1655,0,1655,0,1655,0,1655,0,1655,0,
0,0,0,0,0,0,0,0,0,0,0,0,0,0,0,0,0,0,0,0,0,0,0,0,0,0,0,0,0,0,0,0,0,0,0,0,0,0
</data>
  </layer>
  <layer id="6" name="Level_0_Stairs" width="38" height="40">
   <properties>
    <property name="maybe_animation_id" value="75ea443e6634d96"/>
    <property name="maybe_tileset_id" value="d8b504e9a8480fbe"/>
    <property name="tile_size" type="int" value="16"/>
   </properties>
   <data encoding="csv">
1655,0,1655,0,1655,0,1655,0,1655,0,1655,0,1655,0,1655,0,1655,0,1655,0,1655,0,1655,0,1655,0,1655,0,1655,0,1655,0,1655,0,1655,0,1655,0,
0,0,0,0,0,0,0,0,0,0,0,0,0,0,0,0,0,0,0,0,0,0,0,0,0,0,0,0,0,0,0,0,0,0,0,0,0,0,
1655,0,1655,0,1655,0,1655,0,1655,0,1655,0,1655,0,1655,0,1655,0,1655,0,1655,0,1655,0,1655,0,1655,0,1655,0,1655,0,1655,0,1655,0,1655,0,
0,0,0,0,0,0,0,0,0,0,0,0,0,0,0,0,0,0,0,0,0,0,0,0,0,0,0,0,0,0,0,0,0,0,0,0,0,0,
1655,0,1655,0,1655,0,1655,0,1655,0,1655,0,1655,0,1655,0,1655,0,1655,0,1655,0,1655,0,1655,0,1655,0,1655,0,1655,0,1655,0,1655,0,1655,0,
0,0,0,0,0,0,0,0,0,0,0,0,0,0,0,0,0,0,0,0,0,0,0,0,0,0,0,0,0,0,0,0,0,0,0,0,0,0,
1655,0,1655,0,1655,0,1655,0,1655,0,1655,0,1655,0,1655,0,1655,0,1655,0,1655,0,1655,0,1655,0,1655,0,1655,0,1655,0,1655,0,1655,0,1655,0,
0,0,0,0,0,0,0,0,0,0,0,0,0,0,0,0,0,0,0,0,0,0,0,0,0,0,0,0,0,0,0,0,0,0,0,0,0,0,
1655,0,1655,0,1655,0,1655,0,1655,0,1655,0,1655,0,1655,0,1655,0,1655,0,1655,0,1655,0,1655,0,1655,0,1655,0,1655,0,1655,0,1655,0,1655,0,
0,0,0,0,0,0,0,0,0,0,0,0,0,0,0,0,0,0,0,0,0,0,0,0,0,0,0,0,0,0,0,0,0,0,0,0,0,0,
1655,0,1655,0,1655,0,1655,0,1655,0,1655,0,1655,0,1655,0,1655,0,1655,0,1655,0,1655,0,1655,0,1655,0,1655,0,1655,0,1655,0,1655,0,1655,0,
0,0,0,0,0,0,0,0,0,0,0,0,0,0,0,0,0,0,0,0,0,0,0,0,0,0,0,0,0,0,0,0,0,0,0,0,0,0,
1655,0,1655,0,1655,0,1655,0,1655,0,1655,0,1655,0,1655,0,1655,0,1655,0,1655,0,1655,0,1655,0,1655,0,1655,0,1655,0,1655,0,1655,0,1655,0,
0,0,0,0,0,0,0,0,0,0,0,0,0,0,0,0,0,0,0,0,0,0,0,0,0,0,0,0,0,0,0,0,0,0,0,0,0,0,
1655,0,1655,0,1655,0,1655,0,1655,0,1655,0,1655,0,1655,0,1655,0,1655,0,1655,0,1655,0,1655,0,1655,0,1655,0,1655,0,1655,0,1655,0,1655,0,
0,0,0,0,0,0,0,0,0,0,0,0,0,0,0,0,0,0,0,0,0,0,0,0,0,0,0,0,0,0,0,0,0,0,0,0,0,0,
1655,0,1655,0,1655,0,1655,0,1655,0,1655,0,1655,0,1655,0,1655,0,1655,0,1655,0,1655,0,1655,0,1655,0,1655,0,1655,0,1655,0,1655,0,1655,0,
0,0,0,0,0,0,0,0,0,0,0,0,0,0,0,0,0,0,0,0,0,0,0,0,0,0,0,0,0,0,0,0,0,0,0,0,0,0,
1655,0,1655,0,1655,0,1655,0,1655,0,1655,0,1655,0,1655,0,1655,0,1655,0,1655,0,1655,0,1655,0,1655,0,1655,0,1655,0,1655,0,1655,0,1655,0,
0,0,0,0,0,0,0,0,0,0,0,0,0,0,0,0,0,0,0,0,0,0,0,0,0,0,0,0,0,0,0,0,0,0,0,0,0,0,
1655,0,1655,0,1655,0,1655,0,1655,0,1655,0,1655,0,1655,0,1655,0,1655,0,1655,0,1655,0,1655,0,1655,0,1655,0,1655,0,1655,0,1655,0,1655,0,
0,0,0,0,0,0,0,0,0,0,0,0,0,0,0,0,0,0,0,0,0,0,0,0,0,0,0,0,0,0,0,0,0,0,0,0,0,0,
1655,0,1655,0,1655,0,1655,0,1655,0,1655,0,1655,0,1655,0,1655,0,1655,0,1655,0,1655,0,1655,0,1655,0,1655,0,1655,0,1655,0,1655,0,1655,0,
0,0,0,0,0,0,0,0,0,0,0,0,0,0,0,0,0,0,0,0,0,0,0,0,0,0,0,0,0,0,0,0,0,0,0,0,0,0,
1655,0,1655,0,1655,0,1655,0,1655,0,1655,0,1655,0,1655,0,1655,0,1655,0,1655,0,1655,0,1655,0,1655,0,1655,0,1655,0,1655,0,1655,0,1655,0,
0,0,0,0,0,0,0,0,0,0,0,0,0,0,0,0,0,0,0,0,0,0,0,0,0,0,0,0,0,0,0,0,0,0,0,0,0,0,
1655,0,1655,0,1655,0,1655,0,1655,0,1655,0,1655,0,1655,0,1655,0,1655,0,1655,0,1655,0,1655,0,1655,0,1655,0,1655,0,1655,0,1655,0,1655,0,
0,0,0,0,0,0,0,0,0,0,0,0,0,0,0,0,0,0,0,0,0,0,0,0,0,0,0,0,0,0,0,0,0,0,0,0,0,0,
1655,0,1655,0,1655,0,1655,0,1655,0,1655,0,1655,0,1655,0,1655,0,1655,0,1655,0,1655,0,1655,0,1655,0,1655,0,1655,0,1655,0,1655,0,1655,0,
0,0,0,0,0,0,0,0,0,0,0,0,0,0,0,0,0,0,0,0,0,0,0,0,0,0,0,0,0,0,0,0,0,0,0,0,0,0,
1655,0,1655,0,1655,0,1655,0,1655,0,1655,0,1655,0,1655,0,1655,0,1655,0,1655,0,1655,0,1655,0,1655,0,1655,0,1655,0,1655,0,1655,0,1655,0,
0,0,0,0,0,0,0,0,0,0,0,0,0,0,0,0,0,0,0,0,0,0,0,0,0,0,0,0,0,0,0,0,0,0,0,0,0,0,
1655,0,1655,0,1655,0,1655,0,1655,0,1655,0,1655,0,1655,0,1655,0,1655,0,1655,0,1655,0,1655,0,1655,0,1655,0,1655,0,1655,0,1655,0,1655,0,
0,0,0,0,0,0,0,0,0,0,0,0,0,0,0,0,0,0,0,0,0,0,0,0,0,0,0,0,0,0,0,0,0,0,0,0,0,0,
1655,0,1655,0,1655,0,1655,0,1655,0,1655,0,1655,0,1655,0,1655,0,1655,0,1655,0,1655,0,1655,0,1655,0,1655,0,1655,0,1655,0,1655,0,1655,0,
0,0,0,0,0,0,0,0,0,0,0,0,0,0,0,0,0,0,0,0,0,0,0,0,0,0,0,0,0,0,0,0,0,0,0,0,0,0,
1655,0,1655,0,1655,0,1655,0,1655,0,1655,0,1655,0,1655,0,1655,0,1655,0,1655,0,1655,0,1655,0,1655,0,1655,0,1655,0,1655,0,1655,0,1655,0,
0,0,0,0,0,0,0,0,0,0,0,0,0,0,0,0,0,0,0,0,0,0,0,0,0,0,0,0,0,0,0,0,0,0,0,0,0,0,
1655,0,1655,0,1655,0,1655,0,1655,0,1655,0,1655,0,1655,0,1655,0,1655,0,1655,0,1655,0,1655,0,1655,0,1655,0,1655,0,1655,0,1655,0,1655,0,
0,0,0,0,0,0,0,0,0,0,0,0,0,0,0,0,0,0,0,0,0,0,0,0,0,0,0,0,0,0,0,0,0,0,0,0,0,0
</data>
  </layer>
  <objectgroup draworder="index" id="7" name="Level_0_Windows"/>
  <objectgroup draworder="index" id="8" name="Level_0_Assets">
   <object id="4" type="asset" gid="604" x="184" y="120" width="32" height="48"/>
   <object id="5" type="asset" gid="1182" x="220" y="208" width="32" height="40"/>
   <object id="6" type="asset" gid="1265" x="168" y="240" width="64" height="104"/>
   <object id="7" type="asset" gid="1420" x="66" y="278" width="48" height="56"/>
   <object id="8" type="asset" gid="298" x="78" y="89" width="45" height="34"/>
   <object id="9" type="asset" gid="1323" x="228" y="275" width="32" height="40"/>
   <object id="10" type="asset" gid="589" x="144" y="128" width="64" height="80"/>
   <object id="11" type="asset" gid="1206" x="200" y="128" width="64" height="80"/>
   <object id="12" type="asset" gid="755" x="64" y="118" width="32" height="32"/>
   <object id="13" type="asset" gid="1258" x="180" y="185" width="16" height="24"/>
   <object id="14" type="asset" gid="1308" x="240" y="120" width="24" height="32"/>
   <object id="15" type="asset" gid="726" x="120" y="118" width="16" height="40"/>
   <object id="16" type="asset" gid="1214" x="56" y="160" width="16" height="40"/>
   <object id="17" type="asset" gid="922" x="111" y="272" width="48" height="32"/>
   <object id="18" type="asset" gid="1129" x="164" y="273" width="16" height="24"/>
  </objectgroup>
 </group>
 <objectgroup draworder="index" id="9" name="Instances"/>
 <group id="10" name="Level_1">
  <layer id="11" name="Level_1_BlackArea" width="38" height="40">
   <properties>
    <property name="maybe_animation_id" value="75ea443e6634d96"/>
    <property name="maybe_tileset_id" value="d8b504e9a8480fbe"/>
    <property name="tile_size" type="int" value="16"/>
   </properties>
   <data encoding="csv">
3599,0,3599,0,3599,0,3599,0,3599,0,3599,0,3599,0,3599,0,3599,0,3599,0,3599,0,3599,0,3599,0,3599,0,3599,0,3599,0,3599,0,3599,0,3599,0,
0,0,0,0,0,0,0,0,0,0,0,0,0,0,0,0,0,0,0,0,0,0,0,0,0,0,0,0,0,0,0,0,0,0,0,0,0,0,
3599,0,3599,0,3599,0,3599,0,3599,0,3599,0,3599,0,3599,0,3599,0,3599,0,3599,0,3599,0,3599,0,3599,0,3599,0,3599,0,3599,0,3599,0,3599,0,
0,0,0,0,0,0,0,0,0,0,0,0,0,0,0,0,0,0,0,0,0,0,0,0,0,0,0,0,0,0,0,0,0,0,0,0,0,0,
3599,0,3599,0,3599,0,1655,0,1655,0,1655,0,1655,0,1655,0,1655,0,1655,0,1655,0,1655,0,1655,0,1655,0,1655,0,1655,0,1655,0,3599,0,3599,0,
0,0,0,0,0,0,0,0,0,0,0,0,0,0,0,0,0,0,0,0,0,0,0,0,0,0,0,0,0,0,0,0,0,0,0,0,0,0,
3599,0,3599,0,3599,0,1655,0,1655,0,1655,0,1655,0,1655,0,1655,0,1655,0,1655,0,1655,0,1655,0,1655,0,1655,0,1655,0,1655,0,3599,0,3599,0,
0,0,0,0,0,0,0,0,0,0,0,0,0,0,0,0,0,0,0,0,0,0,0,0,0,0,0,0,0,0,0,0,0,0,0,0,0,0,
3599,0,3599,0,3599,0,1655,0,1655,0,1655,0,1655,0,1655,0,1655,0,1655,0,1655,0,1655,0,1655,0,1655,0,1655,0,1655,0,1655,0,3599,0,3599,0,
0,0,0,0,0,0,0,0,0,0,0,0,0,0,0,0,0,0,0,0,0,0,0,0,0,0,0,0,0,0,0,0,0,0,0,0,0,0,
3599,0,3599,0,3599,0,1655,0,1655,0,1655,0,1655,0,1655,0,1655,0,1655,0,1655,0,1655,0,1655,0,1655,0,1655,0,1655,0,1655,0,3599,0,3599,0,
0,0,0,0,0,0,0,0,0,0,0,0,0,0,0,0,0,0,0,0,0,0,0,0,0,0,0,0,0,0,0,0,0,0,0,0,0,0,
3599,0,3599,0,3599,0,1655,0,1655,0,1655,0,1655,0,1655,0,1655,0,1655,0,1655,0,1655,0,1655,0,1655,0,1655,0,1655,0,1655,0,3599,0,3599,0,
0,0,0,0,0,0,0,0,0,0,0,0,0,0,0,0,0,0,0,0,0,0,0,0,0,0,0,0,0,0,0,0,0,0,0,0,0,0,
3599,0,3599,0,3599,0,1655,0,1655,0,1655,0,1655,0,1655,0,1655,0,1655,0,1655,0,1655,0,1655,0,1655,0,1655,0,1655,0,1655,0,3599,0,3599,0,
0,0,0,0,0,0,0,0,0,0,0,0,0,0,0,0,0,0,0,0,0,0,0,0,0,0,0,0,0,0,0,0,0,0,0,0,0,0,
3599,0,3599,0,3599,0,1655,0,1655,0,1655,0,1655,0,1655,0,1655,0,1655,0,1655,0,1655,0,1655,0,1655,0,1655,0,1655,0,1655,0,3599,0,3599,0,
0,0,0,0,0,0,0,0,0,0,0,0,0,0,0,0,0,0,0,0,0,0,0,0,0,0,0,0,0,0,0,0,0,0,0,0,0,0,
3599,0,3599,0,3599,0,1655,0,1655,0,1655,0,1655,0,1655,0,1655,0,1655,0,1655,0,1655,0,1655,0,1655,0,1655,0,1655,0,1655,0,3599,0,3599,0,
0,0,0,0,0,0,0,0,0,0,0,0,0,0,0,0,0,0,0,0,0,0,0,0,0,0,0,0,0,0,0,0,0,0,0,0,0,0,
3599,0,3599,0,3599,0,1655,0,1655,0,1655,0,1655,0,1655,0,1655,0,1655,0,1655,0,1655,0,1655,0,1655,0,1655,0,1655,0,1655,0,3599,0,3599,0,
0,0,0,0,0,0,0,0,0,0,0,0,0,0,0,0,0,0,0,0,0,0,0,0,0,0,0,0,0,0,0,0,0,0,0,0,0,0,
3599,0,3599,0,3599,0,1655,0,1655,0,1655,0,1655,0,1655,0,1655,0,1655,0,1655,0,1655,0,1655,0,1655,0,1655,0,1655,0,1655,0,3599,0,3599,0,
0,0,0,0,0,0,0,0,0,0,0,0,0,0,0,0,0,0,0,0,0,0,0,0,0,0,0,0,0,0,0,0,0,0,0,0,0,0,
3599,0,3599,0,3599,0,1655,0,1655,0,1655,0,1655,0,1655,0,1655,0,1655,0,1655,0,1655,0,1655,0,1655,0,1655,0,1655,0,1655,0,3599,0,3599,0,
0,0,0,0,0,0,0,0,0,0,0,0,0,0,0,0,0,0,0,0,0,0,0,0,0,0,0,0,0,0,0,0,0,0,0,0,0,0,
3599,0,3599,0,3599,0,1655,0,1655,0,1655,0,1655,0,1655,0,1655,0,1655,0,1655,0,1655,0,1655,0,1655,0,1655,0,1655,0,1655,0,3599,0,3599,0,
0,0,0,0,0,0,0,0,0,0,0,0,0,0,0,0,0,0,0,0,0,0,0,0,0,0,0,0,0,0,0,0,0,0,0,0,0,0,
3599,0,3599,0,3599,0,1655,0,1655,0,1655,0,1655,0,1655,0,1655,0,1655,0,1655,0,1655,0,1655,0,1655,0,1655,0,1655,0,1655,0,3599,0,3599,0,
0,0,0,0,0,0,0,0,0,0,0,0,0,0,0,0,0,0,0,0,0,0,0,0,0,0,0,0,0,0,0,0,0,0,0,0,0,0,
3599,0,3599,0,3599,0,1655,0,1655,0,1655,0,1655,0,1655,0,1655,0,1655,0,1655,0,1655,0,1655,0,1655,0,1655,0,1655,0,1655,0,3599,0,3599,0,
0,0,0,0,0,0,0,0,0,0,0,0,0,0,0,0,0,0,0,0,0,0,0,0,0,0,0,0,0,0,0,0,0,0,0,0,0,0,
3599,0,3599,0,3599,0,1655,0,1655,0,1655,0,1655,0,1655,0,1655,0,1655,0,1655,0,1655,0,1655,0,1655,0,1655,0,1655,0,1655,0,3599,0,3599,0,
0,0,0,0,0,0,0,0,0,0,0,0,0,0,0,0,0,0,0,0,0,0,0,0,0,0,0,0,0,0,0,0,0,0,0,0,0,0,
3599,0,3599,0,3599,0,1655,0,1655,0,1655,0,1655,0,1655,0,1655,0,1655,0,1655,0,1655,0,1655,0,1655,0,1655,0,1655,0,1655,0,3599,0,3599,0,
0,0,0,0,0,0,0,0,0,0,0,0,0,0,0,0,0,0,0,0,0,0,0,0,0,0,0,0,0,0,0,0,0,0,0,0,0,0,
3599,0,3599,0,3599,0,3599,0,3599,0,3599,0,3599,0,3599,0,3599,0,3599,0,3599,0,3599,0,3599,0,3599,0,3599,0,3599,0,3599,0,3599,0,3599,0,
0,0,0,0,0,0,0,0,0,0,0,0,0,0,0,0,0,0,0,0,0,0,0,0,0,0,0,0,0,0,0,0,0,0,0,0,0,0,
3599,0,3599,0,3599,0,3599,0,3599,0,3599,0,3599,0,3599,0,3599,0,3599,0,3599,0,3599,0,3599,0,3599,0,3599,0,3599,0,3599,0,3599,0,3599,0,
0,0,0,0,0,0,0,0,0,0,0,0,0,0,0,0,0,0,0,0,0,0,0,0,0,0,0,0,0,0,0,0,0,0,0,0,0,0
</data>
  </layer>
  <layer id="12" name="Level_1_Ceiling" width="38" height="40">
   <properties>
    <property name="maybe_animation_id" value="75ea443e6634d96"/>
    <property name="maybe_tileset_id" value="d8b504e9a8480fbe"/>
    <property name="tile_size" type="int" value="16"/>
   </properties>
   <data encoding="csv">
1655,0,1655,0,1655,0,1655,0,1655,0,1655,0,1655,0,1655,0,1655,0,1655,0,1655,0,1655,0,1655,0,1655,0,1655,0,1655,0,1655,0,1655,0,1655,0,
0,0,0,0,0,0,0,0,0,0,0,0,0,0,0,0,0,0,0,0,0,0,0,0,0,0,0,0,0,0,0,0,0,0,0,0,0,0,
1655,0,1655,0,3469,0,3470,0,3471,0,3471,0,3471,0,3471,0,3471,0,3471,0,3471,0,3471,0,3471,0,3471,0,3471,0,3471,0,3472,0,3473,0,1655,0,
0,0,0,0,0,0,0,0,0,0,0,0,0,0,0,0,0,0,0,0,0,0,0,0,0,0,0,0,0,0,0,0,0,0,0,0,0,0,
1655,0,1655,0,3533,0,3534,0,3535,0,3474,0,3535,0,3535,0,3474,0,3535,0,3535,0,3474,0,3535,0,3535,0,3474,0,3535,0,3536,0,3537,0,1655,0,
0,0,0,0,0,0,0,0,0,0,0,0,0,0,0,0,0,0,0,0,0,0,0,0,0,0,0,0,0,0,0,0,0,0,0,0,0,0,
1655,0,1655,0,3597,0,3598,0,1655,0,1655,0,1655,0,1655,0,1655,0,1655,0,1655,0,1655,0,1655,0,1655,0,1655,0,1655,0,3600,0,3601,0,1655,0,
0,0,0,0,0,0,0,0,0,0,0,0,0,0,0,0,0,0,0,0,0,0,0,0,0,0,0,0,0,0,0,0,0,0,0,0,0,0,
1655,0,1655,0,3597,0,3598,0,1655,0,1655,0,1655,0,1655,0,1655,0,1655,0,1655,0,1655,0,1655,0,1655,0,1655,0,1655,0,3600,0,3601,0,1655,0,
0,0,0,0,0,0,0,0,0,0,0,0,0,0,0,0,0,0,0,0,0,0,0,0,0,0,0,0,0,0,0,0,0,0,0,0,0,0,
1655,0,1655,0,3597,0,3476,0,1655,0,1655,0,1655,0,1655,0,1655,0,1655,0,1655,0,1655,0,1655,0,1655,0,1655,0,1655,0,3477,0,3601,0,1655,0,
0,0,0,0,0,0,0,0,0,0,0,0,0,0,0,0,0,0,0,0,0,0,0,0,0,0,0,0,0,0,0,0,0,0,0,0,0,0,
1655,0,1655,0,3597,0,3598,0,1655,0,1655,0,1655,0,1655,0,1655,0,1655,0,1655,0,1655,0,1655,0,1655,0,1655,0,1655,0,3600,0,3601,0,1655,0,
0,0,0,0,0,0,0,0,0,0,0,0,0,0,0,0,0,0,0,0,0,0,0,0,0,0,0,0,0,0,0,0,0,0,0,0,0,0,
1655,0,1655,0,3597,0,3598,0,1655,0,1655,0,1655,0,1655,0,1655,0,1655,0,1655,0,1655,0,1655,0,1655,0,1655,0,1655,0,3600,0,3601,0,1655,0,
0,0,0,0,0,0,0,0,0,0,0,0,0,0,0,0,0,0,0,0,0,0,0,0,0,0,0,0,0,0,0,0,0,0,0,0,0,0,
1655,0,1655,0,3597,0,3598,0,1655,0,1655,0,1655,0,1655,0,1655,0,1655,0,1655,0,1655,0,1655,0,1655,0,1655,0,1655,0,3477,0,3601,0,1655,0,
0,0,0,0,0,0,0,0,0,0,0,0,0,0,0,0,0,0,0,0,0,0,0,0,0,0,0,0,0,0,0,0,0,0,0,0,0,0,
1655,0,3792,0,3793,0,3794,0,1655,0,1655,0,1655,0,1655,0,1655,0,1655,0,1655,0,1655,0,1655,0,1655,0,1655,0,1655,0,3600,0,3601,0,1655,0,
0,0,0,0,0,0,0,0,0,0,0,0,0,0,0,0,0,0,0,0,0,0,0,0,0,0,0,0,0,0,0,0,0,0,0,0,0,0,
1655,0,3856,0,3857,0,3858,0,1655,0,1655,0,1655,0,1655,0,1655,0,1655,0,1655,0,1655,0,1655,0,1655,0,1655,0,1655,0,3600,0,3601,0,1655,0,
0,0,0,0,0,0,0,0,0,0,0,0,0,0,0,0,0,0,0,0,0,0,0,0,0,0,0,0,0,0,0,0,0,0,0,0,0,0,
1655,0,3920,0,3921,0,3922,0,1655,0,1655,0,1655,0,1655,0,1655,0,1655,0,1655,0,1655,0,1655,0,1655,0,1655,0,1655,0,3477,0,3601,0,1655,0,
0,0,0,0,0,0,0,0,0,0,0,0,0,0,0,0,0,0,0,0,0,0,0,0,0,0,0,0,0,0,0,0,0,0,0,0,0,0,
1655,0,1655,0,3597,0,3598,0,1655,0,1655,0,1655,0,1655,0,1655,0,1655,0,1655,0,1655,0,1655,0,1655,0,1655,0,1655,0,3600,0,3601,0,1655,0,
0,0,0,0,0,0,0,0,0,0,0,0,0,0,0,0,0,0,0,0,0,0,0,0,0,0,0,0,0,0,0,0,0,0,0,0,0,0,
1655,0,1655,0,3597,0,3598,0,1655,0,1655,0,1655,0,1655,0,1655,0,1655,0,1655,0,1655,0,1655,0,1655,0,1655,0,1655,0,3600,0,3601,0,1655,0,
0,0,0,0,0,0,0,0,0,0,0,0,0,0,0,0,0,0,0,0,0,0,0,0,0,0,0,0,0,0,0,0,0,0,0,0,0,0,
1655,0,1655,0,3597,0,3476,0,1655,0,1655,0,1655,0,1655,0,1655,0,1655,0,1655,0,1655,0,1655,0,1655,0,1655,0,1655,0,3477,0,3601,0,1655,0,
0,0,0,0,0,0,0,0,0,0,0,0,0,0,0,0,0,0,0,0,0,0,0,0,0,0,0,0,0,0,0,0,0,0,0,0,0,0,
1655,0,1655,0,3597,0,3598,0,1655,0,1655,0,1655,0,1655,0,1655,0,1655,0,1655,0,1655,0,1655,0,1655,0,1655,0,1655,0,3600,0,3601,0,1655,0,
0,0,0,0,0,0,0,0,0,0,0,0,0,0,0,0,0,0,0,0,0,0,0,0,0,0,0,0,0,0,0,0,0,0,0,0,0,0,
1655,0,1655,0,3597,0,3598,0,1655,0,1655,0,1655,0,1655,0,1655,0,1655,0,1655,0,1655,0,1655,0,1655,0,1655,0,1655,0,3600,0,3601,0,1655,0,
0,0,0,0,0,0,0,0,0,0,0,0,0,0,0,0,0,0,0,0,0,0,0,0,0,0,0,0,0,0,0,0,0,0,0,0,0,0,
1655,0,1655,0,3661,0,3662,0,3663,0,3475,0,3663,0,3663,0,3475,0,3663,0,3663,0,3475,0,3663,0,3663,0,3475,0,3663,0,3664,0,3665,0,1655,0,
0,0,0,0,0,0,0,0,0,0,0,0,0,0,0,0,0,0,0,0,0,0,0,0,0,0,0,0,0,0,0,0,0,0,0,0,0,0,
1655,0,1655,0,3725,0,3726,0,3727,0,3727,0,3727,0,3727,0,3727,0,3727,0,3727,0,3727,0,3727,0,3727,0,3727,0,3727,0,3728,0,3729,0,1655,0,
0,0,0,0,0,0,0,0,0,0,0,0,0,0,0,0,0,0,0,0,0,0,0,0,0,0,0,0,0,0,0,0,0,0,0,0,0,0,
1655,0,1655,0,1655,0,1655,0,1655,0,1655,0,1655,0,1655,0,1655,0,1655,0,1655,0,1655,0,1655,0,1655,0,1655,0,1655,0,1655,0,1655,0,1655,0,
0,0,0,0,0,0,0,0,0,0,0,0,0,0,0,0,0,0,0,0,0,0,0,0,0,0,0,0,0,0,0,0,0,0,0,0,0,0
</data>
  </layer>
 </group>
 <layer id="13" name="Tiles_Collision" width="38" height="40">
  <properties>
   <property name="maybe_animation_id" value="d5b5e9552171fe70"/>
   <property name="maybe_tileset_id" value="b29026a2ad0be741"/>
   <property name="tile_size" type="int" value="8"/>
  </properties>
  <data encoding="csv">
1507,1507,1507,1507,1507,1507,1507,1507,1507,1507,1507,1507,1507,1507,1507,1507,1507,1507,1507,1507,1507,1507,1507,1507,1507,1507,1507,1507,1507,1507,1507,1507,1507,1507,1507,1507,1507,1507,
1507,1507,1507,1507,1507,1507,1507,1507,1507,1507,1507,1507,1507,1507,1507,1507,1507,1507,1507,1507,1507,1507,1507,1507,1507,1507,1507,1507,1507,1507,1507,1507,1507,1507,1507,1507,1507,1507,
1507,1507,1507,1507,1507,1507,1507,1507,1507,1507,1507,1507,1507,1507,1507,1507,1507,1507,1507,1507,1507,1507,1507,1507,1507,1507,1507,1507,1507,1507,1507,1507,1507,1507,1507,1507,1507,1507,
1507,1507,1507,1507,1507,1507,1507,1507,1507,1507,1507,1507,1507,1507,1507,1507,1507,1507,1507,1507,1507,1507,1507,1507,1507,1507,1507,1507,1507,1507,1507,1507,1507,1507,1507,1507,1507,1507,
1507,1507,1507,1507,1507,1507,1507,1507,1507,1507,1507,1507,1507,1507,1507,1507,1507,1507,1507,1507,1507,1507,1507,1507,1507,1507,1507,1507,1507,1507,1507,1507,1507,1507,1507,1507,1507,1507,
1507,1507,1507,1507,1507,1507,1507,1507,1507,1507,1507,1507,1507,1507,1507,1507,1507,1507,1507,1507,1507,1507,1507,1507,1507,1507,1507,1507,1507,1507,1507,1507,1507,1507,1507,1507,1507,1507,
1507,1507,1507,1507,1507,1507,1507,1507,1507,1507,1507,1507,1507,1507,1507,1507,1507,1507,1507,1507,1507,1507,1507,1507,1507,1507,1507,1507,1507,1507,1507,1507,1507,1507,1507,1507,1507,1507,
1507,1507,1507,1507,1507,1507,1507,1507,1507,1507,1507,1507,1507,1507,1507,1507,1507,1507,1507,1507,1507,1507,1507,1507,1507,1507,1507,1507,1507,1507,1507,1507,1507,1507,1507,1507,1507,1507,
1507,1507,1507,1507,1507,1507,1507,1507,1507,1507,1507,1507,1507,1507,1507,1507,1507,1507,1507,1507,1507,1507,1507,1507,1507,1507,1507,1507,1507,1507,1507,1507,1507,1507,1507,1507,1507,1507,
1507,1507,1507,1507,1507,1507,1507,1507,1507,1507,1507,1507,1507,1507,1507,1507,1507,1507,1507,1507,1507,1507,1507,1507,1507,1507,1507,1507,1507,1507,1507,1507,1507,1507,1507,1507,1507,1507,
1507,1507,1507,1507,1507,1507,1507,1507,1507,1507,1507,1507,1507,1507,1507,1507,1507,1507,1507,1507,1507,1507,1507,1507,1507,1507,1507,1507,1507,1507,1507,1507,1507,1507,1507,1507,1507,1507,
1507,1507,1507,1507,1507,1507,1507,1507,1507,1507,1507,1507,1507,1507,1507,1507,1507,1507,1507,1507,1507,1507,1507,1507,1507,1507,1507,1507,1507,1507,1507,1507,1507,1507,1507,1507,1507,1507,
1507,1507,1507,1507,1507,1507,1507,1507,1507,1507,1507,1507,1507,1507,1507,1507,1507,1507,1507,1507,1507,1507,1507,1507,1507,1507,1507,1507,1507,1507,1507,1507,1507,1507,1507,1507,1507,1507,
1507,1507,1507,1507,1507,1507,1507,1507,1506,1506,1506,1506,1504,1504,1504,1506,1506,1504,1507,1507,1507,1507,1507,1507,1507,1507,1507,1507,1507,1507,1507,1507,1507,1507,1507,1507,1507,1507,
1507,1507,1507,1507,1507,1507,1507,1507,1504,1504,1504,1504,1504,1504,1504,1504,1504,1504,1507,1507,1507,1507,1507,1507,1507,1507,1507,1507,1507,1507,1507,1507,1507,1507,1507,1507,1507,1507,
1507,1507,1507,1507,1507,1507,1507,1507,1504,1504,1504,1504,1504,1504,1504,1504,1504,1504,1504,1504,1504,1504,1504,1504,1504,1504,1504,1504,1504,1504,1504,1504,1507,1507,1507,1507,1507,1507,
1507,1507,1507,1507,1507,1507,1507,1507,1504,1504,1504,1504,1504,1504,1504,1504,1504,1504,1504,1504,1504,1504,1504,1504,1504,1504,1504,1504,1504,1504,1504,1504,1507,1507,1507,1507,1507,1507,
1507,1507,1507,1507,1507,1507,1507,1507,1504,1504,1504,1504,1504,1504,1504,1504,1504,1504,1504,1504,1504,1504,1504,1504,1504,1504,1504,1504,1504,1504,1504,1504,1507,1507,1507,1507,1507,1507,
1507,1507,1507,1507,1507,1507,1507,1507,1504,1504,1504,1504,1504,1504,1504,1504,1504,1504,1504,1504,1504,1504,1504,1504,1504,1504,1504,1504,1504,1504,1504,1504,1507,1507,1507,1507,1507,1507,
1507,1507,1507,1507,1507,1507,1507,1507,1504,1504,1504,1504,1504,1504,1504,1504,1504,1504,1504,1504,1504,1504,1507,1507,1507,1507,1507,1507,1504,1504,1504,1504,1507,1507,1507,1507,1507,1507,
1507,1507,1507,1507,1507,1507,1507,1507,1504,1504,1504,1504,1504,1504,1504,1504,1504,1504,1504,1504,1504,1504,1507,1507,1507,1507,1507,1507,1504,1504,1504,1504,1507,1507,1507,1507,1507,1507,
1507,1507,1507,1507,1507,1507,1507,1507,1504,1504,1504,1504,1504,1504,1504,1504,1504,1504,1504,1504,1504,1504,1507,1507,1507,1507,1507,1507,1504,1504,1504,1504,1507,1507,1507,1507,1507,1507,
1507,1507,1507,1507,1507,1504,1504,1504,1504,1504,1504,1504,1504,1504,1504,1504,1504,1504,1504,1504,1504,1504,1507,1507,1507,1507,1507,1507,1504,1504,1504,1504,1507,1507,1507,1507,1507,1507,
1507,1507,1507,1507,1507,1504,1504,1504,1504,1504,1504,1504,1504,1504,1504,1504,1504,1504,1504,1504,1504,1504,1507,1507,1507,1507,1507,1507,1504,1506,1506,1504,1507,1507,1507,1507,1507,1507,
1507,1507,1507,1507,1507,1504,1504,1504,1504,1504,1504,1504,1504,1504,1504,1504,1504,1504,1504,1504,1504,1504,1507,1507,1507,1507,1507,1507,1504,1506,1506,1504,1507,1507,1507,1507,1507,1507,
1507,1507,1507,1507,1507,1507,1507,1507,1504,1504,1504,1504,1504,1504,1504,1504,1504,1504,1504,1504,1504,1504,1507,1507,1507,1507,1507,1507,1504,1504,1504,1504,1507,1507,1507,1507,1507,1507,
1507,1507,1507,1507,1507,1507,1507,1507,1504,1504,1504,1504,1504,1504,1504,1504,1504,1504,1504,1504,1504,1504,1507,1507,1507,1507,1507,1507,1504,1504,1504,1504,1507,1507,1507,1507,1507,1507,
1507,1507,1507,1507,1507,1507,1507,1507,1504,1504,1504,1504,1504,1504,1504,1504,1504,1504,1504,1504,1504,1504,1507,1507,1507,1507,1507,1507,1504,1504,1504,1504,1507,1507,1507,1507,1507,1507,
1507,1507,1507,1507,1507,1507,1507,1507,1504,1504,1504,1504,1504,1504,1504,1504,1504,1504,1504,1504,1504,1504,1507,1507,1507,1507,1507,1507,1504,1504,1504,1504,1507,1507,1507,1507,1507,1507,
1507,1507,1507,1507,1507,1507,1507,1507,1504,1504,1504,1504,1504,1504,1504,1504,1504,1504,1504,1504,1504,1504,1504,1504,1504,1504,1504,1504,1504,1504,1504,1504,1507,1507,1507,1507,1507,1507,
1507,1507,1507,1507,1507,1507,1507,1507,1504,1504,1504,1504,1504,1504,1504,1504,1504,1504,1504,1504,1504,1504,1504,1504,1504,1504,1504,1504,1504,1504,1504,1504,1507,1507,1507,1507,1507,1507,
1507,1507,1507,1507,1507,1507,1507,1507,1504,1504,1504,1504,1504,1504,1504,1504,1504,1504,1504,1504,1504,1504,1504,1504,1504,1504,1504,1504,1504,1504,1504,1504,1507,1507,1507,1507,1507,1507,
1507,1507,1507,1507,1507,1507,1507,1507,1507,1507,1507,1507,1507,1507,1507,1507,1507,1507,1507,1507,1504,1504,1504,1504,1504,1504,1504,1504,1504,1506,1506,1506,1507,1507,1507,1507,1507,1507,
1507,1507,1507,1507,1507,1507,1507,1507,1507,1507,1507,1507,1507,1507,1507,1507,1507,1507,1507,1507,1506,1506,1506,1504,1504,1504,1504,1504,1504,1506,1506,1506,1507,1507,1507,1507,1507,1507,
1507,1507,1507,1507,1507,1507,1507,1507,1507,1507,1507,1507,1507,1507,1507,1507,1507,1507,1507,1507,1507,1507,1507,1507,1507,1507,1507,1507,1507,1507,1507,1507,1507,1507,1507,1507,1507,1507,
1507,1507,1507,1507,1507,1507,1507,1507,1507,1507,1507,1507,1507,1507,1507,1507,1507,1507,1507,1507,1507,1507,1507,1507,1507,1507,1507,1507,1507,1507,1507,1507,1507,1507,1507,1507,1507,1507,
1507,1507,1507,1507,1507,1507,1507,1507,1507,1507,1507,1507,1507,1507,1507,1507,1507,1507,1507,1507,1507,1507,1507,1507,1507,1507,1507,1507,1507,1507,1507,1507,1507,1507,1507,1507,1507,1507,
1507,1507,1507,1507,1507,1507,1507,1507,1507,1507,1507,1507,1507,1507,1507,1507,1507,1507,1507,1507,1507,1507,1507,1507,1507,1507,1507,1507,1507,1507,1507,1507,1507,1507,1507,1507,1507,1507,
1507,1507,1507,1507,1507,1507,1507,1507,1507,1507,1507,1507,1507,1507,1507,1507,1507,1507,1507,1507,1507,1507,1507,1507,1507,1507,1507,1507,1507,1507,1507,1507,1507,1507,1507,1507,1507,1507,
1507,1507,1507,1507,1507,1507,1507,1507,1507,1507,1507,1507,1507,1507,1507,1507,1507,1507,1507,1507,1507,1507,1507,1507,1507,1507,1507,1507,1507,1507,1507,1507,1507,1507,1507,1507,1507,1507
</data>
 </layer>
 <layer id="14" name="Pathfinding" width="38" height="40" visible="0">
  <properties>
   <property name="maybe_animation_id" value="6d2460f008fb99d4"/>
   <property name="maybe_tileset_id" value="264fe6c9523400a1"/>
   <property name="tile_size" type="int" value="8"/>
  </properties>
  <data encoding="csv">
0,0,0,0,0,0,0,0,0,0,0,0,0,0,0,0,0,0,0,0,0,0,0,0,0,0,0,0,0,0,0,0,0,0,0,0,0,0,
0,0,0,0,0,0,0,0,0,0,0,0,0,0,0,0,0,0,0,0,0,0,0,0,0,0,0,0,0,0,0,0,0,0,0,0,0,0,
0,0,0,0,0,0,0,0,0,0,0,0,0,0,0,0,0,0,0,0,0,0,0,0,0,0,0,0,0,0,0,0,0,0,0,0,0,0,
0,0,0,0,0,0,0,0,0,0,0,0,0,0,0,0,0,0,0,0,0,0,0,0,0,0,0,0,0,0,0,0,0,0,0,0,0,0,
0,0,0,0,0,0,0,0,0,0,0,0,0,0,0,0,0,0,0,0,0,0,0,0,0,0,0,0,0,0,0,0,0,0,0,0,0,0,
0,0,0,0,0,0,0,0,0,0,0,0,0,0,0,0,0,0,0,0,0,0,0,0,0,0,0,0,0,0,0,0,0,0,0,0,0,0,
0,0,0,0,0,0,0,0,0,0,0,0,0,0,0,0,0,0,0,0,0,0,0,0,0,0,0,0,0,0,0,0,0,0,0,0,0,0,
0,0,0,0,0,0,0,0,0,0,0,0,0,0,0,0,0,0,0,0,0,0,0,0,0,0,0,0,0,0,0,0,0,0,0,0,0,0,
0,0,0,0,0,0,0,0,0,0,0,0,0,0,0,0,0,0,0,0,0,0,0,0,0,0,0,0,0,0,0,0,0,0,0,0,0,0,
0,0,0,0,0,0,0,0,0,0,0,0,0,0,0,0,0,0,0,0,0,0,0,0,0,0,0,0,0,0,0,0,0,0,0,0,0,0,
0,0,0,0,0,0,0,0,0,0,0,0,0,0,0,0,0,0,0,0,0,0,0,0,0,0,0,0,0,0,0,0,0,0,0,0,0,0,
0,0,0,0,0,0,0,0,0,0,0,0,0,0,0,0,0,0,0,0,0,0,0,0,0,0,0,0,0,0,0,0,0,0,0,0,0,0,
0,0,0,0,0,0,0,0,0,0,0,0,0,0,0,0,0,0,0,0,0,0,0,0,0,0,0,0,0,0,0,0,0,0,0,0,0,0,
0,0,0,0,0,0,0,0,0,0,0,0,0,0,0,0,0,0,0,0,0,0,0,0,0,0,0,0,0,0,0,0,0,0,0,0,0,0,
0,0,0,0,0,0,0,0,0,0,0,0,0,0,0,0,0,0,0,0,0,0,0,0,0,0,0,0,0,0,0,0,0,0,0,0,0,0,
0,0,0,0,0,0,0,0,0,0,0,0,0,0,0,0,0,0,0,6008,6008,6008,6008,6008,6008,6008,6008,6008,6008,6008,0,0,0,0,0,0,0,0,
0,0,0,0,0,0,0,0,0,0,0,0,0,0,0,0,0,0,0,6008,6008,0,0,0,0,0,0,0,0,6008,0,0,0,0,0,0,0,0,
0,0,0,0,0,0,0,0,0,0,0,0,0,0,0,0,0,0,0,6008,6008,0,0,0,0,0,0,0,0,6008,0,0,0,0,0,0,0,0,
0,0,0,0,0,0,0,0,0,0,0,0,0,0,0,0,0,0,0,6008,6008,0,0,0,0,0,0,0,0,6008,0,0,0,0,0,0,0,0,
0,0,0,0,0,0,0,0,0,0,0,0,0,0,0,0,0,0,0,6008,6008,0,0,0,0,0,0,0,0,6008,0,0,0,0,0,0,0,0,
0,0,0,0,0,0,0,0,0,0,0,0,0,0,0,0,0,0,0,6008,6008,0,0,0,0,0,0,0,0,6008,0,0,0,0,0,0,0,0,
0,0,0,0,0,0,0,0,0,0,0,0,0,0,0,0,0,0,0,6008,6008,0,0,0,0,0,0,0,0,6008,0,0,0,0,0,0,0,0,
0,0,0,0,0,0,0,0,0,0,0,0,0,0,0,0,0,0,0,6008,6008,0,0,0,0,0,0,0,0,6008,0,0,0,0,0,0,0,0,
0,0,0,0,0,0,0,0,6008,6008,6008,6008,6008,6008,6008,6008,6008,6008,6008,6008,6008,0,0,0,0,0,0,0,6012,6012,0,0,0,0,0,0,0,0,
0,0,0,0,0,0,0,0,6008,6008,6008,6008,6008,6008,6008,6008,6008,6008,6008,6008,6008,0,0,0,0,0,0,0,6012,6012,0,0,0,0,0,0,0,0,
0,0,0,0,0,0,0,0,0,0,0,0,0,0,0,6008,6008,6008,6008,6008,6008,6008,0,0,0,0,0,0,6007,6008,0,0,0,0,0,0,0,0,
0,0,0,0,0,0,0,0,0,0,0,0,0,0,0,0,6008,6008,6008,6008,6008,6008,0,0,0,0,0,0,6007,6008,0,0,0,0,0,0,0,0,
0,0,0,0,0,0,0,0,0,0,0,0,0,0,0,0,6008,6008,6008,6008,6008,6008,0,0,0,0,0,0,6007,6008,0,0,0,0,0,0,0,0,
0,0,0,0,0,0,0,0,0,0,0,0,0,0,0,0,6008,6008,6008,0,0,0,0,0,0,0,0,0,0,6008,0,0,0,0,0,0,0,0,
0,0,0,0,0,0,0,0,0,0,0,0,0,0,0,0,6008,6008,6008,0,0,0,0,0,0,0,0,0,0,6008,0,0,0,0,0,0,0,0,
0,0,0,0,0,0,0,0,0,0,0,0,0,0,0,6008,6008,6008,6008,6008,6008,6008,6008,6008,6008,6008,6008,6008,6008,6008,0,0,0,0,0,0,0,0,
0,0,0,0,0,0,0,0,0,0,0,0,0,0,0,6008,6008,6008,6008,6008,6008,6008,6008,6008,6008,6008,6008,6008,6008,6008,0,0,0,0,0,0,0,0,
0,0,0,0,0,0,0,0,0,0,0,0,0,0,0,0,0,0,0,0,0,0,0,0,0,0,0,0,0,0,0,0,0,0,0,0,0,0,
0,0,0,0,0,0,0,0,0,0,0,0,0,0,0,0,0,0,0,0,0,0,0,0,0,0,0,0,0,0,0,0,0,0,0,0,0,0,
0,0,0,0,0,0,0,0,0,0,0,0,0,0,0,0,0,0,0,0,0,0,0,0,0,0,0,0,0,0,0,0,0,0,0,0,0,0,
0,0,0,0,0,0,0,0,0,0,0,0,0,0,0,0,0,0,0,0,0,0,0,0,0,0,0,0,0,0,0,0,0,0,0,0,0,0,
0,0,0,0,0,0,0,0,0,0,0,0,0,0,0,0,0,0,0,0,0,0,0,0,0,0,0,0,0,0,0,0,0,0,0,0,0,0,
0,0,0,0,0,0,0,0,0,0,0,0,0,0,0,0,0,0,0,0,0,0,0,0,0,0,0,0,0,0,0,0,0,0,0,0,0,0,
0,0,0,0,0,0,0,0,0,0,0,0,0,0,0,0,0,0,0,0,0,0,0,0,0,0,0,0,0,0,0,0,0,0,0,0,0,0,
0,0,0,0,0,0,0,0,0,0,0,0,0,0,0,0,0,0,0,0,0,0,0,0,0,0,0,0,0,0,0,0,0,0,0,0,0,0
</data>
 </layer>
 <layer id="15" name="FootstepTiles" width="38" height="40" visible="0">
  <properties>
   <property name="maybe_animation_id" value="9b6388374855b54b"/>
   <property name="maybe_tileset_id" value="5fc72aa2902dea7"/>
   <property name="tile_size" type="int" value="16"/>
  </properties>
  <data encoding="csv">
0,0,0,0,0,0,0,0,0,0,0,0,0,0,0,0,0,0,0,0,0,0,0,0,0,0,0,0,0,0,0,0,0,0,0,0,0,0,
0,0,0,0,0,0,0,0,0,0,0,0,0,0,0,0,0,0,0,0,0,0,0,0,0,0,0,0,0,0,0,0,0,0,0,0,0,0,
0,0,0,0,0,0,0,0,0,0,0,0,0,0,0,0,0,0,0,0,0,0,0,0,0,0,0,0,0,0,0,0,0,0,0,0,0,0,
0,0,0,0,0,0,0,0,0,0,0,0,0,0,0,0,0,0,0,0,0,0,0,0,0,0,0,0,0,0,0,0,0,0,0,0,0,0,
0,0,0,0,0,0,0,0,0,0,0,0,0,0,0,0,0,0,0,0,0,0,0,0,0,0,0,0,0,0,0,0,0,0,0,0,0,0,
0,0,0,0,0,0,0,0,0,0,0,0,0,0,0,0,0,0,0,0,0,0,0,0,0,0,0,0,0,0,0,0,0,0,0,0,0,0,
0,0,0,0,0,0,0,0,0,0,0,0,0,0,0,0,0,0,0,0,0,0,0,0,0,0,0,0,0,0,0,0,0,0,0,0,0,0,
0,0,0,0,0,0,0,0,0,0,0,0,0,0,0,0,0,0,0,0,0,0,0,0,0,0,0,0,0,0,0,0,0,0,0,0,0,0,
0,0,0,0,0,0,0,0,0,0,0,0,0,0,0,0,0,0,0,0,0,0,0,0,0,0,0,0,0,0,0,0,0,0,0,0,0,0,
0,0,0,0,0,0,0,0,0,0,0,0,0,0,0,0,0,0,0,0,0,0,0,0,0,0,0,0,0,0,0,0,0,0,0,0,0,0,
0,0,0,0,0,0,0,0,0,0,0,0,0,0,0,0,0,0,0,0,0,0,0,0,0,0,0,0,0,0,0,0,0,0,0,0,0,0,
0,0,0,0,0,0,0,0,0,0,0,0,0,0,0,0,0,0,0,0,0,0,0,0,0,0,0,0,0,0,0,0,0,0,0,0,0,0,
0,0,0,0,0,0,1512,0,1512,0,1512,0,1512,0,1512,0,1512,0,1512,0,1512,0,1512,0,1512,0,1512,0,1512,0,1512,0,1512,0,0,0,0,0,
0,0,0,0,0,0,0,0,0,0,0,0,0,0,0,0,0,0,0,0,0,0,0,0,0,0,0,0,0,0,0,0,0,0,0,0,0,0,
0,0,0,0,0,0,1512,0,1512,0,1512,0,1512,0,1512,0,1512,0,1512,0,1512,0,1512,0,1512,0,1512,0,1512,0,1512,0,1512,0,0,0,0,0,
0,0,0,0,0,0,0,0,0,0,0,0,0,0,0,0,0,0,0,0,0,0,0,0,0,0,0,0,0,0,0,0,0,0,0,0,0,0,
0,0,0,0,0,0,1512,0,1512,0,1512,0,1512,0,1512,0,1512,0,1512,0,1512,0,1512,0,1512,0,1512,0,1512,0,1512,0,1512,0,0,0,0,0,
0,0,0,0,0,0,0,0,0,0,0,0,0,0,0,0,0,0,0,0,0,0,0,0,0,0,0,0,0,0,0,0,0,0,0,0,0,0,
0,0,0,0,0,0,1512,0,1512,0,1512,0,1514,0,1514,0,1514,0,1514,0,1514,0,1512,0,1512,0,1512,0,1512,0,1512,0,1512,0,0,0,0,0,
0,0,0,0,0,0,0,0,0,0,0,0,0,0,0,0,0,0,0,0,0,0,0,0,0,0,0,0,0,0,0,0,0,0,0,0,0,0,
0,0,0,0,0,0,1512,0,1512,0,1512,0,1514,0,1514,0,1514,0,1514,0,1514,0,1512,0,1512,0,1512,0,1512,0,1512,0,1512,0,0,0,0,0,
0,0,0,0,0,0,0,0,0,0,0,0,0,0,0,0,0,0,0,0,0,0,0,0,0,0,0,0,0,0,0,0,0,0,0,0,0,0,
0,0,0,0,0,0,1512,0,1514,0,1512,0,1514,0,1514,0,1514,0,1514,0,1514,0,1512,0,1512,0,1512,0,1512,0,1512,0,1512,0,0,0,0,0,
0,0,0,0,0,0,0,0,0,0,0,0,0,0,0,0,0,0,0,0,0,0,0,0,0,0,0,0,0,0,0,0,0,0,0,0,0,0,
0,0,0,0,0,0,1512,0,1514,0,1512,0,1514,0,1514,0,1514,0,1514,0,1514,0,1512,0,1512,0,1512,0,1512,0,1512,0,1512,0,0,0,0,0,
0,0,0,0,0,0,0,0,0,0,0,0,0,0,0,0,0,0,0,0,0,0,0,0,0,0,0,0,0,0,0,0,0,0,0,0,0,0,
0,0,0,0,0,0,1512,0,1512,0,1512,0,1514,0,1514,0,1514,0,1514,0,1514,0,1512,0,1512,0,1512,0,1512,0,1512,0,1512,0,0,0,0,0,
0,0,0,0,0,0,0,0,0,0,0,0,0,0,0,0,0,0,0,0,0,0,0,0,0,0,0,0,0,0,0,0,0,0,0,0,0,0,
0,0,0,0,0,0,1512,0,1512,0,1512,0,1514,0,1514,0,1514,0,1514,0,1514,0,1512,0,1512,0,1512,0,1512,0,1512,0,1512,0,0,0,0,0,
0,0,0,0,0,0,0,0,0,0,0,0,0,0,0,0,0,0,0,0,0,0,0,0,0,0,0,0,0,0,0,0,0,0,0,0,0,0,
0,0,0,0,0,0,1512,0,1512,0,1512,0,1512,0,1512,0,1512,0,1512,0,1512,0,1512,0,1512,0,1512,0,1512,0,1512,0,1512,0,0,0,0,0,
0,0,0,0,0,0,0,0,0,0,0,0,0,0,0,0,0,0,0,0,0,0,0,0,0,0,0,0,0,0,0,0,0,0,0,0,0,0,
0,0,0,0,0,0,1512,0,1512,0,1512,0,1512,0,1512,0,1512,0,1512,0,1512,0,1512,0,1512,0,1512,0,1512,0,1512,0,1512,0,0,0,0,0,
0,0,0,0,0,0,0,0,0,0,0,0,0,0,0,0,0,0,0,0,0,0,0,0,0,0,0,0,0,0,0,0,0,0,0,0,0,0,
0,0,0,0,0,0,1512,0,1512,0,1512,0,1512,0,1512,0,1512,0,1512,0,1512,0,1512,0,1512,0,1512,0,1512,0,1512,0,1512,0,0,0,0,0,
0,0,0,0,0,0,0,0,0,0,0,0,0,0,0,0,0,0,0,0,0,0,0,0,0,0,0,0,0,0,0,0,0,0,0,0,0,0,
0,0,0,0,0,0,1512,0,1512,0,1512,0,1512,0,1512,0,1512,0,1512,0,1512,0,1512,0,1512,0,1512,0,1512,0,1512,0,1512,0,0,0,0,0,
0,0,0,0,0,0,0,0,0,0,0,0,0,0,0,0,0,0,0,0,0,0,0,0,0,0,0,0,0,0,0,0,0,0,0,0,0,0,
0,0,0,0,0,0,0,0,0,0,0,0,0,0,0,0,0,0,0,0,0,0,0,0,0,0,0,0,0,0,0,0,0,0,0,0,0,0,
0,0,0,0,0,0,0,0,0,0,0,0,0,0,0,0,0,0,0,0,0,0,0,0,0,0,0,0,0,0,0,0,0,0,0,0,0,0
</data>
 </layer>
 <layer id="16" name="Tiles_Rules" width="38" height="40">
  <properties>
   <property name="maybe_animation_id" value="f525790c1101b1a1"/>
   <property name="maybe_tileset_id" value="a3b6ca91b299d4f5"/>
   <property name="tile_size" type="int" value="8"/>
  </properties>
  <data encoding="csv">
0,0,0,0,0,0,0,0,0,0,0,0,0,0,0,0,0,0,0,0,0,0,0,0,0,0,0,0,0,0,0,0,0,0,0,0,0,0,
0,0,0,0,0,0,0,0,0,0,0,0,0,0,0,0,0,0,0,0,0,0,0,0,0,0,0,0,0,0,0,0,0,0,0,0,0,0,
0,0,0,0,0,0,0,0,0,0,0,0,0,0,0,0,0,0,0,0,0,0,0,0,0,0,0,0,0,0,0,0,0,0,0,0,0,0,
0,0,0,0,0,0,0,0,0,0,0,0,0,0,0,0,0,0,0,0,0,0,0,0,0,0,0,0,0,0,0,0,0,0,0,0,0,0,
0,0,0,0,0,0,0,0,0,0,0,0,0,0,0,0,0,0,0,0,0,0,0,0,0,0,0,0,0,0,0,0,0,0,0,0,0,0,
0,0,0,0,0,0,0,0,0,0,0,0,0,0,0,0,0,0,0,0,0,0,0,0,0,0,0,0,0,0,0,0,0,0,0,0,0,0,
0,0,0,0,0,0,0,0,0,0,0,0,0,0,0,0,0,0,0,0,0,0,0,0,0,0,0,0,0,0,0,0,0,0,0,0,0,0,
0,0,0,0,0,0,0,0,0,0,0,0,0,0,0,0,0,0,0,0,0,0,0,0,0,0,0,0,0,0,0,0,0,0,0,0,0,0,
0,0,0,0,0,0,0,0,0,0,0,0,0,0,0,0,0,0,0,0,0,0,0,0,0,0,0,0,0,0,0,0,0,0,0,0,0,0,
0,0,0,0,0,0,0,0,0,0,0,0,0,0,0,0,0,0,0,0,0,0,0,0,0,0,0,0,0,0,0,0,0,0,0,0,0,0,
0,0,0,0,0,0,0,0,0,0,0,0,0,0,0,0,0,0,0,0,0,0,0,0,0,0,0,0,0,0,0,0,0,0,0,0,0,0,
0,0,0,0,0,0,0,0,0,0,0,0,0,0,0,0,0,0,0,0,0,0,0,0,0,0,0,0,0,0,0,0,0,0,0,0,0,0,
0,0,0,0,0,0,0,0,0,0,0,0,0,0,0,0,0,0,0,0,0,0,0,0,0,0,0,0,0,0,0,0,0,0,0,0,0,0,
0,0,0,0,0,0,0,0,0,0,0,0,0,0,0,0,0,0,0,0,0,0,0,0,0,0,0,0,0,0,0,0,0,0,0,0,0,0,
0,0,0,0,0,0,0,0,0,0,0,0,0,0,0,0,0,0,0,0,0,0,0,0,0,0,0,0,0,0,0,0,0,0,0,0,0,0,
0,0,0,0,0,0,0,0,0,0,0,0,0,0,0,0,0,0,0,0,0,0,0,0,0,0,0,0,0,0,0,0,0,0,0,0,0,0,
0,0,0,0,0,0,0,0,0,0,0,0,0,0,0,0,0,0,0,0,0,0,0,0,0,0,0,0,0,0,0,0,0,0,0,0,0,0,
0,0,0,0,0,0,0,0,0,0,0,0,0,0,0,0,0,0,0,0,0,0,0,0,0,0,0,0,0,0,0,0,0,0,0,0,0,0,
0,0,0,0,0,0,0,0,0,0,0,0,0,0,0,0,0,0,0,0,0,0,0,0,0,0,0,0,0,0,0,0,0,0,0,0,0,0,
0,0,0,0,0,0,0,0,0,0,0,0,0,0,0,0,0,0,0,0,0,0,0,0,0,0,0,0,0,0,0,0,0,0,0,0,0,0,
0,0,0,0,0,0,0,0,0,0,0,0,0,0,0,0,0,0,0,0,0,0,0,0,0,0,0,0,0,0,0,0,0,0,0,0,0,0,
0,0,0,0,0,0,0,0,0,0,0,0,0,0,0,0,0,0,0,0,0,0,0,0,0,0,0,0,0,0,0,0,0,0,0,0,0,0,
0,0,0,0,0,0,0,0,0,0,0,0,0,0,0,0,0,0,0,0,0,0,0,0,0,0,0,0,0,0,0,0,0,0,0,0,0,0,
0,0,0,0,0,0,0,0,0,0,0,0,0,0,0,0,0,0,0,0,0,0,0,0,0,0,0,0,0,0,0,0,0,0,0,0,0,0,
0,0,0,0,0,0,0,0,0,0,0,0,0,0,0,0,0,0,0,0,0,0,0,0,0,0,0,0,0,0,0,0,0,0,0,0,0,0,
0,0,0,0,0,0,0,0,0,0,0,0,0,0,0,0,0,0,0,0,0,0,0,0,0,0,0,0,0,0,0,0,0,0,0,0,0,0,
0,0,0,0,0,0,0,0,0,0,0,0,0,0,0,0,0,0,0,0,0,0,0,0,0,0,0,0,0,0,0,0,0,0,0,0,0,0,
0,0,0,0,0,0,0,0,0,0,0,0,0,0,0,0,0,0,0,0,0,0,0,0,0,0,0,0,0,0,0,0,0,0,0,0,0,0,
0,0,0,0,0,0,0,0,0,0,0,0,0,0,0,0,0,0,0,0,0,0,0,0,0,0,0,0,0,0,0,0,0,0,0,0,0,0,
0,0,0,0,0,0,0,0,0,0,0,0,0,0,0,0,0,0,0,0,0,0,0,0,0,0,0,0,0,0,0,0,0,0,0,0,0,0,
0,0,0,0,0,0,0,0,0,0,0,0,0,0,0,0,0,0,0,0,0,0,0,0,0,0,0,0,0,0,0,0,0,0,0,0,0,0,
0,0,0,0,0,0,0,0,0,0,0,0,0,0,0,0,0,0,0,0,0,0,0,0,0,0,0,0,0,0,0,0,0,0,0,0,0,0,
0,0,0,0,0,0,0,0,0,0,0,0,0,0,0,0,0,0,0,0,0,0,0,0,0,0,0,0,0,0,0,0,0,0,0,0,0,0,
0,0,0,0,0,0,0,0,0,0,0,0,0,0,0,0,0,0,0,0,0,0,0,0,0,0,0,0,0,0,0,0,0,0,0,0,0,0,
0,0,0,0,0,0,0,0,0,0,0,0,0,0,0,0,0,0,0,0,0,0,0,0,0,0,0,0,0,0,0,0,0,0,0,0,0,0,
0,0,0,0,0,0,0,0,0,0,0,0,0,0,0,0,0,0,0,0,0,0,0,0,0,0,0,0,0,0,0,0,0,0,0,0,0,0,
0,0,0,0,0,0,0,0,0,0,0,0,0,0,0,0,0,0,0,0,0,0,0,0,0,0,0,0,0,0,0,0,0,0,0,0,0,0,
0,0,0,0,0,0,0,0,0,0,0,0,0,0,0,0,0,0,0,0,0,0,0,0,0,0,0,0,0,0,0,0,0,0,0,0,0,0,
0,0,0,0,0,0,0,0,0,0,0,0,0,0,0,0,0,0,0,0,0,0,0,0,0,0,0,0,0,0,0,0,0,0,0,0,0,0,
0,0,0,0,0,0,0,0,0,0,0,0,0,0,0,0,0,0,0,0,0,0,0,0,0,0,0,0,0,0,0,0,0,0,0,0,0,0
</data>
 </layer>
 <objectgroup draworder="index" id="17" name="Lighting" visible="0">
  <object id="19" template="../../../templates/system/lighting/lights/obj_light_small.tx" type="obj_light_small" x="26" y="176"/>
  <object id="20" template="../../../templates/system/lighting/lights/obj_light_small.tx" type="obj_light_small" x="148" y="216"/>
 </objectgroup>
 <objectgroup draworder="index" id="18" name="Meta">
  <object id="21" template="../../../templates/obj_roomtransition.tx" type="obj_roomtransition" x="40" y="200" width="16" height="24">
   <properties>
    <property name="destination_id" propertytype="LocationId" value="manor_house_entry"/>
    <property name="player_direction" type="int" value="180"/>
   </properties>
  </object>
 </objectgroup>
 <objectgroup draworder="index" id="19" name="TrellisPoints">
  <object id="22" template="../../../templates/meta/obj_trellis_point_transition.tx" name="Manor House Main Room Door" type="obj_trellis_point_transition" x="60" y="205">
   <properties>
    <property name="direction" type="int" propertytype="Cardinal" value="2"/>
   </properties>
  </object>
  <object id="23" template="../../../templates/meta/obj_trellis_point_seat.tx" name="Desk Chair Seat" type="obj_trellis_point_seat" x="220" y="209">
   <properties>
    <property name="direction" type="int" propertytype="Cardinal" value="2"/>
   </properties>
  </object>
  <object id="24" template="../../../templates/meta/obj_trellis_point_default.tx" name="Left Cabinet" type="obj_trellis_point_default" x="156" y="137">
   <properties>
    <property name="direction" type="int" propertytype="Cardinal" value="1"/>
   </properties>
  </object>
  <object id="25" template="../../../templates/meta/obj_trellis_point_default.tx" name="Right Cabinet" type="obj_trellis_point_default" x="212" y="137">
   <properties>
    <property name="direction" type="int" propertytype="Cardinal" value="1"/>
   </properties>
  </object>
  <object id="26" template="../../../templates/meta/obj_trellis_point_default.tx" name="South Table" type="obj_trellis_point_default" x="120" y="261"/>
  <object id="27" template="../../../templates/meta/obj_trellis_point_default.tx" name="Front of Desk" type="obj_trellis_point_default" x="160" y="233">
   <properties>
    <property name="direction" type="int" propertytype="Cardinal" value="0"/>
   </properties>
  </object>
  <object id="28" template="../../../templates/meta/obj_trellis_point_default.tx" name="Pacing Left" type="obj_trellis_point_default" x="100" y="205"/>
  <object id="29" template="../../../templates/meta/obj_trellis_point_default.tx" name="Pacing Right" type="obj_trellis_point_default" x="144" y="205"/>
  <object id="30" template="../../../templates/meta/obj_trellis_point_default.tx" name="routine_entrance" type="obj_trellis_point_default" x="72" y="205"/>
  <object id="31" template="../../../templates/meta/obj_trellis_point_default.tx" name="office_chat_1" type="obj_trellis_point_default" x="120" y="197"/>
  <object id="32" template="../../../templates/meta/obj_trellis_point_default.tx" name="office_chat_2" type="obj_trellis_point_default" x="108" y="217">
   <properties>
    <property name="direction" type="int" propertytype="Cardinal" value="0"/>
   </properties>
  </object>
  <object id="33" template="../../../templates/meta/obj_trellis_point_default.tx" name="office_chat_3" type="obj_trellis_point_default" x="132" y="217">
   <properties>
    <property name="direction" type="int" propertytype="Cardinal" value="2"/>
   </properties>
  </object>
  <object id="34" template="../../../templates/meta/obj_trellis_point_default.tx" name="office_chat_4" type="obj_trellis_point_default" x="120" y="229">
   <properties>
    <property name="direction" type="int" propertytype="Cardinal" value="1"/>
   </properties>
  </object>
  <object id="35" template="../../../templates/meta/obj_trellis_point_default.tx" name="viewing_0_a" type="obj_trellis_point_default" x="156" y="197">
   <properties>
    <property name="direction" type="int" propertytype="Cardinal" value="0"/>
   </properties>
  </object>
  <object id="36" template="../../../templates/meta/obj_trellis_point_default.tx" name="viewing_0_b" type="obj_trellis_point_default" x="156" y="217">
   <properties>
    <property name="direction" type="int" propertytype="Cardinal" value="0"/>
   </properties>
  </object>
  <object id="37" template="../../../templates/meta/obj_trellis_point_default.tx" name="viewing_1_b" type="obj_trellis_point_default" x="132" y="261"/>
  <object id="38" template="../../../templates/meta/obj_trellis_point_default.tx" name="viewing_1_a" type="obj_trellis_point_default" x="112" y="261"/>
  <object id="39" template="../../../templates/meta/obj_trellis_point_default.tx" name="viewing_2_b" type="obj_trellis_point_default" x="164" y="145">
   <properties>
    <property name="direction" type="int" propertytype="Cardinal" value="1"/>
   </properties>
  </object>
  <object id="40" template="../../../templates/meta/obj_trellis_point_default.tx" name="viewing_2_a" type="obj_trellis_point_default" x="144" y="145">
   <properties>
    <property name="direction" type="int" propertytype="Cardinal" value="1"/>
   </properties>
  </object>
  <object id="41" template="../../../templates/meta/obj_trellis_point_default.tx" name="viewing_3_a" type="obj_trellis_point_default" x="80" y="133">
   <properties>
    <property name="direction" type="int" propertytype="Cardinal" value="1"/>
   </properties>
  </object>
  <object id="42" template="../../../templates/meta/obj_trellis_point_default.tx" name="viewing_3_b" type="obj_trellis_point_default" x="100" y="133">
   <properties>
    <property name="direction" type="int" propertytype="Cardinal" value="1"/>
   </properties>
  </object>
 </objectgroup>
 <objectgroup draworder="index" id="20" name="TrellisPoints_Dragon_Tablet_Pt_3" visible="0">
  <object id="43" template="../../../templates/meta/obj_trellis_point_default.tx" name="dt3_juniper_eo_entrance" type="obj_trellis_point_default" x="40" y="205"/>
  <object id="44" template="../../../templates/meta/obj_trellis_point_default.tx" name="dt3_ari_eo_entrance" type="obj_trellis_point_default" x="30" y="205"/>
  <object id="45" template="../../../templates/meta/obj_trellis_point_default.tx" name="dt3_juniper_eo_start" type="obj_trellis_point_default" x="110" y="197"/>
  <object id="46" template="../../../templates/meta/obj_trellis_point_default.tx" name="dt3_ari_eo_start" type="obj_trellis_point_default" x="110" y="215"/>
  <object id="47" template="../../../templates/meta/obj_trellis_point_default.tx" name="dt3_juniper_eo_forward" type="obj_trellis_point_default" x="140" y="197"/>
  <object id="48" template="../../../templates/meta/obj_trellis_point_default.tx" name="dt3_ari_eo_forward" type="obj_trellis_point_default" x="140" y="215"/>
  <object id="49" template="../../../templates/meta/obj_trellis_point_default.tx" name="dt3_eiland_chat" type="obj_trellis_point_default" x="124" y="173"/>
  <object id="50" template="../../../templates/meta/obj_trellis_point_default.tx" name="dt3_ari_eo_chat" type="obj_trellis_point_default" x="110" y="203"/>
  <object id="51" template="../../../templates/meta/obj_trellis_point_default.tx" name="dt3_juniper_eo_chat" type="obj_trellis_point_default" x="140" y="203"/>
  <object id="52" template="../../../templates/meta/obj_trellis_point_default.tx" name="dt3_eiland_entrance" type="obj_trellis_point_default" x="220" y="215"/>
  <object id="53" template="../../../templates/meta/obj_trellis_point_default.tx" name="dt3_eiland_start" type="obj_trellis_point_default" x="160" y="207"/>
  <object id="54" template="../../../templates/meta/obj_trellis_point_default.tx" name="dt3_eiland_pace_right" type="obj_trellis_point_default" x="144" y="173"/>
  <object id="55" template="../../../templates/meta/obj_trellis_point_default.tx" name="dt3_eiland_pace_left" type="obj_trellis_point_default" x="104" y="173"/>
  <object id="56" template="../../../templates/meta/obj_trellis_point_default.tx" name="dt3_eiland_chat_forward_1" type="obj_trellis_point_default" x="124" y="177"/>
  <object id="57" template="../../../templates/meta/obj_trellis_point_default.tx" name="dt3_eiland_chat_forward_2" type="obj_trellis_point_default" x="124" y="187"/>
  <object id="58" template="../../../templates/meta/obj_trellis_point_default.tx" name="dt3_juniper_eo_exit" type="obj_trellis_point_default" x="34" y="205"/>
  <object id="59" template="../../../templates/meta/obj_trellis_point_default.tx" name="dt3_eiland_exit" type="obj_trellis_point_default" x="40" y="205"/>
  <object id="60" template="../../../templates/meta/obj_trellis_point_camera.tx" name="dt3_camera_4" type="obj_trellis_point_camera" x="22" y="205"/>
  <object id="61" template="../../../templates/meta/obj_trellis_point_camera.tx" name="dt3_camera_5" type="obj_trellis_point_camera" x="134" y="203"/>
  <object id="62" template="../../../templates/meta/obj_trellis_point_camera.tx" name="dt3_camera_6" type="obj_trellis_point_camera" x="154" y="203"/>
  <object id="63" template="../../../templates/meta/obj_trellis_point_camera.tx" name="dt3_camera_7" type="obj_trellis_point_camera" x="188" y="203"/>
  <object id="64" template="../../../templates/meta/obj_trellis_point_camera.tx" name="dt3_camera_8" type="obj_trellis_point_camera" x="124" y="189"/>
  <object id="65" template="../../../templates/meta/obj_trellis_point_camera.tx" name="dt3_camera_9" type="obj_trellis_point_camera" x="124" y="165"/>
  <object id="66" template="../../../templates/meta/obj_trellis_point_seat.tx" name="dt3_eiland_sit" type="obj_trellis_point_seat" x="220" y="209"/>
  <object id="67" template="../../../templates/meta/obj_trellis_point_default.tx" name="dt3_eiland_desk_stand" type="obj_trellis_point_default" x="220" y="197"/>
  <object id="68" template="../../../templates/meta/obj_trellis_point_default.tx" name="dt3_eiland_pace_right_short" type="obj_trellis_point_default" x="140" y="173"/>
  <object id="69" template="../../../templates/meta/obj_trellis_point_camera.tx" name="dt3_camera_eo_bump" type="obj_trellis_point_camera" x="142" y="165"/>
  <object id="70" template="../../../templates/meta/obj_trellis_point_camera.tx" name="dt3_camera_eiland_think" type="obj_trellis_point_camera" x="210" y="203"/>
  <object id="71" template="../../../templates/meta/obj_trellis_point_default.tx" name="dt3_juniper_eo_hop" type="obj_trellis_point_default" x="136" y="203"/>
  <object id="72" template="../../../templates/meta/obj_trellis_point_default.tx" name="dt3_ari_eo_hop" type="obj_trellis_point_default" x="136" y="215"/>
 </objectgroup>
 <objectgroup draworder="index" id="21" name="TrellisPoints_Translating_the_Water_Tablet" visible="0">
  <object id="73" template="../../../templates/meta/obj_trellis_point_default.tx" name="twt_eiland_entrance" type="obj_trellis_point_default" x="220" y="229">
   <properties>
    <property name="direction" type="int" propertytype="Cardinal" value="2"/>
   </properties>
  </object>
  <object id="74" template="../../../templates/meta/obj_trellis_point_default.tx" name="twt_ari_entrance" type="obj_trellis_point_default" x="158" y="229">
   <properties>
    <property name="direction" type="int" propertytype="Cardinal" value="0"/>
   </properties>
  </object>
  <object id="75" template="../../../templates/meta/obj_trellis_point_default.tx" name="twt_eiland_start" type="obj_trellis_point_default" x="132" y="229"/>
  <object id="76" template="../../../templates/meta/obj_trellis_point_camera.tx" name="twt_camera_1" type="obj_trellis_point_camera" x="186" y="229"/>
  <object id="77" template="../../../templates/meta/obj_trellis_point_camera.tx" name="twt_camera_1_extra" type="obj_trellis_point_camera" x="144" y="229"/>
  <object id="78" template="../../../templates/meta/obj_trellis_point_prop.tx" name="twt_water_tablet" type="obj_trellis_point_prop" x="199" y="216">
   <properties>
    <property name="prop_name" value="water_tablet"/>
   </properties>
  </object>
  <object id="79" template="../../../templates/meta/obj_trellis_point_default.tx" name="twt_eiland_thought" type="obj_trellis_point_default" x="114" y="229"/>
 </objectgroup>
</map>
