<?xml version="1.0" encoding="UTF-8"?>
<map version="1.10" tiledversion="1.11.2" orientation="orthogonal" renderorder="right-down" width="34" height="46" tilewidth="8" tileheight="8" infinite="0" backgroundcolor="#000000" nextlayerid="23" nextobjectid="71">
 <tileset firstgid="1" source="../../../__gm_import.tsx"/>
 <tileset firstgid="1505" source="../../../tile_sets/__META/tile_collision_info.tsx"/>
 <tileset firstgid="1512" source="../../../tile_sets/tile_footsteps.tsx"/>
 <tileset firstgid="1656" source="../../../tile_sets/_GENERIC/tile_main_interiors.tsx"/>
 <tileset firstgid="5752" source="../../../tile_sets/_GENERIC/tile_main_interiors_shadows.tsx"/>
 <tileset firstgid="6008" source="../../../tile_sets/__META/tile_pathfinding.tsx"/>
 <tileset firstgid="6014" source="../../../tile_sets/__META/tile_rules.tsx"/>
 <group id="1" name="Level_0">
  <layer id="2" name="Level_0_Floor" width="34" height="46">
   <properties>
    <property name="maybe_animation_id" value="75ea443e6634d96"/>
    <property name="maybe_tileset_id" value="d8b504e9a8480fbe"/>
    <property name="tile_size" type="int" value="16"/>
   </properties>
   <data encoding="csv">
1656,0,1656,0,1656,0,1656,0,1656,0,1656,0,1656,0,1656,0,1656,0,1656,0,1656,0,1656,0,1656,0,1656,0,1656,0,1656,0,1656,0,
0,0,0,0,0,0,0,0,0,0,0,0,0,0,0,0,0,0,0,0,0,0,0,0,0,0,0,0,0,0,0,0,0,0,
1656,0,1656,0,1656,0,1656,0,1656,0,1656,0,1656,0,1656,0,1656,0,1656,0,1656,0,1656,0,1656,0,1656,0,1656,0,1656,0,1656,0,
0,0,0,0,0,0,0,0,0,0,0,0,0,0,0,0,0,0,0,0,0,0,0,0,0,0,0,0,0,0,0,0,0,0,
1656,0,1656,0,1656,0,1656,0,1656,0,1656,0,1656,0,1656,0,1656,0,1656,0,1656,0,1656,0,1656,0,1656,0,1656,0,1656,0,1656,0,
0,0,0,0,0,0,0,0,0,0,0,0,0,0,0,0,0,0,0,0,0,0,0,0,0,0,0,0,0,0,0,0,0,0,
1656,0,1656,0,1656,0,1656,0,1656,0,1656,0,1656,0,1656,0,1656,0,1656,0,1656,0,1656,0,1656,0,1656,0,1656,0,1656,0,1656,0,
0,0,0,0,0,0,0,0,0,0,0,0,0,0,0,0,0,0,0,0,0,0,0,0,0,0,0,0,0,0,0,0,0,0,
1656,0,1656,0,1656,0,1656,0,1656,0,1656,0,1656,0,1656,0,1656,0,1656,0,1656,0,1656,0,1656,0,1656,0,1656,0,1656,0,1656,0,
0,0,0,0,0,0,0,0,0,0,0,0,0,0,0,0,0,0,0,0,0,0,0,0,0,0,0,0,0,0,0,0,0,0,
1656,0,1656,0,1656,0,1656,0,1656,0,1656,0,1656,0,1656,0,1656,0,1656,0,1656,0,1656,0,1656,0,1656,0,1656,0,1656,0,1656,0,
0,0,0,0,0,0,0,0,0,0,0,0,0,0,0,0,0,0,0,0,0,0,0,0,0,0,0,0,0,0,0,0,0,0,
1656,0,1656,0,1656,0,1656,0,1656,0,1656,0,1656,0,1656,0,1656,0,1656,0,1656,0,1656,0,1656,0,1656,0,1656,0,1656,0,1656,0,
0,0,0,0,0,0,0,0,0,0,0,0,0,0,0,0,0,0,0,0,0,0,0,0,0,0,0,0,0,0,0,0,0,0,
1656,0,1656,0,1656,0,1656,0,1656,0,1656,0,1656,0,1656,0,1656,0,1656,0,1656,0,1656,0,1656,0,1656,0,1656,0,1656,0,1656,0,
0,0,0,0,0,0,0,0,0,0,0,0,0,0,0,0,0,0,0,0,0,0,0,0,0,0,0,0,0,0,0,0,0,0,
1656,0,1656,0,4111,0,4108,0,4109,0,4110,0,4111,0,4108,0,4109,0,4110,0,4111,0,4108,0,4109,0,4110,0,4111,0,1656,0,1656,0,
0,0,0,0,0,0,0,0,0,0,0,0,0,0,0,0,0,0,0,0,0,0,0,0,0,0,0,0,0,0,0,0,0,0,
1656,0,1656,0,4047,0,4044,0,4045,0,4046,0,4047,0,4044,0,4045,0,4046,0,4047,0,4044,0,4045,0,4046,0,4047,0,1656,0,1656,0,
0,0,0,0,0,0,0,0,0,0,0,0,0,0,0,0,0,0,0,0,0,0,0,0,0,0,0,0,0,0,0,0,0,0,
1656,0,1656,0,4111,0,4108,0,4109,0,4110,0,4111,0,4108,0,4109,0,4110,0,4111,0,4108,0,4109,0,4110,0,4111,0,1656,0,1656,0,
0,0,0,0,0,0,0,0,0,0,0,0,0,0,0,0,0,0,0,0,0,0,0,0,0,0,0,0,0,0,0,0,0,0,
1656,0,1656,0,4047,0,4044,0,4045,0,4046,0,4047,0,4044,0,4045,0,4046,0,4047,0,4044,0,4045,0,4046,0,4047,0,1656,0,1656,0,
0,0,0,0,0,0,0,0,0,0,0,0,0,0,0,0,0,0,0,0,0,0,0,0,0,0,0,0,0,0,0,0,0,0,
1656,0,1656,0,4111,0,4108,0,4109,0,4110,0,4111,0,4108,0,4109,0,4110,0,4111,0,4108,0,4109,0,4110,0,4111,0,1656,0,1656,0,
0,0,0,0,0,0,0,0,0,0,0,0,0,0,0,0,0,0,0,0,0,0,0,0,0,0,0,0,0,0,0,0,0,0,
1656,0,1656,0,4047,0,4044,0,4045,0,4046,0,4047,0,4044,0,4045,0,4046,0,4047,0,4044,0,4045,0,4046,0,4047,0,1656,0,1656,0,
0,0,0,0,0,0,0,0,0,0,0,0,0,0,0,0,0,0,0,0,0,0,0,0,0,0,0,0,0,0,0,0,0,0,
1656,0,1656,0,4111,0,4108,0,4109,0,4110,0,4111,0,4108,0,4109,0,4110,0,4111,0,4108,0,4109,0,4110,0,4111,0,1656,0,1656,0,
0,0,0,0,0,0,0,0,0,0,0,0,0,0,0,0,0,0,0,0,0,0,0,0,0,0,0,0,0,0,0,0,0,0,
1656,0,1656,0,4047,0,4044,0,4045,0,4046,0,4047,0,4044,0,4045,0,4046,0,4047,0,4044,0,4045,0,4046,0,4047,0,1656,0,1656,0,
0,0,0,0,0,0,0,0,0,0,0,0,0,0,0,0,0,0,0,0,0,0,0,0,0,0,0,0,0,0,0,0,0,0,
1656,0,1656,0,4111,0,4108,0,4109,0,4110,0,4111,0,4108,0,4109,0,4110,0,4111,0,4108,0,4109,0,4110,0,4111,0,1656,0,1656,0,
0,0,0,0,0,0,0,0,0,0,0,0,0,0,0,0,0,0,0,0,0,0,0,0,0,0,0,0,0,0,0,0,0,0,
1656,0,1656,0,4047,0,4044,0,4045,0,4046,0,4047,0,4044,0,4045,0,4046,0,4047,0,4044,0,4045,0,4046,0,4047,0,1656,0,1656,0,
0,0,0,0,0,0,0,0,0,0,0,0,0,0,0,0,0,0,0,0,0,0,0,0,0,0,0,0,0,0,0,0,0,0,
1656,0,1656,0,4111,0,4108,0,4109,0,4110,0,4111,0,4108,0,4109,0,4110,0,4111,0,4108,0,4109,0,4110,0,4111,0,1656,0,1656,0,
0,0,0,0,0,0,0,0,0,0,0,0,0,0,0,0,0,0,0,0,0,0,0,0,0,0,0,0,0,0,0,0,0,0,
1656,0,1656,0,4047,0,4044,0,4045,0,4046,0,4047,0,4044,0,4045,0,4046,0,4047,0,4044,0,4045,0,4046,0,4047,0,1656,0,1656,0,
0,0,0,0,0,0,0,0,0,0,0,0,0,0,0,0,0,0,0,0,0,0,0,0,0,0,0,0,0,0,0,0,0,0,
1656,0,1656,0,4111,0,4108,0,4109,0,4110,0,4111,0,4108,0,4109,0,4110,0,4111,0,4108,0,4109,0,4110,0,4111,0,1656,0,1656,0,
0,0,0,0,0,0,0,0,0,0,0,0,0,0,0,0,0,0,0,0,0,0,0,0,0,0,0,0,0,0,0,0,0,0,
1656,0,1656,0,1656,0,1656,0,1656,0,1656,0,1656,0,1656,0,1656,0,1656,0,1656,0,1656,0,1656,0,1656,0,1656,0,1656,0,1656,0,
0,0,0,0,0,0,0,0,0,0,0,0,0,0,0,0,0,0,0,0,0,0,0,0,0,0,0,0,0,0,0,0,0,0,
1656,0,1656,0,1656,0,1656,0,1656,0,1656,0,1656,0,1656,0,1656,0,1656,0,1656,0,1656,0,1656,0,1656,0,1656,0,1656,0,1656,0,
0,0,0,0,0,0,0,0,0,0,0,0,0,0,0,0,0,0,0,0,0,0,0,0,0,0,0,0,0,0,0,0,0,0
</data>
  </layer>
  <objectgroup draworder="index" id="3" name="Level_0_FloorSprites">
   <object id="1" type="asset" gid="437" x="74" y="290" width="124" height="126"/>
   <object id="2" type="asset" gid="1472" x="116" y="310" width="40" height="15"/>
  </objectgroup>
  <layer id="4" name="Level_0_Shadows" width="34" height="46">
   <properties>
    <property name="maybe_animation_id" value="babd09ade2b55c05"/>
    <property name="maybe_tileset_id" value="339411f6ba88c8f0"/>
    <property name="tile_size" type="int" value="16"/>
   </properties>
   <data encoding="csv">
0,0,0,0,0,0,0,0,0,0,0,0,0,0,0,0,0,0,0,0,0,0,0,0,0,0,0,0,0,0,0,0,0,0,
0,0,0,0,0,0,0,0,0,0,0,0,0,0,0,0,0,0,0,0,0,0,0,0,0,0,0,0,0,0,0,0,0,0,
0,0,0,0,0,0,0,0,0,0,0,0,0,0,0,0,0,0,0,0,0,0,0,0,0,0,0,0,0,0,0,0,0,0,
0,0,0,0,0,0,0,0,0,0,0,0,0,0,0,0,0,0,0,0,0,0,0,0,0,0,0,0,0,0,0,0,0,0,
0,0,0,0,0,0,0,0,0,0,0,0,0,0,0,0,0,0,0,0,0,0,0,0,0,0,0,0,0,0,0,0,0,0,
0,0,0,0,0,0,0,0,0,0,0,0,0,0,0,0,0,0,0,0,0,0,0,0,0,0,0,0,0,0,0,0,0,0,
0,0,0,0,0,0,0,0,0,0,0,0,0,0,0,0,0,0,0,0,0,0,0,0,0,0,0,0,0,0,0,0,0,0,
0,0,0,0,0,0,0,0,0,0,0,0,0,0,0,0,0,0,0,0,0,0,0,0,0,0,0,0,0,0,0,0,0,0,
0,0,0,0,0,0,0,0,0,0,0,0,0,0,0,0,0,0,0,0,0,0,0,0,0,0,0,0,0,0,0,0,0,0,
0,0,0,0,0,0,0,0,0,0,0,0,0,0,0,0,0,0,0,0,0,0,0,0,0,0,0,0,0,0,0,0,0,0,
0,0,0,0,0,0,0,0,0,0,0,0,0,0,0,0,0,0,0,0,0,0,0,0,0,0,0,0,0,0,0,0,0,0,
0,0,0,0,0,0,0,0,0,0,0,0,0,0,0,0,0,0,0,0,0,0,0,0,0,0,0,0,0,0,0,0,0,0,
0,0,0,0,5752,0,5752,0,5752,0,5752,0,5752,0,5752,0,5752,0,5752,0,5752,0,5752,0,5752,0,5752,0,5752,0,5752,0,5752,0,
0,0,0,0,0,0,0,0,0,0,0,0,0,0,0,0,0,0,0,0,0,0,0,0,0,0,0,0,0,0,0,0,0,0,
0,0,5752,0,5752,0,5752,0,5752,0,5752,0,5752,0,5752,0,5752,0,5752,0,5752,0,5752,0,5752,0,5752,0,5752,0,5752,0,5752,0,
0,0,0,0,0,0,0,0,0,0,0,0,0,0,0,0,0,0,0,0,0,0,0,0,0,0,0,0,0,0,0,0,0,0,
0,0,0,0,5753,0,5753,0,5780,0,5754,0,5754,0,5754,0,5754,0,5754,0,5754,0,5754,0,5754,0,5754,0,5754,0,5752,0,5752,0,
0,0,0,0,0,0,0,0,0,0,0,0,0,0,0,0,0,0,0,0,0,0,0,0,0,0,0,0,0,0,0,0,0,0,
0,0,0,0,5753,0,5753,0,0,0,0,0,0,0,0,0,0,0,0,0,0,0,0,0,0,0,0,0,0,0,0,0,0,0,
0,0,0,0,0,0,0,0,0,0,0,0,0,0,0,0,0,0,0,0,0,0,0,0,0,0,0,0,0,0,0,0,0,0,
0,0,0,0,5753,0,5753,0,0,0,0,0,0,0,0,0,0,0,0,0,0,0,0,0,0,0,0,0,0,0,0,0,0,0,
0,0,0,0,0,0,0,0,0,0,0,0,0,0,0,0,0,0,0,0,0,0,0,0,0,0,0,0,0,0,0,0,0,0,
0,0,0,0,5753,0,5753,0,0,0,0,0,0,0,0,0,0,0,0,0,0,0,0,0,0,0,0,0,0,0,0,0,0,0,
0,0,0,0,0,0,0,0,0,0,0,0,0,0,0,0,0,0,0,0,0,0,0,0,0,0,0,0,0,0,0,0,0,0,
0,0,0,0,5753,0,5753,0,0,0,0,0,0,0,0,0,0,0,0,0,0,0,0,0,0,0,0,0,0,0,0,0,0,0,
0,0,0,0,0,0,0,0,0,0,0,0,0,0,0,0,0,0,0,0,0,0,0,0,0,0,0,0,0,0,0,0,0,0,
0,0,0,0,5753,0,5753,0,0,0,0,0,0,0,0,0,0,0,0,0,0,0,0,0,0,0,0,0,0,0,0,0,0,0,
0,0,0,0,0,0,0,0,0,0,0,0,0,0,0,0,0,0,0,0,0,0,0,0,0,0,0,0,0,0,0,0,0,0,
0,0,0,0,5753,0,5753,0,0,0,0,0,0,0,0,0,0,0,0,0,0,0,0,0,0,0,0,0,0,0,0,0,0,0,
0,0,0,0,0,0,0,0,0,0,0,0,0,0,0,0,0,0,0,0,0,0,0,0,0,0,0,0,0,0,0,0,0,0,
0,0,0,0,5753,0,5753,0,0,0,0,0,0,0,0,0,0,0,0,0,0,0,0,0,0,0,0,0,0,0,0,0,0,0,
0,0,0,0,0,0,0,0,0,0,0,0,0,0,0,0,0,0,0,0,0,0,0,0,0,0,0,0,0,0,0,0,0,0,
0,0,0,0,5753,0,5753,0,0,0,0,0,0,0,0,0,0,0,0,0,0,0,0,0,0,0,0,0,0,0,0,0,0,0,
0,0,0,0,0,0,0,0,0,0,0,0,0,0,0,0,0,0,0,0,0,0,0,0,0,0,0,0,0,0,0,0,0,0,
0,0,0,0,5753,0,5753,0,0,0,0,0,0,0,0,0,0,0,0,0,0,0,0,0,0,0,0,0,0,0,0,0,0,0,
0,0,0,0,0,0,0,0,0,0,0,0,0,0,0,0,0,0,0,0,0,0,0,0,0,0,0,0,0,0,0,0,0,0,
0,0,0,0,5753,0,5753,0,0,0,0,0,0,0,0,0,0,0,0,0,0,0,0,0,0,0,0,0,0,0,0,0,0,0,
0,0,0,0,0,0,0,0,0,0,0,0,0,0,0,0,0,0,0,0,0,0,0,0,0,0,0,0,0,0,0,0,0,0,
0,0,0,0,5753,0,5753,0,0,0,0,0,0,0,0,0,0,0,0,0,0,0,0,0,0,0,0,0,0,0,0,0,0,0,
0,0,0,0,0,0,0,0,0,0,0,0,0,0,0,0,0,0,0,0,0,0,0,0,0,0,0,0,0,0,0,0,0,0,
0,0,0,0,5753,0,5753,0,0,0,0,0,0,0,0,0,0,0,0,0,0,0,0,0,0,0,0,0,0,0,0,0,0,0,
0,0,0,0,0,0,0,0,0,0,0,0,0,0,0,0,0,0,0,0,0,0,0,0,0,0,0,0,0,0,0,0,0,0,
0,0,0,0,0,0,0,0,0,0,0,0,0,0,0,0,0,0,0,0,0,0,0,0,0,0,0,0,0,0,0,0,0,0,
0,0,0,0,0,0,0,0,0,0,0,0,0,0,0,0,0,0,0,0,0,0,0,0,0,0,0,0,0,0,0,0,0,0,
0,0,0,0,0,0,0,0,0,0,0,0,0,0,0,0,0,0,0,0,0,0,0,0,0,0,0,0,0,0,0,0,0,0,
0,0,0,0,0,0,0,0,0,0,0,0,0,0,0,0,0,0,0,0,0,0,0,0,0,0,0,0,0,0,0,0,0,0
</data>
  </layer>
  <layer id="5" name="Level_0_Walls" width="34" height="46">
   <properties>
    <property name="maybe_animation_id" value="75ea443e6634d96"/>
    <property name="maybe_tileset_id" value="d8b504e9a8480fbe"/>
    <property name="tile_size" type="int" value="16"/>
   </properties>
   <data encoding="csv">
1656,0,1656,0,1656,0,1656,0,1656,0,1656,0,1656,0,1656,0,1656,0,1656,0,1656,0,1656,0,1656,0,1656,0,1656,0,1656,0,1656,0,
0,0,0,0,0,0,0,0,0,0,0,0,0,0,0,0,0,0,0,0,0,0,0,0,0,0,0,0,0,0,0,0,0,0,
1656,0,1656,0,1656,0,1656,0,1656,0,1656,0,1656,0,1656,0,1656,0,1656,0,1656,0,1656,0,1656,0,1656,0,1656,0,1656,0,1656,0,
0,0,0,0,0,0,0,0,0,0,0,0,0,0,0,0,0,0,0,0,0,0,0,0,0,0,0,0,0,0,0,0,0,0,
1656,0,1656,0,1656,0,1656,0,1656,0,1656,0,1656,0,1656,0,1656,0,1656,0,1656,0,1656,0,1656,0,1656,0,1656,0,1656,0,1656,0,
0,0,0,0,0,0,0,0,0,0,0,0,0,0,0,0,0,0,0,0,0,0,0,0,0,0,0,0,0,0,0,0,0,0,
1656,0,1656,0,4560,0,4560,0,4560,0,4560,0,4560,0,4560,0,4560,0,4560,0,4560,0,4560,0,4560,0,4560,0,4560,0,1656,0,1656,0,
0,0,0,0,0,0,0,0,0,0,0,0,0,0,0,0,0,0,0,0,0,0,0,0,0,0,0,0,0,0,0,0,0,0,
1656,0,1656,0,4615,0,4615,0,4615,0,4615,0,4615,0,4615,0,4615,0,4615,0,4615,0,4615,0,4615,0,4615,0,4615,0,1656,0,1656,0,
0,0,0,0,0,0,0,0,0,0,0,0,0,0,0,0,0,0,0,0,0,0,0,0,0,0,0,0,0,0,0,0,0,0,
1656,0,1656,0,4679,0,4679,0,4679,0,4679,0,4679,0,4679,0,4679,0,4679,0,4679,0,4679,0,4679,0,4679,0,4679,0,1656,0,1656,0,
0,0,0,0,0,0,0,0,0,0,0,0,0,0,0,0,0,0,0,0,0,0,0,0,0,0,0,0,0,0,0,0,0,0,
1656,0,1656,0,4679,0,4692,0,4693,0,4694,0,4679,0,4679,0,4679,0,4679,0,4679,0,4679,0,4679,0,4679,0,4679,0,1656,0,1656,0,
0,0,0,0,0,0,0,0,0,0,0,0,0,0,0,0,0,0,0,0,0,0,0,0,0,0,0,0,0,0,0,0,0,0,
1656,0,1656,0,4744,0,4756,0,4757,0,4758,0,4743,0,4744,0,4743,0,4744,0,4743,0,4744,0,4743,0,4744,0,4744,0,1656,0,1656,0,
0,0,0,0,0,0,0,0,0,0,0,0,0,0,0,0,0,0,0,0,0,0,0,0,0,0,0,0,0,0,0,0,0,0,
1656,0,1656,0,4808,0,4820,0,4821,0,4822,0,4807,0,4808,0,4807,0,4808,0,4807,0,4808,0,4807,0,4808,0,4808,0,1656,0,1656,0,
0,0,0,0,0,0,0,0,0,0,0,0,0,0,0,0,0,0,0,0,0,0,0,0,0,0,0,0,0,0,0,0,0,0,
1656,0,1656,0,1656,0,1656,0,1656,0,1656,0,1656,0,1656,0,1656,0,1656,0,1656,0,1656,0,1656,0,1656,0,1656,0,1656,0,1656,0,
0,0,0,0,0,0,0,0,0,0,0,0,0,0,0,0,0,0,0,0,0,0,0,0,0,0,0,0,0,0,0,0,0,0,
1656,0,1656,0,1656,0,1656,0,1656,0,1656,0,1656,0,1656,0,1656,0,1656,0,1656,0,1656,0,1656,0,1656,0,1656,0,1656,0,1656,0,
0,0,0,0,0,0,0,0,0,0,0,0,0,0,0,0,0,0,0,0,0,0,0,0,0,0,0,0,0,0,0,0,0,0,
1656,0,1656,0,1656,0,1656,0,1656,0,1656,0,1656,0,1656,0,1656,0,1656,0,1656,0,1656,0,1656,0,1656,0,1656,0,1656,0,1656,0,
0,0,0,0,0,0,0,0,0,0,0,0,0,0,0,0,0,0,0,0,0,0,0,0,0,0,0,0,0,0,0,0,0,0,
1656,0,1656,0,1656,0,1656,0,1656,0,1656,0,1656,0,1656,0,1656,0,1656,0,1656,0,1656,0,1656,0,1656,0,1656,0,1656,0,1656,0,
0,0,0,0,0,0,0,0,0,0,0,0,0,0,0,0,0,0,0,0,0,0,0,0,0,0,0,0,0,0,0,0,0,0,
1656,0,1656,0,1656,0,1656,0,1656,0,1656,0,1656,0,1656,0,1656,0,1656,0,1656,0,1656,0,1656,0,1656,0,1656,0,1656,0,1656,0,
0,0,0,0,0,0,0,0,0,0,0,0,0,0,0,0,0,0,0,0,0,0,0,0,0,0,0,0,0,0,0,0,0,0,
1656,0,1656,0,1656,0,1656,0,1656,0,1656,0,1656,0,1656,0,1656,0,1656,0,1656,0,1656,0,1656,0,1656,0,1656,0,1656,0,1656,0,
0,0,0,0,0,0,0,0,0,0,0,0,0,0,0,0,0,0,0,0,0,0,0,0,0,0,0,0,0,0,0,0,0,0,
1656,0,1656,0,1656,0,1656,0,1656,0,1656,0,1656,0,1656,0,1656,0,1656,0,1656,0,1656,0,1656,0,1656,0,1656,0,1656,0,1656,0,
0,0,0,0,0,0,0,0,0,0,0,0,0,0,0,0,0,0,0,0,0,0,0,0,0,0,0,0,0,0,0,0,0,0,
1656,0,1656,0,1656,0,1656,0,1656,0,1656,0,1656,0,1656,0,1656,0,1656,0,1656,0,1656,0,1656,0,1656,0,1656,0,1656,0,1656,0,
0,0,0,0,0,0,0,0,0,0,0,0,0,0,0,0,0,0,0,0,0,0,0,0,0,0,0,0,0,0,0,0,0,0,
1656,0,1656,0,1656,0,1656,0,1656,0,1656,0,1656,0,1656,0,1656,0,1656,0,1656,0,1656,0,1656,0,1656,0,1656,0,1656,0,1656,0,
0,0,0,0,0,0,0,0,0,0,0,0,0,0,0,0,0,0,0,0,0,0,0,0,0,0,0,0,0,0,0,0,0,0,
1656,0,1656,0,1656,0,1656,0,1656,0,1656,0,1656,0,1656,0,1656,0,1656,0,1656,0,1656,0,1656,0,1656,0,1656,0,1656,0,1656,0,
0,0,0,0,0,0,0,0,0,0,0,0,0,0,0,0,0,0,0,0,0,0,0,0,0,0,0,0,0,0,0,0,0,0,
1656,0,1656,0,1656,0,1656,0,1656,0,1656,0,1656,0,1656,0,1656,0,1656,0,1656,0,1656,0,1656,0,1656,0,1656,0,1656,0,1656,0,
0,0,0,0,0,0,0,0,0,0,0,0,0,0,0,0,0,0,0,0,0,0,0,0,0,0,0,0,0,0,0,0,0,0,
1656,0,1656,0,1656,0,1656,0,1656,0,1656,0,1656,0,1656,0,1656,0,1656,0,1656,0,1656,0,1656,0,1656,0,1656,0,1656,0,1656,0,
0,0,0,0,0,0,0,0,0,0,0,0,0,0,0,0,0,0,0,0,0,0,0,0,0,0,0,0,0,0,0,0,0,0,
1656,0,1656,0,1656,0,1656,0,1656,0,1656,0,1656,0,1656,0,1656,0,1656,0,1656,0,1656,0,1656,0,1656,0,1656,0,1656,0,1656,0,
0,0,0,0,0,0,0,0,0,0,0,0,0,0,0,0,0,0,0,0,0,0,0,0,0,0,0,0,0,0,0,0,0,0,
1656,0,1656,0,1656,0,1656,0,1656,0,1656,0,1656,0,1656,0,1656,0,1656,0,1656,0,1656,0,1656,0,1656,0,1656,0,1656,0,1656,0,
0,0,0,0,0,0,0,0,0,0,0,0,0,0,0,0,0,0,0,0,0,0,0,0,0,0,0,0,0,0,0,0,0,0
</data>
  </layer>
  <objectgroup draworder="index" id="6" name="Level_0_Windows"/>
  <objectgroup draworder="index" id="7" name="Level_0_Assets">
   <object id="3" type="asset" gid="315" x="44" y="322" width="32" height="40"/>
   <object id="4" type="asset" gid="832" x="196" y="322" width="32" height="40"/>
   <object id="5" type="asset" gid="1027" x="104" y="280" width="64" height="120"/>
   <object id="6" type="asset" gid="28" x="96" y="160" width="80" height="96"/>
   <object id="7" type="asset" gid="1170" x="168" y="145" width="32" height="48"/>
   <object id="8" type="asset" gid="1200" x="192" y="160" width="40" height="64"/>
   <object id="9" type="asset" gid="39" x="120" y="192" width="32" height="32"/>
   <object id="10" type="asset" gid="29" x="120" y="258" width="32" height="32"/>
   <object id="11" type="asset" gid="998" x="48" y="98" width="48" height="24"/>
   <object id="12" type="asset" gid="615" x="176" y="98" width="48" height="24"/>
   <object id="13" type="asset" gid="1324" x="84" y="200" width="32" height="40"/>
   <object id="14" type="asset" gid="1324" x="84" y="224" width="32" height="40"/>
   <object id="15" type="asset" gid="1324" x="84" y="248" width="32" height="40"/>
   <object id="16" type="asset" gid="1324" x="84" y="272" width="32" height="40"/>
   <object id="17" type="asset" gid="731" x="164" y="200" width="32" height="40"/>
   <object id="18" type="asset" gid="731" x="164" y="224" width="32" height="40"/>
   <object id="19" type="asset" gid="731" x="164" y="248" width="32" height="40"/>
   <object id="20" type="asset" gid="731" x="164" y="272" width="32" height="40"/>
   <object id="21" type="asset" gid="1009" x="112" y="112" width="48" height="40">
    <properties>
     <property name="depth_offset" type="int" value="-25"/>
    </properties>
   </object>
   <object id="22" type="asset" gid="356" x="60" y="136" width="24" height="24"/>
  </objectgroup>
 </group>
 <objectgroup draworder="index" id="8" name="Instances"/>
 <group id="9" name="Level_1">
  <layer id="10" name="Level_1_BlackArea" width="34" height="46">
   <properties>
    <property name="maybe_animation_id" value="75ea443e6634d96"/>
    <property name="maybe_tileset_id" value="d8b504e9a8480fbe"/>
    <property name="tile_size" type="int" value="16"/>
   </properties>
   <data encoding="csv">
3600,0,3600,0,3600,0,3600,0,3600,0,3600,0,3600,0,3600,0,3600,0,3600,0,3600,0,3600,0,3600,0,3600,0,3600,0,3600,0,3600,0,
0,0,0,0,0,0,0,0,0,0,0,0,0,0,0,0,0,0,0,0,0,0,0,0,0,0,0,0,0,0,0,0,0,0,
3600,0,3600,0,3600,0,3600,0,3600,0,3600,0,3600,0,1656,0,1656,0,1656,0,3600,0,3600,0,3600,0,3600,0,3600,0,3600,0,3600,0,
0,0,0,0,0,0,0,0,0,0,0,0,0,0,0,0,0,0,0,0,0,0,0,0,0,0,0,0,0,0,0,0,0,0,
3600,0,1656,0,1656,0,1656,0,1656,0,1656,0,1656,0,1656,0,1656,0,1656,0,1656,0,1656,0,1656,0,1656,0,1656,0,1656,0,3600,0,
0,0,0,0,0,0,0,0,0,0,0,0,0,0,0,0,0,0,0,0,0,0,0,0,0,0,0,0,0,0,0,0,0,0,
3600,0,1656,0,1656,0,1656,0,1656,0,1656,0,1656,0,1656,0,1656,0,1656,0,1656,0,1656,0,1656,0,1656,0,1656,0,1656,0,3600,0,
0,0,0,0,0,0,0,0,0,0,0,0,0,0,0,0,0,0,0,0,0,0,0,0,0,0,0,0,0,0,0,0,0,0,
3600,0,1656,0,1656,0,1656,0,1656,0,1656,0,1656,0,1656,0,1656,0,1656,0,1656,0,1656,0,1656,0,1656,0,1656,0,1656,0,3600,0,
0,0,0,0,0,0,0,0,0,0,0,0,0,0,0,0,0,0,0,0,0,0,0,0,0,0,0,0,0,0,0,0,0,0,
3600,0,1656,0,1656,0,1656,0,1656,0,1656,0,1656,0,1656,0,1656,0,1656,0,1656,0,1656,0,1656,0,1656,0,1656,0,1656,0,3600,0,
0,0,0,0,0,0,0,0,0,0,0,0,0,0,0,0,0,0,0,0,0,0,0,0,0,0,0,0,0,0,0,0,0,0,
3600,0,1656,0,1656,0,1656,0,1656,0,1656,0,1656,0,1656,0,1656,0,1656,0,1656,0,1656,0,1656,0,1656,0,1656,0,1656,0,3600,0,
0,0,0,0,0,0,0,0,0,0,0,0,0,0,0,0,0,0,0,0,0,0,0,0,0,0,0,0,0,0,0,0,0,0,
3600,0,1656,0,1656,0,1656,0,1656,0,1656,0,1656,0,1656,0,1656,0,1656,0,1656,0,1656,0,1656,0,1656,0,1656,0,1656,0,3600,0,
0,0,0,0,0,0,0,0,0,0,0,0,0,0,0,0,0,0,0,0,0,0,0,0,0,0,0,0,0,0,0,0,0,0,
3600,0,1656,0,1656,0,1656,0,1656,0,1656,0,1656,0,1656,0,1656,0,1656,0,1656,0,1656,0,1656,0,1656,0,1656,0,1656,0,3600,0,
0,0,0,0,0,0,0,0,0,0,0,0,0,0,0,0,0,0,0,0,0,0,0,0,0,0,0,0,0,0,0,0,0,0,
3600,0,1656,0,1656,0,1656,0,1656,0,1656,0,1656,0,1656,0,1656,0,1656,0,1656,0,1656,0,1656,0,1656,0,1656,0,1656,0,3600,0,
0,0,0,0,0,0,0,0,0,0,0,0,0,0,0,0,0,0,0,0,0,0,0,0,0,0,0,0,0,0,0,0,0,0,
3600,0,1656,0,1656,0,1656,0,1656,0,1656,0,1656,0,1656,0,1656,0,1656,0,1656,0,1656,0,1656,0,1656,0,1656,0,1656,0,3600,0,
0,0,0,0,0,0,0,0,0,0,0,0,0,0,0,0,0,0,0,0,0,0,0,0,0,0,0,0,0,0,0,0,0,0,
3600,0,1656,0,1656,0,1656,0,1656,0,1656,0,1656,0,1656,0,1656,0,1656,0,1656,0,1656,0,1656,0,1656,0,1656,0,1656,0,3600,0,
0,0,0,0,0,0,0,0,0,0,0,0,0,0,0,0,0,0,0,0,0,0,0,0,0,0,0,0,0,0,0,0,0,0,
3600,0,1656,0,1656,0,1656,0,1656,0,1656,0,1656,0,1656,0,1656,0,1656,0,1656,0,1656,0,1656,0,1656,0,1656,0,1656,0,3600,0,
0,0,0,0,0,0,0,0,0,0,0,0,0,0,0,0,0,0,0,0,0,0,0,0,0,0,0,0,0,0,0,0,0,0,
3600,0,1656,0,1656,0,1656,0,1656,0,1656,0,1656,0,1656,0,1656,0,1656,0,1656,0,1656,0,1656,0,1656,0,1656,0,1656,0,3600,0,
0,0,0,0,0,0,0,0,0,0,0,0,0,0,0,0,0,0,0,0,0,0,0,0,0,0,0,0,0,0,0,0,0,0,
3600,0,1656,0,1656,0,1656,0,1656,0,1656,0,1656,0,1656,0,1656,0,1656,0,1656,0,1656,0,1656,0,1656,0,1656,0,1656,0,3600,0,
0,0,0,0,0,0,0,0,0,0,0,0,0,0,0,0,0,0,0,0,0,0,0,0,0,0,0,0,0,0,0,0,0,0,
3600,0,1656,0,1656,0,1656,0,1656,0,1656,0,1656,0,1656,0,1656,0,1656,0,1656,0,1656,0,1656,0,1656,0,1656,0,1656,0,3600,0,
0,0,0,0,0,0,0,0,0,0,0,0,0,0,0,0,0,0,0,0,0,0,0,0,0,0,0,0,0,0,0,0,0,0,
3600,0,1656,0,1656,0,1656,0,1656,0,1656,0,1656,0,1656,0,1656,0,1656,0,1656,0,1656,0,1656,0,1656,0,1656,0,1656,0,3600,0,
0,0,0,0,0,0,0,0,0,0,0,0,0,0,0,0,0,0,0,0,0,0,0,0,0,0,0,0,0,0,0,0,0,0,
3600,0,1656,0,1656,0,1656,0,1656,0,1656,0,1656,0,1656,0,1656,0,1656,0,1656,0,1656,0,1656,0,1656,0,1656,0,1656,0,3600,0,
0,0,0,0,0,0,0,0,0,0,0,0,0,0,0,0,0,0,0,0,0,0,0,0,0,0,0,0,0,0,0,0,0,0,
3600,0,1656,0,1656,0,1656,0,1656,0,1656,0,1656,0,1656,0,1656,0,1656,0,1656,0,1656,0,1656,0,1656,0,1656,0,1656,0,3600,0,
0,0,0,0,0,0,0,0,0,0,0,0,0,0,0,0,0,0,0,0,0,0,0,0,0,0,0,0,0,0,0,0,0,0,
3600,0,1656,0,1656,0,1656,0,1656,0,1656,0,1656,0,1656,0,1656,0,1656,0,1656,0,1656,0,1656,0,1656,0,1656,0,1656,0,3600,0,
0,0,0,0,0,0,0,0,0,0,0,0,0,0,0,0,0,0,0,0,0,0,0,0,0,0,0,0,0,0,0,0,0,0,
3600,0,1656,0,1656,0,1656,0,1656,0,1656,0,1656,0,1656,0,1656,0,1656,0,1656,0,1656,0,1656,0,1656,0,1656,0,1656,0,3600,0,
0,0,0,0,0,0,0,0,0,0,0,0,0,0,0,0,0,0,0,0,0,0,0,0,0,0,0,0,0,0,0,0,0,0,
3600,0,1656,0,1656,0,1656,0,1656,0,1656,0,1656,0,1656,0,1656,0,1656,0,1656,0,1656,0,1656,0,1656,0,1656,0,1656,0,3600,0,
0,0,0,0,0,0,0,0,0,0,0,0,0,0,0,0,0,0,0,0,0,0,0,0,0,0,0,0,0,0,0,0,0,0,
3600,0,3600,0,3600,0,3600,0,3600,0,3600,0,3600,0,3600,0,3600,0,3600,0,3600,0,3600,0,3600,0,3600,0,3600,0,3600,0,3600,0,
0,0,0,0,0,0,0,0,0,0,0,0,0,0,0,0,0,0,0,0,0,0,0,0,0,0,0,0,0,0,0,0,0,0
</data>
  </layer>
  <layer id="11" name="Level_1_Ceiling" width="34" height="46">
   <properties>
    <property name="maybe_animation_id" value="75ea443e6634d96"/>
    <property name="maybe_tileset_id" value="d8b504e9a8480fbe"/>
    <property name="tile_size" type="int" value="16"/>
   </properties>
   <data encoding="csv">
1656,0,1656,0,1656,0,1656,0,1656,0,1656,0,1656,0,1656,0,1656,0,1656,0,1656,0,1656,0,1656,0,1656,0,1656,0,1656,0,1656,0,
0,0,0,0,0,0,0,0,0,0,0,0,0,0,0,0,0,0,0,0,0,0,0,0,0,0,0,0,0,0,0,0,0,0,
1656,0,1656,0,1656,0,1656,0,1656,0,1656,0,1656,0,3480,0,3481,0,3482,0,1656,0,1656,0,1656,0,1656,0,1656,0,1656,0,1656,0,
0,0,0,0,0,0,0,0,0,0,0,0,0,0,0,0,0,0,0,0,0,0,0,0,0,0,0,0,0,0,0,0,0,0,
1656,0,3470,0,3471,0,3472,0,3472,0,3472,0,3543,0,3544,0,3545,0,3546,0,3547,0,3472,0,3472,0,3472,0,3473,0,3474,0,1656,0,
0,0,0,0,0,0,0,0,0,0,0,0,0,0,0,0,0,0,0,0,0,0,0,0,0,0,0,0,0,0,0,0,0,0,
1656,0,3534,0,3535,0,3536,0,3475,0,3536,0,3607,0,3608,0,3609,0,3610,0,3611,0,3536,0,3475,0,3536,0,3537,0,3538,0,1656,0,
0,0,0,0,0,0,0,0,0,0,0,0,0,0,0,0,0,0,0,0,0,0,0,0,0,0,0,0,0,0,0,0,0,0,
1656,0,3598,0,3599,0,1656,0,1656,0,1656,0,3671,0,3672,0,3673,0,3674,0,3675,0,1656,0,1656,0,1656,0,3601,0,3602,0,1656,0,
0,0,0,0,0,0,0,0,0,0,0,0,0,0,0,0,0,0,0,0,0,0,0,0,0,0,0,0,0,0,0,0,0,0,
1656,0,3598,0,3477,0,1656,0,1656,0,1656,0,1656,0,1656,0,1656,0,1656,0,1656,0,1656,0,1656,0,1656,0,3478,0,3602,0,1656,0,
0,0,0,0,0,0,0,0,0,0,0,0,0,0,0,0,0,0,0,0,0,0,0,0,0,0,0,0,0,0,0,0,0,0,
1656,0,3598,0,3599,0,1656,0,1656,0,1656,0,1656,0,1656,0,1656,0,1656,0,1656,0,1656,0,1656,0,1656,0,3601,0,3602,0,1656,0,
0,0,0,0,0,0,0,0,0,0,0,0,0,0,0,0,0,0,0,0,0,0,0,0,0,0,0,0,0,0,0,0,0,0,
1656,0,3598,0,3599,0,1656,0,1656,0,1656,0,1656,0,1656,0,1656,0,1656,0,1656,0,1656,0,1656,0,1656,0,3601,0,3602,0,1656,0,
0,0,0,0,0,0,0,0,0,0,0,0,0,0,0,0,0,0,0,0,0,0,0,0,0,0,0,0,0,0,0,0,0,0,
1656,0,3598,0,3477,0,1656,0,1656,0,1656,0,1656,0,1656,0,1656,0,1656,0,1656,0,1656,0,1656,0,1656,0,3478,0,3602,0,1656,0,
0,0,0,0,0,0,0,0,0,0,0,0,0,0,0,0,0,0,0,0,0,0,0,0,0,0,0,0,0,0,0,0,0,0,
1656,0,3598,0,3599,0,1656,0,1656,0,1656,0,1656,0,1656,0,1656,0,1656,0,1656,0,1656,0,1656,0,1656,0,3601,0,3602,0,1656,0,
0,0,0,0,0,0,0,0,0,0,0,0,0,0,0,0,0,0,0,0,0,0,0,0,0,0,0,0,0,0,0,0,0,0,
1656,0,3598,0,3599,0,1656,0,1656,0,1656,0,1656,0,1656,0,1656,0,1656,0,1656,0,1656,0,1656,0,1656,0,3601,0,3602,0,1656,0,
0,0,0,0,0,0,0,0,0,0,0,0,0,0,0,0,0,0,0,0,0,0,0,0,0,0,0,0,0,0,0,0,0,0,
1656,0,3598,0,3477,0,1656,0,1656,0,1656,0,1656,0,1656,0,1656,0,1656,0,1656,0,1656,0,1656,0,1656,0,3478,0,3602,0,1656,0,
0,0,0,0,0,0,0,0,0,0,0,0,0,0,0,0,0,0,0,0,0,0,0,0,0,0,0,0,0,0,0,0,0,0,
1656,0,3598,0,3599,0,1656,0,1656,0,1656,0,1656,0,1656,0,1656,0,1656,0,1656,0,1656,0,1656,0,1656,0,3601,0,3602,0,1656,0,
0,0,0,0,0,0,0,0,0,0,0,0,0,0,0,0,0,0,0,0,0,0,0,0,0,0,0,0,0,0,0,0,0,0,
1656,0,3598,0,3599,0,1656,0,1656,0,1656,0,1656,0,1656,0,1656,0,1656,0,1656,0,1656,0,1656,0,1656,0,3601,0,3602,0,1656,0,
0,0,0,0,0,0,0,0,0,0,0,0,0,0,0,0,0,0,0,0,0,0,0,0,0,0,0,0,0,0,0,0,0,0,
1656,0,3598,0,3477,0,1656,0,1656,0,1656,0,1656,0,1656,0,1656,0,1656,0,1656,0,1656,0,1656,0,1656,0,3478,0,3602,0,1656,0,
0,0,0,0,0,0,0,0,0,0,0,0,0,0,0,0,0,0,0,0,0,0,0,0,0,0,0,0,0,0,0,0,0,0,
1656,0,3598,0,3599,0,1656,0,1656,0,1656,0,1656,0,1656,0,1656,0,1656,0,1656,0,1656,0,1656,0,1656,0,3601,0,3602,0,1656,0,
0,0,0,0,0,0,0,0,0,0,0,0,0,0,0,0,0,0,0,0,0,0,0,0,0,0,0,0,0,0,0,0,0,0,
1656,0,3598,0,3599,0,1656,0,1656,0,1656,0,1656,0,1656,0,1656,0,1656,0,1656,0,1656,0,1656,0,1656,0,3601,0,3602,0,1656,0,
0,0,0,0,0,0,0,0,0,0,0,0,0,0,0,0,0,0,0,0,0,0,0,0,0,0,0,0,0,0,0,0,0,0,
1656,0,3598,0,3477,0,1656,0,1656,0,1656,0,1656,0,1656,0,1656,0,1656,0,1656,0,1656,0,1656,0,1656,0,3478,0,3602,0,1656,0,
0,0,0,0,0,0,0,0,0,0,0,0,0,0,0,0,0,0,0,0,0,0,0,0,0,0,0,0,0,0,0,0,0,0,
1656,0,3598,0,3599,0,1656,0,1656,0,1656,0,1656,0,1656,0,1656,0,1656,0,1656,0,1656,0,1656,0,1656,0,3601,0,3602,0,1656,0,
0,0,0,0,0,0,0,0,0,0,0,0,0,0,0,0,0,0,0,0,0,0,0,0,0,0,0,0,0,0,0,0,0,0,
1656,0,3598,0,3599,0,1656,0,1656,0,1656,0,1656,0,3790,0,3791,0,3792,0,1656,0,1656,0,1656,0,1656,0,3601,0,3602,0,1656,0,
0,0,0,0,0,0,0,0,0,0,0,0,0,0,0,0,0,0,0,0,0,0,0,0,0,0,0,0,0,0,0,0,0,0,
1656,0,3662,0,3663,0,3664,0,3476,0,3664,0,3664,0,3854,0,3855,0,3856,0,3664,0,3664,0,3476,0,3664,0,3665,0,3666,0,1656,0,
0,0,0,0,0,0,0,0,0,0,0,0,0,0,0,0,0,0,0,0,0,0,0,0,0,0,0,0,0,0,0,0,0,0,
1656,0,3726,0,3727,0,3728,0,3728,0,3728,0,3728,0,3918,0,3919,0,3920,0,3728,0,3728,0,3728,0,3728,0,3729,0,3730,0,1656,0,
0,0,0,0,0,0,0,0,0,0,0,0,0,0,0,0,0,0,0,0,0,0,0,0,0,0,0,0,0,0,0,0,0,0,
1656,0,1656,0,1656,0,1656,0,1656,0,1656,0,1656,0,3982,0,3983,0,3984,0,1656,0,1656,0,1656,0,1656,0,1656,0,1656,0,1656,0,
0,0,0,0,0,0,0,0,0,0,0,0,0,0,0,0,0,0,0,0,0,0,0,0,0,0,0,0,0,0,0,0,0,0
</data>
  </layer>
 </group>
 <objectgroup draworder="index" id="12" name="Lighting" visible="0">
  <object id="23" template="../../../templates/system/lighting/lights/obj_light_med.tx" type="obj_light_med" x="88" y="179"/>
 </objectgroup>
 <layer id="13" name="FootstepTiles" width="34" height="46" visible="0">
  <properties>
   <property name="maybe_animation_id" value="9b6388374855b54b"/>
   <property name="maybe_tileset_id" value="5fc72aa2902dea7"/>
   <property name="tile_size" type="int" value="16"/>
  </properties>
  <data encoding="csv">
0,0,0,0,0,0,0,0,0,0,0,0,0,0,0,0,0,0,0,0,0,0,0,0,0,0,0,0,0,0,0,0,0,0,
0,0,0,0,0,0,0,0,0,0,0,0,0,0,0,0,0,0,0,0,0,0,0,0,0,0,0,0,0,0,0,0,0,0,
0,0,0,0,0,0,0,0,0,0,0,0,0,0,0,0,0,0,0,0,0,0,0,0,0,0,0,0,0,0,0,0,0,0,
0,0,0,0,0,0,0,0,0,0,0,0,0,0,0,0,0,0,0,0,0,0,0,0,0,0,0,0,0,0,0,0,0,0,
0,0,0,0,0,0,0,0,0,0,0,0,0,0,0,0,0,0,0,0,0,0,0,0,0,0,0,0,0,0,0,0,0,0,
0,0,0,0,0,0,0,0,0,0,0,0,0,0,0,0,0,0,0,0,0,0,0,0,0,0,0,0,0,0,0,0,0,0,
0,0,0,0,0,0,0,0,0,0,0,0,0,0,0,0,0,0,0,0,0,0,0,0,0,0,0,0,0,0,0,0,0,0,
0,0,0,0,0,0,0,0,0,0,0,0,0,0,0,0,0,0,0,0,0,0,0,0,0,0,0,0,0,0,0,0,0,0,
0,0,0,0,0,0,0,0,0,0,0,0,0,0,0,0,0,0,0,0,0,0,0,0,0,0,0,0,0,0,0,0,0,0,
0,0,0,0,0,0,0,0,0,0,0,0,0,0,0,0,0,0,0,0,0,0,0,0,0,0,0,0,0,0,0,0,0,0,
0,0,0,0,0,0,0,0,0,0,0,0,0,0,0,0,0,0,0,0,0,0,0,0,0,0,0,0,0,0,0,0,0,0,
0,0,0,0,0,0,0,0,0,0,0,0,0,0,0,0,0,0,0,0,0,0,0,0,0,0,0,0,0,0,0,0,0,0,
0,0,0,0,0,0,0,0,0,0,0,0,0,0,0,0,0,0,0,0,0,0,0,0,0,0,0,0,0,0,0,0,0,0,
0,0,0,0,0,0,0,0,0,0,0,0,0,0,0,0,0,0,0,0,0,0,0,0,0,0,0,0,0,0,0,0,0,0,
0,0,0,0,0,0,0,0,0,0,0,0,0,0,0,0,0,0,0,0,0,0,0,0,0,0,0,0,0,0,0,0,0,0,
0,0,0,0,0,0,0,0,0,0,0,0,0,0,0,0,0,0,0,0,0,0,0,0,0,0,0,0,0,0,0,0,0,0,
0,0,0,0,1513,0,1513,0,1513,0,1513,0,1513,0,1513,0,1513,0,1513,0,1513,0,1513,0,1513,0,1513,0,1513,0,0,0,0,0,
0,0,0,0,0,0,0,0,0,0,0,0,0,0,0,0,0,0,0,0,0,0,0,0,0,0,0,0,0,0,0,0,0,0,
0,0,0,0,1513,0,1513,0,1513,0,1513,0,1513,0,1513,0,1513,0,1513,0,1513,0,1513,0,1513,0,1513,0,1513,0,0,0,0,0,
0,0,0,0,0,0,0,0,0,0,0,0,0,0,0,0,0,0,0,0,0,0,0,0,0,0,0,0,0,0,0,0,0,0,
0,0,0,0,1513,0,1513,0,1513,0,1515,0,1515,0,1515,0,1515,0,1515,0,1515,0,1515,0,1513,0,1513,0,1513,0,0,0,0,0,
0,0,0,0,0,0,0,0,0,0,0,0,0,0,0,0,0,0,0,0,0,0,0,0,0,0,0,0,0,0,0,0,0,0,
0,0,0,0,1513,0,1513,0,1513,0,1515,0,1515,0,1515,0,1515,0,1515,0,1515,0,1515,0,1513,0,1513,0,1513,0,0,0,0,0,
0,0,0,0,0,0,0,0,0,0,0,0,0,0,0,0,0,0,0,0,0,0,0,0,0,0,0,0,0,0,0,0,0,0,
0,0,0,0,1513,0,1513,0,1513,0,1515,0,1515,0,1515,0,1515,0,1515,0,1515,0,1515,0,1513,0,1513,0,1513,0,0,0,0,0,
0,0,0,0,0,0,0,0,0,0,0,0,0,0,0,0,0,0,0,0,0,0,0,0,0,0,0,0,0,0,0,0,0,0,
0,0,0,0,1513,0,1513,0,1513,0,1515,0,1515,0,1515,0,1515,0,1515,0,1515,0,1515,0,1513,0,1513,0,1513,0,0,0,0,0,
0,0,0,0,0,0,0,0,0,0,0,0,0,0,0,0,0,0,0,0,0,0,0,0,0,0,0,0,0,0,0,0,0,0,
0,0,0,0,1513,0,1513,0,1513,0,1515,0,1515,0,1515,0,1515,0,1515,0,1515,0,1515,0,1513,0,1513,0,1513,0,0,0,0,0,
0,0,0,0,0,0,0,0,0,0,0,0,0,0,0,0,0,0,0,0,0,0,0,0,0,0,0,0,0,0,0,0,0,0,
0,0,0,0,1513,0,1513,0,1513,0,1515,0,1515,0,1515,0,1515,0,1515,0,1515,0,1515,0,1513,0,1513,0,1513,0,0,0,0,0,
0,0,0,0,0,0,0,0,0,0,0,0,0,0,0,0,0,0,0,0,0,0,0,0,0,0,0,0,0,0,0,0,0,0,
0,0,0,0,1513,0,1513,0,1513,0,1515,0,1515,0,1515,0,1515,0,1515,0,1515,0,1515,0,1513,0,1513,0,1513,0,0,0,0,0,
0,0,0,0,0,0,0,0,0,0,0,0,0,0,0,0,0,0,0,0,0,0,0,0,0,0,0,0,0,0,0,0,0,0,
0,0,0,0,1513,0,1513,0,1513,0,1515,0,1515,0,1515,0,1515,0,1515,0,1515,0,1515,0,1513,0,1513,0,1513,0,0,0,0,0,
0,0,0,0,0,0,0,0,0,0,0,0,0,0,0,0,0,0,0,0,0,0,0,0,0,0,0,0,0,0,0,0,0,0,
0,0,0,0,1513,0,1513,0,1513,0,1513,0,1513,0,1515,0,1515,0,1515,0,1513,0,1513,0,1513,0,1513,0,1513,0,0,0,0,0,
0,0,0,0,0,0,0,0,0,0,0,0,0,0,0,0,0,0,0,0,0,0,0,0,0,0,0,0,0,0,0,0,0,0,
0,0,0,0,1513,0,1513,0,1513,0,1513,0,1513,0,1515,0,1515,0,1515,0,1513,0,1513,0,1513,0,1513,0,1513,0,0,0,0,0,
0,0,0,0,0,0,0,0,0,0,0,0,0,0,0,0,0,0,0,0,0,0,0,0,0,0,0,0,0,0,0,0,0,0,
0,0,0,0,1513,0,1513,0,1513,0,1513,0,1513,0,1513,0,1513,0,1513,0,1513,0,1513,0,1513,0,1513,0,1513,0,0,0,0,0,
0,0,0,0,0,0,0,0,0,0,0,0,0,0,0,0,0,0,0,0,0,0,0,0,0,0,0,0,0,0,0,0,0,0,
0,0,0,0,1513,0,1513,0,1513,0,1513,0,1513,0,1513,0,1513,0,1513,0,1513,0,1513,0,1513,0,1513,0,1513,0,0,0,0,0,
0,0,0,0,0,0,0,0,0,0,0,0,0,0,0,0,0,0,0,0,0,0,0,0,0,0,0,0,0,0,0,0,0,0,
0,0,0,0,1513,0,1513,0,1513,0,1513,0,1513,0,1513,0,1513,0,1513,0,1513,0,1513,0,1513,0,1513,0,1513,0,0,0,0,0,
0,0,0,0,0,0,0,0,0,0,0,0,0,0,0,0,0,0,0,0,0,0,0,0,0,0,0,0,0,0,0,0,0,0
</data>
 </layer>
 <layer id="14" name="Tiles_Collision" width="34" height="46">
  <properties>
   <property name="maybe_animation_id" value="d5b5e9552171fe70"/>
   <property name="maybe_tileset_id" value="b29026a2ad0be741"/>
   <property name="tile_size" type="int" value="8"/>
  </properties>
  <data encoding="csv">
1508,1508,1508,1508,1508,1508,1508,1508,1508,1508,1508,1508,1508,1508,1508,1508,1508,1508,1508,1508,1508,1508,1508,1508,1508,1508,1508,1508,1508,1508,1508,1508,1508,1508,
1508,1508,1508,1508,1508,1508,1508,1508,1508,1508,1508,1508,1508,1508,1508,1508,1508,1508,1508,1508,1508,1508,1508,1508,1508,1508,1508,1508,1508,1508,1508,1508,1508,1508,
1508,1508,1508,1508,1508,1508,1508,1508,1508,1508,1508,1508,1508,1508,1508,1508,1508,1508,1508,1508,1508,1508,1508,1508,1508,1508,1508,1508,1508,1508,1508,1508,1508,1508,
1508,1508,1508,1508,1508,1508,1508,1508,1508,1508,1508,1508,1508,1508,1508,1508,1508,1508,1508,1508,1508,1508,1508,1508,1508,1508,1508,1508,1508,1508,1508,1508,1508,1508,
1508,1508,1508,1508,1508,1508,1508,1508,1508,1508,1508,1508,1508,1508,1508,1508,1508,1508,1508,1508,1508,1508,1508,1508,1508,1508,1508,1508,1508,1508,1508,1508,1508,1508,
1508,1508,1508,1508,1508,1508,1508,1508,1508,1508,1508,1508,1508,1508,1508,1508,1508,1508,1508,1508,1508,1508,1508,1508,1508,1508,1508,1508,1508,1508,1508,1508,1508,1508,
1508,1508,1508,1508,1508,1508,1508,1508,1508,1508,1508,1508,1508,1508,1508,1508,1508,1508,1508,1508,1508,1508,1508,1508,1508,1508,1508,1508,1508,1508,1508,1508,1508,1508,
1508,1508,1508,1508,1508,1508,1508,1508,1508,1508,1508,1508,1508,1508,1508,1508,1508,1508,1508,1508,1508,1508,1508,1508,1508,1508,1508,1508,1508,1508,1508,1508,1508,1508,
1508,1508,1508,1508,1508,1508,1508,1508,1508,1508,1508,1508,1508,1508,1508,1508,1508,1508,1508,1508,1508,1508,1508,1508,1508,1508,1508,1508,1508,1508,1508,1508,1508,1508,
1508,1508,1508,1508,1508,1508,1508,1508,1508,1508,1508,1508,1508,1508,1508,1508,1508,1508,1508,1508,1508,1508,1508,1508,1508,1508,1508,1508,1508,1508,1508,1508,1508,1508,
1508,1508,1508,1508,1508,1508,1508,1508,1508,1508,1508,1508,1508,1508,1508,1508,1508,1508,1508,1508,1508,1508,1508,1508,1508,1508,1508,1508,1508,1508,1508,1508,1508,1508,
1508,1508,1508,1508,1508,1508,1508,1508,1508,1508,1508,1508,1508,1508,1508,1508,1508,1508,1508,1508,1508,1508,1508,1508,1508,1508,1508,1508,1508,1508,1508,1508,1508,1508,
1508,1508,1508,1508,1508,1508,1508,1508,1508,1508,1508,1508,1508,1508,1508,1508,1508,1508,1508,1508,1508,1508,1508,1508,1508,1508,1508,1508,1508,1508,1508,1508,1508,1508,
1508,1508,1508,1508,1508,1508,1508,1508,1508,1508,1508,1508,1508,1508,1508,1508,1508,1508,1508,1508,1508,1508,1508,1508,1508,1508,1508,1508,1508,1508,1508,1508,1508,1508,
1508,1508,1508,1508,1508,1508,1508,1508,1508,1508,1508,1508,1508,1508,1508,1508,1508,1508,1508,1508,1508,1508,1508,1508,1508,1508,1508,1508,1508,1508,1508,1508,1508,1508,
1508,1508,1508,1508,1508,1508,1508,1508,1508,1508,1508,1508,1508,1508,1508,1508,1508,1508,1508,1508,1508,1508,1508,1508,1508,1508,1508,1508,1508,1508,1508,1508,1508,1508,
1508,1508,1508,1508,1508,1508,1508,1508,1508,1508,1508,1508,1508,1508,1508,1508,1508,1508,1508,1508,1508,1508,1508,1508,1508,1508,1508,1508,1508,1508,1508,1508,1508,1508,
1508,1508,1508,1508,1508,1508,1505,1505,1505,1505,1505,1505,1505,1508,1508,1508,1508,1508,1508,1508,1508,1508,1508,1508,1508,1508,1508,1508,1508,1508,1508,1508,1508,1508,
1508,1508,1508,1508,1508,1508,1505,1505,1505,1505,1505,1505,1505,1508,1508,1508,1508,1508,1508,1508,1508,1505,1505,1505,1508,1508,1508,1508,1508,1508,1508,1508,1508,1508,
1508,1508,1508,1508,1508,1508,1505,1505,1505,1505,1505,1505,1505,1505,1505,1505,1505,1505,1505,1505,1505,1505,1505,1505,1505,1505,1505,1505,1508,1508,1508,1508,1508,1508,
1508,1508,1508,1508,1508,1508,1505,1505,1505,1505,1505,1505,1505,1505,1505,1505,1505,1505,1505,1505,1505,1505,1505,1505,1505,1505,1505,1505,1508,1508,1508,1508,1508,1508,
1508,1508,1508,1508,1508,1508,1505,1505,1505,1505,1505,1505,1505,1505,1505,1505,1505,1505,1505,1505,1505,1505,1505,1505,1505,1505,1505,1505,1508,1508,1508,1508,1508,1508,
1508,1508,1508,1508,1508,1508,1505,1505,1505,1505,1505,1507,1507,1508,1508,1508,1508,1508,1508,1508,1508,1507,1507,1505,1505,1505,1505,1505,1508,1508,1508,1508,1508,1508,
1508,1508,1508,1508,1508,1508,1505,1505,1505,1505,1505,1507,1507,1508,1508,1508,1508,1508,1508,1508,1508,1507,1507,1505,1505,1505,1505,1505,1508,1508,1508,1508,1508,1508,
1508,1508,1508,1508,1508,1508,1505,1505,1505,1505,1505,1507,1507,1508,1508,1508,1508,1508,1508,1508,1508,1507,1507,1505,1505,1505,1505,1505,1508,1508,1508,1508,1508,1508,
1508,1508,1508,1508,1508,1508,1505,1505,1505,1505,1505,1507,1507,1508,1508,1508,1508,1508,1508,1508,1508,1507,1507,1505,1505,1505,1505,1505,1508,1508,1508,1508,1508,1508,
1508,1508,1508,1508,1508,1508,1505,1505,1505,1505,1505,1507,1507,1508,1508,1508,1508,1508,1508,1508,1508,1507,1507,1505,1505,1505,1505,1505,1508,1508,1508,1508,1508,1508,
1508,1508,1508,1508,1508,1508,1505,1505,1505,1505,1505,1507,1507,1508,1508,1508,1508,1508,1508,1508,1508,1507,1507,1505,1505,1505,1505,1505,1508,1508,1508,1508,1508,1508,
1508,1508,1508,1508,1508,1508,1505,1505,1505,1505,1505,1507,1507,1508,1508,1508,1508,1508,1508,1508,1508,1507,1507,1505,1505,1505,1505,1505,1508,1508,1508,1508,1508,1508,
1508,1508,1508,1508,1508,1508,1505,1505,1505,1505,1505,1507,1507,1508,1508,1508,1508,1508,1508,1508,1508,1507,1507,1505,1505,1505,1505,1505,1508,1508,1508,1508,1508,1508,
1508,1508,1508,1508,1508,1508,1505,1505,1505,1505,1505,1507,1507,1508,1508,1508,1508,1508,1508,1508,1508,1507,1507,1505,1505,1505,1505,1505,1508,1508,1508,1508,1508,1508,
1508,1508,1508,1508,1508,1508,1505,1505,1505,1505,1505,1507,1507,1508,1508,1508,1508,1508,1508,1508,1508,1507,1507,1505,1505,1505,1505,1505,1508,1508,1508,1508,1508,1508,
1508,1508,1508,1508,1508,1508,1505,1505,1505,1505,1505,1507,1507,1508,1508,1508,1508,1508,1508,1508,1508,1507,1507,1505,1505,1505,1505,1505,1508,1508,1508,1508,1508,1508,
1508,1508,1508,1508,1508,1508,1505,1505,1505,1505,1505,1505,1505,1508,1508,1508,1508,1508,1508,1508,1508,1505,1505,1505,1505,1505,1505,1505,1508,1508,1508,1508,1508,1508,
1508,1508,1508,1508,1508,1508,1505,1505,1505,1505,1505,1505,1505,1505,1505,1505,1505,1505,1505,1505,1505,1505,1505,1505,1505,1505,1505,1505,1508,1508,1508,1508,1508,1508,
1508,1508,1508,1508,1508,1508,1505,1505,1505,1505,1505,1505,1505,1505,1505,1505,1505,1505,1505,1505,1505,1505,1505,1505,1505,1505,1505,1505,1508,1508,1508,1508,1508,1508,
1508,1508,1508,1508,1508,1508,1505,1505,1505,1505,1505,1505,1505,1505,1505,1505,1505,1505,1505,1505,1505,1505,1505,1505,1505,1505,1505,1505,1508,1508,1508,1508,1508,1508,
1508,1508,1508,1508,1508,1508,1505,1505,1505,1505,1505,1505,1505,1505,1505,1505,1505,1505,1505,1505,1505,1505,1505,1505,1505,1505,1505,1505,1508,1508,1508,1508,1508,1508,
1508,1508,1508,1508,1508,1508,1505,1505,1505,1505,1505,1505,1505,1505,1505,1505,1505,1505,1505,1505,1505,1505,1505,1505,1505,1505,1505,1505,1508,1508,1508,1508,1508,1508,
1508,1508,1508,1508,1508,1508,1507,1507,1507,1505,1505,1505,1505,1505,1505,1505,1505,1505,1505,1505,1505,1505,1505,1505,1505,1507,1507,1507,1508,1508,1508,1508,1508,1508,
1508,1508,1508,1508,1508,1508,1508,1508,1508,1508,1508,1508,1508,1508,1508,1508,1505,1505,1508,1508,1508,1508,1508,1508,1508,1508,1508,1508,1508,1508,1508,1508,1508,1508,
1508,1508,1508,1508,1508,1508,1508,1508,1508,1508,1508,1508,1508,1508,1508,1508,1505,1505,1508,1508,1508,1508,1508,1508,1508,1508,1508,1508,1508,1508,1508,1508,1508,1508,
1508,1508,1508,1508,1508,1508,1508,1508,1508,1508,1508,1508,1508,1508,1508,1508,1505,1505,1508,1508,1508,1508,1508,1508,1508,1508,1508,1508,1508,1508,1508,1508,1508,1508,
1508,1508,1508,1508,1508,1508,1508,1508,1508,1508,1508,1508,1508,1508,1508,1508,1505,1505,1508,1508,1508,1508,1508,1508,1508,1508,1508,1508,1508,1508,1508,1508,1508,1508,
1508,1508,1508,1508,1508,1508,1508,1508,1508,1508,1508,1508,1508,1508,1508,1508,1505,1505,1508,1508,1508,1508,1508,1508,1508,1508,1508,1508,1508,1508,1508,1508,1508,1508,
1508,1508,1508,1508,1508,1508,1508,1508,1508,1508,1508,1508,1508,1508,1508,1508,1505,1505,1508,1508,1508,1508,1508,1508,1508,1508,1508,1508,1508,1508,1508,1508,1508,1508
</data>
 </layer>
 <layer id="15" name="Pathfinding" width="34" height="46" visible="0">
  <properties>
   <property name="maybe_animation_id" value="6d2460f008fb99d4"/>
   <property name="maybe_tileset_id" value="264fe6c9523400a1"/>
   <property name="tile_size" type="int" value="8"/>
  </properties>
  <data encoding="csv">
0,0,0,0,0,0,0,0,0,0,0,0,0,0,0,0,0,0,0,0,0,0,0,0,0,0,0,0,0,0,0,0,0,0,
0,0,0,0,0,0,0,0,0,0,0,0,0,0,0,0,0,0,0,0,0,0,0,0,0,0,0,0,0,0,0,0,0,0,
0,0,0,0,0,0,0,0,0,0,0,0,0,0,0,0,0,0,0,0,0,0,0,0,0,0,0,0,0,0,0,0,0,0,
0,0,0,0,0,0,0,0,0,0,0,0,0,0,0,0,0,0,0,0,0,0,0,0,0,0,0,0,0,0,0,0,0,0,
0,0,0,0,0,0,0,0,0,0,0,0,0,0,0,0,0,0,0,0,0,0,0,0,0,0,0,0,0,0,0,0,0,0,
0,0,0,0,0,0,0,0,0,0,0,0,0,0,0,0,0,0,0,0,0,0,0,0,0,0,0,0,0,0,0,0,0,0,
0,0,0,0,0,0,0,0,0,0,0,0,0,0,0,0,0,0,0,0,0,0,0,0,0,0,0,0,0,0,0,0,0,0,
0,0,0,0,0,0,0,0,0,0,0,0,0,0,0,0,0,0,0,0,0,0,0,0,0,0,0,0,0,0,0,0,0,0,
0,0,0,0,0,0,0,0,0,0,0,0,0,0,0,0,0,0,0,0,0,0,0,0,0,0,0,0,0,0,0,0,0,0,
0,0,0,0,0,0,0,0,0,0,0,0,0,0,0,0,0,0,0,0,0,0,0,0,0,0,0,0,0,0,0,0,0,0,
0,0,0,0,0,0,0,0,0,0,0,0,0,0,0,0,0,0,0,0,0,0,0,0,0,0,0,0,0,0,0,0,0,0,
0,0,0,0,0,0,0,0,0,0,0,0,0,0,0,0,0,0,0,0,0,0,0,0,0,0,0,0,0,0,0,0,0,0,
0,0,0,0,0,0,0,0,0,0,0,0,0,0,0,0,0,0,0,0,0,0,0,0,0,0,0,0,0,0,0,0,0,0,
0,0,0,0,0,0,0,0,0,0,0,0,0,0,0,0,0,0,0,0,0,0,0,0,0,0,0,0,0,0,0,0,0,0,
0,0,0,0,0,0,0,0,0,0,0,0,0,0,0,0,0,0,0,0,0,0,0,0,0,0,0,0,0,0,0,0,0,0,
0,0,0,0,0,0,0,0,0,0,0,0,0,0,0,0,0,0,0,0,0,0,0,0,0,0,0,0,0,0,0,0,0,0,
0,0,0,0,0,0,0,0,0,0,0,0,0,0,0,0,0,0,0,0,0,0,0,0,0,0,0,0,0,0,0,0,0,0,
0,0,0,0,0,0,0,0,0,0,0,0,0,0,0,0,0,0,0,0,0,0,0,0,0,0,0,0,0,0,0,0,0,0,
0,0,0,0,0,0,0,0,0,0,0,0,0,0,0,0,0,0,0,0,0,0,0,0,0,0,0,0,0,0,0,0,0,0,
0,0,0,0,0,0,0,0,0,0,0,0,0,0,0,0,0,0,0,0,0,0,0,0,0,0,0,0,0,0,0,0,0,0,
0,0,0,0,0,0,0,0,0,0,0,0,0,0,0,0,0,0,0,0,0,0,0,0,0,0,0,0,0,0,0,0,0,0,
0,0,0,0,0,0,0,0,0,0,0,0,0,0,0,0,0,0,0,0,0,0,0,0,0,0,0,0,0,0,0,0,0,0,
0,0,0,0,0,0,0,0,0,0,6008,6013,6013,0,0,0,0,0,0,0,0,6013,6013,0,0,0,0,0,0,0,0,0,0,0,
0,0,0,0,0,0,0,0,0,0,6008,6013,6013,0,0,0,0,0,0,0,0,6013,6013,0,0,0,0,0,0,0,0,0,0,0,
0,0,0,0,0,0,0,0,0,0,6008,6013,6013,0,0,0,0,0,0,0,0,6013,6013,0,0,0,0,0,0,0,0,0,0,0,
0,0,0,0,0,0,0,0,0,0,0,6013,6013,0,0,0,0,0,0,0,0,6013,6013,0,0,0,0,0,0,0,0,0,0,0,
0,0,0,0,0,0,0,0,0,0,0,6013,6013,0,0,0,0,0,0,0,0,6013,6013,0,0,0,0,0,0,0,0,0,0,0,
0,0,0,0,0,0,0,0,0,0,0,6013,6013,0,0,0,0,0,0,0,0,6013,6013,0,0,0,0,0,0,0,0,0,0,0,
0,0,0,0,0,0,0,0,0,0,0,6013,6013,0,0,0,0,0,0,0,0,6013,6013,0,0,0,0,0,0,0,0,0,0,0,
0,0,0,0,0,0,0,0,0,0,0,6013,6013,0,0,0,0,0,0,0,0,6013,6013,0,0,0,0,0,0,0,0,0,0,0,
0,0,0,0,0,0,0,0,0,0,0,6013,6013,0,0,0,0,0,0,0,0,6013,6013,0,0,0,0,0,0,0,0,0,0,0,
0,0,0,0,0,0,0,0,0,0,0,6013,6013,0,0,0,0,0,0,0,0,6013,6013,0,0,0,0,0,0,0,0,0,0,0,
0,0,0,0,0,0,0,0,0,0,0,6013,6013,0,0,0,0,0,0,0,0,6013,6013,0,0,0,0,0,0,0,0,0,0,0,
0,0,0,0,0,0,0,0,0,0,0,0,0,0,0,0,0,0,0,0,0,0,0,0,0,0,0,0,0,0,0,0,0,0,
0,0,0,0,0,0,0,0,0,0,0,0,0,0,0,0,0,0,0,0,0,0,0,0,0,0,0,0,0,0,0,0,0,0,
0,0,0,0,0,0,0,0,0,0,0,0,0,0,0,0,0,0,0,0,0,0,0,0,0,0,0,0,0,0,0,0,0,0,
0,0,0,0,0,0,0,0,0,0,0,0,0,0,0,0,0,0,0,0,0,0,0,0,0,0,0,0,0,0,0,0,0,0,
0,0,0,0,0,0,0,0,0,0,0,0,0,0,0,0,0,0,0,0,0,0,0,0,0,0,0,0,0,0,0,0,0,0,
0,0,0,0,0,0,0,0,0,0,0,0,0,0,0,0,0,0,0,0,0,0,0,0,0,0,0,0,0,0,0,0,0,0,
0,0,0,0,0,0,0,0,0,0,0,0,0,0,0,0,0,0,0,0,0,0,0,0,0,0,0,0,0,0,0,0,0,0,
0,0,0,0,0,0,0,0,0,0,0,0,0,0,0,0,0,0,0,0,0,0,0,0,0,0,0,0,0,0,0,0,0,0,
0,0,0,0,0,0,0,0,0,0,0,0,0,0,0,0,0,0,0,0,0,0,0,0,0,0,0,0,0,0,0,0,0,0,
0,0,0,0,0,0,0,0,0,0,0,0,0,0,0,0,0,0,0,0,0,0,0,0,0,0,0,0,0,0,0,0,0,0,
0,0,0,0,0,0,0,0,0,0,0,0,0,0,0,0,0,0,0,0,0,0,0,0,0,0,0,0,0,0,0,0,0,0,
0,0,0,0,0,0,0,0,0,0,0,0,0,0,0,0,0,0,0,0,0,0,0,0,0,0,0,0,0,0,0,0,0,0,
0,0,0,0,0,0,0,0,0,0,0,0,0,0,0,0,0,0,0,0,0,0,0,0,0,0,0,0,0,0,0,0,0,0
</data>
 </layer>
 <layer id="16" name="Tiles_Rules" width="34" height="46">
  <properties>
   <property name="maybe_animation_id" value="f525790c1101b1a1"/>
   <property name="maybe_tileset_id" value="a3b6ca91b299d4f5"/>
   <property name="tile_size" type="int" value="8"/>
  </properties>
  <data encoding="csv">
0,0,0,0,0,0,0,0,0,0,0,0,0,0,0,0,0,0,0,0,0,0,0,0,0,0,0,0,0,0,0,0,0,0,
0,0,0,0,0,0,0,0,0,0,0,0,0,0,0,0,0,0,0,0,0,0,0,0,0,0,0,0,0,0,0,0,0,0,
0,0,0,0,0,0,0,0,0,0,0,0,0,0,0,0,0,0,0,0,0,0,0,0,0,0,0,0,0,0,0,0,0,0,
0,0,0,0,0,0,0,0,0,0,0,0,0,0,0,0,0,0,0,0,0,0,0,0,0,0,0,0,0,0,0,0,0,0,
0,0,0,0,0,0,0,0,0,0,0,0,0,0,0,0,0,0,0,0,0,0,0,0,0,0,0,0,0,0,0,0,0,0,
0,0,0,0,0,0,0,0,0,0,0,0,0,0,0,0,0,0,0,0,0,0,0,0,0,0,0,0,0,0,0,0,0,0,
0,0,0,0,0,0,0,0,0,0,0,0,0,0,0,0,0,0,0,0,0,0,0,0,0,0,0,0,0,0,0,0,0,0,
0,0,0,0,0,0,0,0,0,0,0,0,0,0,0,0,0,0,0,0,0,0,0,0,0,0,0,0,0,0,0,0,0,0,
0,0,0,0,0,0,0,0,0,0,0,0,0,0,0,0,0,0,0,0,0,0,0,0,0,0,0,0,0,0,0,0,0,0,
0,0,0,0,0,0,0,0,0,0,0,0,0,0,0,0,0,0,0,0,0,0,0,0,0,0,0,0,0,0,0,0,0,0,
0,0,0,0,0,0,0,0,0,0,0,0,0,0,0,0,0,0,0,0,0,0,0,0,0,0,0,0,0,0,0,0,0,0,
0,0,0,0,0,0,0,0,0,0,0,0,0,0,0,0,0,0,0,0,0,0,0,0,0,0,0,0,0,0,0,0,0,0,
0,0,0,0,0,0,0,0,0,0,0,0,0,0,0,0,0,0,0,0,0,0,0,0,0,0,0,0,0,0,0,0,0,0,
0,0,0,0,0,0,0,0,0,0,0,0,0,0,0,0,0,0,0,0,0,0,0,0,0,0,0,0,0,0,0,0,0,0,
0,0,0,0,0,0,0,0,0,0,0,0,0,0,0,0,0,0,0,0,0,0,0,0,0,0,0,0,0,0,0,0,0,0,
0,0,0,0,0,0,0,0,0,0,0,0,0,0,0,0,0,0,0,0,0,0,0,0,0,0,0,0,0,0,0,0,0,0,
0,0,0,0,0,0,0,0,0,0,0,0,0,0,0,0,0,0,0,0,0,0,0,0,0,0,0,0,0,0,0,0,0,0,
0,0,0,0,0,0,0,0,0,0,0,0,0,0,0,0,0,0,0,0,0,0,0,0,0,0,0,0,0,0,0,0,0,0,
0,0,0,0,0,0,0,0,0,0,0,0,0,0,0,0,0,0,0,0,0,0,0,0,0,0,0,0,0,0,0,0,0,0,
0,0,0,0,0,0,0,0,0,0,0,0,0,0,0,0,0,0,0,0,0,0,0,0,0,0,0,0,0,0,0,0,0,0,
0,0,0,0,0,0,0,0,0,0,0,0,0,0,0,0,0,0,0,0,0,0,0,0,0,0,0,0,0,0,0,0,0,0,
0,0,0,0,0,0,0,0,0,0,0,0,0,0,0,0,0,0,0,0,0,0,0,0,0,0,0,0,0,0,0,0,0,0,
0,0,0,0,0,0,0,0,0,0,0,0,0,0,0,0,0,0,0,0,0,0,0,0,0,0,0,0,0,0,0,0,0,0,
0,0,0,0,0,0,0,0,0,0,0,0,0,0,0,0,0,0,0,0,0,0,0,0,0,0,0,0,0,0,0,0,0,0,
0,0,0,0,0,0,0,0,0,0,0,0,0,0,0,0,0,0,0,0,0,0,0,0,0,0,0,0,0,0,0,0,0,0,
0,0,0,0,0,0,0,0,0,0,0,0,0,0,0,0,0,0,0,0,0,0,0,0,0,0,0,0,0,0,0,0,0,0,
0,0,0,0,0,0,0,0,0,0,0,0,0,0,0,0,0,0,0,0,0,0,0,0,0,0,0,0,0,0,0,0,0,0,
0,0,0,0,0,0,0,0,0,0,0,0,0,0,0,0,0,0,0,0,0,0,0,0,0,0,0,0,0,0,0,0,0,0,
0,0,0,0,0,0,0,0,0,0,0,0,0,0,0,0,0,0,0,0,0,0,0,0,0,0,0,0,0,0,0,0,0,0,
0,0,0,0,0,0,0,0,0,0,0,0,0,0,0,0,0,0,0,0,0,0,0,0,0,0,0,0,0,0,0,0,0,0,
0,0,0,0,0,0,0,0,0,0,0,0,0,0,0,0,0,0,0,0,0,0,0,0,0,0,0,0,0,0,0,0,0,0,
0,0,0,0,0,0,0,0,0,0,0,0,0,0,0,0,0,0,0,0,0,0,0,0,0,0,0,0,0,0,0,0,0,0,
0,0,0,0,0,0,0,0,0,0,0,0,0,0,0,0,0,0,0,0,0,0,0,0,0,0,0,0,0,0,0,0,0,0,
0,0,0,0,0,0,0,0,0,0,0,0,0,0,0,0,0,0,0,0,0,0,0,0,0,0,0,0,0,0,0,0,0,0,
0,0,0,0,0,0,0,0,0,0,0,0,0,0,0,0,0,0,0,0,0,0,0,0,0,0,0,0,0,0,0,0,0,0,
0,0,0,0,0,0,0,0,0,0,0,0,0,0,0,0,0,0,0,0,0,0,0,0,0,0,0,0,0,0,0,0,0,0,
0,0,0,0,0,0,0,0,0,0,0,0,0,0,0,0,0,0,0,0,0,0,0,0,0,0,0,0,0,0,0,0,0,0,
0,0,0,0,0,0,0,0,0,0,0,0,0,0,0,0,0,0,0,0,0,0,0,0,0,0,0,0,0,0,0,0,0,0,
0,0,0,0,0,0,0,0,0,0,0,0,0,0,0,0,0,0,0,0,0,0,0,0,0,0,0,0,0,0,0,0,0,0,
0,0,0,0,0,0,0,0,0,0,0,0,0,0,0,0,0,0,0,0,0,0,0,0,0,0,0,0,0,0,0,0,0,0,
0,0,0,0,0,0,0,0,0,0,0,0,0,0,0,0,0,0,0,0,0,0,0,0,0,0,0,0,0,0,0,0,0,0,
0,0,0,0,0,0,0,0,0,0,0,0,0,0,0,0,0,0,0,0,0,0,0,0,0,0,0,0,0,0,0,0,0,0,
0,0,0,0,0,0,0,0,0,0,0,0,0,0,0,0,0,0,0,0,0,0,0,0,0,0,0,0,0,0,0,0,0,0,
0,0,0,0,0,0,0,0,0,0,0,0,0,0,0,0,0,0,0,0,0,0,0,0,0,0,0,0,0,0,0,0,0,0,
0,0,0,0,0,0,0,0,0,0,0,0,0,0,0,0,0,0,0,0,0,0,0,0,0,0,0,0,0,0,0,0,0,0,
0,0,0,0,0,0,0,0,0,0,0,0,0,0,0,0,0,0,0,0,0,0,0,0,0,0,0,0,0,0,0,0,0,0
</data>
 </layer>
 <objectgroup draworder="index" id="17" name="Meta">
  <object id="24" template="../../../templates/obj_roomtransition.tx" type="obj_roomtransition" x="128" y="344">
   <properties>
    <property name="destination_id" propertytype="LocationId" value="manor_house_entry"/>
    <property name="player_direction" type="int" value="270"/>
   </properties>
  </object>
  <object id="25" template="../../../templates/meta/obj_sound_emitter.tx" type="obj_sound_emitter" x="120" y="144" width="32" height="16">
   <properties>
    <property name="sound_asset" value="SoundEffects/Environment/FirePlace"/>
   </properties>
  </object>
 </objectgroup>
 <objectgroup draworder="index" id="18" name="TrellisPoints" visible="0">
  <object id="26" template="../../../templates/meta/obj_trellis_point_transition.tx" name="Manor House Main Room Door" type="obj_trellis_point_transition" x="124" y="325">
   <properties>
    <property name="direction" type="int" propertytype="Cardinal" value="3"/>
   </properties>
  </object>
  <object id="27" template="../../../templates/meta/obj_trellis_point_default.tx" name="Standing" type="obj_trellis_point_default" x="60" y="189"/>
  <object id="28" template="../../../templates/meta/obj_trellis_point_seat.tx" name="Table Left Seat 2" type="obj_trellis_point_seat" x="89" y="224">
   <properties>
    <property name="direction" type="int" propertytype="Cardinal" value="0"/>
   </properties>
  </object>
  <object id="29" template="../../../templates/meta/obj_trellis_point_seat.tx" name="Table Left Seat 3" type="obj_trellis_point_seat" x="89" y="248">
   <properties>
    <property name="direction" type="int" propertytype="Cardinal" value="0"/>
   </properties>
  </object>
  <object id="30" template="../../../templates/meta/obj_trellis_point_seat.tx" name="Table Left Seat 4" type="obj_trellis_point_seat" x="89" y="272">
   <properties>
    <property name="direction" type="int" propertytype="Cardinal" value="0"/>
   </properties>
  </object>
  <object id="31" template="../../../templates/meta/obj_trellis_point_seat.tx" name="Table Right Seat 1" type="obj_trellis_point_seat" x="158" y="200">
   <properties>
    <property name="direction" type="int" propertytype="Cardinal" value="2"/>
   </properties>
  </object>
  <object id="32" template="../../../templates/meta/obj_trellis_point_seat.tx" name="Table Right Seat 2" type="obj_trellis_point_seat" x="158" y="224">
   <properties>
    <property name="direction" type="int" propertytype="Cardinal" value="2"/>
   </properties>
  </object>
  <object id="33" template="../../../templates/meta/obj_trellis_point_seat.tx" name="Table Right Seat 3" type="obj_trellis_point_seat" x="158" y="248">
   <properties>
    <property name="direction" type="int" propertytype="Cardinal" value="2"/>
   </properties>
  </object>
  <object id="34" template="../../../templates/meta/obj_trellis_point_seat.tx" name="Table Right Seat 4" type="obj_trellis_point_seat" x="158" y="272">
   <properties>
    <property name="direction" type="int" propertytype="Cardinal" value="2"/>
   </properties>
  </object>
  <object id="35" template="../../../templates/meta/obj_trellis_point_seat.tx" name="Table Left Seat 1" type="obj_trellis_point_seat" x="89" y="200">
   <properties>
    <property name="direction" type="int" propertytype="Cardinal" value="0"/>
   </properties>
  </object>
 </objectgroup>
 <objectgroup draworder="index" id="19" name="TrellisPoints_Lost_and_Found" visible="0">
  <object id="36" template="../../../templates/meta/obj_trellis_point_default.tx" name="laf_adeline_entrance" type="obj_trellis_point_default" x="124" y="173"/>
  <object id="37" template="../../../templates/meta/obj_trellis_point_default.tx" name="laf_ari_entrance" type="obj_trellis_point_default" x="124" y="357"/>
  <object id="38" template="../../../templates/meta/obj_trellis_point_default.tx" name="laf_ari_start" type="obj_trellis_point_default" x="124" y="309"/>
  <object id="39" template="../../../templates/meta/obj_trellis_point_default.tx" name="laf_dell_entrance" type="obj_trellis_point_default" x="124" y="303"/>
  <object id="40" template="../../../templates/meta/obj_trellis_point_default.tx" name="laf_luc_entrance" type="obj_trellis_point_default" x="140" y="321"/>
  <object id="41" template="../../../templates/meta/obj_trellis_point_default.tx" name="laf_maple_entrance" type="obj_trellis_point_default" x="108" y="321"/>
  <object id="42" template="../../../templates/meta/obj_trellis_point_camera.tx" name="laf_camera_1" type="obj_trellis_point_camera" x="124" y="343"/>
  <object id="43" template="../../../templates/meta/obj_trellis_point_camera.tx" name="laf_camera_2" type="obj_trellis_point_camera" x="124" y="247"/>
  <object id="44" template="../../../templates/meta/obj_trellis_point_camera.tx" name="laf_camera_3" type="obj_trellis_point_camera" x="124" y="197"/>
  <object id="45" template="../../../templates/meta/obj_trellis_point_camera.tx" name="laf_camera_4" type="obj_trellis_point_camera" x="124" y="291"/>
  <object id="46" template="../../../templates/meta/obj_trellis_point_camera.tx" name="laf_camera_5" type="obj_trellis_point_camera" x="124" y="227"/>
  <object id="47" template="../../../templates/meta/obj_trellis_point_camera.tx" name="laf_camera_6" type="obj_trellis_point_camera" x="124" y="265"/>
  <object id="48" template="../../../templates/meta/obj_trellis_point_camera.tx" name="laf_camera_7" type="obj_trellis_point_camera" x="124" y="223"/>
  <object id="49" template="../../../templates/meta/obj_trellis_point_camera.tx" name="laf_camera_8" type="obj_trellis_point_camera" x="124" y="247"/>
 </objectgroup>
 <objectgroup id="22" name="TrellisPoints_Upgrade_the_Saturday_Market_Plaza">
  <object id="61" template="../../../templates/meta/obj_trellis_point_default.tx" name="utsmp_adeline_start" type="obj_trellis_point_default" x="112" y="172"/>
  <object id="63" template="../../../templates/meta/obj_trellis_point_default.tx" name="utsmp_nora_start" type="obj_trellis_point_default" x="136" y="172"/>
  <object id="64" template="../../../templates/meta/obj_trellis_point_default.tx" name="utsmp_exit" type="obj_trellis_point_default" x="124" y="358"/>
  <object id="65" template="../../../templates/meta/obj_trellis_point_default.tx" name="utsmp_nora_stand" type="obj_trellis_point_default" x="124" y="168"/>
  <object id="66" template="../../../templates/meta/obj_trellis_point_default.tx" name="utsmp_adeline_stand" type="obj_trellis_point_default" x="107" y="176"/>
  <object id="67" template="../../../templates/meta/obj_trellis_point_default.tx" name="utsmp_ari_stand" type="obj_trellis_point_default" x="141" y="176"/>
  <object id="62" template="../../../templates/meta/obj_trellis_point_camera.tx" name="utsmp_camera_4" type="obj_trellis_point_camera" x="124" y="279"/>
  <object id="68" template="../../../templates/meta/obj_trellis_point_camera.tx" name="utsmp_camera_5" type="obj_trellis_point_camera" x="124" y="207"/>
  <object id="69" template="../../../templates/meta/obj_trellis_point_camera.tx" name="utsmp_camera_6" type="obj_trellis_point_camera" x="124" y="187"/>
  <object id="70" template="../../../templates/meta/obj_trellis_point_camera.tx" name="utsmp_camera_7" type="obj_trellis_point_camera" x="124" y="170"/>
 </objectgroup>
 <objectgroup draworder="index" id="20" name="TrellisPoints_Adeline_8h" visible="0">
  <object id="50" template="../../../templates/meta/obj_trellis_point_default.tx" name="a8h_adeline_mhdr_entrance" type="obj_trellis_point_default" x="104" y="185"/>
  <object id="51" template="../../../templates/meta/obj_trellis_point_default.tx" name="a8h_adeline_mhdr_start" type="obj_trellis_point_default" x="124" y="177"/>
  <object id="52" template="../../../templates/meta/obj_trellis_point_default.tx" name="a8h_ari_mhdr_entrance" type="obj_trellis_point_default" x="104" y="177"/>
  <object id="53" template="../../../templates/meta/obj_trellis_point_camera.tx" name="a8h_camera_8" type="obj_trellis_point_camera" x="124" y="279"/>
  <object id="54" template="../../../templates/meta/obj_trellis_point_camera.tx" name="a8h_camera_9" type="obj_trellis_point_camera" x="124" y="203"/>
  <object id="55" template="../../../templates/meta/obj_trellis_point_camera.tx" name="a8h_camera_10" type="obj_trellis_point_camera" x="124" y="195"/>
  <object id="56" template="../../../templates/meta/obj_trellis_point_camera.tx" name="a8h_camera_thinking" type="obj_trellis_point_camera" x="124" y="171"/>
  <object id="57" template="../../../templates/meta/obj_trellis_point_prop.tx" name="a8h_tray" type="obj_trellis_point_prop" x="124" y="191">
   <properties>
    <property name="prop_name" value="a8h_tray"/>
   </properties>
  </object>
  <object id="58" template="../../../templates/meta/obj_trellis_point_prop.tx" name="a8h_tea_ari" type="obj_trellis_point_prop" x="104" y="193">
   <properties>
    <property name="prop_name" value="a8h_tea"/>
   </properties>
  </object>
  <object id="59" template="../../../templates/meta/obj_trellis_point_prop.tx" name="a8h_tea_adeline" type="obj_trellis_point_prop" x="144" y="193">
   <properties>
    <property name="prop_name" value="a8h_tea"/>
   </properties>
  </object>
  <object id="60" template="../../../templates/meta/obj_trellis_point_prop.tx" name="a8h_lemon_pie" type="obj_trellis_point_prop" x="124" y="211">
   <properties>
    <property name="prop_name" value="a8h_lemon_pie"/>
   </properties>
  </object>
 </objectgroup>
</map>
