<?xml version="1.0" encoding="UTF-8"?>
<map version="1.10" tiledversion="1.11.2" orientation="orthogonal" renderorder="right-down" width="66" height="74" tilewidth="8" tileheight="8" infinite="0" nextlayerid="15" nextobjectid="46">
 <tileset firstgid="1" source="../../__gm_import.tsx"/>
 <tileset firstgid="1504" source="../../tile_sets/__META/tile_collision_info.tsx"/>
 <tileset firstgid="1511" source="../../tile_sets/tile_footsteps.tsx"/>
 <tileset firstgid="1655" source="../../tile_sets/_GENERIC/tile_main_interiors.tsx"/>
 <tileset firstgid="5751" source="../../tile_sets/_GENERIC/tile_main_interiors_shadows.tsx"/>
 <tileset firstgid="6007" source="../../tile_sets/__META/tile_pathfinding.tsx"/>
 <tileset firstgid="6013" source="../../tile_sets/__META/tile_rules.tsx"/>
 <group id="1" name="Level_0">
  <objectgroup draworder="index" id="2" name="Level_0_FloorSprites">
   <object id="1" type="asset" gid="1185" x="112" y="488" width="304" height="424"/>
   <object id="2" type="asset" gid="886" x="152" y="384" width="16" height="16"/>
  </objectgroup>
  <layer id="3" name="Level_0_Shadows" width="66" height="74">
   <properties>
    <property name="maybe_animation_id" value="babd09ade2b55c05"/>
    <property name="maybe_tileset_id" value="339411f6ba88c8f0"/>
    <property name="tile_size" type="int" value="16"/>
   </properties>
   <data encoding="csv">
5751,0,5751,0,5751,0,5751,0,5751,0,5751,0,5751,0,5751,0,5751,0,5751,0,5751,0,5751,0,5751,0,5751,0,5751,0,5751,0,5751,0,0,0,0,0,0,0,0,0,0,0,0,0,0,0,0,0,0,0,0,0,0,0,0,0,0,0,0,0,0,0,0,0,
0,0,0,0,0,0,0,0,0,0,0,0,0,0,0,0,0,0,0,0,0,0,0,0,0,0,0,0,0,0,0,0,0,0,0,0,0,0,0,0,0,0,0,0,0,0,0,0,0,0,0,0,0,0,0,0,0,0,0,0,0,0,0,0,0,0,
5751,0,5751,0,5751,0,5751,0,5751,0,5751,0,5751,0,5751,0,5751,0,5751,0,5751,0,5751,0,5751,0,5751,0,5751,0,5751,0,5751,0,0,0,0,0,0,0,0,0,0,0,0,0,0,0,0,0,0,0,0,0,0,0,0,0,0,0,0,0,0,0,0,0,
0,0,0,0,0,0,0,0,0,0,0,0,0,0,0,0,0,0,0,0,0,0,0,0,0,0,0,0,0,0,0,0,0,0,0,0,0,0,0,0,0,0,0,0,0,0,0,0,0,0,0,0,0,0,0,0,0,0,0,0,0,0,0,0,0,0,
5751,0,5751,0,5751,0,5751,0,5751,0,5751,0,5751,0,5751,0,5751,0,5751,0,5751,0,5751,0,5751,0,5751,0,5751,0,5751,0,5751,0,0,0,0,0,0,0,0,0,0,0,0,0,0,0,0,0,0,0,0,0,0,0,0,0,0,0,0,0,0,0,0,0,
0,0,0,0,0,0,0,0,0,0,0,0,0,0,0,0,0,0,0,0,0,0,0,0,0,0,0,0,0,0,0,0,0,0,0,0,0,0,0,0,0,0,0,0,0,0,0,0,0,0,0,0,0,0,0,0,0,0,0,0,0,0,0,0,0,0,
5751,0,5751,0,5751,0,5751,0,5751,0,5751,0,5751,0,5751,0,5751,0,5751,0,5751,0,5751,0,5751,0,5751,0,5751,0,5751,0,5751,0,0,0,0,0,0,0,0,0,0,0,0,0,0,0,0,0,0,0,0,0,0,0,0,0,0,0,0,0,0,0,0,0,
0,0,0,0,0,0,0,0,0,0,0,0,0,0,0,0,0,0,0,0,0,0,0,0,0,0,0,0,0,0,0,0,0,0,0,0,0,0,0,0,0,0,0,0,0,0,0,0,0,0,0,0,0,0,0,0,0,0,0,0,0,0,0,0,0,0,
5751,0,5751,0,5751,0,5751,0,5751,0,5751,0,5751,0,5751,0,5751,0,5751,0,5751,0,5751,0,5751,0,5751,0,5751,0,5751,0,5751,0,0,0,0,0,0,0,0,0,0,0,0,0,0,0,0,0,0,0,0,0,0,0,0,0,0,0,0,0,0,0,0,0,
0,0,0,0,0,0,0,0,0,0,0,0,0,0,0,0,0,0,0,0,0,0,0,0,0,0,0,0,0,0,0,0,0,0,0,0,0,0,0,0,0,0,0,0,0,0,0,0,0,0,0,0,0,0,0,0,0,0,0,0,0,0,0,0,0,0,
5751,0,5751,0,5751,0,5751,0,5751,0,5751,0,5751,0,5751,0,5751,0,5751,0,5751,0,5751,0,5751,0,5751,0,5751,0,5751,0,5751,0,0,0,0,0,0,0,0,0,0,0,0,0,0,0,0,0,0,0,0,0,0,0,0,0,0,0,0,0,0,0,0,0,
0,0,0,0,0,0,0,0,0,0,0,0,0,0,0,0,0,0,0,0,0,0,0,0,0,0,0,0,0,0,0,0,0,0,0,0,0,0,0,0,0,0,0,0,0,0,0,0,0,0,0,0,0,0,0,0,0,0,0,0,0,0,0,0,0,0,
5751,0,5751,0,5751,0,5751,0,5751,0,5751,0,5751,0,5751,0,5751,0,5751,0,5751,0,5751,0,5751,0,5751,0,5751,0,5751,0,5751,0,0,0,0,0,0,0,0,0,0,0,0,0,0,0,0,0,0,0,0,0,0,0,0,0,0,0,0,0,0,0,0,0,
0,0,0,0,0,0,0,0,0,0,0,0,0,0,0,0,0,0,0,0,0,0,0,0,0,0,0,0,0,0,0,0,0,0,0,0,0,0,0,0,0,0,0,0,0,0,0,0,0,0,0,0,0,0,0,0,0,0,0,0,0,0,0,0,0,0,
5751,0,5751,0,5751,0,5751,0,5751,0,5751,0,5751,0,5751,0,5751,0,5751,0,5751,0,5751,0,5751,0,5751,0,5751,0,5751,0,5751,0,0,0,0,0,0,0,0,0,0,0,0,0,0,0,0,0,0,0,0,0,0,0,0,0,0,0,0,0,0,0,0,0,
0,0,0,0,0,0,0,0,0,0,0,0,0,0,0,0,0,0,0,0,0,0,0,0,0,0,0,0,0,0,0,0,0,0,0,0,0,0,0,0,0,0,0,0,0,0,0,0,0,0,0,0,0,0,0,0,0,0,0,0,0,0,0,0,0,0,
5751,0,5751,0,5751,0,5751,0,5751,0,5751,0,5751,0,5751,0,5751,0,5751,0,5751,0,5751,0,5751,0,5751,0,5751,0,5751,0,5751,0,5751,0,5751,0,0,0,0,0,5751,0,0,0,0,0,0,0,0,0,0,0,0,0,0,0,0,0,0,0,0,0,0,0,
0,0,0,0,0,0,0,0,0,0,0,0,0,0,0,0,0,0,0,0,0,0,0,0,0,0,0,0,0,0,0,0,0,0,0,0,0,0,0,0,0,0,0,0,0,0,0,0,0,0,0,0,0,0,0,0,0,0,0,0,0,0,0,0,0,0,
5751,0,5751,0,5751,0,5751,0,5751,0,5751,0,5751,0,5751,0,5751,0,5751,0,5751,0,5751,0,5751,0,5751,0,5751,0,5751,0,5751,0,5751,0,5751,0,5751,0,5751,0,5751,0,0,0,0,0,0,0,0,0,0,0,0,0,0,0,0,0,0,0,0,0,0,0,
0,0,0,0,0,0,0,0,0,0,0,0,0,0,0,0,0,0,0,0,0,0,0,0,0,0,0,0,0,0,0,0,0,0,0,0,0,0,0,0,0,0,0,0,0,0,0,0,0,0,0,0,0,0,0,0,0,0,0,0,0,0,0,0,0,0,
5751,0,5751,0,5751,0,5751,0,5751,0,5751,0,5751,0,5751,0,5751,0,5751,0,5751,0,5751,0,5751,0,5751,0,5751,0,5751,0,5751,0,5751,0,5751,0,5751,0,5751,0,5751,0,0,0,0,0,0,0,0,0,0,0,0,0,0,0,0,0,0,0,0,0,0,0,
0,0,0,0,0,0,0,0,0,0,0,0,0,0,0,0,0,0,0,0,0,0,0,0,0,0,0,0,0,0,0,0,0,0,0,0,0,0,0,0,0,0,0,0,0,0,0,0,0,0,0,0,0,0,0,0,0,0,0,0,0,0,0,0,0,0,
5751,0,5751,0,5751,0,5751,0,5751,0,5751,0,5751,0,5751,0,5751,0,5751,0,5751,0,5751,0,5751,0,5751,0,5751,0,5751,0,5751,0,5751,0,5751,0,5751,0,5751,0,5751,0,5751,0,0,0,0,0,0,0,0,0,0,0,0,0,0,0,0,0,0,0,0,0,
0,0,0,0,0,0,0,0,0,0,0,0,0,0,0,0,0,0,0,0,0,0,0,0,0,0,0,0,0,0,0,0,0,0,0,0,0,0,0,0,0,0,0,0,0,0,0,0,0,0,0,0,0,0,0,0,0,0,0,0,0,0,0,0,0,0,
5751,0,5751,0,5751,0,5751,0,5751,0,5751,0,5751,0,5751,0,5751,0,5751,0,5751,0,5751,0,5751,0,5751,0,5751,0,5751,0,5751,0,5751,0,5751,0,0,0,0,0,0,0,0,0,0,0,0,0,0,0,0,0,0,0,0,0,0,0,0,0,0,0,0,0,
0,0,0,0,0,0,0,0,0,0,0,0,0,0,0,0,0,0,0,0,0,0,0,0,0,0,0,0,0,0,0,0,0,0,0,0,0,0,0,0,0,0,0,0,0,0,0,0,0,0,0,0,0,0,0,0,0,0,0,0,0,0,0,0,0,0,
5751,0,5751,0,5751,0,5751,0,5751,0,5751,0,5751,0,5751,0,5751,0,5751,0,5751,0,5751,0,5751,0,5751,0,5751,0,5751,0,5751,0,5751,0,5751,0,0,0,0,0,0,0,0,0,0,0,0,0,0,0,0,0,0,0,0,0,0,0,0,0,0,0,0,0,
0,0,0,0,0,0,0,0,0,0,0,0,0,0,0,0,0,0,0,0,0,0,0,0,0,0,0,0,0,0,0,0,0,0,0,0,0,0,0,0,0,0,0,0,0,0,0,0,0,0,0,0,0,0,0,0,0,0,0,0,0,0,0,0,0,0,
5751,0,5751,0,5751,0,5751,0,5751,0,5751,0,5751,0,5751,0,5751,0,5751,0,5751,0,5751,0,5751,0,5751,0,5751,0,5751,0,5751,0,5751,0,5751,0,0,0,0,0,0,0,0,0,0,0,0,0,0,0,0,0,0,0,0,0,0,0,0,0,0,0,0,0,
0,0,0,0,0,0,0,0,0,0,0,0,0,0,0,0,0,0,0,0,0,0,0,0,0,0,0,0,0,0,0,0,0,0,0,0,0,0,0,0,0,0,0,0,0,0,0,0,0,0,0,0,0,0,0,0,0,0,0,0,0,0,0,0,0,0,
5751,0,5751,0,5751,0,5751,0,5751,0,5751,0,5751,0,5751,0,5751,0,5751,0,5751,0,5751,0,5751,0,5751,0,5751,0,5751,0,5751,0,5751,0,5751,0,0,0,0,0,0,0,0,0,0,0,0,0,0,0,0,0,0,0,0,0,0,0,0,0,0,0,0,0,
0,0,0,0,0,0,0,0,0,0,0,0,0,0,0,0,0,0,0,0,0,0,0,0,0,0,0,0,0,0,0,0,0,0,0,0,0,0,0,0,0,0,0,0,0,0,0,0,0,0,0,0,0,0,0,0,0,0,0,0,0,0,0,0,0,0,
5751,0,5751,0,5751,0,5751,0,5751,0,5751,0,5751,0,5751,0,5751,0,5751,0,5751,0,5751,0,5751,0,5751,0,5751,0,5751,0,5751,0,5751,0,5751,0,0,0,0,0,0,0,0,0,0,0,0,0,0,0,0,0,0,0,0,0,0,0,0,0,0,0,0,0,
0,0,0,0,0,0,0,0,0,0,0,0,0,0,0,0,0,0,0,0,0,0,0,0,0,0,0,0,0,0,0,0,0,0,0,0,0,0,0,0,0,0,0,0,0,0,0,0,0,0,0,0,0,0,0,0,0,0,0,0,0,0,0,0,0,0,
0,0,5751,0,5751,0,5751,0,5751,0,5751,0,5751,0,5751,0,5751,0,5751,0,5751,0,5751,0,5751,0,5751,0,5751,0,5751,0,5751,0,5751,0,5751,0,0,0,0,0,0,0,0,0,0,0,0,0,0,0,0,0,0,0,0,0,0,0,0,0,0,0,0,0,
0,0,0,0,0,0,0,0,0,0,0,0,0,0,0,0,0,0,0,0,0,0,0,0,0,0,0,0,0,0,0,0,0,0,0,0,0,0,0,0,0,0,0,0,0,0,0,0,0,0,0,0,0,0,0,0,0,0,0,0,0,0,0,0,0,0,
0,0,5751,0,5751,0,5751,0,5751,0,5751,0,5751,0,5751,0,5751,0,5751,0,5751,0,5751,0,5751,0,5751,0,5751,0,5751,0,5751,0,5751,0,5751,0,0,0,0,0,0,0,0,0,0,0,0,0,0,0,0,0,0,0,0,0,0,0,0,0,0,0,0,0,
0,0,0,0,0,0,0,0,0,0,0,0,0,0,0,0,0,0,0,0,0,0,0,0,0,0,0,0,0,0,0,0,0,0,0,0,0,0,0,0,0,0,0,0,0,0,0,0,0,0,0,0,0,0,0,0,0,0,0,0,0,0,0,0,0,0,
0,0,5751,0,5751,0,5751,0,5751,0,5751,0,5751,0,5751,0,5751,0,5751,0,5751,0,5751,0,5751,0,5751,0,5751,0,5751,0,5751,0,5751,0,5751,0,0,0,0,0,0,0,0,0,0,0,0,0,0,0,0,0,0,0,0,0,0,0,0,0,0,0,0,0,
0,0,0,0,0,0,0,0,0,0,0,0,0,0,0,0,0,0,0,0,0,0,0,0,0,0,0,0,0,0,0,0,0,0,0,0,0,0,0,0,0,0,0,0,0,0,0,0,0,0,0,0,0,0,0,0,0,0,0,0,0,0,0,0,0,0,
0,0,5751,0,5751,0,5751,0,5751,0,5751,0,5751,0,5751,0,5751,0,5751,0,5751,0,5751,0,5751,0,5751,0,5751,0,5751,0,5751,0,5751,0,5751,0,0,0,0,0,0,0,0,0,0,0,0,0,0,0,0,0,0,0,0,0,0,0,0,0,0,0,0,0,
0,0,0,0,0,0,0,0,0,0,0,0,0,0,0,0,0,0,0,0,0,0,0,0,0,0,0,0,0,0,0,0,0,0,0,0,0,0,0,0,0,0,0,0,0,0,0,0,0,0,0,0,0,0,0,0,0,0,0,0,0,0,0,0,0,0,
0,0,5751,0,5751,0,5751,0,5751,0,5751,0,5751,0,5751,0,5751,0,5751,0,5751,0,5751,0,5751,0,5751,0,5751,0,5751,0,5751,0,5751,0,5751,0,5751,0,5751,0,0,0,0,0,0,0,0,0,0,0,0,0,0,0,0,0,0,0,0,0,0,0,0,0,
0,0,0,0,0,0,0,0,0,0,0,0,0,0,0,0,0,0,0,0,0,0,0,0,0,0,0,0,0,0,0,0,0,0,0,0,0,0,0,0,0,0,0,0,0,0,0,0,0,0,0,0,0,0,0,0,0,0,0,0,0,0,0,0,0,0,
0,0,0,0,0,0,5751,0,5751,0,5751,0,5751,0,0,0,0,0,0,0,0,0,0,0,0,0,0,0,0,0,0,0,0,0,0,0,5751,0,5751,0,5751,0,5751,0,5751,0,0,0,0,0,0,0,0,0,0,0,0,0,0,0,0,0,0,0,0,0,
0,0,0,0,0,0,0,0,0,0,0,0,0,0,0,0,0,0,0,0,0,0,0,0,0,0,0,0,0,0,0,0,0,0,0,0,0,0,0,0,0,0,0,0,0,0,0,0,0,0,0,0,0,0,0,0,0,0,0,0,0,0,0,0,0,0,
0,0,0,0,0,0,5751,0,5751,0,5751,0,5751,0,0,0,0,0,0,0,0,0,0,0,0,0,0,0,0,0,0,0,0,0,0,0,0,0,0,0,0,0,5751,0,5751,0,0,0,0,0,0,0,0,0,0,0,0,0,0,0,0,0,0,0,0,0,
0,0,0,0,0,0,0,0,0,0,0,0,0,0,0,0,0,0,0,0,0,0,0,0,0,0,0,0,0,0,0,0,0,0,0,0,0,0,0,0,0,0,0,0,0,0,0,0,0,0,0,0,0,0,0,0,0,0,0,0,0,0,0,0,0,0,
0,0,0,0,0,0,5751,0,5751,0,5751,0,5751,0,5751,0,5751,0,5751,0,5751,0,5751,0,5751,0,0,0,5751,0,0,0,0,0,5751,0,5751,0,5751,0,0,0,0,0,0,0,0,0,0,0,0,0,0,0,0,0,0,0,0,0,0,0,0,0,0,0,
0,0,0,0,0,0,0,0,0,0,0,0,0,0,0,0,0,0,0,0,0,0,0,0,0,0,0,0,0,0,0,0,0,0,0,0,0,0,0,0,0,0,0,0,0,0,0,0,0,0,0,0,0,0,0,0,0,0,0,0,0,0,0,0,0,0,
0,0,0,0,0,0,0,0,5751,0,5751,0,5751,0,5751,0,5751,0,5751,0,5751,0,5751,0,5751,0,0,0,5751,0,5751,0,5751,0,5751,0,0,0,0,0,0,0,0,0,0,0,0,0,0,0,0,0,0,0,0,0,0,0,0,0,0,0,0,0,0,0,
0,0,0,0,0,0,0,0,0,0,0,0,0,0,0,0,0,0,0,0,0,0,0,0,0,0,0,0,0,0,0,0,0,0,0,0,0,0,0,0,0,0,0,0,0,0,0,0,0,0,0,0,0,0,0,0,0,0,0,0,0,0,0,0,0,0,
0,0,0,0,0,0,0,0,0,0,0,0,0,0,0,0,0,0,0,0,0,0,0,0,0,0,0,0,0,0,0,0,0,0,0,0,0,0,0,0,0,0,0,0,0,0,0,0,0,0,0,0,0,0,0,0,0,0,0,0,0,0,0,0,0,0,
0,0,0,0,0,0,0,0,0,0,0,0,0,0,0,0,0,0,0,0,0,0,0,0,0,0,0,0,0,0,0,0,0,0,0,0,0,0,0,0,0,0,0,0,0,0,0,0,0,0,0,0,0,0,0,0,0,0,0,0,0,0,0,0,0,0,
0,0,0,0,0,0,0,0,0,0,0,0,0,0,0,0,0,0,0,0,0,0,0,0,0,0,0,0,0,0,0,0,0,0,0,0,0,0,0,0,0,0,0,0,0,0,0,0,0,0,0,0,0,0,0,0,0,0,0,0,0,0,0,0,0,0,
0,0,0,0,0,0,0,0,0,0,0,0,0,0,0,0,0,0,0,0,0,0,0,0,0,0,0,0,0,0,0,0,0,0,0,0,0,0,0,0,0,0,0,0,0,0,0,0,0,0,0,0,0,0,0,0,0,0,0,0,0,0,0,0,0,0,
0,0,0,0,0,0,0,0,0,0,0,0,0,0,0,0,0,0,0,0,0,0,0,0,0,0,0,0,0,0,0,0,0,0,0,0,0,0,0,0,0,0,0,0,0,0,0,0,0,0,0,0,0,0,0,0,0,0,0,0,0,0,0,0,0,0,
0,0,0,0,0,0,0,0,0,0,0,0,0,0,0,0,0,0,0,0,0,0,0,0,0,0,0,0,0,0,0,0,0,0,0,0,0,0,0,0,0,0,0,0,0,0,0,0,0,0,0,0,0,0,0,0,0,0,0,0,0,0,0,0,0,0,
0,0,0,0,0,0,0,0,0,0,0,0,0,0,0,0,0,0,0,0,0,0,0,0,0,0,0,0,0,0,0,0,0,0,0,0,0,0,0,0,0,0,0,0,0,0,0,0,0,0,0,0,0,0,0,0,0,0,0,0,0,0,0,0,0,0,
0,0,0,0,0,0,0,0,0,0,0,0,0,0,0,0,0,0,0,0,0,0,0,0,0,0,0,0,0,0,0,0,0,0,0,0,0,0,0,0,0,0,0,0,0,0,0,0,0,0,0,0,0,0,0,0,0,0,0,0,0,0,0,0,0,0,
0,0,0,0,0,0,0,0,0,0,0,0,0,0,0,0,0,0,0,0,0,0,0,0,0,0,0,0,0,0,0,0,0,0,0,0,0,0,0,0,0,0,0,0,0,0,0,0,0,0,0,0,0,0,0,0,0,0,0,0,0,0,0,0,0,0,
0,0,0,0,0,0,0,0,0,0,0,0,0,0,0,0,0,0,0,0,0,0,0,0,0,0,0,0,0,0,0,0,0,0,0,0,0,0,0,0,0,0,0,0,0,0,0,0,0,0,0,0,0,0,0,0,0,0,0,0,0,0,0,0,0,0,
0,0,0,0,0,0,0,0,0,0,0,0,0,0,0,0,0,0,0,0,0,0,0,0,0,0,0,0,0,0,0,0,0,0,0,0,0,0,0,0,0,0,0,0,0,0,0,0,0,0,0,0,0,0,0,0,0,0,0,0,0,0,0,0,0,0,
0,0,0,0,0,0,0,0,0,0,0,0,0,0,0,0,0,0,0,0,0,0,0,0,0,0,0,0,0,0,0,0,0,0,0,0,0,0,0,0,0,0,0,0,0,0,0,0,0,0,0,0,0,0,0,0,0,0,0,0,0,0,0,0,0,0,
0,0,0,0,0,0,0,0,0,0,0,0,0,0,0,0,0,0,0,0,0,0,0,0,0,0,0,0,0,0,0,0,0,0,0,0,0,0,0,0,0,0,0,0,0,0,0,0,0,0,0,0,0,0,0,0,0,0,0,0,0,0,0,0,0,0,
0,0,0,0,0,0,0,0,0,0,0,0,0,0,0,0,0,0,0,0,0,0,0,0,0,0,0,0,0,0,0,0,0,0,0,0,0,0,0,0,0,0,0,0,0,0,0,0,0,0,0,0,0,0,0,0,0,0,0,0,0,0,0,0,0,0,
0,0,0,0,0,0,0,0,0,0,0,0,0,0,0,0,0,0,0,0,0,0,0,0,0,0,0,0,0,0,0,0,0,0,0,0,0,0,0,0,0,0,0,0,0,0,0,0,0,0,0,0,0,0,0,0,0,0,0,0,0,0,0,0,0,0,
0,0,0,0,0,0,0,0,0,0,0,0,0,0,0,0,0,0,0,0,0,0,0,0,0,0,0,0,0,0,0,0,0,0,0,0,0,0,0,0,0,0,0,0,0,0,0,0,0,0,0,0,0,0,0,0,0,0,0,0,0,0,0,0,0,0,
0,0,0,0,0,0,0,0,0,0,0,0,0,0,0,0,0,0,0,0,0,0,0,0,0,0,0,0,0,0,0,0,0,0,0,0,0,0,0,0,0,0,0,0,0,0,0,0,0,0,0,0,0,0,0,0,0,0,0,0,0,0,0,0,0,0,
0,0,0,0,0,0,0,0,0,0,0,0,0,0,0,0,0,0,0,0,0,0,0,0,0,0,0,0,0,0,0,0,0,0,0,0,0,0,0,0,0,0,0,0,0,0,0,0,0,0,0,0,0,0,0,0,0,0,0,0,0,0,0,0,0,0,
0,0,0,0,0,0,0,0,0,0,0,0,0,0,0,0,0,0,0,0,0,0,0,0,0,0,0,0,0,0,0,0,0,0,0,0,0,0,0,0,0,0,0,0,0,0,0,0,0,0,0,0,0,0,0,0,0,0,0,0,0,0,0,0,0,0,
0,0,0,0,0,0,0,0,0,0,0,0,0,0,0,0,0,0,0,0,0,0,0,0,0,0,0,0,0,0,0,0,0,0,0,0,0,0,0,0,0,0,0,0,0,0,0,0,0,0,0,0,0,0,0,0,0,0,0,0,0,0,0,0,0,0,
0,0,0,0,0,0,0,0,0,0,0,0,0,0,0,0,0,0,0,0,0,0,0,0,0,0,0,0,0,0,0,0,0,0,0,0,0,0,0,0,0,0,0,0,0,0,0,0,0,0,0,0,0,0,0,0,0,0,0,0,0,0,0,0,0,0,
0,0,0,0,0,0,0,0,0,0,0,0,0,0,0,0,0,0,0,0,0,0,0,0,0,0,0,0,0,0,0,0,0,0,0,0,0,0,0,0,0,0,0,0,0,0,0,0,0,0,0,0,0,0,0,0,0,0,0,0,0,0,0,0,0,0
</data>
  </layer>
  <objectgroup draworder="index" id="4" name="Level_0_Assets">
   <object id="3" type="asset" gid="1140" x="344" y="520" width="72" height="160"/>
   <object id="4" type="asset" gid="305" x="136" y="304" width="72" height="128"/>
   <object id="5" type="asset" gid="467" x="137" y="312" width="24" height="160"/>
   <object id="6" type="asset" gid="149" x="136" y="336" width="72" height="48"/>
   <object id="7" type="asset" gid="20" x="320" y="304" width="72" height="128"/>
   <object id="8" type="asset" gid="467" x="370" y="312" width="24" height="160"/>
   <object id="9" type="asset" gid="99" x="320" y="336" width="72" height="48"/>
   <object id="10" type="asset" gid="441" x="192" y="288" width="144" height="160"/>
   <object id="11" type="asset" gid="1074" x="112" y="520" width="72" height="160"/>
   <object id="12" type="asset" gid="409" x="208" y="296" width="16" height="40"/>
   <object id="13" type="asset" gid="409" x="304" y="296" width="16" height="40"/>
   <object id="14" type="asset" gid="1183" x="136" y="368" width="64" height="40"/>
   <object id="15" type="asset" gid="1104" x="328" y="360" width="64" height="32"/>
   <object id="16" type="asset" gid="971" x="176" y="344" width="48" height="48"/>
   <object id="17" type="asset" gid="524" x="304" y="344" width="48" height="48"/>
   <object id="18" type="asset" gid="357" x="176" y="195" width="16" height="48"/>
   <object id="19" type="asset" gid="357" x="336" y="194" width="16" height="48"/>
   <object id="20" type="asset" gid="357" x="160" y="176" width="16" height="48"/>
   <object id="21" type="asset" gid="357" x="352" y="176" width="16" height="48"/>
   <object id="22" type="asset" gid="357" x="336" y="153" width="16" height="48"/>
   <object id="23" type="asset" gid="357" x="176" y="154" width="16" height="48"/>
   <object id="24" type="asset" gid="349" x="208" y="432" width="112" height="80"/>
  </objectgroup>
 </group>
 <group id="5" name="Level_1">
  <layer id="6" name="Level_1_Ceiling" width="66" height="74">
   <properties>
    <property name="maybe_animation_id" value="75ea443e6634d96"/>
    <property name="maybe_tileset_id" value="d8b504e9a8480fbe"/>
    <property name="tile_size" type="int" value="16"/>
   </properties>
   <data encoding="csv">
0,0,0,0,0,0,0,0,0,0,0,0,0,0,0,0,0,0,0,0,0,0,0,0,0,0,0,0,0,0,0,0,0,0,0,0,0,0,0,0,0,0,0,0,0,0,0,0,0,0,0,0,0,0,0,0,0,0,0,0,0,0,0,0,0,0,
0,0,0,0,0,0,0,0,0,0,0,0,0,0,0,0,0,0,0,0,0,0,0,0,0,0,0,0,0,0,0,0,0,0,0,0,0,0,0,0,0,0,0,0,0,0,0,0,0,0,0,0,0,0,0,0,0,0,0,0,0,0,0,0,0,0,
0,0,0,0,0,0,0,0,0,0,0,0,0,0,0,0,0,0,0,0,0,0,0,0,0,0,0,0,0,0,0,0,0,0,0,0,0,0,0,0,0,0,0,0,0,0,0,0,0,0,0,0,0,0,0,0,0,0,0,0,0,0,0,0,0,0,
0,0,0,0,0,0,0,0,0,0,0,0,0,0,0,0,0,0,0,0,0,0,0,0,0,0,0,0,0,0,0,0,0,0,0,0,0,0,0,0,0,0,0,0,0,0,0,0,0,0,0,0,0,0,0,0,0,0,0,0,0,0,0,0,0,0,
0,0,0,0,0,0,0,0,0,0,0,0,0,0,0,0,0,0,0,0,0,0,0,0,0,0,0,0,0,0,0,0,0,0,0,0,0,0,0,0,0,0,0,0,0,0,0,0,0,0,0,0,0,0,0,0,0,0,0,0,0,0,0,0,0,0,
0,0,0,0,0,0,0,0,0,0,0,0,0,0,0,0,0,0,0,0,0,0,0,0,0,0,0,0,0,0,0,0,0,0,0,0,0,0,0,0,0,0,0,0,0,0,0,0,0,0,0,0,0,0,0,0,0,0,0,0,0,0,0,0,0,0,
0,0,0,0,0,0,0,0,0,0,0,0,0,0,0,0,0,0,0,0,0,0,0,0,0,0,0,0,0,0,0,0,0,0,0,0,0,0,0,0,0,0,0,0,0,0,0,0,0,0,0,0,0,0,0,0,0,0,0,0,0,0,0,0,0,0,
0,0,0,0,0,0,0,0,0,0,0,0,0,0,0,0,0,0,0,0,0,0,0,0,0,0,0,0,0,0,0,0,0,0,0,0,0,0,0,0,0,0,0,0,0,0,0,0,0,0,0,0,0,0,0,0,0,0,0,0,0,0,0,0,0,0,
0,0,0,0,0,0,0,0,0,0,0,0,0,0,0,0,0,0,0,0,0,0,0,0,0,0,1655,0,1655,0,1655,0,1655,0,1655,0,1655,0,1655,0,0,0,0,0,0,0,0,0,0,0,0,0,0,0,0,0,0,0,0,0,0,0,0,0,0,0,
0,0,0,0,0,0,0,0,0,0,0,0,0,0,0,0,0,0,0,0,0,0,0,0,0,0,0,0,0,0,0,0,0,0,0,0,0,0,0,0,0,0,0,0,0,0,0,0,0,0,0,0,0,0,0,0,0,0,0,0,0,0,0,0,0,0,
0,0,0,0,0,0,0,0,0,0,0,0,0,0,0,0,0,0,0,0,0,0,0,0,0,0,3695,0,3696,0,3697,0,3698,0,3699,0,3700,0,3701,0,0,0,0,0,0,0,0,0,0,0,0,0,0,0,0,0,0,0,0,0,0,0,0,0,0,0,
0,0,0,0,0,0,0,0,0,0,0,0,0,0,0,0,0,0,0,0,0,0,0,0,0,0,0,0,0,0,0,0,0,0,0,0,0,0,0,0,0,0,0,0,0,0,0,0,0,0,0,0,0,0,0,0,0,0,0,0,0,0,0,0,0,0,
0,0,0,0,0,0,0,0,0,0,0,0,0,0,0,0,0,0,0,0,0,0,0,0,1655,0,3759,0,3760,0,3761,0,3762,0,3763,0,3764,0,3765,0,1655,0,0,0,0,0,0,0,0,0,0,0,0,0,0,0,0,0,0,0,0,0,0,0,0,0,
0,0,0,0,0,0,0,0,0,0,0,0,0,0,0,0,0,0,0,0,0,0,0,0,0,0,0,0,0,0,0,0,0,0,0,0,0,0,0,0,0,0,0,0,0,0,0,0,0,0,0,0,0,0,0,0,0,0,0,0,0,0,0,0,0,0,
0,0,0,0,0,0,0,0,0,0,0,0,0,0,0,0,0,0,0,0,0,0,0,0,1655,0,3823,0,3824,0,3825,0,3826,0,3827,0,3828,0,3829,0,1655,0,0,0,0,0,0,0,0,0,0,0,0,0,0,0,0,0,0,0,0,0,0,0,0,0,
0,0,0,0,0,0,0,0,0,0,0,0,0,0,0,0,0,0,0,0,0,0,0,0,0,0,0,0,0,0,0,0,0,0,0,0,0,0,0,0,0,0,0,0,0,0,0,0,0,0,0,0,0,0,0,0,0,0,0,0,0,0,0,0,0,0,
0,0,0,0,0,0,0,0,0,0,0,0,0,0,0,0,0,0,0,0,0,0,0,0,1655,0,3887,0,3888,0,3889,0,3890,0,3891,0,3892,0,3893,0,1655,0,0,0,0,0,0,0,0,0,0,0,0,0,0,0,0,0,0,0,0,0,0,0,0,0,
0,0,0,0,0,0,0,0,0,0,0,0,0,0,0,0,0,0,0,0,0,0,0,0,0,0,0,0,0,0,0,0,0,0,0,0,0,0,0,0,0,0,0,0,0,0,0,0,0,0,0,0,0,0,0,0,0,0,0,0,0,0,0,0,0,0,
0,0,0,0,0,0,0,0,0,0,0,0,0,0,0,0,0,0,0,0,0,0,0,0,1655,0,1655,0,1655,0,1655,0,1655,0,1655,0,1655,0,1655,0,1655,0,0,0,0,0,0,0,0,0,0,0,0,0,0,0,0,0,0,0,0,0,0,0,0,0,
0,0,0,0,0,0,0,0,0,0,0,0,0,0,0,0,0,0,0,0,0,0,0,0,0,0,0,0,0,0,0,0,0,0,0,0,0,0,0,0,0,0,0,0,0,0,0,0,0,0,0,0,0,0,0,0,0,0,0,0,0,0,0,0,0,0,
0,0,0,0,0,0,0,0,0,0,0,0,0,0,0,0,0,0,0,0,0,0,0,0,1655,0,1655,0,1655,0,1655,0,1655,0,1655,0,1655,0,1655,0,1655,0,0,0,0,0,0,0,0,0,0,0,0,0,0,0,0,0,0,0,0,0,0,0,0,0,
0,0,0,0,0,0,0,0,0,0,0,0,0,0,0,0,0,0,0,0,0,0,0,0,0,0,0,0,0,0,0,0,0,0,0,0,0,0,0,0,0,0,0,0,0,0,0,0,0,0,0,0,0,0,0,0,0,0,0,0,0,0,0,0,0,0,
0,0,0,0,0,0,0,0,0,0,0,0,0,0,0,0,0,0,0,0,0,0,0,0,1655,0,1655,0,1655,0,1655,0,1655,0,1655,0,1655,0,1655,0,1655,0,0,0,0,0,0,0,0,0,0,0,0,0,0,0,0,0,0,0,0,0,0,0,0,0,
0,0,0,0,0,0,0,0,0,0,0,0,0,0,0,0,0,0,0,0,0,0,0,0,0,0,0,0,0,0,0,0,0,0,0,0,0,0,0,0,0,0,0,0,0,0,0,0,0,0,0,0,0,0,0,0,0,0,0,0,0,0,0,0,0,0,
0,0,0,0,0,0,0,0,0,0,0,0,0,0,0,0,0,0,0,0,0,0,0,0,1655,0,1655,0,1655,0,1655,0,1655,0,1655,0,1655,0,1655,0,1655,0,0,0,0,0,0,0,0,0,0,0,0,0,0,0,0,0,0,0,0,0,0,0,0,0,
0,0,0,0,0,0,0,0,0,0,0,0,0,0,0,0,0,0,0,0,0,0,0,0,0,0,0,0,0,0,0,0,0,0,0,0,0,0,0,0,0,0,0,0,0,0,0,0,0,0,0,0,0,0,0,0,0,0,0,0,0,0,0,0,0,0,
0,0,0,0,0,0,0,0,0,0,0,0,0,0,0,0,0,0,0,0,0,0,0,0,1655,0,1655,0,1655,0,1655,0,1655,0,1655,0,1655,0,1655,0,1655,0,0,0,0,0,0,0,0,0,0,0,0,0,0,0,0,0,0,0,0,0,0,0,0,0,
0,0,0,0,0,0,0,0,0,0,0,0,0,0,0,0,0,0,0,0,0,0,0,0,0,0,0,0,0,0,0,0,0,0,0,0,0,0,0,0,0,0,0,0,0,0,0,0,0,0,0,0,0,0,0,0,0,0,0,0,0,0,0,0,0,0,
0,0,0,0,0,0,0,0,0,0,0,0,0,0,0,0,0,0,0,0,0,0,0,0,1655,0,1655,0,1655,0,1655,0,1655,0,1655,0,1655,0,1655,0,1655,0,0,0,0,0,0,0,0,0,0,0,0,0,0,0,0,0,0,0,0,0,0,0,0,0,
0,0,0,0,0,0,0,0,0,0,0,0,0,0,0,0,0,0,0,0,0,0,0,0,0,0,0,0,0,0,0,0,0,0,0,0,0,0,0,0,0,0,0,0,0,0,0,0,0,0,0,0,0,0,0,0,0,0,0,0,0,0,0,0,0,0,
0,0,0,0,0,0,0,0,0,0,0,0,0,0,0,0,0,0,0,0,0,0,0,0,1655,0,1655,0,1655,0,1655,0,1655,0,1655,0,1655,0,1655,0,1655,0,0,0,0,0,0,0,0,0,0,0,0,0,0,0,0,0,0,0,0,0,0,0,0,0,
0,0,0,0,0,0,0,0,0,0,0,0,0,0,0,0,0,0,0,0,0,0,0,0,0,0,0,0,0,0,0,0,0,0,0,0,0,0,0,0,0,0,0,0,0,0,0,0,0,0,0,0,0,0,0,0,0,0,0,0,0,0,0,0,0,0,
0,0,0,0,0,0,0,0,0,0,0,0,0,0,0,0,0,0,0,0,0,0,0,0,1655,0,1655,0,1655,0,1655,0,1655,0,1655,0,1655,0,1655,0,1655,0,0,0,0,0,0,0,0,0,0,0,0,0,0,0,0,0,0,0,0,0,0,0,0,0,
0,0,0,0,0,0,0,0,0,0,0,0,0,0,0,0,0,0,0,0,0,0,0,0,0,0,0,0,0,0,0,0,0,0,0,0,0,0,0,0,0,0,0,0,0,0,0,0,0,0,0,0,0,0,0,0,0,0,0,0,0,0,0,0,0,0,
0,0,0,0,0,0,0,0,0,0,0,0,0,0,0,0,0,0,0,0,0,0,0,0,1655,0,1655,0,1655,0,1655,0,1655,0,1655,0,1655,0,1655,0,1655,0,0,0,0,0,0,0,0,0,0,0,0,0,0,0,0,0,0,0,0,0,0,0,0,0,
0,0,0,0,0,0,0,0,0,0,0,0,0,0,0,0,0,0,0,0,0,0,0,0,0,0,0,0,0,0,0,0,0,0,0,0,0,0,0,0,0,0,0,0,0,0,0,0,0,0,0,0,0,0,0,0,0,0,0,0,0,0,0,0,0,0,
0,0,0,0,0,0,0,0,0,0,0,0,0,0,0,0,0,0,0,0,0,0,0,0,1655,0,1655,0,1655,0,1655,0,1655,0,1655,0,1655,0,1655,0,1655,0,0,0,0,0,0,0,0,0,0,0,0,0,0,0,0,0,0,0,0,0,0,0,0,0,
0,0,0,0,0,0,0,0,0,0,0,0,0,0,0,0,0,0,0,0,0,0,0,0,0,0,0,0,0,0,0,0,0,0,0,0,0,0,0,0,0,0,0,0,0,0,0,0,0,0,0,0,0,0,0,0,0,0,0,0,0,0,0,0,0,0,
0,0,0,0,0,0,0,0,0,0,0,0,0,0,0,0,0,0,0,0,0,0,0,0,1655,0,1655,0,1655,0,1655,0,1655,0,1655,0,1655,0,1655,0,1655,0,0,0,0,0,0,0,0,0,0,0,0,0,0,0,0,0,0,0,0,0,0,0,0,0,
0,0,0,0,0,0,0,0,0,0,0,0,0,0,0,0,0,0,0,0,0,0,0,0,0,0,0,0,0,0,0,0,0,0,0,0,0,0,0,0,0,0,0,0,0,0,0,0,0,0,0,0,0,0,0,0,0,0,0,0,0,0,0,0,0,0,
0,0,0,0,0,0,0,0,0,0,0,0,0,0,0,0,0,0,0,0,0,0,0,0,1655,0,1655,0,1655,0,1655,0,1655,0,1655,0,1655,0,1655,0,1655,0,0,0,0,0,0,0,0,0,0,0,0,0,0,0,0,0,0,0,0,0,0,0,0,0,
0,0,0,0,0,0,0,0,0,0,0,0,0,0,0,0,0,0,0,0,0,0,0,0,0,0,0,0,0,0,0,0,0,0,0,0,0,0,0,0,0,0,0,0,0,0,0,0,0,0,0,0,0,0,0,0,0,0,0,0,0,0,0,0,0,0,
0,0,0,0,0,0,0,0,0,0,0,0,0,0,0,0,0,0,0,0,0,0,0,0,1655,0,1655,0,1655,0,1655,0,1655,0,1655,0,1655,0,1655,0,1655,0,0,0,0,0,0,0,0,0,0,0,0,0,0,0,0,0,0,0,0,0,0,0,0,0,
0,0,0,0,0,0,0,0,0,0,0,0,0,0,0,0,0,0,0,0,0,0,0,0,0,0,0,0,0,0,0,0,0,0,0,0,0,0,0,0,0,0,0,0,0,0,0,0,0,0,0,0,0,0,0,0,0,0,0,0,0,0,0,0,0,0,
0,0,0,0,0,0,0,0,0,0,0,0,0,0,0,0,0,0,0,0,0,0,0,0,1655,0,1655,0,1655,0,1655,0,1655,0,1655,0,1655,0,1655,0,1655,0,0,0,0,0,0,0,0,0,0,0,0,0,0,0,0,0,0,0,0,0,0,0,0,0,
0,0,0,0,0,0,0,0,0,0,0,0,0,0,0,0,0,0,0,0,0,0,0,0,0,0,0,0,0,0,0,0,0,0,0,0,0,0,0,0,0,0,0,0,0,0,0,0,0,0,0,0,0,0,0,0,0,0,0,0,0,0,0,0,0,0,
0,0,0,0,0,0,0,0,0,0,0,0,0,0,0,0,0,0,0,0,0,0,0,0,1655,0,1655,0,1655,0,1655,0,1655,0,1655,0,1655,0,1655,0,1655,0,0,0,0,0,0,0,0,0,0,0,0,0,0,0,0,0,0,0,0,0,0,0,0,0,
0,0,0,0,0,0,0,0,0,0,0,0,0,0,0,0,0,0,0,0,0,0,0,0,0,0,0,0,0,0,0,0,0,0,0,0,0,0,0,0,0,0,0,0,0,0,0,0,0,0,0,0,0,0,0,0,0,0,0,0,0,0,0,0,0,0,
0,0,0,0,0,0,0,0,0,0,0,0,0,0,0,0,0,0,0,0,0,0,0,0,1655,0,1655,0,1655,0,1655,0,1655,0,1655,0,1655,0,1655,0,1655,0,0,0,0,0,0,0,0,0,0,0,0,0,0,0,0,0,0,0,0,0,0,0,0,0,
0,0,0,0,0,0,0,0,0,0,0,0,0,0,0,0,0,0,0,0,0,0,0,0,0,0,0,0,0,0,0,0,0,0,0,0,0,0,0,0,0,0,0,0,0,0,0,0,0,0,0,0,0,0,0,0,0,0,0,0,0,0,0,0,0,0,
0,0,0,0,0,0,0,0,0,0,0,0,0,0,0,0,0,0,0,0,0,0,0,0,1655,0,1655,0,1655,0,1655,0,1655,0,1655,0,1655,0,1655,0,1655,0,0,0,0,0,0,0,0,0,0,0,0,0,0,0,0,0,0,0,0,0,0,0,0,0,
0,0,0,0,0,0,0,0,0,0,0,0,0,0,0,0,0,0,0,0,0,0,0,0,0,0,0,0,0,0,0,0,0,0,0,0,0,0,0,0,0,0,0,0,0,0,0,0,0,0,0,0,0,0,0,0,0,0,0,0,0,0,0,0,0,0,
0,0,0,0,0,0,0,0,0,0,0,0,0,0,0,0,0,0,0,0,0,0,0,0,1655,0,1655,0,1655,0,1655,0,1655,0,1655,0,1655,0,1655,0,1655,0,0,0,0,0,0,0,0,0,0,0,0,0,0,0,0,0,0,0,0,0,0,0,0,0,
0,0,0,0,0,0,0,0,0,0,0,0,0,0,0,0,0,0,0,0,0,0,0,0,0,0,0,0,0,0,0,0,0,0,0,0,0,0,0,0,0,0,0,0,0,0,0,0,0,0,0,0,0,0,0,0,0,0,0,0,0,0,0,0,0,0,
0,0,0,0,0,0,0,0,0,0,0,0,0,0,0,0,0,0,0,0,0,0,0,0,1655,0,1655,0,1655,0,1655,0,1655,0,1655,0,1655,0,1655,0,1655,0,0,0,0,0,0,0,0,0,0,0,0,0,0,0,0,0,0,0,0,0,0,0,0,0,
0,0,0,0,0,0,0,0,0,0,0,0,0,0,0,0,0,0,0,0,0,0,0,0,0,0,0,0,0,0,0,0,0,0,0,0,0,0,0,0,0,0,0,0,0,0,0,0,0,0,0,0,0,0,0,0,0,0,0,0,0,0,0,0,0,0,
0,0,0,0,0,0,0,0,0,0,0,0,0,0,0,0,0,0,0,0,0,0,0,0,1655,0,1655,0,1655,0,1655,0,1655,0,1655,0,1655,0,1655,0,1655,0,0,0,0,0,0,0,0,0,0,0,0,0,0,0,0,0,0,0,0,0,0,0,0,0,
0,0,0,0,0,0,0,0,0,0,0,0,0,0,0,0,0,0,0,0,0,0,0,0,0,0,0,0,0,0,0,0,0,0,0,0,0,0,0,0,0,0,0,0,0,0,0,0,0,0,0,0,0,0,0,0,0,0,0,0,0,0,0,0,0,0,
0,0,0,0,0,0,0,0,0,0,0,0,0,0,0,0,0,0,0,0,0,0,0,0,1655,0,3439,0,3440,0,3441,0,3442,0,3443,0,3444,0,3445,0,1655,0,0,0,0,0,0,0,0,0,0,0,0,0,0,0,0,0,0,0,0,0,0,0,0,0,
0,0,0,0,0,0,0,0,0,0,0,0,0,0,0,0,0,0,0,0,0,0,0,0,0,0,0,0,0,0,0,0,0,0,0,0,0,0,0,0,0,0,0,0,0,0,0,0,0,0,0,0,0,0,0,0,0,0,0,0,0,0,0,0,0,0,
0,0,0,0,0,0,0,0,0,0,0,0,0,0,0,0,0,0,0,0,0,0,0,0,3502,0,3503,0,3504,0,3505,0,3506,0,3507,0,3508,0,3509,0,3510,0,0,0,0,0,0,0,0,0,0,0,0,0,0,0,0,0,0,0,0,0,0,0,0,0,
0,0,0,0,0,0,0,0,0,0,0,0,0,0,0,0,0,0,0,0,0,0,0,0,0,0,0,0,0,0,0,0,0,0,0,0,0,0,0,0,0,0,0,0,0,0,0,0,0,0,0,0,0,0,0,0,0,0,0,0,0,0,0,0,0,0,
0,0,0,0,0,0,0,0,0,0,0,0,0,0,0,0,0,0,0,0,0,0,0,0,3566,0,3567,0,3568,0,3569,0,3570,0,3571,0,3572,0,3573,0,3574,0,0,0,0,0,0,0,0,0,0,0,0,0,0,0,0,0,0,0,0,0,0,0,0,0,
0,0,0,0,0,0,0,0,0,0,0,0,0,0,0,0,0,0,0,0,0,0,0,0,0,0,0,0,0,0,0,0,0,0,0,0,0,0,0,0,0,0,0,0,0,0,0,0,0,0,0,0,0,0,0,0,0,0,0,0,0,0,0,0,0,0,
0,0,0,0,0,0,0,0,0,0,0,0,0,0,0,0,0,0,0,0,0,0,0,0,3630,0,3631,0,3632,0,3633,0,3634,0,3635,0,3636,0,3637,0,1655,0,0,0,0,0,0,0,0,0,0,0,0,0,0,0,0,0,0,0,0,0,0,0,0,0,
0,0,0,0,0,0,0,0,0,0,0,0,0,0,0,0,0,0,0,0,0,0,0,0,0,0,0,0,0,0,0,0,0,0,0,0,0,0,0,0,0,0,0,0,0,0,0,0,0,0,0,0,0,0,0,0,0,0,0,0,0,0,0,0,0,0,
0,0,0,0,0,0,0,0,0,0,0,0,0,0,0,0,0,0,0,0,0,0,0,0,1655,0,1655,0,1655,0,1655,0,1655,0,1655,0,1655,0,1655,0,1655,0,0,0,0,0,0,0,0,0,0,0,0,0,0,0,0,0,0,0,0,0,0,0,0,0,
0,0,0,0,0,0,0,0,0,0,0,0,0,0,0,0,0,0,0,0,0,0,0,0,0,0,0,0,0,0,0,0,0,0,0,0,0,0,0,0,0,0,0,0,0,0,0,0,0,0,0,0,0,0,0,0,0,0,0,0,0,0,0,0,0,0,
0,0,0,0,0,0,0,0,0,0,0,0,0,0,0,0,0,0,0,0,0,0,0,0,0,0,0,0,0,0,0,0,0,0,0,0,0,0,0,0,0,0,0,0,0,0,0,0,0,0,0,0,0,0,0,0,0,0,0,0,0,0,0,0,0,0,
0,0,0,0,0,0,0,0,0,0,0,0,0,0,0,0,0,0,0,0,0,0,0,0,0,0,0,0,0,0,0,0,0,0,0,0,0,0,0,0,0,0,0,0,0,0,0,0,0,0,0,0,0,0,0,0,0,0,0,0,0,0,0,0,0,0,
0,0,0,0,0,0,0,0,0,0,0,0,0,0,0,0,0,0,0,0,0,0,0,0,0,0,0,0,0,0,0,0,0,0,0,0,0,0,0,0,0,0,0,0,0,0,0,0,0,0,0,0,0,0,0,0,0,0,0,0,0,0,0,0,0,0,
0,0,0,0,0,0,0,0,0,0,0,0,0,0,0,0,0,0,0,0,0,0,0,0,0,0,0,0,0,0,0,0,0,0,0,0,0,0,0,0,0,0,0,0,0,0,0,0,0,0,0,0,0,0,0,0,0,0,0,0,0,0,0,0,0,0,
0,0,0,0,0,0,0,0,0,0,0,0,0,0,0,0,0,0,0,0,0,0,0,0,0,0,0,0,0,0,0,0,0,0,0,0,0,0,0,0,0,0,0,0,0,0,0,0,0,0,0,0,0,0,0,0,0,0,0,0,0,0,0,0,0,0,
0,0,0,0,0,0,0,0,0,0,0,0,0,0,0,0,0,0,0,0,0,0,0,0,0,0,0,0,0,0,0,0,0,0,0,0,0,0,0,0,0,0,0,0,0,0,0,0,0,0,0,0,0,0,0,0,0,0,0,0,0,0,0,0,0,0
</data>
  </layer>
 </group>
 <objectgroup draworder="index" id="7" name="Instances">
  <object id="25" template="../../templates/objects/obj_star_brooch.tx" type="obj_star_brooch" x="160" y="284">
   <properties>
    <property name="npc_name" value="seridia"/>
    <property name="z" type="float" value="-5"/>
   </properties>
  </object>
  <object id="26" template="../../templates/obj_seridias_crafting_station.tx" type="obj_seridias_crafting_station" x="208" y="432"/>
 </objectgroup>
 <layer id="8" name="FootstepTiles" width="66" height="74" visible="0">
  <properties>
   <property name="maybe_animation_id" value="9b6388374855b54b"/>
   <property name="maybe_tileset_id" value="5fc72aa2902dea7"/>
   <property name="tile_size" type="int" value="16"/>
  </properties>
  <data encoding="csv">
1520,0,1520,0,1520,0,1520,0,1520,0,1520,0,1520,0,1520,0,1520,0,1520,0,1520,0,1520,0,1520,0,1520,0,1520,0,1520,0,1520,0,1520,0,1520,0,1520,0,1520,0,1520,0,1520,0,1520,0,1520,0,1520,0,1520,0,1520,0,1520,0,1520,0,1520,0,1520,0,1520,0,
0,0,0,0,0,0,0,0,0,0,0,0,0,0,0,0,0,0,0,0,0,0,0,0,0,0,0,0,0,0,0,0,0,0,0,0,0,0,0,0,0,0,0,0,0,0,0,0,0,0,0,0,0,0,0,0,0,0,0,0,0,0,0,0,0,0,
1520,0,1520,0,1520,0,1520,0,1520,0,1520,0,1520,0,1520,0,1520,0,1520,0,1520,0,1520,0,1520,0,1520,0,1520,0,1520,0,1520,0,1520,0,1520,0,1520,0,1520,0,1520,0,1520,0,1520,0,1520,0,1520,0,1520,0,1520,0,1520,0,1520,0,1520,0,1520,0,1520,0,
0,0,0,0,0,0,0,0,0,0,0,0,0,0,0,0,0,0,0,0,0,0,0,0,0,0,0,0,0,0,0,0,0,0,0,0,0,0,0,0,0,0,0,0,0,0,0,0,0,0,0,0,0,0,0,0,0,0,0,0,0,0,0,0,0,0,
1520,0,1520,0,1520,0,1520,0,1520,0,1520,0,1520,0,1520,0,1520,0,1520,0,1520,0,1520,0,1520,0,1520,0,1520,0,1520,0,1520,0,1520,0,1520,0,1520,0,1520,0,1520,0,1520,0,1520,0,1520,0,1520,0,1520,0,1520,0,1520,0,1520,0,1520,0,1520,0,1520,0,
0,0,0,0,0,0,0,0,0,0,0,0,0,0,0,0,0,0,0,0,0,0,0,0,0,0,0,0,0,0,0,0,0,0,0,0,0,0,0,0,0,0,0,0,0,0,0,0,0,0,0,0,0,0,0,0,0,0,0,0,0,0,0,0,0,0,
1520,0,1520,0,1520,0,1520,0,1520,0,1520,0,1520,0,1520,0,1520,0,1520,0,1520,0,1520,0,1520,0,1520,0,1520,0,1520,0,1520,0,1520,0,1520,0,1520,0,1520,0,1520,0,1520,0,1520,0,1520,0,1520,0,1520,0,1520,0,1520,0,1520,0,1520,0,1520,0,1520,0,
0,0,0,0,0,0,0,0,0,0,0,0,0,0,0,0,0,0,0,0,0,0,0,0,0,0,0,0,0,0,0,0,0,0,0,0,0,0,0,0,0,0,0,0,0,0,0,0,0,0,0,0,0,0,0,0,0,0,0,0,0,0,0,0,0,0,
1520,0,1520,0,1520,0,1520,0,1520,0,1520,0,1520,0,1520,0,1520,0,1520,0,1520,0,1520,0,1520,0,1520,0,1520,0,1520,0,1520,0,1520,0,1520,0,1520,0,1520,0,1520,0,1520,0,1520,0,1520,0,1520,0,1520,0,1520,0,1520,0,1520,0,1520,0,1520,0,1520,0,
0,0,0,0,0,0,0,0,0,0,0,0,0,0,0,0,0,0,0,0,0,0,0,0,0,0,0,0,0,0,0,0,0,0,0,0,0,0,0,0,0,0,0,0,0,0,0,0,0,0,0,0,0,0,0,0,0,0,0,0,0,0,0,0,0,0,
1520,0,1520,0,1520,0,1520,0,1520,0,1520,0,1520,0,1520,0,1520,0,1520,0,1520,0,1520,0,1520,0,1520,0,1520,0,1520,0,1520,0,1520,0,1520,0,1520,0,1520,0,1520,0,1520,0,1520,0,1520,0,1520,0,1520,0,1520,0,1520,0,1520,0,1520,0,1520,0,1520,0,
0,0,0,0,0,0,0,0,0,0,0,0,0,0,0,0,0,0,0,0,0,0,0,0,0,0,0,0,0,0,0,0,0,0,0,0,0,0,0,0,0,0,0,0,0,0,0,0,0,0,0,0,0,0,0,0,0,0,0,0,0,0,0,0,0,0,
1520,0,1520,0,1520,0,1520,0,1520,0,1520,0,1520,0,1520,0,1520,0,1520,0,1520,0,1520,0,1520,0,1520,0,1520,0,1520,0,1520,0,1520,0,1520,0,1520,0,1520,0,1520,0,1520,0,1520,0,1520,0,1520,0,1520,0,1520,0,1520,0,1520,0,1520,0,1520,0,1520,0,
0,0,0,0,0,0,0,0,0,0,0,0,0,0,0,0,0,0,0,0,0,0,0,0,0,0,0,0,0,0,0,0,0,0,0,0,0,0,0,0,0,0,0,0,0,0,0,0,0,0,0,0,0,0,0,0,0,0,0,0,0,0,0,0,0,0,
1520,0,1520,0,1520,0,1520,0,1520,0,1520,0,1520,0,1520,0,1520,0,1520,0,1520,0,1520,0,1520,0,1520,0,1520,0,1520,0,1520,0,1520,0,1520,0,1520,0,1520,0,1520,0,1520,0,1520,0,1520,0,1520,0,1520,0,1520,0,1520,0,1520,0,1520,0,1520,0,1520,0,
0,0,0,0,0,0,0,0,0,0,0,0,0,0,0,0,0,0,0,0,0,0,0,0,0,0,0,0,0,0,0,0,0,0,0,0,0,0,0,0,0,0,0,0,0,0,0,0,0,0,0,0,0,0,0,0,0,0,0,0,0,0,0,0,0,0,
1520,0,1520,0,1520,0,1520,0,1520,0,1520,0,1520,0,1520,0,1520,0,1520,0,1520,0,1520,0,1520,0,1520,0,1520,0,1520,0,1520,0,1520,0,1520,0,1520,0,1520,0,1520,0,1520,0,1520,0,1520,0,1520,0,1520,0,1520,0,1520,0,1520,0,1520,0,1520,0,1520,0,
0,0,0,0,0,0,0,0,0,0,0,0,0,0,0,0,0,0,0,0,0,0,0,0,0,0,0,0,0,0,0,0,0,0,0,0,0,0,0,0,0,0,0,0,0,0,0,0,0,0,0,0,0,0,0,0,0,0,0,0,0,0,0,0,0,0,
1520,0,1520,0,1520,0,1520,0,1520,0,1520,0,1520,0,1520,0,1520,0,1520,0,1520,0,1520,0,1520,0,1520,0,1520,0,1520,0,1520,0,1520,0,1520,0,1520,0,1520,0,1520,0,1520,0,1520,0,1520,0,1520,0,1520,0,1520,0,1520,0,1520,0,1520,0,1520,0,1520,0,
0,0,0,0,0,0,0,0,0,0,0,0,0,0,0,0,0,0,0,0,0,0,0,0,0,0,0,0,0,0,0,0,0,0,0,0,0,0,0,0,0,0,0,0,0,0,0,0,0,0,0,0,0,0,0,0,0,0,0,0,0,0,0,0,0,0,
1520,0,1520,0,1520,0,1520,0,1520,0,1520,0,1520,0,1520,0,1520,0,1520,0,1520,0,1520,0,1520,0,1520,0,1520,0,1520,0,1520,0,1520,0,1520,0,1520,0,1520,0,1520,0,1520,0,1520,0,1520,0,1520,0,1520,0,1520,0,1520,0,1520,0,1520,0,1520,0,1520,0,
0,0,0,0,0,0,0,0,0,0,0,0,0,0,0,0,0,0,0,0,0,0,0,0,0,0,0,0,0,0,0,0,0,0,0,0,0,0,0,0,0,0,0,0,0,0,0,0,0,0,0,0,0,0,0,0,0,0,0,0,0,0,0,0,0,0,
1520,0,1520,0,1520,0,1520,0,1520,0,1520,0,1520,0,1520,0,1520,0,1520,0,1520,0,1520,0,1520,0,1520,0,1520,0,1520,0,1520,0,1520,0,1520,0,1520,0,1520,0,1520,0,1520,0,1520,0,1520,0,1520,0,1520,0,1520,0,1520,0,1520,0,1520,0,1520,0,1520,0,
0,0,0,0,0,0,0,0,0,0,0,0,0,0,0,0,0,0,0,0,0,0,0,0,0,0,0,0,0,0,0,0,0,0,0,0,0,0,0,0,0,0,0,0,0,0,0,0,0,0,0,0,0,0,0,0,0,0,0,0,0,0,0,0,0,0,
1520,0,1520,0,1520,0,1520,0,1520,0,1520,0,1520,0,1520,0,1520,0,1520,0,1520,0,1520,0,1520,0,1520,0,1520,0,1520,0,1520,0,1520,0,1520,0,1520,0,1520,0,1520,0,1520,0,1520,0,1520,0,1520,0,1520,0,1520,0,1520,0,1520,0,1520,0,1520,0,1520,0,
0,0,0,0,0,0,0,0,0,0,0,0,0,0,0,0,0,0,0,0,0,0,0,0,0,0,0,0,0,0,0,0,0,0,0,0,0,0,0,0,0,0,0,0,0,0,0,0,0,0,0,0,0,0,0,0,0,0,0,0,0,0,0,0,0,0,
1520,0,1520,0,1520,0,1520,0,1520,0,1520,0,1520,0,1520,0,1520,0,1520,0,1520,0,1520,0,1520,0,1520,0,1520,0,1520,0,1520,0,1520,0,1520,0,1520,0,1520,0,1520,0,1520,0,1520,0,1520,0,1520,0,1520,0,1520,0,1520,0,1520,0,1520,0,1520,0,1520,0,
0,0,0,0,0,0,0,0,0,0,0,0,0,0,0,0,0,0,0,0,0,0,0,0,0,0,0,0,0,0,0,0,0,0,0,0,0,0,0,0,0,0,0,0,0,0,0,0,0,0,0,0,0,0,0,0,0,0,0,0,0,0,0,0,0,0,
1520,0,1520,0,1520,0,1520,0,1520,0,1520,0,1520,0,1520,0,1520,0,1520,0,1520,0,1520,0,1520,0,1520,0,1520,0,1520,0,1520,0,1520,0,1520,0,1520,0,1520,0,1520,0,1520,0,1520,0,1520,0,1520,0,1520,0,1520,0,1520,0,1520,0,1520,0,1520,0,1520,0,
0,0,0,0,0,0,0,0,0,0,0,0,0,0,0,0,0,0,0,0,0,0,0,0,0,0,0,0,0,0,0,0,0,0,0,0,0,0,0,0,0,0,0,0,0,0,0,0,0,0,0,0,0,0,0,0,0,0,0,0,0,0,0,0,0,0,
1520,0,1520,0,1520,0,1520,0,1520,0,1520,0,1520,0,1520,0,1520,0,1520,0,1520,0,1520,0,1520,0,1520,0,1520,0,1520,0,1520,0,1520,0,1520,0,1520,0,1520,0,1520,0,1520,0,1520,0,1520,0,1520,0,1520,0,1520,0,1520,0,1520,0,1520,0,1520,0,1520,0,
0,0,0,0,0,0,0,0,0,0,0,0,0,0,0,0,0,0,0,0,0,0,0,0,0,0,0,0,0,0,0,0,0,0,0,0,0,0,0,0,0,0,0,0,0,0,0,0,0,0,0,0,0,0,0,0,0,0,0,0,0,0,0,0,0,0,
1520,0,1520,0,1520,0,1520,0,1520,0,1520,0,1520,0,1520,0,1520,0,1520,0,1520,0,1520,0,1520,0,1520,0,1520,0,1520,0,1520,0,1520,0,1520,0,1520,0,1520,0,1520,0,1520,0,1520,0,1520,0,1520,0,1520,0,1520,0,1520,0,1520,0,1520,0,1520,0,1520,0,
0,0,0,0,0,0,0,0,0,0,0,0,0,0,0,0,0,0,0,0,0,0,0,0,0,0,0,0,0,0,0,0,0,0,0,0,0,0,0,0,0,0,0,0,0,0,0,0,0,0,0,0,0,0,0,0,0,0,0,0,0,0,0,0,0,0,
1520,0,1520,0,1520,0,1520,0,1520,0,1520,0,1520,0,1520,0,1520,0,1520,0,1520,0,1520,0,1520,0,1520,0,1520,0,1520,0,1520,0,1520,0,1520,0,1520,0,1520,0,1520,0,1520,0,1520,0,1520,0,1520,0,1520,0,1520,0,1520,0,1520,0,1520,0,1520,0,1520,0,
0,0,0,0,0,0,0,0,0,0,0,0,0,0,0,0,0,0,0,0,0,0,0,0,0,0,0,0,0,0,0,0,0,0,0,0,0,0,0,0,0,0,0,0,0,0,0,0,0,0,0,0,0,0,0,0,0,0,0,0,0,0,0,0,0,0,
1520,0,1520,0,1520,0,1520,0,1520,0,1520,0,1520,0,1520,0,1520,0,1520,0,1520,0,1520,0,1520,0,1520,0,1520,0,1520,0,1520,0,1520,0,1520,0,1520,0,1520,0,1520,0,1520,0,1520,0,1520,0,1520,0,1520,0,1520,0,1520,0,1520,0,1520,0,1520,0,1520,0,
0,0,0,0,0,0,0,0,0,0,0,0,0,0,0,0,0,0,0,0,0,0,0,0,0,0,0,0,0,0,0,0,0,0,0,0,0,0,0,0,0,0,0,0,0,0,0,0,0,0,0,0,0,0,0,0,0,0,0,0,0,0,0,0,0,0,
1520,0,1520,0,1520,0,1520,0,1520,0,1520,0,1520,0,1520,0,1520,0,1520,0,1520,0,1520,0,1520,0,1520,0,1520,0,1520,0,1520,0,1520,0,1520,0,1520,0,1520,0,1520,0,1520,0,1520,0,1520,0,1520,0,1520,0,1520,0,1520,0,1520,0,1520,0,1520,0,1520,0,
0,0,0,0,0,0,0,0,0,0,0,0,0,0,0,0,0,0,0,0,0,0,0,0,0,0,0,0,0,0,0,0,0,0,0,0,0,0,0,0,0,0,0,0,0,0,0,0,0,0,0,0,0,0,0,0,0,0,0,0,0,0,0,0,0,0,
1520,0,1520,0,1520,0,1520,0,1520,0,1520,0,1520,0,1520,0,1520,0,1520,0,1520,0,1520,0,1520,0,1520,0,1520,0,1520,0,1520,0,1520,0,1520,0,1520,0,1520,0,1520,0,1520,0,1520,0,1520,0,1520,0,1520,0,1520,0,1520,0,1520,0,1520,0,1520,0,1520,0,
0,0,0,0,0,0,0,0,0,0,0,0,0,0,0,0,0,0,0,0,0,0,0,0,0,0,0,0,0,0,0,0,0,0,0,0,0,0,0,0,0,0,0,0,0,0,0,0,0,0,0,0,0,0,0,0,0,0,0,0,0,0,0,0,0,0,
1520,0,1520,0,1520,0,1520,0,1520,0,1520,0,1520,0,1520,0,1520,0,1520,0,1520,0,1520,0,1520,0,1520,0,1520,0,1520,0,1520,0,1520,0,1520,0,1520,0,1520,0,1520,0,1520,0,1520,0,1520,0,1520,0,1520,0,1520,0,1520,0,1520,0,1520,0,1520,0,1520,0,
0,0,0,0,0,0,0,0,0,0,0,0,0,0,0,0,0,0,0,0,0,0,0,0,0,0,0,0,0,0,0,0,0,0,0,0,0,0,0,0,0,0,0,0,0,0,0,0,0,0,0,0,0,0,0,0,0,0,0,0,0,0,0,0,0,0,
1520,0,1520,0,1520,0,1520,0,1520,0,1520,0,1520,0,1520,0,1520,0,1520,0,1520,0,1520,0,1520,0,1520,0,1520,0,1520,0,1520,0,1520,0,1520,0,1520,0,1520,0,1520,0,1520,0,1520,0,1520,0,1520,0,1520,0,1520,0,1520,0,1520,0,1520,0,1520,0,1520,0,
0,0,0,0,0,0,0,0,0,0,0,0,0,0,0,0,0,0,0,0,0,0,0,0,0,0,0,0,0,0,0,0,0,0,0,0,0,0,0,0,0,0,0,0,0,0,0,0,0,0,0,0,0,0,0,0,0,0,0,0,0,0,0,0,0,0,
1520,0,1520,0,1520,0,1520,0,1520,0,1520,0,1520,0,1520,0,1520,0,1520,0,1520,0,1520,0,1520,0,1520,0,1520,0,1520,0,1520,0,1520,0,1520,0,1520,0,1520,0,1520,0,1520,0,1520,0,1520,0,1520,0,1520,0,1520,0,1520,0,1520,0,1520,0,1520,0,1520,0,
0,0,0,0,0,0,0,0,0,0,0,0,0,0,0,0,0,0,0,0,0,0,0,0,0,0,0,0,0,0,0,0,0,0,0,0,0,0,0,0,0,0,0,0,0,0,0,0,0,0,0,0,0,0,0,0,0,0,0,0,0,0,0,0,0,0,
1520,0,1520,0,1520,0,1520,0,1520,0,1520,0,1520,0,1520,0,1520,0,1520,0,1520,0,1520,0,1520,0,1520,0,1520,0,1520,0,1520,0,1520,0,1520,0,1520,0,1520,0,1520,0,1520,0,1520,0,1520,0,1520,0,1520,0,1520,0,1520,0,1520,0,1520,0,1520,0,1520,0,
0,0,0,0,0,0,0,0,0,0,0,0,0,0,0,0,0,0,0,0,0,0,0,0,0,0,0,0,0,0,0,0,0,0,0,0,0,0,0,0,0,0,0,0,0,0,0,0,0,0,0,0,0,0,0,0,0,0,0,0,0,0,0,0,0,0,
1520,0,1520,0,1520,0,1520,0,1520,0,1520,0,1520,0,1520,0,1520,0,1520,0,1520,0,1520,0,1520,0,1520,0,1520,0,1520,0,1520,0,1520,0,1520,0,1520,0,1520,0,1520,0,1520,0,1520,0,1520,0,1520,0,1520,0,1520,0,1520,0,1520,0,1520,0,1520,0,1520,0,
0,0,0,0,0,0,0,0,0,0,0,0,0,0,0,0,0,0,0,0,0,0,0,0,0,0,0,0,0,0,0,0,0,0,0,0,0,0,0,0,0,0,0,0,0,0,0,0,0,0,0,0,0,0,0,0,0,0,0,0,0,0,0,0,0,0,
1520,0,1520,0,1520,0,1520,0,1520,0,1520,0,1520,0,1520,0,1520,0,1520,0,1520,0,1520,0,1520,0,1520,0,1520,0,1520,0,1520,0,1520,0,1520,0,1520,0,1520,0,1520,0,1520,0,1520,0,1520,0,1520,0,1520,0,1520,0,1520,0,1520,0,1520,0,1520,0,1520,0,
0,0,0,0,0,0,0,0,0,0,0,0,0,0,0,0,0,0,0,0,0,0,0,0,0,0,0,0,0,0,0,0,0,0,0,0,0,0,0,0,0,0,0,0,0,0,0,0,0,0,0,0,0,0,0,0,0,0,0,0,0,0,0,0,0,0,
1520,0,1520,0,1520,0,1520,0,1520,0,1520,0,1520,0,1520,0,1520,0,1520,0,1520,0,1520,0,1520,0,1520,0,1520,0,1520,0,1520,0,1520,0,1520,0,1520,0,1520,0,1520,0,1520,0,1520,0,1520,0,1520,0,1520,0,1520,0,1520,0,1520,0,1520,0,1520,0,1520,0,
0,0,0,0,0,0,0,0,0,0,0,0,0,0,0,0,0,0,0,0,0,0,0,0,0,0,0,0,0,0,0,0,0,0,0,0,0,0,0,0,0,0,0,0,0,0,0,0,0,0,0,0,0,0,0,0,0,0,0,0,0,0,0,0,0,0,
1520,0,1520,0,1520,0,1520,0,1520,0,1520,0,1520,0,1520,0,1520,0,1520,0,1520,0,1520,0,1520,0,1520,0,1520,0,1520,0,1520,0,1520,0,1520,0,1520,0,1520,0,1520,0,1520,0,1520,0,1520,0,1520,0,1520,0,1520,0,1520,0,1520,0,1520,0,1520,0,1520,0,
0,0,0,0,0,0,0,0,0,0,0,0,0,0,0,0,0,0,0,0,0,0,0,0,0,0,0,0,0,0,0,0,0,0,0,0,0,0,0,0,0,0,0,0,0,0,0,0,0,0,0,0,0,0,0,0,0,0,0,0,0,0,0,0,0,0,
1520,0,1520,0,1520,0,1520,0,1520,0,1520,0,1520,0,1520,0,1520,0,1520,0,1520,0,1520,0,1520,0,1520,0,1520,0,1520,0,1520,0,1520,0,1520,0,1520,0,1520,0,1520,0,1520,0,1520,0,1520,0,1520,0,1520,0,1520,0,1520,0,1520,0,1520,0,1520,0,1520,0,
0,0,0,0,0,0,0,0,0,0,0,0,0,0,0,0,0,0,0,0,0,0,0,0,0,0,0,0,0,0,0,0,0,0,0,0,0,0,0,0,0,0,0,0,0,0,0,0,0,0,0,0,0,0,0,0,0,0,0,0,0,0,0,0,0,0,
1520,0,1520,0,1520,0,1520,0,1520,0,1520,0,1520,0,1520,0,1520,0,1520,0,1520,0,1520,0,1520,0,1520,0,1520,0,1520,0,1520,0,1520,0,1520,0,1520,0,1520,0,1520,0,1520,0,1520,0,1520,0,1520,0,1520,0,1520,0,1520,0,1520,0,1520,0,1520,0,1520,0,
0,0,0,0,0,0,0,0,0,0,0,0,0,0,0,0,0,0,0,0,0,0,0,0,0,0,0,0,0,0,0,0,0,0,0,0,0,0,0,0,0,0,0,0,0,0,0,0,0,0,0,0,0,0,0,0,0,0,0,0,0,0,0,0,0,0,
1520,0,1520,0,1520,0,1520,0,1520,0,1520,0,1520,0,1520,0,1520,0,1520,0,1520,0,1520,0,1520,0,1520,0,1520,0,1520,0,1520,0,1520,0,1520,0,1520,0,1520,0,1520,0,1520,0,1520,0,1520,0,1520,0,1520,0,1520,0,1520,0,1520,0,1520,0,1520,0,1520,0,
0,0,0,0,0,0,0,0,0,0,0,0,0,0,0,0,0,0,0,0,0,0,0,0,0,0,0,0,0,0,0,0,0,0,0,0,0,0,0,0,0,0,0,0,0,0,0,0,0,0,0,0,0,0,0,0,0,0,0,0,0,0,0,0,0,0,
1520,0,1520,0,1520,0,1520,0,1520,0,1520,0,1520,0,1520,0,1520,0,1520,0,1520,0,1520,0,1520,0,1520,0,1520,0,1520,0,1520,0,1520,0,1520,0,1520,0,1520,0,1520,0,1520,0,1520,0,1520,0,1520,0,1520,0,1520,0,1520,0,1520,0,1520,0,1520,0,1520,0,
0,0,0,0,0,0,0,0,0,0,0,0,0,0,0,0,0,0,0,0,0,0,0,0,0,0,0,0,0,0,0,0,0,0,0,0,0,0,0,0,0,0,0,0,0,0,0,0,0,0,0,0,0,0,0,0,0,0,0,0,0,0,0,0,0,0,
1520,0,1520,0,1520,0,1520,0,1520,0,1520,0,1520,0,1520,0,1520,0,1520,0,1520,0,1520,0,1520,0,1520,0,1520,0,1520,0,1520,0,1520,0,1520,0,1520,0,1520,0,1520,0,1520,0,1520,0,1520,0,1520,0,1520,0,1520,0,1520,0,1520,0,1520,0,1520,0,1520,0,
0,0,0,0,0,0,0,0,0,0,0,0,0,0,0,0,0,0,0,0,0,0,0,0,0,0,0,0,0,0,0,0,0,0,0,0,0,0,0,0,0,0,0,0,0,0,0,0,0,0,0,0,0,0,0,0,0,0,0,0,0,0,0,0,0,0,
1520,0,1520,0,1520,0,1520,0,1520,0,1520,0,1520,0,1520,0,1520,0,1520,0,1520,0,1520,0,1520,0,1520,0,1520,0,1520,0,1520,0,1520,0,1520,0,1520,0,1520,0,1520,0,1520,0,1520,0,1520,0,1520,0,1520,0,1520,0,1520,0,1520,0,1520,0,1520,0,1520,0,
0,0,0,0,0,0,0,0,0,0,0,0,0,0,0,0,0,0,0,0,0,0,0,0,0,0,0,0,0,0,0,0,0,0,0,0,0,0,0,0,0,0,0,0,0,0,0,0,0,0,0,0,0,0,0,0,0,0,0,0,0,0,0,0,0,0,
1520,0,1520,0,1520,0,1520,0,1520,0,1520,0,1520,0,1520,0,1520,0,1520,0,1520,0,1520,0,1520,0,1520,0,1520,0,1520,0,1520,0,1520,0,1520,0,1520,0,1520,0,1520,0,1520,0,1520,0,1520,0,1520,0,1520,0,1520,0,1520,0,1520,0,1520,0,1520,0,1520,0,
0,0,0,0,0,0,0,0,0,0,0,0,0,0,0,0,0,0,0,0,0,0,0,0,0,0,0,0,0,0,0,0,0,0,0,0,0,0,0,0,0,0,0,0,0,0,0,0,0,0,0,0,0,0,0,0,0,0,0,0,0,0,0,0,0,0,
1520,0,1520,0,1520,0,1520,0,1520,0,1520,0,1520,0,1520,0,1520,0,1520,0,1520,0,1520,0,1520,0,1520,0,1520,0,1520,0,1520,0,1520,0,1520,0,1520,0,1520,0,1520,0,1520,0,1520,0,1520,0,1520,0,1520,0,1520,0,1520,0,1520,0,1520,0,1520,0,1520,0,
0,0,0,0,0,0,0,0,0,0,0,0,0,0,0,0,0,0,0,0,0,0,0,0,0,0,0,0,0,0,0,0,0,0,0,0,0,0,0,0,0,0,0,0,0,0,0,0,0,0,0,0,0,0,0,0,0,0,0,0,0,0,0,0,0,0
</data>
 </layer>
 <layer id="9" name="Tiles_Collision" width="66" height="74">
  <properties>
   <property name="maybe_animation_id" value="d5b5e9552171fe70"/>
   <property name="maybe_tileset_id" value="b29026a2ad0be741"/>
   <property name="tile_size" type="int" value="8"/>
  </properties>
  <data encoding="csv">
1507,1507,1507,1507,1507,1507,1507,1507,1507,1507,1507,1507,1507,1507,1507,1507,1507,1507,1507,1507,1507,1507,1507,1507,1507,1507,1507,1507,1507,1507,1507,1507,1507,1507,1507,1507,1507,1507,1507,1507,1507,1507,1507,1507,1507,1507,1507,1507,1507,1507,1507,1507,1507,1507,1507,1507,1507,1507,1507,1507,1507,1507,1507,1507,1507,1507,
1507,1507,1507,1507,1507,1507,1507,1507,1507,1507,1507,1507,1507,1507,1507,1507,1507,1507,1507,1507,1507,1507,1507,1507,1507,1507,1507,1507,1507,1507,1507,1507,1507,1507,1507,1507,1507,1507,1507,1507,1507,1507,1507,1507,1507,1507,1507,1507,1507,1507,1507,1507,1507,1507,1507,1507,1507,1507,1507,1507,1507,1507,1507,1507,1507,1507,
1507,1507,1507,1507,1507,1507,1507,1507,1507,1507,1507,1507,1507,1507,1507,1507,1507,1507,1507,1507,1507,1507,1507,1507,1507,1507,1507,1507,1507,1507,1507,1507,1507,1507,1507,1507,1507,1507,1507,1507,1507,1507,1507,1507,1507,1507,1507,1507,1507,1507,1507,1507,1507,1507,1507,1507,1507,1507,1507,1507,1507,1507,1507,1507,1507,1507,
1507,1507,1507,1507,1507,1507,1507,1507,1507,1507,1507,1507,1507,1507,1507,1507,1507,1507,1507,1507,1507,1507,1507,1507,1507,1507,1507,1507,1507,1507,1507,1507,1507,1507,1507,1507,1507,1507,1507,1507,1507,1507,1507,1507,1507,1507,1507,1507,1507,1507,1507,1507,1507,1507,1507,1507,1507,1507,1507,1507,1507,1507,1507,1507,1507,1507,
1507,1507,1507,1507,1507,1507,1507,1507,1507,1507,1507,1507,1507,1507,1507,1507,1507,1507,1507,1507,1507,1507,1507,1507,1507,1507,1507,1507,1507,1507,1507,1507,1507,1507,1507,1507,1507,1507,1507,1507,1507,1507,1507,1507,1507,1507,1507,1507,1507,1507,1507,1507,1507,1507,1507,1507,1507,1507,1507,1507,1507,1507,1507,1507,1507,1507,
1507,1507,1507,1507,1507,1507,1507,1507,1507,1507,1507,1507,1507,1507,1507,1507,1507,1507,1507,1507,1507,1507,1507,1507,1507,1507,1507,1507,1507,1507,1507,1507,1507,1507,1507,1507,1507,1507,1507,1507,1507,1507,1507,1507,1507,1507,1507,1507,1507,1507,1507,1507,1507,1507,1507,1507,1507,1507,1507,1507,1507,1507,1507,1507,1507,1507,
1507,1507,1507,1507,1507,1507,1507,1507,1507,1507,1507,1507,1507,1507,1507,1507,1507,1507,1507,1507,1507,1507,1507,1507,1507,1507,1507,1507,1507,1507,1507,1507,1507,1507,1507,1507,1507,1507,1507,1507,1507,1507,1507,1507,1507,1507,1507,1507,1507,1507,1507,1507,1507,1507,1507,1507,1507,1507,1507,1507,1507,1507,1507,1507,1507,1507,
1507,1507,1507,1507,1507,1507,1507,1507,1507,1507,1507,1507,1507,1507,1507,1507,1507,1507,1507,1507,1507,1507,1507,1507,1507,1507,1507,1507,1507,1507,1507,1507,1507,1507,1507,1507,1507,1507,1507,1507,1507,1507,1507,1507,1507,1507,1507,1507,1507,1507,1507,1507,1507,1507,1507,1507,1507,1507,1507,1507,1507,1507,1507,1507,1507,1507,
1507,1507,1507,1507,1507,1507,1507,1507,1507,1507,1507,1507,1507,1507,1507,1507,1507,1507,1507,1507,1507,1507,1507,1507,1507,1507,1507,1507,1507,1507,1507,1507,1507,1507,1507,1507,1507,1507,1507,1507,1507,1507,1507,1507,1507,1507,1507,1507,1507,1507,1507,1507,1507,1507,1507,1507,1507,1507,1507,1507,1507,1507,1507,1507,1507,1507,
1507,1507,1507,1507,1507,1507,1507,1507,1507,1507,1507,1507,1507,1507,1507,1507,1507,1507,1507,1507,1507,1507,1507,1507,1507,1507,1507,1507,1507,1507,1507,1507,1507,1507,1507,1507,1507,1507,1507,1507,1507,1507,1507,1507,1507,1507,1507,1507,1507,1507,1507,1507,1507,1507,1507,1507,1507,1507,1507,1507,1507,1507,1507,1507,1507,1507,
1507,1507,1507,1507,1507,1507,1507,1507,1507,1507,1507,1507,1507,1507,1507,1507,1507,1507,1507,1507,1507,1507,1507,1507,1507,1507,1507,1507,1507,1507,1507,1507,1507,1507,1507,1507,1507,1507,1507,1507,1507,1507,1507,1507,1507,1507,1507,1507,1507,1507,1507,1507,1507,1507,1507,1507,1507,1507,1507,1507,1507,1507,1507,1507,1507,1507,
1507,1507,1507,1507,1507,1507,1507,1507,1507,1507,1507,1507,1507,1507,1507,1507,1507,1507,1507,1507,1507,1507,1507,1507,1507,1507,1507,1507,1507,1507,1507,1507,1507,1507,1507,1507,1507,1507,1507,1507,1507,1507,1507,1507,1507,1507,1507,1507,1507,1507,1507,1507,1507,1507,1507,1507,1507,1507,1507,1507,1507,1507,1507,1507,1507,1507,
1507,1507,1507,1507,1507,1507,1507,1507,1507,1507,1507,1507,1507,1507,1507,1507,1507,1507,1507,1507,1507,1507,1507,1507,1507,1507,1507,1507,1507,1507,1507,1507,1507,1507,1507,1507,1507,1507,1507,1507,1507,1507,1507,1507,1507,1507,1507,1507,1507,1507,1507,1507,1507,1507,1507,1507,1507,1507,1507,1507,1507,1507,1507,1507,1507,1507,
1507,1507,1507,1507,1507,1507,1507,1507,1507,1507,1507,1507,1507,1507,1507,1507,1507,1507,1507,1507,1507,1507,1507,1507,1507,1507,1507,1507,1507,1507,1507,1507,1507,1507,1507,1507,1507,1507,1507,1507,1507,1507,1507,1507,1507,1507,1507,1507,1507,1507,1507,1507,1507,1507,1507,1507,1507,1507,1507,1507,1507,1507,1507,1507,1507,1507,
1507,1507,1507,1507,1507,1507,1507,1507,1507,1507,1507,1507,1507,1507,1507,1507,1507,1507,1507,1507,1507,1507,1507,1507,1507,1507,1507,1507,1507,1507,1507,1507,1507,1507,1507,1507,1507,1507,1507,1507,1507,1507,1507,1507,1507,1507,1507,1507,1507,1507,1507,1507,1507,1507,1507,1507,1507,1507,1507,1507,1507,1507,1507,1507,1507,1507,
1507,1507,1507,1507,1507,1507,1507,1507,1507,1507,1507,1507,1507,1507,1507,1507,1507,1507,1507,1507,1507,1507,1507,1507,1507,1507,1507,1507,1507,1507,1507,1507,1507,1507,1507,1507,1507,1507,1507,1507,1507,1507,1507,1507,1507,1507,1507,1507,1507,1507,1507,1507,1507,1507,1507,1507,1507,1507,1507,1507,1507,1507,1507,1507,1507,1507,
1507,1507,1507,1507,1507,1507,1507,1507,1507,1507,1507,1507,1507,1507,1507,1507,1507,1507,1507,1507,1507,1507,1507,1507,1507,1507,1507,1507,1507,1507,1507,1507,1507,1507,1507,1507,1507,1507,1507,1507,1507,1507,1507,1507,1507,1507,1507,1507,1507,1507,1507,1507,1507,1507,1507,1507,1507,1507,1507,1507,1507,1507,1507,1507,1507,1507,
1507,1507,1507,1507,1507,1507,1507,1507,1507,1507,1507,1507,1507,1507,1507,1507,1507,1507,1507,1507,1507,1507,1507,1507,1507,1507,1507,1507,1507,1507,1507,1507,1507,1507,1507,1507,1507,1507,1507,1507,1507,1507,1507,1507,1507,1507,1507,1507,1507,1507,1507,1507,1507,1507,1507,1507,1507,1507,1507,1507,1507,1507,1507,1507,1507,1507,
1507,1507,1507,1507,1507,1507,1507,1507,1507,1507,1507,1507,1507,1507,1507,1507,1507,1507,1507,1507,1507,1507,1507,1507,1507,1507,1507,1507,1507,1507,1507,1507,1507,1507,1507,1507,1507,1507,1507,1507,1507,1507,1507,1507,1507,1507,1507,1507,1507,1507,1507,1507,1507,1507,1507,1507,1507,1507,1507,1507,1507,1507,1507,1507,1507,1507,
1507,1507,1507,1507,1507,1507,1507,1507,1507,1507,1507,1507,1507,1507,1507,1507,1507,1507,1507,1507,1507,1507,1507,1507,1507,1507,1507,1507,1507,1507,1507,1507,1507,1507,1507,1507,1507,1507,1507,1507,1507,1507,1507,1507,1507,1507,1507,1507,1507,1507,1507,1507,1507,1507,1507,1507,1507,1507,1507,1507,1507,1507,1507,1507,1507,1507,
1507,1507,1507,1507,1507,1507,1507,1507,1507,1507,1507,1507,1507,1507,1507,1507,1507,1507,1507,1507,1507,1507,1507,1507,1507,1507,1507,1507,1507,1507,1507,1507,1507,1507,1507,1507,1507,1507,1507,1507,1507,1507,1507,1507,1507,1507,1507,1507,1507,1507,1507,1507,1507,1507,1507,1507,1507,1507,1507,1507,1507,1507,1507,1507,1507,1507,
1507,1507,1507,1507,1507,1507,1507,1507,1507,1507,1507,1507,1507,1507,1507,1507,1507,1507,1507,1507,1507,1507,1507,1507,1507,1507,1507,1507,1507,1507,1507,1507,1507,1507,1507,1507,1507,1507,1507,1507,1507,1507,1507,1507,1507,1507,1507,1507,1507,1507,1507,1507,1507,1507,1507,1507,1507,1507,1507,1507,1507,1507,1507,1507,1507,1507,
1507,1507,1507,1507,1507,1507,1507,1507,1507,1507,1507,1507,1507,1507,1507,1507,1507,1507,1507,1507,1507,1507,1507,1507,1507,1507,1507,1507,1507,1507,1507,1507,1507,1507,1507,1507,1507,1507,1507,1507,1507,1507,1507,1507,1507,1507,1507,1507,1507,1507,1507,1507,1507,1507,1507,1507,1507,1507,1507,1507,1507,1507,1507,1507,1507,1507,
1507,1507,1507,1507,1507,1507,1507,1507,1507,1507,1507,1507,1507,1507,1507,1507,1507,1507,1507,1507,1507,1507,1507,1507,1507,1507,1507,1507,1507,1507,1507,1507,1507,1507,1507,1507,1507,1507,1507,1507,1507,1507,1507,1507,1507,1507,1507,1507,1507,1507,1507,1507,1507,1507,1507,1507,1507,1507,1507,1507,1507,1507,1507,1507,1507,1507,
1507,1507,1507,1507,1507,1507,1507,1507,1507,1507,1507,1507,1507,1507,1507,1507,1507,1507,1507,1507,1507,1507,1507,1507,1507,1507,1507,1507,1507,1507,1507,1507,1507,1507,1507,1507,1507,1507,1507,1507,1507,1507,1507,1507,1507,1507,1507,1507,1507,1507,1507,1507,1507,1507,1507,1507,1507,1507,1507,1507,1507,1507,1507,1507,1507,1507,
1507,1507,1507,1507,1507,1507,1507,1507,1507,1507,1507,1507,1507,1507,1507,1507,1507,1507,1507,1507,1507,1507,1507,1507,1507,1507,1507,1507,1507,1507,1507,1507,1507,1507,1507,1507,1507,1507,1507,1507,1507,1507,1507,1507,1507,1507,1507,1507,1507,1507,1507,1507,1507,1507,1507,1507,1507,1507,1507,1507,1507,1507,1507,1507,1507,1507,
1507,1507,1507,1507,1507,1507,1507,1507,1507,1507,1507,1507,1507,1507,1507,1507,1507,1507,1507,1507,1507,1507,1507,1507,1507,1507,1507,1507,1507,1507,1507,1507,1507,1507,1507,1507,1507,1507,1507,1507,1507,1507,1507,1507,1507,1507,1507,1507,1507,1507,1507,1507,1507,1507,1507,1507,1507,1507,1507,1507,1507,1507,1507,1507,1507,1507,
1507,1507,1507,1507,1507,1507,1507,1507,1507,1507,1507,1507,1507,1507,1507,1507,1507,1507,1507,1507,1507,1507,1507,1507,1507,1507,1507,1507,1507,1507,1507,1507,1507,1507,1507,1507,1507,1507,1507,1507,1507,1507,1507,1507,1507,1507,1507,1507,1507,1507,1507,1507,1507,1507,1507,1507,1507,1507,1507,1507,1507,1507,1507,1507,1507,1507,
1507,1507,1507,1507,1507,1507,1507,1507,1507,1507,1507,1507,1507,1507,1507,1507,1507,1507,1507,1507,1507,1507,1507,1507,1507,1507,1507,1507,1507,1507,1507,1507,1507,1507,1507,1507,1507,1507,1507,1507,1507,1507,1507,1507,1507,1507,1507,1507,1507,1507,1507,1507,1507,1507,1507,1507,1507,1507,1507,1507,1507,1507,1507,1507,1507,1507,
1507,1507,1507,1507,1507,1507,1507,1507,1507,1507,1507,1507,1507,1507,1507,1507,1507,1507,1507,1507,1507,1507,1507,1507,1507,1507,1507,1507,1507,1507,1507,1507,1507,1507,1507,1507,1507,1507,1507,1507,1507,1507,1507,1507,1507,1507,1507,1507,1507,1507,1507,1507,1507,1507,1507,1507,1507,1507,1507,1507,1507,1507,1507,1507,1507,1507,
1507,1507,1507,1507,1507,1507,1507,1507,1507,1507,1507,1507,1507,1507,1507,1507,1507,1507,1507,1507,1507,1507,1507,1507,1507,1507,1507,1507,1507,1507,1507,1507,1507,1507,1507,1507,1507,1507,1507,1507,1507,1507,1507,1507,1507,1507,1507,1507,1507,1507,1507,1507,1507,1507,1507,1507,1507,1507,1507,1507,1507,1507,1507,1507,1507,1507,
1507,1507,1507,1507,1507,1507,1507,1507,1507,1507,1507,1507,1507,1507,1507,1507,1507,1507,1507,1507,1507,1507,1507,1507,1507,1507,1507,1507,1507,1507,1507,1507,1507,1507,1507,1507,1507,1507,1507,1507,1507,1507,1507,1507,1507,1507,1507,1507,1507,1507,1507,1507,1507,1507,1507,1507,1507,1507,1507,1507,1507,1507,1507,1507,1507,1507,
1507,1507,1507,1507,1507,1507,1507,1507,1507,1507,1507,1507,1507,1507,1507,1507,1507,1507,1507,1507,1507,1507,1507,1507,1507,1507,1507,1507,1507,1507,1507,1507,1507,1507,1507,1507,1507,1507,1507,1507,1507,1507,1507,1507,1507,1507,1507,1507,1507,1507,1507,1507,1507,1507,1507,1507,1507,1507,1507,1507,1507,1507,1507,1507,1507,1507,
1507,1507,1507,1507,1507,1507,1507,1507,1507,1507,1507,1507,1507,1507,1507,1507,1507,1507,1507,1507,1507,1507,1507,1507,1507,1507,1507,1507,1507,1507,1507,1507,1507,1507,1507,1507,1507,1507,1507,1507,1507,1507,1507,1507,1507,1507,1507,1507,1507,1507,1507,1507,1507,1507,1507,1507,1507,1507,1507,1507,1507,1507,1507,1507,1507,1507,
1507,1507,1507,1507,1507,1507,1507,1507,1507,1507,1507,1507,1507,1507,1507,1507,1507,1507,1507,1507,1507,1507,1507,1507,1507,1507,1504,1504,1504,1504,1507,1507,1507,1507,1507,1507,1504,1504,1504,1504,1507,1507,1507,1507,1507,1507,1507,1507,1507,1507,1507,1507,1507,1507,1507,1507,1507,1507,1507,1507,1507,1507,1507,1507,1507,1507,
1507,1507,1507,1507,1507,1507,1507,1507,1507,1507,1507,1507,1507,1507,1507,1507,1507,1507,1507,1507,1507,1507,1507,1507,1507,1507,1507,1507,1504,1504,1504,1504,1504,1504,1504,1504,1504,1504,1507,1507,1507,1507,1507,1507,1507,1507,1507,1507,1507,1507,1507,1507,1507,1507,1507,1507,1507,1507,1507,1507,1507,1507,1507,1507,1507,1507,
1507,1507,1507,1507,1507,1507,1507,1507,1507,1507,1507,1507,1507,1507,1507,1507,1507,1507,1507,1507,1507,1507,1507,1507,1507,1507,1507,1507,1504,1504,1504,1504,1504,1504,1504,1504,1504,1504,1507,1507,1507,1507,1507,1507,1507,1507,1507,1507,1507,1507,1507,1507,1507,1507,1507,1507,1507,1507,1507,1507,1507,1507,1507,1507,1507,1507,
1507,1507,1507,1507,1507,1507,1507,1507,1507,1507,1507,1507,1507,1507,1507,1507,1507,1507,1507,1507,1507,1507,1507,1507,1507,1507,1507,1507,1504,1504,1504,1504,1504,1504,1504,1504,1504,1504,1507,1507,1507,1507,1507,1507,1507,1507,1507,1507,1507,1507,1507,1507,1507,1507,1507,1507,1507,1507,1507,1507,1507,1507,1507,1507,1507,1507,
1507,1507,1507,1507,1507,1507,1507,1507,1507,1507,1507,1507,1507,1507,1507,1507,1507,1507,1507,1507,1507,1507,1507,1507,1507,1507,1507,1507,1504,1504,1504,1504,1504,1504,1504,1504,1504,1504,1507,1507,1507,1507,1507,1507,1507,1507,1507,1507,1507,1507,1507,1507,1507,1507,1507,1507,1507,1507,1507,1507,1507,1507,1507,1507,1507,1507,
1507,1507,1507,1507,1507,1507,1507,1507,1507,1507,1507,1507,1507,1507,1507,1507,1507,1507,1507,1507,1507,1507,1507,1507,1507,1507,1507,1507,1504,1504,1504,1504,1504,1504,1504,1504,1504,1504,1507,1507,1507,1507,1507,1507,1507,1507,1507,1507,1507,1507,1507,1507,1507,1507,1507,1507,1507,1507,1507,1507,1507,1507,1507,1507,1507,1507,
1507,1507,1507,1507,1507,1507,1507,1507,1507,1507,1507,1507,1507,1507,1507,1507,1507,1507,1507,1507,1507,1507,1507,1507,1507,1507,1507,1507,1504,1504,1504,1504,1504,1504,1504,1504,1504,1504,1507,1507,1507,1507,1507,1507,1507,1507,1507,1507,1507,1507,1507,1507,1507,1507,1507,1507,1507,1507,1507,1507,1507,1507,1507,1507,1507,1507,
1507,1507,1507,1507,1507,1507,1507,1507,1507,1507,1507,1507,1507,1507,1507,1507,1507,1507,1507,1507,1507,1507,1507,1507,1507,1507,1507,1507,1504,1504,1504,1504,1504,1504,1504,1504,1504,1504,1507,1507,1507,1507,1507,1507,1507,1507,1507,1507,1507,1507,1507,1507,1507,1507,1507,1507,1507,1507,1507,1507,1507,1507,1507,1507,1507,1507,
1507,1507,1507,1507,1507,1507,1507,1507,1507,1507,1507,1507,1507,1507,1507,1507,1507,1507,1507,1507,1507,1507,1507,1507,1507,1507,1507,1507,1504,1504,1504,1504,1504,1504,1504,1504,1504,1504,1507,1507,1507,1507,1507,1507,1507,1507,1507,1507,1507,1507,1507,1507,1507,1507,1507,1507,1507,1507,1507,1507,1507,1507,1507,1507,1507,1507,
1507,1507,1507,1507,1507,1507,1507,1507,1507,1507,1507,1507,1507,1507,1507,1507,1507,1507,1507,1507,1507,1507,1507,1507,1507,1504,1504,1504,1504,1504,1504,1504,1504,1504,1504,1504,1504,1504,1504,1504,1504,1504,1504,1507,1507,1507,1507,1507,1507,1507,1507,1507,1507,1507,1507,1507,1507,1507,1507,1507,1507,1507,1507,1507,1507,1507,
1507,1507,1507,1507,1507,1507,1507,1507,1507,1507,1507,1507,1507,1507,1507,1507,1507,1507,1507,1507,1504,1504,1504,1504,1504,1504,1504,1504,1504,1504,1504,1504,1504,1504,1504,1504,1504,1504,1504,1504,1504,1504,1504,1504,1507,1507,1507,1507,1507,1507,1507,1507,1507,1507,1507,1507,1507,1507,1507,1507,1507,1507,1507,1507,1507,1507,
1507,1507,1507,1507,1507,1507,1507,1507,1507,1507,1507,1507,1507,1507,1507,1507,1507,1507,1507,1507,1504,1504,1504,1504,1504,1504,1504,1504,1504,1504,1504,1504,1504,1504,1504,1504,1504,1504,1504,1504,1504,1504,1504,1504,1504,1504,1504,1504,1504,1507,1507,1507,1507,1507,1507,1507,1507,1507,1507,1507,1507,1507,1507,1507,1507,1507,
1507,1507,1507,1507,1507,1507,1507,1507,1507,1507,1507,1507,1507,1507,1507,1507,1507,1504,1504,1504,1504,1504,1504,1504,1504,1504,1504,1504,1504,1504,1504,1504,1504,1504,1504,1504,1504,1504,1504,1504,1504,1504,1504,1504,1504,1504,1504,1504,1504,1507,1507,1507,1507,1507,1507,1507,1507,1507,1507,1507,1507,1507,1507,1507,1507,1507,
1507,1507,1507,1507,1507,1507,1507,1507,1507,1507,1507,1507,1507,1507,1507,1507,1507,1504,1504,1504,1504,1504,1504,1504,1504,1504,1504,1504,1504,1504,1504,1504,1504,1504,1504,1504,1504,1504,1504,1504,1504,1504,1504,1504,1504,1504,1504,1504,1504,1507,1507,1507,1507,1507,1507,1507,1507,1507,1507,1507,1507,1507,1507,1507,1507,1507,
1507,1507,1507,1507,1507,1507,1507,1507,1507,1507,1507,1507,1507,1507,1507,1507,1507,1504,1504,1504,1504,1504,1504,1504,1504,1504,1504,1504,1504,1504,1504,1504,1504,1504,1504,1504,1504,1504,1504,1504,1504,1504,1504,1504,1504,1504,1504,1504,1504,1507,1507,1507,1507,1507,1507,1507,1507,1507,1507,1507,1507,1507,1507,1507,1507,1507,
1507,1507,1507,1507,1507,1507,1507,1507,1507,1507,1507,1507,1507,1507,1507,1507,1507,1504,1504,1504,1504,1504,1504,1504,1504,1504,1504,1506,1506,1506,1507,1507,1507,1507,1507,1507,1506,1506,1506,1504,1504,1504,1504,1504,1504,1504,1504,1504,1504,1507,1507,1507,1507,1507,1507,1507,1507,1507,1507,1507,1507,1507,1507,1507,1507,1507,
1507,1507,1507,1507,1507,1507,1507,1507,1507,1507,1507,1507,1507,1507,1507,1507,1507,1504,1504,1504,1504,1504,1504,1504,0,0,1504,1506,1506,1506,1507,1507,1507,1507,1507,1507,1506,1506,1506,1504,1504,1504,1504,1504,1504,1504,1504,1504,1504,1507,1507,1507,1507,1507,1507,1507,1507,1507,1507,1507,1507,1507,1507,1507,1507,1507,
1507,1507,1507,1507,1507,1507,1507,1507,1507,1507,1507,1507,1507,1507,1507,1507,1507,1504,1504,1504,1504,1504,1504,1504,0,0,1504,1506,1506,1506,1507,1507,1507,1507,1507,1507,1506,1506,1506,1504,1504,1504,1504,1504,1504,1504,1504,1504,1504,1507,1507,1507,1507,1507,1507,1507,1507,1507,1507,1507,1507,1507,1507,1507,1507,1507,
1507,1507,1507,1507,1507,1507,1507,1507,1507,1507,1507,1507,1507,1507,1507,1507,1507,1504,1504,1504,1504,1504,1504,1504,0,0,1504,1504,1506,1506,1507,1507,1507,1507,1507,1507,1506,1506,1504,1504,1504,1504,1504,1504,1504,1504,1504,1504,1504,1507,1507,1507,1507,1507,1507,1507,1507,1507,1507,1507,1507,1507,1507,1507,1507,1507,
1507,1507,1507,1507,1507,1507,1507,1507,1507,1507,1507,1507,1507,1507,1507,1507,1507,1504,1504,1504,1504,1504,1504,1504,1504,1504,1504,1504,1504,1504,1504,1504,1504,1504,1504,1504,1504,1504,1504,1504,1504,1504,1504,1504,1504,1504,1504,1504,1504,1507,1507,1507,1507,1507,1507,1507,1507,1507,1507,1507,1507,1507,1507,1507,1507,1507,
1507,1507,1507,1507,1507,1507,1507,1507,1507,1507,1507,1507,1507,1507,1507,1507,1507,1504,1504,1504,1504,1504,1504,1504,1504,1504,1504,1504,1504,1504,1504,1504,1504,1504,1504,1504,1504,1504,1504,1504,1504,1504,1504,1504,1504,1504,1504,1504,1504,1507,1507,1507,1507,1507,1507,1507,1507,1507,1507,1507,1507,1507,1507,1507,1507,1507,
1507,1507,1507,1507,1507,1507,1507,1507,1507,1507,1507,1507,1507,1507,1507,1507,1507,1504,1504,1504,1504,1504,1504,1504,1504,1504,1504,1504,1504,1504,1504,1504,1504,1504,1504,1504,1504,1504,1504,1504,1504,1504,1504,1504,1504,1504,1504,1504,1504,1507,1507,1507,1507,1507,1507,1507,1507,1507,1507,1507,1507,1507,1507,1507,1507,1507,
1507,1507,1507,1507,1507,1507,1507,1507,1507,1507,1507,1507,1507,1507,1507,1507,1507,1504,1504,1504,1504,1504,1504,1504,1504,1504,1504,1504,1504,1504,1504,1504,1504,1504,1504,1504,1504,1504,1504,1504,1504,1504,1504,1504,1504,1504,1504,1504,1504,1507,1507,1507,1507,1507,1507,1507,1507,1507,1507,1507,1507,1507,1507,1507,1507,1507,
1507,1507,1507,1507,1507,1507,1507,1507,1507,1507,1507,1507,1507,1507,1507,1507,1507,1504,1504,1504,1504,1504,1504,1504,1504,1504,1504,1504,1504,1504,1504,1504,1504,1504,1504,1504,1504,1504,1504,1504,1504,1504,1504,1504,1504,1504,1504,1504,1504,1507,1507,1507,1507,1507,1507,1507,1507,1507,1507,1507,1507,1507,1507,1507,1507,1507,
1507,1507,1507,1507,1507,1507,1507,1507,1507,1507,1507,1507,1507,1507,1507,1507,1507,0,0,0,0,0,0,0,0,0,0,0,0,0,0,0,0,0,0,0,0,0,0,0,0,0,0,0,0,0,0,0,0,1507,1507,1507,1507,1507,1507,1507,1507,1507,1507,1507,1507,1507,1507,1507,1507,1507,
1507,1507,1507,1507,1507,1507,1507,1507,1507,1507,1507,1507,1507,1507,1507,1507,1507,0,0,0,0,0,0,0,0,0,0,0,0,0,0,0,0,0,0,0,0,0,0,0,0,0,0,0,0,0,0,0,0,1507,1507,1507,1507,1507,1507,1507,1507,1507,1507,1507,1507,1507,1507,1507,1507,1507,
1507,1507,1507,1507,1507,1507,1507,1507,1507,1507,1507,1507,1507,1507,1507,1507,1507,0,0,0,0,0,0,0,0,0,0,0,0,0,0,0,0,0,0,0,0,0,0,0,0,0,0,0,0,0,0,0,0,1507,1507,1507,1507,1507,1507,1507,1507,1507,1507,1507,1507,1507,1507,1507,1507,1507,
1507,1507,1507,1507,1507,1507,1507,1507,1507,1507,1507,1507,1507,1507,1507,1507,1507,1507,1507,1507,1507,1507,1507,1507,1507,1507,1507,1507,1507,1507,1507,0,0,0,1504,1507,1507,1507,1507,1507,1507,1507,1507,1507,1507,1507,1507,1507,1507,1507,1507,1507,1507,1507,1507,1507,1507,1507,1507,1507,1507,1507,1507,1507,1507,1507,
1507,1507,1507,1507,1507,1507,1507,1507,1507,1507,1507,1507,1507,1507,1507,1507,1507,1507,1507,1507,1507,1507,1507,1507,1507,1507,1507,1507,1507,1507,1507,0,0,0,1504,1507,1507,1507,1507,1507,1507,1507,1507,1507,1507,1507,1507,1507,1507,1507,1507,1507,1507,1507,1507,1507,1507,1507,1507,1507,1507,1507,1507,1507,1507,1507,
1507,1507,1507,1507,1507,1507,1507,1507,1507,1507,1507,1507,1507,1507,1507,1507,1507,1507,1507,1507,1507,1507,1507,1507,1507,1507,1507,1507,1507,1507,1507,0,0,0,1504,1507,1507,1507,1507,1507,1507,1507,1507,1507,1507,1507,1507,1507,1507,1507,1507,1507,1507,1507,1507,1507,1507,1507,1507,1507,1507,1507,1507,1507,1507,1507,
1507,1507,1507,1507,1507,1507,1507,1507,1507,1507,1507,1507,1507,1507,1507,1507,1507,1507,1507,1507,1507,1507,1507,1507,1507,1507,1507,1507,1507,1507,1507,1507,1507,1507,1507,1507,1507,1507,1507,1507,1507,1507,1507,1507,1507,1507,1507,1507,1507,1507,1507,1507,1507,1507,1507,1507,1507,1507,1507,1507,1507,1507,1507,1507,1507,1507,
1507,1507,1507,1507,1507,1507,1507,1507,1507,1507,1507,1507,1507,1507,1507,1507,1507,1507,1507,1507,1507,1507,1507,1507,1507,1507,1507,1507,1507,1507,1507,1507,1507,1507,1507,1507,1507,1507,1507,1507,1507,1507,1507,1507,1507,1507,1507,1507,1507,1507,1507,1507,1507,1507,1507,1507,1507,1507,1507,1507,1507,1507,1507,1507,1507,1507,
1507,1507,1507,1507,1507,1507,1507,1507,1507,1507,1507,1507,1507,1507,1507,1507,1507,1507,1507,1507,1507,1507,1507,1507,1507,1507,1507,1507,1507,1507,1507,1507,1507,1507,1507,1507,1507,1507,1507,1507,1507,1507,1507,1507,1507,1507,1507,1507,1507,1507,1507,1507,1507,1507,1507,1507,1507,1507,1507,1507,1507,1507,1507,1507,1507,1507,
1507,1507,1507,1507,1507,1507,1507,1507,1507,1507,1507,1507,1507,1507,1507,1507,1507,1507,1507,1507,1507,1507,1507,1507,1507,1507,1507,1507,1507,1507,1507,1507,1507,1507,1507,1507,1507,1507,1507,1507,1507,1507,1507,1507,1507,1507,1507,1507,1507,1507,1507,1507,1507,1507,1507,1507,1507,1507,1507,1507,1507,1507,1507,1507,1507,1507,
1507,1507,1507,1507,1507,1507,1507,1507,1507,1507,1507,1507,1507,1507,1507,1507,1507,1507,1507,1507,1507,1507,1507,1507,1507,1507,1507,1507,1507,1507,1507,1507,1507,1507,1507,1507,1507,1507,1507,1507,1507,1507,1507,1507,1507,1507,1507,1507,1507,1507,1507,1507,1507,1507,1507,1507,1507,1507,1507,1507,1507,1507,1507,1507,1507,1507,
1507,1507,1507,1507,1507,1507,1507,1507,1507,1507,1507,1507,1507,1507,1507,1507,1507,1507,1507,1507,1507,1507,1507,1507,1507,1507,1507,1507,1507,1507,1507,1507,1507,1507,1507,1507,1507,1507,1507,1507,1507,1507,1507,1507,1507,1507,1507,1507,1507,1507,1507,1507,1507,1507,1507,1507,1507,1507,1507,1507,1507,1507,1507,1507,1507,1507,
1507,1507,1507,1507,1507,1507,1507,1507,1507,1507,1507,1507,1507,1507,1507,1507,1507,1507,1507,1507,1507,1507,1507,1507,1507,1507,1507,1507,1507,1507,1507,1507,1507,1507,1507,1507,1507,1507,1507,1507,1507,1507,1507,1507,1507,1507,1507,1507,1507,1507,1507,1507,1507,1507,1507,1507,1507,1507,1507,1507,1507,1507,1507,1507,1507,1507,
1507,1507,1507,1507,1507,1507,1507,1507,1507,1507,1507,1507,1507,1507,1507,1507,1507,1507,1507,1507,1507,1507,1507,1507,1507,1507,1507,1507,1507,1507,1507,1507,1507,1507,1507,1507,1507,1507,1507,1507,1507,1507,1507,1507,1507,1507,1507,1507,1507,1507,1507,1507,1507,1507,1507,1507,1507,1507,1507,1507,1507,1507,1507,1507,1507,1507,
1507,1507,1507,1507,1507,1507,1507,1507,1507,1507,1507,1507,1507,1507,1507,1507,1507,1507,1507,1507,1507,1507,1507,1507,1507,1507,1507,1507,1507,1507,1507,1507,1507,1507,1507,1507,1507,1507,1507,1507,1507,1507,1507,1507,1507,1507,1507,1507,1507,1507,1507,1507,1507,1507,1507,1507,1507,1507,1507,1507,1507,1507,1507,1507,1507,1507,
1507,1507,1507,1507,1507,1507,1507,1507,1507,1507,1507,1507,1507,1507,1507,1507,1507,1507,1507,1507,1507,1507,1507,1507,1507,1507,1507,1507,1507,1507,1507,1507,1507,1507,1507,1507,1507,1507,1507,1507,1507,1507,1507,1507,1507,1507,1507,1507,1507,1507,1507,1507,1507,1507,1507,1507,1507,1507,1507,1507,1507,1507,1507,1507,1507,1507
</data>
 </layer>
 <layer id="10" name="Tiles_Rules" width="66" height="74" visible="0">
  <properties>
   <property name="maybe_animation_id" value="f525790c1101b1a1"/>
   <property name="maybe_tileset_id" value="a3b6ca91b299d4f5"/>
   <property name="tile_size" type="int" value="8"/>
  </properties>
  <data encoding="csv">
0,0,0,0,0,0,0,0,0,0,0,0,0,0,0,0,0,0,0,0,0,0,0,0,0,0,0,0,0,0,0,0,0,0,0,0,0,0,0,0,0,0,0,0,0,0,0,0,0,0,0,0,0,0,0,0,0,0,0,0,0,0,0,0,0,0,
0,0,0,0,0,0,0,0,0,0,0,0,0,0,0,0,0,0,0,0,0,0,0,0,0,0,0,0,0,0,0,0,0,0,0,0,0,0,0,0,0,0,0,0,0,0,0,0,0,0,0,0,0,0,0,0,0,0,0,0,0,0,0,0,0,0,
0,0,0,0,0,0,0,0,0,0,0,0,0,0,0,0,0,0,0,0,0,0,0,0,0,0,0,0,0,0,0,0,0,0,0,0,0,0,0,0,0,0,0,0,0,0,0,0,0,0,0,0,0,0,0,0,0,0,0,0,0,0,0,0,0,0,
0,0,0,0,0,0,0,0,0,0,0,0,0,0,0,0,0,0,0,0,0,0,0,0,0,0,0,0,0,0,0,0,0,0,0,0,0,0,0,0,0,0,0,0,0,0,0,0,0,0,0,0,0,0,0,0,0,0,0,0,0,0,0,0,0,0,
0,0,0,0,0,0,0,0,0,0,0,0,0,0,0,0,0,0,0,0,0,0,0,0,0,0,0,0,0,0,0,0,0,0,0,0,0,0,0,0,0,0,0,0,0,0,0,0,0,0,0,0,0,0,0,0,0,0,0,0,0,0,0,0,0,0,
0,0,0,0,0,0,0,0,0,0,0,0,0,0,0,0,0,0,0,0,0,0,0,0,0,0,0,0,0,0,0,0,0,0,0,0,0,0,0,0,0,0,0,0,0,0,0,0,0,0,0,0,0,0,0,0,0,0,0,0,0,0,0,0,0,0,
0,0,0,0,0,0,0,0,0,0,0,0,0,0,0,0,0,0,0,0,0,0,0,0,0,0,0,0,0,0,0,0,0,0,0,0,0,0,0,0,0,0,0,0,0,0,0,0,0,0,0,0,0,0,0,0,0,0,0,0,0,0,0,0,0,0,
0,0,0,0,0,0,0,0,0,0,0,0,0,0,0,0,0,0,0,0,0,0,0,0,0,0,0,0,0,0,0,0,0,0,0,0,0,0,0,0,0,0,0,0,0,0,0,0,0,0,0,0,0,0,0,0,0,0,0,0,0,0,0,0,0,0,
0,0,0,0,0,0,0,0,0,0,0,0,0,0,0,0,0,0,0,0,0,0,0,0,0,0,0,0,0,0,0,0,0,0,0,0,0,0,0,0,0,0,0,0,0,0,0,0,0,0,0,0,0,0,0,0,0,0,0,0,0,0,0,0,0,0,
0,0,0,0,0,0,0,0,0,0,0,0,0,0,0,0,0,0,0,0,0,0,0,0,0,0,0,0,0,0,0,0,0,0,0,0,0,0,0,0,0,0,0,0,0,0,0,0,0,0,0,0,0,0,0,0,0,0,0,0,0,0,0,0,0,0,
0,0,0,0,0,0,0,0,0,0,0,0,0,0,0,0,0,0,0,0,0,0,0,0,0,0,0,0,0,0,0,0,0,0,0,0,0,0,0,0,0,0,0,0,0,0,0,0,0,0,0,0,0,0,0,0,0,0,0,0,0,0,0,0,0,0,
0,0,0,0,0,0,0,0,0,0,0,0,0,0,0,0,0,0,0,0,0,0,0,0,0,0,0,0,0,0,0,0,0,0,0,0,0,0,0,0,0,0,0,0,0,0,0,0,0,0,0,0,0,0,0,0,0,0,0,0,0,0,0,0,0,0,
0,0,0,0,0,0,0,0,0,0,0,0,0,0,0,0,0,0,0,0,0,0,0,0,0,0,0,0,0,0,0,0,0,0,0,0,0,0,0,0,0,0,0,0,0,0,0,0,0,0,0,0,0,0,0,0,0,0,0,0,0,0,0,0,0,0,
0,0,0,0,0,0,0,0,0,0,0,0,0,0,0,0,0,0,0,0,0,0,0,0,0,0,0,0,0,0,0,0,0,0,0,0,0,0,0,0,0,0,0,0,0,0,0,0,0,0,0,0,0,0,0,0,0,0,0,0,0,0,0,0,0,0,
0,0,0,0,0,0,0,0,0,0,0,0,0,0,0,0,0,0,0,0,0,0,0,0,0,0,0,0,0,0,0,0,0,0,0,0,0,0,0,0,0,0,0,0,0,0,0,0,0,0,0,0,0,0,0,0,0,0,0,0,0,0,0,0,0,0,
0,0,0,0,0,0,0,0,0,0,0,0,0,0,0,0,0,0,0,0,0,0,0,0,0,0,0,0,0,0,0,0,0,0,0,0,0,0,0,0,0,0,0,0,0,0,0,0,0,0,0,0,0,0,0,0,0,0,0,0,0,0,0,0,0,0,
0,0,0,0,0,0,0,0,0,0,0,0,0,0,0,0,0,0,0,0,0,0,0,0,0,0,0,0,0,0,0,0,0,0,0,0,0,0,0,0,0,0,0,0,0,0,0,0,0,0,0,0,0,0,0,0,0,0,0,0,0,0,0,0,0,0,
0,0,0,0,0,0,0,0,0,0,0,0,0,0,0,0,0,0,0,0,0,0,0,0,0,0,0,0,0,0,0,0,0,0,0,0,0,0,0,0,0,0,0,0,0,0,0,0,0,0,0,0,0,0,0,0,0,0,0,0,0,0,0,0,0,0,
0,0,0,0,0,0,0,0,0,0,0,0,0,0,0,0,0,0,0,0,0,0,0,0,0,0,0,0,0,0,0,0,0,0,0,0,0,0,0,0,0,0,0,0,0,0,0,0,0,0,0,0,0,0,0,0,0,0,0,0,0,0,0,0,0,0,
0,0,0,0,0,0,0,0,0,0,0,0,0,0,0,0,0,0,0,0,0,0,0,0,0,0,0,0,0,0,0,0,0,0,0,0,0,0,0,0,0,0,0,0,0,0,0,0,0,0,0,0,0,0,0,0,0,0,0,0,0,0,0,0,0,0,
0,0,0,0,0,0,0,0,0,0,0,0,0,0,0,0,0,0,0,0,0,0,0,0,0,0,0,0,0,0,0,0,0,0,0,0,0,0,0,0,0,0,0,0,0,0,0,0,0,0,0,0,0,0,0,0,0,0,0,0,0,0,0,0,0,0,
0,0,0,0,0,0,0,0,0,0,0,0,0,0,0,0,0,0,0,0,0,0,0,0,0,0,0,0,0,0,0,0,0,0,0,0,0,0,0,0,0,0,0,0,0,0,0,0,0,0,0,0,0,0,0,0,0,0,0,0,0,0,0,0,0,0,
0,0,0,0,0,0,0,0,0,0,0,0,0,0,0,0,0,0,0,0,0,0,0,0,0,0,0,0,0,0,0,0,0,0,0,0,0,0,0,0,0,0,0,0,0,0,0,0,0,0,0,0,0,0,0,0,0,0,0,0,0,0,0,0,0,0,
0,0,0,0,0,0,0,0,0,0,0,0,0,0,0,0,0,0,0,0,0,0,0,0,0,0,0,0,0,0,0,0,0,0,0,0,0,0,0,0,0,0,0,0,0,0,0,0,0,0,0,0,0,0,0,0,0,0,0,0,0,0,0,0,0,0,
0,0,0,0,0,0,0,0,0,0,0,0,0,0,0,0,0,0,0,0,0,0,0,0,0,0,0,0,0,0,0,0,0,0,0,0,0,0,0,0,0,0,0,0,0,0,0,0,0,0,0,0,0,0,0,0,0,0,0,0,0,0,0,0,0,0,
0,0,0,0,0,0,0,0,0,0,0,0,0,0,0,0,0,0,0,0,0,0,0,0,0,0,0,0,0,0,0,0,0,0,0,0,0,0,0,0,0,0,0,0,0,0,0,0,0,0,0,0,0,0,0,0,0,0,0,0,0,0,0,0,0,0,
0,0,0,0,0,0,0,0,0,0,0,0,0,0,0,0,0,0,0,0,0,0,0,0,0,0,0,0,0,0,0,0,0,0,0,0,0,0,0,0,0,0,0,0,0,0,0,0,0,0,0,0,0,0,0,0,0,0,0,0,0,0,0,0,0,0,
0,0,0,0,0,0,0,0,0,0,0,0,0,0,0,0,0,0,0,0,0,0,0,0,0,0,0,0,0,0,0,0,0,0,0,0,0,0,0,0,0,0,0,0,0,0,0,0,0,0,0,0,0,0,0,0,0,0,0,0,0,0,0,0,0,0,
0,0,0,0,0,0,0,0,0,0,0,0,0,0,0,0,0,0,0,0,0,0,0,0,0,0,0,0,0,0,0,0,0,0,0,0,0,0,0,0,0,0,0,0,0,0,0,0,0,0,0,0,0,0,0,0,0,0,0,0,0,0,0,0,0,0,
0,0,0,0,0,0,0,0,0,0,0,0,0,0,0,0,0,0,0,0,0,0,0,0,0,0,0,0,0,0,0,0,0,0,0,0,0,0,0,0,0,0,0,0,0,0,0,0,0,0,0,0,0,0,0,0,0,0,0,0,0,0,0,0,0,0,
0,0,0,0,0,0,0,0,0,0,0,0,0,0,0,0,0,0,0,0,0,0,0,0,0,0,0,0,0,0,0,0,0,0,0,0,0,0,0,0,0,0,0,0,0,0,0,0,0,0,0,0,0,0,0,0,0,0,0,0,0,0,0,0,0,0,
0,0,0,0,0,0,0,0,0,0,0,0,0,0,0,0,0,0,0,0,0,0,0,0,0,0,0,0,0,0,0,0,0,0,0,0,0,0,0,0,0,0,0,0,0,0,0,0,0,0,0,0,0,0,0,0,0,0,0,0,0,0,0,0,0,0,
0,0,0,0,0,0,0,0,0,0,0,0,0,0,0,0,0,0,0,0,0,0,0,0,0,0,0,0,0,0,0,0,0,0,0,0,0,0,0,0,0,0,0,0,0,0,0,0,0,0,0,0,0,0,0,0,0,0,0,0,0,0,0,0,0,0,
0,0,0,0,0,0,0,0,0,0,0,0,0,0,0,0,0,0,0,0,0,0,0,0,0,0,0,0,0,0,0,0,0,0,0,0,0,0,0,0,0,0,0,0,0,0,0,0,0,0,0,0,0,0,0,0,0,0,0,0,0,0,0,0,0,0,
0,0,0,0,0,0,0,0,0,0,0,0,0,0,0,0,0,0,0,0,0,0,0,0,0,0,0,0,0,0,0,0,0,0,0,0,0,0,0,0,0,0,0,0,0,0,0,0,0,0,0,0,0,0,0,0,0,0,0,0,0,0,0,0,0,0,
0,0,0,0,0,0,0,0,0,0,0,0,0,0,0,0,0,0,0,0,0,0,0,0,0,0,0,0,0,0,0,0,0,0,0,0,0,0,0,0,0,0,0,0,0,0,0,0,0,0,0,0,0,0,0,0,0,0,0,0,0,0,0,0,0,0,
0,0,0,0,0,0,0,0,0,0,0,0,0,0,0,0,0,0,0,0,0,0,0,0,0,0,0,0,0,0,0,0,0,0,0,0,0,0,0,0,0,0,0,0,0,0,0,0,0,0,0,0,0,0,0,0,0,0,0,0,0,0,0,0,0,0,
0,0,0,0,0,0,0,0,0,0,0,0,0,0,0,0,0,0,0,0,0,0,0,0,0,0,0,0,0,0,0,0,0,0,0,0,0,0,0,0,0,0,0,0,0,0,0,0,0,0,0,0,0,0,0,0,0,0,0,0,0,0,0,0,0,0,
0,0,0,0,0,0,0,0,0,0,0,0,0,0,0,0,0,0,0,0,0,0,0,0,0,0,0,0,0,0,0,0,0,0,0,0,0,0,0,0,0,0,0,0,0,0,0,0,0,0,0,0,0,0,0,0,0,0,0,0,0,0,0,0,0,0,
0,0,0,0,0,0,0,0,0,0,0,0,0,0,0,0,0,0,0,0,0,0,0,0,0,0,0,0,0,0,0,0,0,0,0,0,0,0,0,0,0,0,0,0,0,0,0,0,0,0,0,0,0,0,0,0,0,0,0,0,0,0,0,0,0,0,
0,0,0,0,0,0,0,0,0,0,0,0,0,0,0,0,0,0,0,0,0,0,0,0,0,0,0,0,0,0,0,0,0,0,0,0,0,0,0,0,0,0,0,0,0,0,0,0,0,0,0,0,0,0,0,0,0,0,0,0,0,0,0,0,0,0,
0,0,0,0,0,0,0,0,0,0,0,0,0,0,0,0,0,0,0,0,0,0,0,0,0,0,0,0,0,0,0,0,0,0,0,0,0,0,0,0,0,0,0,0,0,0,0,0,0,0,0,0,0,0,0,0,0,0,0,0,0,0,0,0,0,0,
0,0,0,0,0,0,0,0,0,0,0,0,0,0,0,0,0,0,0,0,0,0,0,0,0,0,0,0,0,0,0,0,0,0,0,0,0,0,0,0,0,0,0,0,0,0,0,0,0,0,0,0,0,0,0,0,0,0,0,0,0,0,0,0,0,0,
0,0,0,0,0,0,0,0,0,0,0,0,0,0,0,0,0,0,0,0,0,0,0,0,0,0,0,0,0,0,0,0,0,0,0,0,0,0,0,0,0,0,0,0,0,0,0,0,0,0,0,0,0,0,0,0,0,0,0,0,0,0,0,0,0,0,
0,0,0,0,0,0,0,0,0,0,0,0,0,0,0,0,0,0,0,0,0,0,0,0,0,0,0,0,0,0,0,0,0,0,0,0,0,0,0,0,0,0,0,0,0,0,0,0,0,0,0,0,0,0,0,0,0,0,0,0,0,0,0,0,0,0,
0,0,0,0,0,0,0,0,0,0,0,0,0,0,0,0,0,0,0,0,0,0,0,0,0,0,0,0,0,0,0,0,0,0,0,0,0,0,0,0,0,0,0,0,0,0,0,0,0,0,0,0,0,0,0,0,0,0,0,0,0,0,0,0,0,0,
0,0,0,0,0,0,0,0,0,0,0,0,0,0,0,0,0,0,0,0,0,0,0,0,0,0,0,0,0,0,0,0,0,0,0,0,0,0,0,0,0,0,0,0,0,0,0,0,0,0,0,0,0,0,0,0,0,0,0,0,0,0,0,0,0,0,
0,0,0,0,0,0,0,0,0,0,0,0,0,0,0,0,0,0,0,0,0,0,0,0,0,0,0,0,0,0,0,0,0,0,0,0,0,0,0,0,0,0,0,0,0,0,0,0,0,0,0,0,0,0,0,0,0,0,0,0,0,0,0,0,0,0,
0,0,0,0,0,0,0,0,0,0,0,0,0,0,0,0,0,0,0,0,0,0,0,0,0,0,0,0,0,0,0,0,0,0,0,0,0,0,0,0,0,0,0,0,0,0,0,0,0,0,0,0,0,0,0,0,0,0,0,0,0,0,0,0,0,0,
0,0,0,0,0,0,0,0,0,0,0,0,0,0,0,0,0,0,0,0,0,0,0,0,0,0,0,0,0,0,0,0,0,0,0,0,0,0,0,0,0,0,0,0,0,0,0,0,0,0,0,0,0,0,0,0,0,0,0,0,0,0,0,0,0,0,
0,0,0,0,0,0,0,0,0,0,0,0,0,0,0,0,0,0,0,0,0,0,0,0,0,0,0,0,0,0,0,0,0,0,0,0,0,0,0,0,0,0,0,0,0,0,0,0,0,0,0,0,0,0,0,0,0,0,0,0,0,0,0,0,0,0,
0,0,0,0,0,0,0,0,0,0,0,0,0,0,0,0,0,0,0,0,0,0,0,0,0,0,0,0,0,0,0,0,0,0,0,0,0,0,0,0,0,0,0,0,0,0,0,0,0,0,0,0,0,0,0,0,0,0,0,0,0,0,0,0,0,0,
0,0,0,0,0,0,0,0,0,0,0,0,0,0,0,0,0,0,0,0,0,0,0,0,0,0,0,0,0,0,0,0,0,0,0,0,0,0,0,0,0,0,0,0,0,0,0,0,0,0,0,0,0,0,0,0,0,0,0,0,0,0,0,0,0,0,
0,0,0,0,0,0,0,0,0,0,0,0,0,0,0,0,0,0,0,0,0,0,0,0,0,0,0,0,0,0,0,0,0,0,0,0,0,0,0,0,0,0,0,0,0,0,0,0,0,0,0,0,0,0,0,0,0,0,0,0,0,0,0,0,0,0,
0,0,0,0,0,0,0,0,0,0,0,0,0,0,0,0,0,0,0,0,0,0,0,0,0,0,0,0,0,0,0,0,0,0,0,0,0,0,0,0,0,0,0,0,0,0,0,0,0,0,0,0,0,0,0,0,0,0,0,0,0,0,0,0,0,0,
0,0,0,0,0,0,0,0,0,0,0,0,0,0,0,0,0,0,0,0,0,0,0,0,0,0,0,0,0,0,0,0,0,0,0,0,0,0,0,0,0,0,0,0,0,0,0,0,0,0,0,0,0,0,0,0,0,0,0,0,0,0,0,0,0,0,
0,0,0,0,0,0,0,0,0,0,0,0,0,0,0,0,0,0,0,0,0,0,0,0,0,0,0,0,0,0,0,0,0,0,0,0,0,0,0,0,0,0,0,0,0,0,0,0,0,0,0,0,0,0,0,0,0,0,0,0,0,0,0,0,0,0,
0,0,0,0,0,0,0,0,0,0,0,0,0,0,0,0,0,0,0,0,0,0,0,0,0,0,0,0,0,0,0,0,0,0,0,0,0,0,0,0,0,0,0,0,0,0,0,0,0,0,0,0,0,0,0,0,0,0,0,0,0,0,0,0,0,0,
0,0,0,0,0,0,0,0,0,0,0,0,0,0,0,0,0,0,0,0,0,0,0,0,0,0,0,0,0,0,0,0,0,0,0,0,0,0,0,0,0,0,0,0,0,0,0,0,0,0,0,0,0,0,0,0,0,0,0,0,0,0,0,0,0,0,
0,0,0,0,0,0,0,0,0,0,0,0,0,0,0,0,0,0,0,0,0,0,0,0,0,0,0,0,0,0,0,0,0,0,0,0,0,0,0,0,0,0,0,0,0,0,0,0,0,0,0,0,0,0,0,0,0,0,0,0,0,0,0,0,0,0,
0,0,0,0,0,0,0,0,0,0,0,0,0,0,0,0,0,0,0,0,0,0,0,0,0,0,0,0,0,0,0,0,0,0,0,0,0,0,0,0,0,0,0,0,0,0,0,0,0,0,0,0,0,0,0,0,0,0,0,0,0,0,0,0,0,0,
0,0,0,0,0,0,0,0,0,0,0,0,0,0,0,0,0,0,0,0,0,0,0,0,0,0,0,0,0,0,0,0,0,0,0,0,0,0,0,0,0,0,0,0,0,0,0,0,0,0,0,0,0,0,0,0,0,0,0,0,0,0,0,0,0,0,
0,0,0,0,0,0,0,0,0,0,0,0,0,0,0,0,0,0,0,0,0,0,0,0,0,0,0,0,0,0,0,0,0,0,0,0,0,0,0,0,0,0,0,0,0,0,0,0,0,0,0,0,0,0,0,0,0,0,0,0,0,0,0,0,0,0,
0,0,0,0,0,0,0,0,0,0,0,0,0,0,0,0,0,0,0,0,0,0,0,0,0,0,0,0,0,0,0,0,0,0,0,0,0,0,0,0,0,0,0,0,0,0,0,0,0,0,0,0,0,0,0,0,0,0,0,0,0,0,0,0,0,0,
0,0,0,0,0,0,0,0,0,0,0,0,0,0,0,0,0,0,0,0,0,0,0,0,0,0,0,0,0,0,0,0,0,0,0,0,0,0,0,0,0,0,0,0,0,0,0,0,0,0,0,0,0,0,0,0,0,0,0,0,0,0,0,0,0,0,
0,0,0,0,0,0,0,0,0,0,0,0,0,0,0,0,0,0,0,0,0,0,0,0,0,0,0,0,0,0,0,0,0,0,0,0,0,0,0,0,0,0,0,0,0,0,0,0,0,0,0,0,0,0,0,0,0,0,0,0,0,0,0,0,0,0,
0,0,0,0,0,0,0,0,0,0,0,0,0,0,0,0,0,0,0,0,0,0,0,0,0,0,0,0,0,0,0,0,0,0,0,0,0,0,0,0,0,0,0,0,0,0,0,0,0,0,0,0,0,0,0,0,0,0,0,0,0,0,0,0,0,0,
0,0,0,0,0,0,0,0,0,0,0,0,0,0,0,0,0,0,0,0,0,0,0,0,0,0,0,0,0,0,0,0,0,0,0,0,0,0,0,0,0,0,0,0,0,0,0,0,0,0,0,0,0,0,0,0,0,0,0,0,0,0,0,0,0,0,
0,0,0,0,0,0,0,0,0,0,0,0,0,0,0,0,0,0,0,0,0,0,0,0,0,0,0,0,0,0,0,0,0,0,0,0,0,0,0,0,0,0,0,0,0,0,0,0,0,0,0,0,0,0,0,0,0,0,0,0,0,0,0,0,0,0,
0,0,0,0,0,0,0,0,0,0,0,0,0,0,0,0,0,0,0,0,0,0,0,0,0,0,0,0,0,0,0,0,0,0,0,0,0,0,0,0,0,0,0,0,0,0,0,0,0,0,0,0,0,0,0,0,0,0,0,0,0,0,0,0,0,0,
0,0,0,0,0,0,0,0,0,0,0,0,0,0,0,0,0,0,0,0,0,0,0,0,0,0,0,0,0,0,0,0,0,0,0,0,0,0,0,0,0,0,0,0,0,0,0,0,0,0,0,0,0,0,0,0,0,0,0,0,0,0,0,0,0,0,
0,0,0,0,0,0,0,0,0,0,0,0,0,0,0,0,0,0,0,0,0,0,0,0,0,0,0,0,0,0,0,0,0,0,0,0,0,0,0,0,0,0,0,0,0,0,0,0,0,0,0,0,0,0,0,0,0,0,0,0,0,0,0,0,0,0,
0,0,0,0,0,0,0,0,0,0,0,0,0,0,0,0,0,0,0,0,0,0,0,0,0,0,0,0,0,0,0,0,0,0,0,0,0,0,0,0,0,0,0,0,0,0,0,0,0,0,0,0,0,0,0,0,0,0,0,0,0,0,0,0,0,0,
0,0,0,0,0,0,0,0,0,0,0,0,0,0,0,0,0,0,0,0,0,0,0,0,0,0,0,0,0,0,0,0,0,0,0,0,0,0,0,0,0,0,0,0,0,0,0,0,0,0,0,0,0,0,0,0,0,0,0,0,0,0,0,0,0,0
</data>
 </layer>
 <layer id="11" name="Pathfinding" width="66" height="74" visible="0">
  <properties>
   <property name="maybe_animation_id" value="6d2460f008fb99d4"/>
   <property name="maybe_tileset_id" value="264fe6c9523400a1"/>
   <property name="tile_size" type="int" value="8"/>
  </properties>
  <data encoding="csv">
6007,6007,6007,6007,6007,6007,6007,6007,6007,6007,6007,6007,6007,6007,6007,6007,6007,6007,6007,6007,6007,6007,6007,6007,6007,6007,6007,6007,6007,6007,6007,6007,6007,6007,6007,6007,6007,6007,6007,6007,6007,6007,6007,6007,6007,6007,6007,6007,6007,6007,6007,6007,6007,6007,6007,6007,6007,6007,6007,6007,6007,6007,6007,6007,6007,6007,
6007,6007,6007,6007,6007,6007,6007,6007,6007,6007,6007,6007,6007,6007,6007,6007,6007,6007,6007,6007,6007,6007,6007,6007,6007,6007,6007,6007,6007,6007,6007,6007,6007,6007,6007,6007,6007,6007,6007,6007,6007,6007,6007,6007,6007,6007,6007,6007,6007,6007,6007,6007,6007,6007,6007,6007,6007,6007,6007,6007,6007,6007,6007,6007,6007,6007,
6007,6007,6007,6007,6007,6007,6007,6007,6007,6007,6007,6007,6007,6007,6007,6007,6007,6007,6007,6007,6007,6007,6007,6007,6007,6007,6007,6007,6007,6007,6007,6007,6007,6007,6007,6007,6007,6007,6007,6007,6007,6007,6007,6007,6007,6007,6007,6007,6007,6007,6007,6007,6007,6007,6007,6007,6007,6007,6007,6007,6007,6007,6007,6007,6007,6007,
6007,6007,6007,6007,6007,6007,6007,6007,6007,6007,6007,6007,6007,6007,6007,6007,6007,6007,6007,6007,6007,6007,6007,6007,6007,6007,6007,6007,6007,6007,6007,6007,6007,6007,6007,6007,6007,6007,6007,6007,6007,6007,6007,6007,6007,6007,6007,6007,6007,6007,6007,6007,6007,6007,6007,6007,6007,6007,6007,6007,6007,6007,6007,6007,6007,6007,
6007,6007,6007,6007,6007,6007,6007,6007,6007,6007,6007,6007,6007,6007,6007,6007,6007,6007,6007,6007,6007,6007,6007,6007,6007,6007,6007,6007,6007,6007,6007,6007,6007,6007,6007,6007,6007,6007,6007,6007,6007,6007,6007,6007,6007,6007,6007,6007,6007,6007,6007,6007,6007,6007,6007,6007,6007,6007,6007,6007,6007,6007,6007,6007,6007,6007,
6007,6007,6007,6007,6007,6007,6007,6007,6007,6007,6007,6007,6007,6007,6007,6007,6007,6007,6007,6007,6007,6007,6007,6007,6007,6007,6007,6007,6007,6007,6007,6007,6007,6007,6007,6007,6007,6007,6007,6007,6007,6007,6007,6007,6007,6007,6007,6007,6007,6007,6007,6007,6007,6007,6007,6007,6007,6007,6007,6007,6007,6007,6007,6007,6007,6007,
6007,6007,6007,6007,6007,6007,6007,6007,6007,6007,6007,6007,6007,6007,6007,6007,6007,6007,6007,6007,6007,6007,6007,6007,6007,6007,6007,6007,6007,6007,6007,6007,6007,6007,6007,6007,6007,6007,6007,6007,6007,6007,6007,6007,6007,6007,6007,6007,6007,6007,6007,6007,6007,6007,6007,6007,6007,6007,6007,6007,6007,6007,6007,6007,6007,6007,
6007,6007,6007,6007,6007,6007,6007,6007,6007,6007,6007,6007,6007,6007,6007,6007,6007,6007,6007,6007,6007,6007,6007,6007,6007,6007,6007,6007,6007,6007,6007,6007,6007,6007,6007,6007,6007,6007,6007,6007,6007,6007,6007,6007,6007,6007,6007,6007,6007,6007,6007,6007,6007,6007,6007,6007,6007,6007,6007,6007,6007,6007,6007,6007,6007,6007,
6007,6007,6007,6007,6007,6007,6007,6007,6007,6007,6007,6007,6007,6007,6007,6007,6007,6007,6007,6007,6007,6007,6007,6007,6007,6007,6007,6007,6007,6007,6007,6007,6007,6007,6007,6007,6007,6007,6007,6007,6007,6007,6007,6007,6007,6007,6007,6007,6007,6007,6007,6007,6007,6007,6007,6007,6007,6007,6007,6007,6007,6007,6007,6007,6007,6007,
6007,6007,6007,6007,6007,6007,6007,6007,6007,6007,6007,6007,6007,6007,6007,6007,6007,6007,6007,6007,6007,6007,6007,6007,6007,6007,6007,6007,6007,6007,6007,6007,6007,6007,6007,6007,6007,6007,6007,6007,6007,6007,6007,6007,6007,6007,6007,6007,6007,6007,6007,6007,6007,6007,6007,6007,6007,6007,6007,6007,6007,6007,6007,6007,6007,6007,
6007,6007,6007,6007,6007,6007,6007,6007,6007,6007,6007,6007,6007,6007,6007,6007,6007,6007,6007,6007,6007,6007,6007,6007,6007,6007,6007,6007,6007,6007,6007,6007,6007,6007,6007,6007,6007,6007,6007,6007,6007,6007,6007,6007,6007,6007,6007,6007,6007,6007,6007,6007,6007,6007,6007,6007,6007,6007,6007,6007,6007,6007,6007,6007,6007,6007,
6007,6007,6007,6007,6007,6007,6007,6007,6007,6007,6007,6007,6007,6007,6007,6007,6007,6007,6007,6007,6007,6007,6007,6007,6007,6007,6007,6007,6007,6007,6007,6007,6007,6007,6007,6007,6007,6007,6007,6007,6007,6007,6007,6007,6007,6007,6007,6007,6007,6007,6007,6007,6007,6007,6007,6007,6007,6007,6007,6007,6007,6007,6007,6007,6007,6007,
6007,6007,6007,6007,6007,6007,6007,6007,6007,6007,6007,6007,6007,6007,6007,6007,6007,6007,6007,6007,6007,6007,6007,6007,6007,6007,6007,6007,6007,6007,6007,6007,6007,6007,6007,6007,6007,6007,6007,6007,6007,6007,6007,6007,6007,6007,6007,6007,6007,6007,6007,6007,6007,6007,6007,6007,6007,6007,6007,6007,6007,6007,6007,6007,6007,6007,
6007,6007,6007,6007,6007,6007,6007,6007,6007,6007,6007,6007,6007,6007,6007,6007,6007,6007,6007,6007,6007,6007,6007,6007,6007,6007,6007,6007,6007,6007,6007,6007,6007,6007,6007,6007,6007,6007,6007,6007,6007,6007,6007,6007,6007,6007,6007,6007,6007,6007,6007,6007,6007,6007,6007,6007,6007,6007,6007,6007,6007,6007,6007,6007,6007,6007,
6007,6007,6007,6007,6007,6007,6007,6007,6007,6007,6007,6007,6007,6007,6007,6007,6007,6007,6007,6007,6007,6007,6007,6007,6007,6007,6007,6007,6007,6007,6007,6007,6007,6007,6007,6007,6007,6007,6007,6007,6007,6007,6007,6007,6007,6007,6007,6007,6007,6007,6007,6007,6007,6007,6007,6007,6007,6007,6007,6007,6007,6007,6007,6007,6007,6007,
6007,6007,6007,6007,6007,6007,6007,6007,6007,6007,6007,6007,6007,6007,6007,6007,6007,6007,6007,6007,6007,6007,6007,6007,6007,6007,6007,6007,6007,6007,6007,6007,6007,6007,6007,6007,6007,6007,6007,6007,6007,6007,6007,6007,6007,6007,6007,6007,6007,6007,6007,6007,6007,6007,6007,6007,6007,6007,6007,6007,6007,6007,6007,6007,6007,6007,
6007,6007,6007,6007,6007,6007,6007,6007,6007,6007,6007,6007,6007,6007,6007,6007,6007,6007,6007,6007,6007,6007,6007,6007,6007,6007,6007,6007,6007,6007,6007,6007,6007,6007,6007,6007,6007,6007,6007,6007,6007,6007,6007,6007,6007,6007,6007,6007,6007,6007,6007,6007,6007,6007,6007,6007,6007,6007,6007,6007,6007,6007,6007,6007,6007,6007,
6007,6007,6007,6007,6007,6007,6007,6007,6007,6007,6007,6007,6007,6007,6007,6007,6007,6007,6007,6007,6007,6007,6007,6007,6007,6007,6007,6007,6007,6007,6007,6007,6007,6007,6007,6007,6007,6007,6007,6007,6007,6007,6007,6007,6007,6007,6007,6007,6007,6007,6007,6007,6007,6007,6007,6007,6007,6007,6007,6007,6007,6007,6007,6007,6007,6007,
6007,6007,6007,6007,6007,6007,6007,6007,6007,6007,6007,6007,6007,6007,6007,6007,6007,6007,6007,6007,6007,6007,6007,6007,6007,6007,6007,6007,6007,6007,6007,6007,6007,6007,6007,6007,6007,6007,6007,6007,6007,6007,6007,6007,6007,6007,6007,6007,6007,6007,6007,6007,6007,6007,6007,6007,6007,6007,6007,6007,6007,6007,6007,6007,6007,6007,
6007,6007,6007,6007,6007,6007,6007,6007,6007,6007,6007,6007,6007,6007,6007,6007,6007,6007,6007,6007,6007,6007,6007,6007,6007,6007,6007,6007,6007,6007,6007,6007,6007,6007,6007,6007,6007,6007,6007,6007,6007,6007,6007,6007,6007,6007,6007,6007,6007,6007,6007,6007,6007,6007,6007,6007,6007,6007,6007,6007,6007,6007,6007,6007,6007,6007,
6007,6007,6007,6007,6007,6007,6007,6007,6007,6007,6007,6007,6007,6007,6007,6007,6007,6007,6007,6007,6007,6007,6007,6007,6007,6007,6007,6007,6007,6007,6007,6007,6007,6007,6007,6007,6007,6007,6007,6007,6007,6007,6007,6007,6007,6007,6007,6007,6007,6007,6007,6007,6007,6007,6007,6007,6007,6007,6007,6007,6007,6007,6007,6007,6007,6007,
6007,6007,6007,6007,6007,6007,6007,6007,6007,6007,6007,6007,6007,6007,6007,6007,6007,6007,6007,6007,6007,6007,6007,6007,6007,6007,6007,6007,6007,6007,6007,6007,6007,6007,6007,6007,6007,6007,6007,6007,6007,6007,6007,6007,6007,6007,6007,6007,6007,6007,6007,6007,6007,6007,6007,6007,6007,6007,6007,6007,6007,6007,6007,6007,6007,6007,
6007,6007,6007,6007,6007,6007,6007,6007,6007,6007,6007,6007,6007,6007,6007,6007,6007,6007,6007,6007,6007,6007,6007,6007,6007,6007,6007,6007,6007,6007,6007,6007,6007,6007,6007,6007,6007,6007,6007,6007,6007,6007,6007,6007,6007,6007,6007,6007,6007,6007,6007,6007,6007,6007,6007,6007,6007,6007,6007,6007,6007,6007,6007,6007,6007,6007,
6007,6007,6007,6007,6007,6007,6007,6007,6007,6007,6007,6007,6007,6007,6007,6007,6007,6007,6007,6007,6007,6007,6007,6007,6007,6007,6007,6007,6007,6007,6007,6007,6007,6007,6007,6007,6007,6007,6007,6007,6007,6007,6007,6007,6007,6007,6007,6007,6007,6007,6007,6007,6007,6007,6007,6007,6007,6007,6007,6007,6007,6007,6007,6007,6007,6007,
6007,6007,6007,6007,6007,6007,6007,6007,6007,6007,6007,6007,6007,6007,6007,6007,6007,6007,6007,6007,6007,6007,6007,6007,6007,6007,6007,6007,6007,6007,6007,6007,6007,6007,6007,6007,6007,6007,6007,6007,6007,6007,6007,6007,6007,6007,6007,6007,6007,6007,6007,6007,6007,6007,6007,6007,6007,6007,6007,6007,6007,6007,6007,6007,6007,6007,
6007,6007,6007,6007,6007,6007,6007,6007,6007,6007,6007,6007,6007,6007,6007,6007,6007,6007,6007,6007,6007,6007,6007,6007,6007,6007,6007,6007,6007,6007,6007,6007,6007,6007,6007,6007,6007,6007,6007,6007,6007,6007,6007,6007,6007,6007,6007,6007,6007,6007,6007,6007,6007,6007,6007,6007,6007,6007,6007,6007,6007,6007,6007,6007,6007,6007,
6007,6007,6007,6007,6007,6007,6007,6007,6007,6007,6007,6007,6007,6007,6007,6007,6007,6007,6007,6007,6007,6007,6007,6007,6007,6007,6007,6007,6007,6007,6007,6007,6007,6007,6007,6007,6007,6007,6007,6007,6007,6007,6007,6007,6007,6007,6007,6007,6007,6007,6007,6007,6007,6007,6007,6007,6007,6007,6007,6007,6007,6007,6007,6007,6007,6007,
6007,6007,6007,6007,6007,6007,6007,6007,6007,6007,6007,6007,6007,6007,6007,6007,6007,6007,6007,6007,6007,6007,6007,6007,6007,6007,6007,6007,6007,6007,6007,6007,6007,6007,6007,6007,6007,6007,6007,6007,6007,6007,6007,6007,6007,6007,6007,6007,6007,6007,6007,6007,6007,6007,6007,6007,6007,6007,6007,6007,6007,6007,6007,6007,6007,6007,
6007,6007,6007,6007,6007,6007,6007,6007,6007,6007,6007,6007,6007,6007,6007,6007,6007,6007,6007,6007,6007,6007,6007,6007,6007,6007,6007,6007,6007,6007,6007,6007,6007,6007,6007,6007,6007,6007,6007,6007,6007,6007,6007,6007,6007,6007,6007,6007,6007,6007,6007,6007,6007,6007,6007,6007,6007,6007,6007,6007,6007,6007,6007,6007,6007,6007,
6007,6007,6007,6007,6007,6007,6007,6007,6007,6007,6007,6007,6007,6007,6007,6007,6007,6007,6007,6007,6007,6007,6007,6007,6007,6007,6007,6007,6007,6007,6007,6007,6007,6007,6007,6007,6007,6007,6007,6007,6007,6007,6007,6007,6007,6007,6007,6007,6007,6007,6007,6007,6007,6007,6007,6007,6007,6007,6007,6007,6007,6007,6007,6007,6007,6007,
6007,6007,6007,6007,6007,6007,6007,6007,6007,6007,6007,6007,6007,6007,6007,6007,6007,6007,6007,6007,6007,6007,6007,6007,6007,6007,6007,6007,6007,6007,6007,6007,6007,6007,6007,6007,6007,6007,6007,6007,6007,6007,6007,6007,6007,6007,6007,6007,6007,6007,6007,6007,6007,6007,6007,6007,6007,6007,6007,6007,6007,6007,6007,6007,6007,6007,
6007,6007,6007,6007,6007,6007,6007,6007,6007,6007,6007,6007,6007,6007,6007,6007,6007,6007,6007,6007,6007,6007,6007,6007,6007,6007,6007,6007,6007,6007,6007,6007,6007,6007,6007,6007,6007,6007,6007,6007,6007,6007,6007,6007,6007,6007,6007,6007,6007,6007,6007,6007,6007,6007,6007,6007,6007,6007,6007,6007,6007,6007,6007,6007,6007,6007,
6007,6007,6007,6007,6007,6007,6007,6007,6007,6007,6007,6007,6007,6007,6007,6007,6007,6007,6007,6007,6007,6007,6007,6007,6007,6007,6007,6007,6007,6007,6007,6007,6007,6007,6007,6007,6007,6007,6007,6007,6007,6007,6007,6007,6007,6007,6007,6007,6007,6007,6007,6007,6007,6007,6007,6007,6007,6007,6007,6007,6007,6007,6007,6007,6007,6007,
6007,6007,6007,6007,6007,6007,6007,6007,6007,6007,6007,6007,6007,6007,6007,6007,6007,6007,6007,6007,6007,6007,6007,6007,6007,6007,6007,6007,6007,6007,6007,6007,6007,6007,6007,6007,6007,6007,6007,6007,6007,6007,6007,6007,6007,6007,6007,6007,6007,6007,6007,6007,6007,6007,6007,6007,6007,6007,6007,6007,6007,6007,6007,6007,6007,6007,
6007,6007,6007,6007,6007,6007,6007,6007,6007,6007,6007,6007,6007,6007,6007,6007,6007,6007,6007,6007,6007,6007,6007,6007,6007,6007,6007,6007,6007,6007,6007,6007,6012,6012,6007,6007,6007,6007,6007,6007,6007,6007,6007,6007,6007,6007,6007,6007,6007,6007,6007,6007,6007,6007,6007,6007,6007,6007,6007,6007,6007,6007,6007,6007,6007,6007,
6007,6007,6007,6007,6007,6007,6007,6007,6007,6007,6007,6007,6007,6007,6007,6007,6007,6007,6007,6007,6007,6007,6007,6007,6007,6007,6007,6007,6007,6007,6007,6007,6007,6007,6007,6007,6007,6007,6007,6007,6007,6007,6007,6007,6007,6007,6007,6007,6007,6007,6007,6007,6007,6007,6007,6007,6007,6007,6007,6007,6007,6007,6007,6007,6007,6007,
6007,6007,6007,6007,6007,6007,6007,6007,6007,6007,6007,6007,6007,6007,6007,6007,6007,6007,6007,6007,6007,6007,6007,6007,6007,6007,6007,6007,6007,6007,6007,6007,6007,6007,6007,6007,6007,6007,6007,6007,6007,6007,6007,6007,6007,6007,6007,6007,6007,6007,6007,6007,6007,6007,6007,6007,6007,6007,6007,6007,6007,6007,6007,6007,6007,6007,
6007,6007,6007,6007,6007,6007,6007,6007,6007,6007,6007,6007,6007,6007,6007,6007,6007,6007,6007,6007,6007,6007,6007,6007,6007,6007,6007,6007,6007,6007,6007,6007,6007,6007,6007,6007,6007,6007,6007,6007,6007,6007,6007,6007,6007,6007,6007,6007,6007,6007,6007,6007,6007,6007,6007,6007,6007,6007,6007,6007,6007,6007,6007,6007,6007,6007,
6007,6007,6007,6007,6007,6007,6007,6007,6007,6007,6007,6007,6007,6007,6007,6007,6007,6007,6007,6007,6007,6007,6007,6007,6007,6007,6007,6007,6007,6007,6007,6007,6007,6007,6007,6007,6007,6007,6007,6007,6007,6007,6007,6007,6007,6007,6007,6007,6007,6007,6007,6007,6007,6007,6007,6007,6007,6007,6007,6007,6007,6007,6007,6007,6007,6007,
6007,6007,6007,6007,6007,6007,6007,6007,6007,6007,6007,6007,6007,6007,6007,6007,6007,6007,6007,6007,6007,6007,6007,6007,6007,6007,6007,6007,6007,6007,6007,6007,6007,6007,6007,6007,6007,6007,6007,6007,6007,6007,6007,6007,6007,6007,6007,6007,6007,6007,6007,6007,6007,6007,6007,6007,6007,6007,6007,6007,6007,6007,6007,6007,6007,6007,
6007,6007,6007,6007,6007,6007,6007,6007,6007,6007,6007,6007,6007,6007,6007,6007,6007,6007,6007,6007,6007,6007,6007,6007,6007,6007,6007,6007,6007,6007,6007,6007,6007,6007,6007,6007,6007,6007,6007,6007,6007,6007,6007,6007,6007,6007,6007,6007,6007,6007,6007,6007,6007,6007,6007,6007,6007,6007,6007,6007,6007,6007,6007,6007,6007,6007,
6007,6007,6007,6007,6007,6007,6007,6007,6007,6007,6007,6007,6007,6007,6007,6007,6007,6007,6007,6007,6007,6007,6007,6007,6007,6007,6007,6007,6007,6007,6007,6007,6007,6007,6007,6007,6007,6007,6007,6007,6007,6007,6007,6007,6007,6007,6007,6007,6007,6007,6007,6007,6007,6007,6007,6007,6007,6007,6007,6007,6007,6007,6007,6007,6007,6007,
6007,6007,6007,6007,6007,6007,6007,6007,6007,6007,6007,6007,6007,6007,6007,6007,6007,6007,6007,6007,6007,6007,6007,6007,6007,6007,6007,6007,6007,6007,6007,6007,6007,6007,6007,6007,6007,6007,6007,6007,6007,6007,6007,6007,6007,6007,6007,6007,6007,6007,6007,6007,6007,6007,6007,6007,6007,6007,6007,6007,6007,6007,6007,6007,6007,6007,
6007,6007,6007,6007,6007,6007,6007,6007,6007,6007,6007,6007,6007,6007,6007,6007,6007,6007,6007,6007,6007,6007,6007,6007,6007,6007,6007,6007,6007,6007,6007,6007,6007,6007,6007,6007,6007,6007,6007,6007,6007,6007,6007,6007,6007,6007,6007,6007,6007,6007,6007,6007,6007,6007,6007,6007,6007,6007,6007,6007,6007,6007,6007,6007,6007,6007,
6007,6007,6007,6007,6007,6007,6007,6007,6007,6007,6007,6007,6007,6007,6007,6007,6007,6007,6007,6007,6007,6007,6007,6007,6007,6007,6007,6007,6007,6007,6007,6007,6007,6007,6007,6007,6007,6007,6007,6007,6007,6007,6007,6007,6007,6007,6007,6007,6007,6007,6007,6007,6007,6007,6007,6007,6007,6007,6007,6007,6007,6007,6007,6007,6007,6007,
6007,6007,6007,6007,6007,6007,6007,6007,6007,6007,6007,6007,6007,6007,6007,6007,6007,6007,6007,6007,6007,6007,6007,6007,6007,6007,6007,6007,6007,6007,6007,6007,6007,6007,6007,6007,6007,6007,6007,6007,6007,6007,6007,6007,6007,6007,6007,6007,6007,6007,6007,6007,6007,6007,6007,6007,6007,6007,6007,6007,6007,6007,6007,6007,6007,6007,
6007,6007,6007,6007,6007,6007,6007,6007,6007,6007,6007,6007,6007,6007,6007,6007,6007,6007,6007,6007,6007,6007,6007,6007,6007,6007,6007,6007,6007,6007,6007,6007,6007,6007,6007,6007,6007,6007,6007,6007,6007,6007,6007,6007,6007,6007,6007,6007,6007,6007,6007,6007,6007,6007,6007,6007,6007,6007,6007,6007,6007,6007,6007,6007,6007,6007,
6007,6007,6007,6007,6007,6007,6007,6007,6007,6007,6007,6007,6007,6007,6007,6007,6007,6007,6007,6007,6007,6007,6007,6007,6007,6007,6007,6007,6007,6007,6007,6007,6007,6007,6007,6007,6007,6007,6007,6007,6007,6007,6007,6007,6007,6007,6007,6007,6007,6007,6007,6007,6007,6007,6007,6007,6007,6007,6007,6007,6007,6007,6007,6007,6007,6007,
6007,6007,6007,6007,6007,6007,6007,6007,6007,6007,6007,6007,6007,6007,6007,6007,6007,6007,6007,6007,6007,6007,6007,6007,6007,6007,6007,6007,6007,6007,6007,6007,6007,6007,6007,6007,6007,6007,6007,6007,6007,6007,6007,6007,6007,6007,6007,6007,6007,6007,6007,6007,6007,6007,6007,6007,6007,6007,6007,6007,6007,6007,6007,6007,6007,6007,
6007,6007,6007,6007,6007,6007,6007,6007,6007,6007,6007,6007,6007,6007,6007,6007,6007,6007,6007,6007,6007,6007,6007,6007,6007,6007,6007,6007,6007,6007,6007,6007,6007,6007,6007,6007,6007,6007,6007,6007,6007,6007,6007,6007,6007,6007,6007,6007,6007,6007,6007,6007,6007,6007,6007,6007,6007,6007,6007,6007,6007,6007,6007,6007,6007,6007,
6007,6007,6007,6007,6007,6007,6007,6007,6007,6007,6007,6007,6007,6007,6007,6007,6007,6007,6007,6007,6007,6007,6007,6007,6007,6007,6007,6007,6007,6007,6007,6007,6007,6007,6007,6007,6007,6007,6007,6007,6007,6007,6007,6007,6007,6007,6007,6007,6007,6007,6007,6007,6007,6007,6007,6007,6007,6007,6007,6007,6007,6007,6007,6007,6007,6007,
6007,6007,6007,6007,6007,6007,6007,6007,6007,6007,6007,6007,6007,6007,6007,6007,6007,6007,6007,6007,6007,6007,6007,6007,6007,6007,6007,6007,6007,6007,6007,6007,6007,6007,6007,6007,6007,6007,6007,6007,6007,6007,6007,6007,6007,6007,6007,6007,6007,6007,6007,6007,6007,6007,6007,6007,6007,6007,6007,6007,6007,6007,6007,6007,6007,6007,
6007,6007,6007,6007,6007,6007,6007,6007,6007,6007,6007,6007,6007,6007,6007,6007,6007,6007,6007,6007,6007,6007,6007,6007,6007,6007,6007,6007,6007,6007,6007,6007,6007,6007,6007,6007,6007,6007,6007,6007,6007,6007,6007,6007,6007,6007,6007,6007,6007,6007,6007,6007,6007,6007,6007,6007,6007,6007,6007,6007,6007,6007,6007,6007,6007,6007,
6007,6007,6007,6007,6007,6007,6007,6007,6007,6007,6007,6007,6007,6007,6007,6007,6007,6007,6007,6007,6007,6007,6007,6007,6007,6007,6007,6007,6007,6007,6007,6007,6007,6007,6007,6007,6007,6007,6007,6007,6007,6007,6007,6007,6007,6007,6007,6007,6007,6007,6007,6007,6007,6007,6007,6007,6007,6007,6007,6007,6007,6007,6007,6007,6007,6007,
6007,6007,6007,6007,6007,6007,6007,6007,6007,6007,6007,6007,6007,6007,6007,6007,6007,6007,6007,6007,6007,6007,6007,6007,6007,6007,6007,6007,6007,6007,6007,6007,6007,6007,6007,6007,6007,6007,6007,6007,6007,6007,6007,6007,6007,6007,6007,6007,6007,6007,6007,6007,6007,6007,6007,6007,6007,6007,6007,6007,6007,6007,6007,6007,6007,6007,
6007,6007,6007,6007,6007,6007,6007,6007,6007,6007,6007,6007,6007,6007,6007,6007,6007,6007,6007,6007,6007,6007,6007,6007,6007,6007,6007,6007,6007,6007,6007,6007,6007,6007,6007,6007,6007,6007,6007,6007,6007,6007,6007,6007,6007,6007,6007,6007,6007,6007,6007,6007,6007,6007,6007,6007,6007,6007,6007,6007,6007,6007,6007,6007,6007,6007,
6007,6007,6007,6007,6007,6007,6007,6007,6007,6007,6007,6007,6007,6007,6007,6007,6007,6007,6007,6007,6007,6007,6007,6007,6007,6007,6007,6007,6007,6007,6007,6007,6007,6007,6007,6007,6007,6007,6007,6007,6007,6007,6007,6007,6007,6007,6007,6007,6007,6007,6007,6007,6007,6007,6007,6007,6007,6007,6007,6007,6007,6007,6007,6007,6007,6007,
6007,6007,6007,6007,6007,6007,6007,6007,6007,6007,6007,6007,6007,6007,6007,6007,6007,6007,6007,6007,6007,6007,6007,6007,6007,6007,6007,6007,6007,6007,6007,6007,6007,6007,6007,6007,6007,6007,6007,6007,6007,6007,6007,6007,6007,6007,6007,6007,6007,6007,6007,6007,6007,6007,6007,6007,6007,6007,6007,6007,6007,6007,6007,6007,6007,6007,
6007,6007,6007,6007,6007,6007,6007,6007,6007,6007,6007,6007,6007,6007,6007,6007,6007,6007,6007,6007,6007,6007,6007,6007,6007,6007,6007,6007,6007,6007,6007,6007,6007,6007,6007,6007,6007,6007,6007,6007,6007,6007,6007,6007,6007,6007,6007,6007,6007,6007,6007,6007,6007,6007,6007,6007,6007,6007,6007,6007,6007,6007,6007,6007,6007,6007,
6007,6007,6007,6007,6007,6007,6007,6007,6007,6007,6007,6007,6007,6007,6007,6007,6007,6007,6007,6007,6007,6007,6007,6007,6007,6007,6007,6007,6007,6007,6007,6007,6007,6007,6007,6007,6007,6007,6007,6007,6007,6007,6007,6007,6007,6007,6007,6007,6007,6007,6007,6007,6007,6007,6007,6007,6007,6007,6007,6007,6007,6007,6007,6007,6007,6007,
6007,6007,6007,6007,6007,6007,6007,6007,6007,6007,6007,6007,6007,6007,6007,6007,6007,6007,6007,6007,6007,6007,6007,6007,6007,6007,6007,6007,6007,6007,6007,6007,6007,6007,6007,6007,6007,6007,6007,6007,6007,6007,6007,6007,6007,6007,6007,6007,6007,6007,6007,6007,6007,6007,6007,6007,6007,6007,6007,6007,6007,6007,6007,6007,6007,6007,
6007,6007,6007,6007,6007,6007,6007,6007,6007,6007,6007,6007,6007,6007,6007,6007,6007,6007,6007,6007,6007,6007,6007,6007,6007,6007,6007,6007,6007,6007,6007,6007,6007,6007,6007,6007,6007,6007,6007,6007,6007,6007,6007,6007,6007,6007,6007,6007,6007,6007,6007,6007,6007,6007,6007,6007,6007,6007,6007,6007,6007,6007,6007,6007,6007,6007,
6007,6007,6007,6007,6007,6007,6007,6007,6007,6007,6007,6007,6007,6007,6007,6007,6007,6007,6007,6007,6007,6007,6007,6007,6007,6007,6007,6007,6007,6007,6007,6007,6007,6007,6007,6007,6007,6007,6007,6007,6007,6007,6007,6007,6007,6007,6007,6007,6007,6007,6007,6007,6007,6007,6007,6007,6007,6007,6007,6007,6007,6007,6007,6007,6007,6007,
6007,6007,6007,6007,6007,6007,6007,6007,6007,6007,6007,6007,6007,6007,6007,6007,6007,6007,6007,6007,6007,6007,6007,6007,6007,6007,6007,6007,6007,6007,6007,6007,6007,6007,6007,6007,6007,6007,6007,6007,6007,6007,6007,6007,6007,6007,6007,6007,6007,6007,6007,6007,6007,6007,6007,6007,6007,6007,6007,6007,6007,6007,6007,6007,6007,6007,
6007,6007,6007,6007,6007,6007,6007,6007,6007,6007,6007,6007,6007,6007,6007,6007,6007,6007,6007,6007,6007,6007,6007,6007,6007,6007,6007,6007,6007,6007,6007,6007,6007,6007,6007,6007,6007,6007,6007,6007,6007,6007,6007,6007,6007,6007,6007,6007,6007,6007,6007,6007,6007,6007,6007,6007,6007,6007,6007,6007,6007,6007,6007,6007,6007,6007,
6007,6007,6007,6007,6007,6007,6007,6007,6007,6007,6007,6007,6007,6007,6007,6007,6007,6007,6007,6007,6007,6007,6007,6007,6007,6007,6007,6007,6007,6007,6007,6007,6007,6007,6007,6007,6007,6007,6007,6007,6007,6007,6007,6007,6007,6007,6007,6007,6007,6007,6007,6007,6007,6007,6007,6007,6007,6007,6007,6007,6007,6007,6007,6007,6007,6007,
6007,6007,6007,6007,6007,6007,6007,6007,6007,6007,6007,6007,6007,6007,6007,6007,6007,6007,6007,6007,6007,6007,6007,6007,6007,6007,6007,6007,6007,6007,6007,6007,6007,6007,6007,6007,6007,6007,6007,6007,6007,6007,6007,6007,6007,6007,6007,6007,6007,6007,6007,6007,6007,6007,6007,6007,6007,6007,6007,6007,6007,6007,6007,6007,6007,6007,
6007,6007,6007,6007,6007,6007,6007,6007,6007,6007,6007,6007,6007,6007,6007,6007,6007,6007,6007,6007,6007,6007,6007,6007,6007,6007,6007,6007,6007,6007,6007,6007,6007,6007,6007,6007,6007,6007,6007,6007,6007,6007,6007,6007,6007,6007,6007,6007,6007,6007,6007,6007,6007,6007,6007,6007,6007,6007,6007,6007,6007,6007,6007,6007,6007,6007,
6007,6007,6007,6007,6007,6007,6007,6007,6007,6007,6007,6007,6007,6007,6007,6007,6007,6007,6007,6007,6007,6007,6007,6007,6007,6007,6007,6007,6007,6007,6007,6007,6007,6007,6007,6007,6007,6007,6007,6007,6007,6007,6007,6007,6007,6007,6007,6007,6007,6007,6007,6007,6007,6007,6007,6007,6007,6007,6007,6007,6007,6007,6007,6007,6007,6007,
6007,6007,6007,6007,6007,6007,6007,6007,6007,6007,6007,6007,6007,6007,6007,6007,6007,6007,6007,6007,6007,6007,6007,6007,6007,6007,6007,6007,6007,6007,6007,6007,6007,6007,6007,6007,6007,6007,6007,6007,6007,6007,6007,6007,6007,6007,6007,6007,6007,6007,6007,6007,6007,6007,6007,6007,6007,6007,6007,6007,6007,6007,6007,6007,6007,6007,
6007,6007,6007,6007,6007,6007,6007,6007,6007,6007,6007,6007,6007,6007,6007,6007,6007,6007,6007,6007,6007,6007,6007,6007,6007,6007,6007,6007,6007,6007,6007,6007,6007,6007,6007,6007,6007,6007,6007,6007,6007,6007,6007,6007,6007,6007,6007,6007,6007,6007,6007,6007,6007,6007,6007,6007,6007,6007,6007,6007,6007,6007,6007,6007,6007,6007,
6007,6007,6007,6007,6007,6007,6007,6007,6007,6007,6007,6007,6007,6007,6007,6007,6007,6007,6007,6007,6007,6007,6007,6007,6007,6007,6007,6007,6007,6007,6007,6007,6007,6007,6007,6007,6007,6007,6007,6007,6007,6007,6007,6007,6007,6007,6007,6007,6007,6007,6007,6007,6007,6007,6007,6007,6007,6007,6007,6007,6007,6007,6007,6007,6007,6007,
6007,6007,6007,6007,6007,6007,6007,6007,6007,6007,6007,6007,6007,6007,6007,6007,6007,6007,6007,6007,6007,6007,6007,6007,6007,6007,6007,6007,6007,6007,6007,6007,6007,6007,6007,6007,6007,6007,6007,6007,6007,6007,6007,6007,6007,6007,6007,6007,6007,6007,6007,6007,6007,6007,6007,6007,6007,6007,6007,6007,6007,6007,6007,6007,6007,6007,
6007,6007,6007,6007,6007,6007,6007,6007,6007,6007,6007,6007,6007,6007,6007,6007,6007,6007,6007,6007,6007,6007,6007,6007,6007,6007,6007,6007,6007,6007,6007,6007,6007,6007,6007,6007,6007,6007,6007,6007,6007,6007,6007,6007,6007,6007,6007,6007,6007,6007,6007,6007,6007,6007,6007,6007,6007,6007,6007,6007,6007,6007,6007,6007,6007,6007
</data>
 </layer>
 <objectgroup draworder="index" id="12" name="Lighting" visible="0">
  <object id="27" template="../../templates/system/lighting/lights/obj_light_xs.tx" type="obj_light_xs" x="192" y="304"/>
  <object id="28" template="../../templates/system/lighting/lights/obj_light_xs.tx" type="obj_light_xs" x="288" y="304"/>
  <object id="29" template="../../templates/system/lighting/lights/obj_light_xs.tx" type="obj_light_xs" x="240" y="408"/>
  <object id="30" template="../../templates/system/lighting/lights/obj_light_xs.tx" type="obj_light_xs" x="320" y="200"/>
  <object id="31" template="../../templates/system/lighting/lights/obj_light_xs.tx" type="obj_light_xs" x="336" y="176"/>
  <object id="32" template="../../templates/system/lighting/lights/obj_light_xs.tx" type="obj_light_xs" x="320" y="152"/>
  <object id="33" template="../../templates/system/lighting/lights/obj_light_xs.tx" type="obj_light_xs" x="160" y="200"/>
  <object id="34" template="../../templates/system/lighting/lights/obj_light_xs.tx" type="obj_light_xs" x="144" y="176"/>
  <object id="35" template="../../templates/system/lighting/lights/obj_light_xs.tx" type="obj_light_xs" x="160" y="152"/>
 </objectgroup>
 <objectgroup draworder="index" id="13" name="TrellisPoints">
  <object id="36" template="../../templates/meta/obj_trellis_point_transition.tx" name="Exit to Seridia&apos;s House" type="obj_trellis_point_transition" x="252" y="493">
   <properties>
    <property name="direction" type="int" propertytype="Cardinal" value="1"/>
   </properties>
  </object>
  <object id="37" template="../../templates/meta/obj_trellis_point_seat.tx" name="Seridia Throne" type="obj_trellis_point_seat" x="252" y="294"/>
  <object id="38" template="../../templates/meta/obj_trellis_point_default.tx" name="touch_gold_west" type="obj_trellis_point_default" x="154" y="367">
   <properties>
    <property name="direction" type="int" propertytype="Cardinal" value="2"/>
   </properties>
  </object>
  <object id="39" template="../../templates/meta/obj_trellis_point_default.tx" name="touch_gold_east" type="obj_trellis_point_default" x="354" y="375">
   <properties>
    <property name="direction" type="int" propertytype="Cardinal" value="1"/>
   </properties>
  </object>
  <object id="40" template="../../templates/meta/obj_trellis_point_default.tx" name="count_gold_west" type="obj_trellis_point_default" x="218" y="307"/>
  <object id="41" template="../../templates/meta/obj_trellis_point_default.tx" name="count_gold_east" type="obj_trellis_point_default" x="286" y="307"/>
  <object id="42" template="../../templates/meta/obj_trellis_point_default.tx" name="spell_cast_1" type="obj_trellis_point_default" x="252" y="391"/>
  <object id="43" template="../../templates/meta/obj_trellis_point_default.tx" name="seridias_house_back_routine_entrance" type="obj_trellis_point_default" x="252" y="485">
   <properties>
    <property name="direction" type="int" propertytype="Cardinal" value="1"/>
   </properties>
  </object>
 </objectgroup>
 <objectgroup draworder="index" id="14" name="Meta" visible="0">
  <object id="44" template="../../templates/obj_roomtransition.tx" type="obj_roomtransition" x="248" y="512" width="32" height="24">
   <properties>
    <property name="destination_id" propertytype="LocationId" value="seridias_house"/>
    <property name="player_direction" type="int" value="270"/>
   </properties>
  </object>
  <object id="45" template="../../templates/meta/obj_sound_emitter.tx" type="obj_sound_emitter" x="248" y="416">
   <properties>
    <property name="sound_asset" value="SoundEffects/Environment/FirePlace"/>
   </properties>
  </object>
 </objectgroup>
</map>
