<?xml version="1.0" encoding="UTF-8"?>
<map version="1.10" tiledversion="1.11.2" class="DungeonSpecial" orientation="orthogonal" renderorder="right-down" width="50" height="56" tilewidth="8" tileheight="8" infinite="0" backgroundcolor="#000000" nextlayerid="21" nextobjectid="55">
 <tileset firstgid="1" source="../../../__gm_import.tsx"/>
 <tileset firstgid="1504" source="../../../tile_sets/__META/tile_collision_info.tsx"/>
 <tileset firstgid="1511" source="../../../tile_sets/tile_footsteps.tsx"/>
 <tileset firstgid="1655" source="../../../tile_sets/_GENERIC/tile_main_interiors.tsx"/>
 <tileset firstgid="5751" source="../../../tile_sets/_GENERIC/tile_main_interiors_shadows.tsx"/>
 <tileset firstgid="6007" source="../../../tile_sets/__META/tile_pathfinding.tsx"/>
 <tileset firstgid="6013" source="../../../tile_sets/tile_priority_objects.tsx"/>
 <tileset firstgid="6181" source="../../../tile_sets/__META/tile_rules.tsx"/>
 <group id="1" name="Level_0">
  <objectgroup draworder="index" id="2" name="Level_0_FloorSprites">
   <object id="1" type="asset" gid="861" x="48" y="400" width="304" height="336"/>
   <object id="2" type="asset" gid="769" x="248" y="360" width="64" height="64"/>
  </objectgroup>
  <layer id="3" name="Level_0_Shadows" width="50" height="56">
   <properties>
    <property name="maybe_animation_id" value="babd09ade2b55c05"/>
    <property name="maybe_tileset_id" value="339411f6ba88c8f0"/>
    <property name="tile_size" type="int" value="16"/>
   </properties>
   <data encoding="csv">
5751,0,5751,0,5751,0,5751,0,5751,0,5751,0,5751,0,5751,0,5751,0,5751,0,5751,0,5751,0,5751,0,5751,0,5751,0,5751,0,5751,0,5751,0,5751,0,5751,0,5751,0,5751,0,5751,0,5751,0,5751,0,
0,0,0,0,0,0,0,0,0,0,0,0,0,0,0,0,0,0,0,0,0,0,0,0,0,0,0,0,0,0,0,0,0,0,0,0,0,0,0,0,0,0,0,0,0,0,0,0,0,0,
5751,0,5751,0,5751,0,5751,0,5751,0,5751,0,5751,0,5751,0,5751,0,5751,0,5751,0,5751,0,5751,0,5751,0,5751,0,5751,0,5751,0,5751,0,5751,0,5751,0,5751,0,5751,0,5751,0,5751,0,5751,0,
0,0,0,0,0,0,0,0,0,0,0,0,0,0,0,0,0,0,0,0,0,0,0,0,0,0,0,0,0,0,0,0,0,0,0,0,0,0,0,0,0,0,0,0,0,0,0,0,0,0,
5751,0,5751,0,5751,0,5751,0,5751,0,5751,0,5751,0,5751,0,5751,0,5751,0,5751,0,5751,0,5751,0,5751,0,5751,0,5751,0,5751,0,5751,0,5751,0,5751,0,5751,0,5751,0,5751,0,5751,0,5751,0,
0,0,0,0,0,0,0,0,0,0,0,0,0,0,0,0,0,0,0,0,0,0,0,0,0,0,0,0,0,0,0,0,0,0,0,0,0,0,0,0,0,0,0,0,0,0,0,0,0,0,
5751,0,5751,0,5751,0,5751,0,5751,0,5751,0,5751,0,5751,0,5751,0,5751,0,5751,0,5751,0,5751,0,5751,0,5751,0,5751,0,5751,0,5751,0,5751,0,5751,0,5751,0,5751,0,5751,0,5751,0,5751,0,
0,0,0,0,0,0,0,0,0,0,0,0,0,0,0,0,0,0,0,0,0,0,0,0,0,0,0,0,0,0,0,0,0,0,0,0,0,0,0,0,0,0,0,0,0,0,0,0,0,0,
5751,0,5751,0,5751,0,5751,0,5751,0,5751,0,5751,0,5751,0,5751,0,5751,0,5751,0,5751,0,5751,0,5751,0,5751,0,5751,0,5751,0,5751,0,5751,0,5751,0,5751,0,5751,0,5751,0,5751,0,5751,0,
0,0,0,0,0,0,0,0,0,0,0,0,0,0,0,0,0,0,0,0,0,0,0,0,0,0,0,0,0,0,0,0,0,0,0,0,0,0,0,0,0,0,0,0,0,0,0,0,0,0,
5751,0,5751,0,5751,0,5751,0,5751,0,5751,0,5751,0,5751,0,5751,0,5751,0,5751,0,5751,0,5751,0,5751,0,5751,0,5751,0,5751,0,5751,0,5751,0,5751,0,5751,0,5751,0,5751,0,5751,0,5751,0,
0,0,0,0,0,0,0,0,0,0,0,0,0,0,0,0,0,0,0,0,0,0,0,0,0,0,0,0,0,0,0,0,0,0,0,0,0,0,0,0,0,0,0,0,0,0,0,0,0,0,
5751,0,5751,0,5751,0,5751,0,5751,0,5751,0,5751,0,5751,0,5751,0,5751,0,5751,0,5751,0,5751,0,5751,0,5751,0,5751,0,5751,0,5751,0,5751,0,5751,0,5751,0,5751,0,5751,0,5751,0,5751,0,
0,0,0,0,0,0,0,0,0,0,0,0,0,0,0,0,0,0,0,0,0,0,0,0,0,0,0,0,0,0,0,0,0,0,0,0,0,0,0,0,0,0,0,0,0,0,0,0,0,0,
5751,0,5751,0,5751,0,5751,0,5751,0,5751,0,5751,0,5751,0,5751,0,5751,0,5751,0,5751,0,5751,0,5751,0,5751,0,5751,0,5751,0,5751,0,5751,0,5751,0,5751,0,5751,0,5751,0,5751,0,5751,0,
0,0,0,0,0,0,0,0,0,0,0,0,0,0,0,0,0,0,0,0,0,0,0,0,0,0,0,0,0,0,0,0,0,0,0,0,0,0,0,0,0,0,0,0,0,0,0,0,0,0,
5751,0,5751,0,5751,0,5751,0,5783,0,5857,0,5857,0,5857,0,5820,0,5751,0,5751,0,5751,0,5751,0,5751,0,5751,0,5751,0,2147489468,0,5857,0,5857,0,5857,0,5751,0,5751,0,5751,0,5751,0,5751,0,
0,0,0,0,0,0,0,0,0,0,0,0,0,0,0,0,0,0,0,0,0,0,0,0,0,0,0,0,0,0,0,0,0,0,0,0,0,0,0,0,0,0,0,0,0,0,0,0,0,0,
5751,0,5751,0,5751,0,5815,0,5857,0,5876,0,5844,0,5889,0,5751,0,5751,0,5751,0,5751,0,5751,0,5751,0,5751,0,5751,0,5814,0,5889,0,5889,0,5875,0,5857,0,5751,0,5751,0,5751,0,5751,0,
0,0,0,0,0,0,0,0,0,0,0,0,0,0,0,0,0,0,0,0,0,0,0,0,0,0,0,0,0,0,0,0,0,0,0,0,0,0,0,0,0,0,0,0,0,0,0,0,0,0,
5751,0,5751,0,5752,0,5857,0,5876,0,5877,0,5751,0,5751,0,5751,0,5751,0,5751,0,5751,0,5751,0,5751,0,5751,0,5751,0,5814,0,5751,0,5751,0,5751,0,5875,0,5857,0,5751,0,5751,0,5751,0,
0,0,0,0,0,0,0,0,0,0,0,0,0,0,0,0,0,0,0,0,0,0,0,0,0,0,0,0,0,0,0,0,0,0,0,0,0,0,0,0,0,0,0,0,0,0,0,0,0,0,
5751,0,5751,0,5752,0,5857,0,5858,0,5751,0,5751,0,5751,0,5751,0,5751,0,5751,0,5751,0,5751,0,5751,0,5751,0,5751,0,5814,0,5751,0,5751,0,5751,0,5751,0,5751,0,5751,0,5751,0,5751,0,
0,0,0,0,0,0,0,0,0,0,0,0,0,0,0,0,0,0,0,0,0,0,0,0,0,0,0,0,0,0,0,0,0,0,0,0,0,0,0,0,0,0,0,0,0,0,0,0,0,0,
5751,0,5751,0,5752,0,5857,0,5858,0,5751,0,5751,0,5751,0,5751,0,5751,0,5751,0,5751,0,5751,0,5751,0,5751,0,5751,0,5814,0,5751,0,5751,0,5751,0,5751,0,5751,0,5751,0,5751,0,5751,0,
0,0,0,0,0,0,0,0,0,0,0,0,0,0,0,0,0,0,0,0,0,0,0,0,0,0,0,0,0,0,0,0,0,0,0,0,0,0,0,0,0,0,0,0,0,0,0,0,0,0,
5751,0,5751,0,5752,0,5857,0,5858,0,5751,0,5751,0,5751,0,5751,0,5751,0,5751,0,5751,0,5751,0,5751,0,5751,0,5751,0,5814,0,5751,0,5751,0,5751,0,5751,0,5751,0,5751,0,5751,0,5751,0,
0,0,0,0,0,0,0,0,0,0,0,0,0,0,0,0,0,0,0,0,0,0,0,0,0,0,0,0,0,0,0,0,0,0,0,0,0,0,0,0,0,0,0,0,0,0,0,0,0,0,
5751,0,5751,0,5752,0,5857,0,5858,0,5751,0,5751,0,5751,0,5751,0,5751,0,5751,0,5751,0,5751,0,5751,0,5751,0,5751,0,5814,0,5751,0,5751,0,5751,0,5751,0,5751,0,5751,0,5751,0,5751,0,
0,0,0,0,0,0,0,0,0,0,0,0,0,0,0,0,0,0,0,0,0,0,0,0,0,0,0,0,0,0,0,0,0,0,0,0,0,0,0,0,0,0,0,0,0,0,0,0,0,0,
5751,0,5751,0,5752,0,5857,0,5858,0,5751,0,5751,0,5751,0,5751,0,5751,0,5751,0,5751,0,5751,0,5751,0,5751,0,5751,0,5814,0,5751,0,5751,0,5751,0,5751,0,5751,0,5751,0,5751,0,5751,0,
0,0,0,0,0,0,0,0,0,0,0,0,0,0,0,0,0,0,0,0,0,0,0,0,0,0,0,0,0,0,0,0,0,0,0,0,0,0,0,0,0,0,0,0,0,0,0,0,0,0,
5751,0,5751,0,5752,0,5857,0,5858,0,5751,0,5751,0,5751,0,5828,0,5829,0,5829,0,5829,0,5829,0,5829,0,5829,0,5829,0,5830,0,5751,0,5751,0,5751,0,5751,0,5751,0,5751,0,5751,0,5751,0,
0,0,0,0,0,0,0,0,0,0,0,0,0,0,0,0,0,0,0,0,0,0,0,0,0,0,0,0,0,0,0,0,0,0,0,0,0,0,0,0,0,0,0,0,0,0,0,0,0,0,
5751,0,5751,0,5752,0,5857,0,5858,0,5751,0,5751,0,5751,0,5751,0,5751,0,5751,0,5751,0,5751,0,5751,0,5751,0,5751,0,5751,0,5751,0,5751,0,5751,0,5751,0,5751,0,5751,0,5751,0,5751,0,
0,0,0,0,0,0,0,0,0,0,0,0,0,0,0,0,0,0,0,0,0,0,0,0,0,0,0,0,0,0,0,0,0,0,0,0,0,0,0,0,0,0,0,0,0,0,0,0,0,0,
5751,0,5751,0,5752,0,5857,0,5858,0,5751,0,5751,0,5751,0,5751,0,5751,0,5751,0,5751,0,5751,0,5751,0,5751,0,5751,0,5751,0,5751,0,5751,0,5751,0,5751,0,5751,0,5751,0,5751,0,5751,0,
0,0,0,0,0,0,0,0,0,0,0,0,0,0,0,0,0,0,0,0,0,0,0,0,0,0,0,0,0,0,0,0,0,0,0,0,0,0,0,0,0,0,0,0,0,0,0,0,0,0,
5751,0,5751,0,5752,0,5857,0,5858,0,5751,0,5751,0,5751,0,5751,0,5751,0,5751,0,5751,0,5751,0,5751,0,5751,0,5751,0,5751,0,5751,0,5751,0,5751,0,5751,0,5751,0,5751,0,5751,0,5751,0,
0,0,0,0,0,0,0,0,0,0,0,0,0,0,0,0,0,0,0,0,0,0,0,0,0,0,0,0,0,0,0,0,0,0,0,0,0,0,0,0,0,0,0,0,0,0,0,0,0,0,
5751,0,5751,0,5752,0,5857,0,5858,0,5751,0,5751,0,5751,0,5751,0,5751,0,5751,0,5751,0,5751,0,5751,0,5751,0,5751,0,5751,0,5751,0,5751,0,5751,0,5751,0,5751,0,5751,0,5751,0,5751,0,
0,0,0,0,0,0,0,0,0,0,0,0,0,0,0,0,0,0,0,0,0,0,0,0,0,0,0,0,0,0,0,0,0,0,0,0,0,0,0,0,0,0,0,0,0,0,0,0,0,0,
5751,0,5751,0,5752,0,5857,0,5858,0,5751,0,5751,0,5751,0,5751,0,5751,0,5751,0,5751,0,5751,0,5751,0,5751,0,5751,0,5751,0,5751,0,5751,0,5751,0,5751,0,5751,0,5751,0,5751,0,5751,0,
0,0,0,0,0,0,0,0,0,0,0,0,0,0,0,0,0,0,0,0,0,0,0,0,0,0,0,0,0,0,0,0,0,0,0,0,0,0,0,0,0,0,0,0,0,0,0,0,0,0,
5751,0,5751,0,5752,0,5752,0,5751,0,5751,0,5751,0,5751,0,5751,0,5751,0,5751,0,5751,0,5751,0,5751,0,5751,0,5751,0,5751,0,5751,0,5751,0,5751,0,5751,0,5751,0,5751,0,5751,0,5751,0,
0,0,0,0,0,0,0,0,0,0,0,0,0,0,0,0,0,0,0,0,0,0,0,0,0,0,0,0,0,0,0,0,0,0,0,0,0,0,0,0,0,0,0,0,0,0,0,0,0,0,
5751,0,5751,0,5752,0,5752,0,5751,0,5751,0,5751,0,5751,0,5751,0,5751,0,5751,0,5751,0,5751,0,5751,0,5751,0,5751,0,5751,0,5751,0,5751,0,5751,0,5751,0,5751,0,5751,0,5751,0,5751,0,
0,0,0,0,0,0,0,0,0,0,0,0,0,0,0,0,0,0,0,0,0,0,0,0,0,0,0,0,0,0,0,0,0,0,0,0,0,0,0,0,0,0,0,0,0,0,0,0,0,0,
0,0,0,0,0,0,0,0,0,0,0,0,0,0,0,0,0,0,0,0,0,0,0,0,0,0,0,0,0,0,0,0,0,0,0,0,0,0,0,0,0,0,0,0,0,0,0,0,0,0,
0,0,0,0,0,0,0,0,0,0,0,0,0,0,0,0,0,0,0,0,0,0,0,0,0,0,0,0,0,0,0,0,0,0,0,0,0,0,0,0,0,0,0,0,0,0,0,0,0,0,
0,0,0,0,0,0,0,0,0,0,0,0,0,0,0,0,0,0,0,0,0,0,0,0,0,0,0,0,0,0,0,0,0,0,0,0,0,0,0,0,0,0,0,0,0,0,0,0,0,0,
0,0,0,0,0,0,0,0,0,0,0,0,0,0,0,0,0,0,0,0,0,0,0,0,0,0,0,0,0,0,0,0,0,0,0,0,0,0,0,0,0,0,0,0,0,0,0,0,0,0,
0,0,0,0,0,0,0,0,0,0,0,0,0,0,0,0,0,0,0,0,0,0,0,0,0,0,0,0,0,0,0,0,0,0,0,0,0,0,0,0,0,0,0,0,0,0,0,0,0,0,
0,0,0,0,0,0,0,0,0,0,0,0,0,0,0,0,0,0,0,0,0,0,0,0,0,0,0,0,0,0,0,0,0,0,0,0,0,0,0,0,0,0,0,0,0,0,0,0,0,0,
0,0,0,0,0,0,0,0,0,0,0,0,0,0,0,0,0,0,0,0,0,0,0,0,0,0,0,0,0,0,0,0,0,0,0,0,0,0,0,0,0,0,0,0,0,0,0,0,0,0,
0,0,0,0,0,0,0,0,0,0,0,0,0,0,0,0,0,0,0,0,0,0,0,0,0,0,0,0,0,0,0,0,0,0,0,0,0,0,0,0,0,0,0,0,0,0,0,0,0,0
</data>
  </layer>
  <layer id="4" name="Level_0_Walls" width="50" height="56">
   <properties>
    <property name="maybe_animation_id" value="75ea443e6634d96"/>
    <property name="maybe_tileset_id" value="d8b504e9a8480fbe"/>
    <property name="tile_size" type="int" value="16"/>
   </properties>
   <data encoding="csv">
1655,0,1655,0,1655,0,1655,0,1655,0,1655,0,1655,0,1655,0,1655,0,1655,0,1655,0,1655,0,1655,0,1655,0,1655,0,1655,0,1655,0,1655,0,1655,0,1655,0,1655,0,1655,0,0,0,0,0,0,0,
0,0,0,0,0,0,0,0,0,0,0,0,0,0,0,0,0,0,0,0,0,0,0,0,0,0,0,0,0,0,0,0,0,0,0,0,0,0,0,0,0,0,0,0,0,0,0,0,0,0,
1655,0,1655,0,1655,0,1655,0,1655,0,1655,0,1655,0,1655,0,1655,0,1655,0,1655,0,1655,0,1655,0,1655,0,1655,0,1655,0,1655,0,1655,0,1655,0,1655,0,1655,0,1655,0,0,0,0,0,0,0,
0,0,0,0,0,0,0,0,0,0,0,0,0,0,0,0,0,0,0,0,0,0,0,0,0,0,0,0,0,0,0,0,0,0,0,0,0,0,0,0,0,0,0,0,0,0,0,0,0,0,
1655,0,1655,0,1655,0,1655,0,1655,0,1655,0,1655,0,1655,0,1655,0,1655,0,1655,0,1655,0,1655,0,1655,0,1655,0,1655,0,1655,0,1655,0,1655,0,1655,0,1655,0,1655,0,1655,0,0,0,0,0,
0,0,0,0,0,0,0,0,0,0,0,0,0,0,0,0,0,0,0,0,0,0,0,0,0,0,0,0,0,0,0,0,0,0,0,0,0,0,0,0,0,0,0,0,0,0,0,0,0,0,
1655,0,1655,0,1655,0,1655,0,1655,0,1655,0,1655,0,1655,0,1655,0,1655,0,1655,0,1655,0,1655,0,1655,0,1655,0,1655,0,1655,0,1655,0,1655,0,1655,0,1655,0,1655,0,1655,0,0,0,0,0,
0,0,0,0,0,0,0,0,0,0,0,0,0,0,0,0,0,0,0,0,0,0,0,0,0,0,0,0,0,0,0,0,0,0,0,0,0,0,0,0,0,0,0,0,0,0,0,0,0,0,
1655,0,1655,0,1655,0,1655,0,2143,0,2140,0,2141,0,2141,0,2141,0,2141,0,2141,0,1655,0,1655,0,1655,0,2141,0,2141,0,2141,0,2141,0,2141,0,2147485788,0,2147485791,0,1655,0,1655,0,0,0,0,0,
0,0,0,0,0,0,0,0,0,0,0,0,0,0,0,0,0,0,0,0,0,0,0,0,0,0,0,0,0,0,0,0,0,0,0,0,0,0,0,0,0,0,0,0,0,0,0,0,0,0,
1655,0,1655,0,1655,0,2143,0,2140,0,2204,0,2205,0,2205,0,2205,0,2205,0,2205,0,1655,0,1655,0,1655,0,2205,0,2205,0,2205,0,2205,0,2205,0,2147485852,0,2147485788,0,2147485791,0,1655,0,0,0,0,0,
0,0,0,0,0,0,0,0,0,0,0,0,0,0,0,0,0,0,0,0,0,0,0,0,0,0,0,0,0,0,0,0,0,0,0,0,0,0,0,0,0,0,0,0,0,0,0,0,0,0,
1655,0,1655,0,1655,0,2140,0,2204,0,2268,0,2269,0,2269,0,2269,0,2269,0,2269,0,1655,0,1655,0,1655,0,2269,0,2269,0,2269,0,2269,0,2269,0,2147485916,0,2147485852,0,2147485788,0,1655,0,0,0,0,0,
0,0,0,0,0,0,0,0,0,0,0,0,0,0,0,0,0,0,0,0,0,0,0,0,0,0,0,0,0,0,0,0,0,0,0,0,0,0,0,0,0,0,0,0,0,0,0,0,0,0,
1655,0,1655,0,1655,0,2204,0,2268,0,2332,0,2333,0,2333,0,2333,0,2333,0,2333,0,1655,0,1655,0,1655,0,2333,0,2333,0,2333,0,2333,0,2333,0,2147485980,0,2147485916,0,2147485852,0,1655,0,0,0,0,0,
0,0,0,0,0,0,0,0,0,0,0,0,0,0,0,0,0,0,0,0,0,0,0,0,0,0,0,0,0,0,0,0,0,0,0,0,0,0,0,0,0,0,0,0,0,0,0,0,0,0,
1655,0,1655,0,1655,0,2268,0,2332,0,2396,0,2397,0,2397,0,2398,0,2334,0,2334,0,1655,0,1655,0,1655,0,2334,0,2334,0,2270,0,2397,0,2397,0,2147486044,0,2147485980,0,2147485916,0,1655,0,0,0,0,0,
0,0,0,0,0,0,0,0,0,0,0,0,0,0,0,0,0,0,0,0,0,0,0,0,0,0,0,0,0,0,0,0,0,0,0,0,0,0,0,0,0,0,0,0,0,0,0,0,0,0,
1655,0,1655,0,1655,0,2332,0,2396,0,2460,0,1655,0,1655,0,1655,0,1655,0,1655,0,1655,0,1655,0,1655,0,1655,0,1655,0,1655,0,1655,0,1655,0,2147486108,0,2147486044,0,2147485980,0,1655,0,0,0,0,0,
0,0,0,0,0,0,0,0,0,0,0,0,0,0,0,0,0,0,0,0,0,0,0,0,0,0,0,0,0,0,0,0,0,0,0,0,0,0,0,0,0,0,0,0,0,0,0,0,0,0,
1655,0,1655,0,1655,0,2396,0,2460,0,1655,0,1655,0,1655,0,1655,0,1655,0,1655,0,1655,0,1655,0,1655,0,1655,0,1655,0,1655,0,1655,0,1655,0,1655,0,2147486108,0,2147486044,0,1655,0,0,0,0,0,
0,0,0,0,0,0,0,0,0,0,0,0,0,0,0,0,0,0,0,0,0,0,0,0,0,0,0,0,0,0,0,0,0,0,0,0,0,0,0,0,0,0,0,0,0,0,0,0,0,0,
1655,0,1655,0,1655,0,2460,0,1655,0,1655,0,1655,0,1655,0,1655,0,1655,0,1655,0,1655,0,1655,0,1655,0,1655,0,1655,0,1655,0,1655,0,1655,0,1655,0,1655,0,2147486108,0,1655,0,0,0,0,0,
0,0,0,0,0,0,0,0,0,0,0,0,0,0,0,0,0,0,0,0,0,0,0,0,0,0,0,0,0,0,0,0,0,0,0,0,0,0,0,0,0,0,0,0,0,0,0,0,0,0,
1655,0,1655,0,1655,0,1655,0,1655,0,1655,0,1655,0,1655,0,1655,0,1655,0,1655,0,1655,0,1655,0,1655,0,1655,0,1655,0,1655,0,1655,0,1655,0,1655,0,1655,0,1655,0,1655,0,0,0,0,0,
0,0,0,0,0,0,0,0,0,0,0,0,0,0,0,0,0,0,0,0,0,0,0,0,0,0,0,0,0,0,0,0,0,0,0,0,0,0,0,0,0,0,0,0,0,0,0,0,0,0,
1655,0,1655,0,1655,0,1655,0,1655,0,1655,0,1655,0,1655,0,1655,0,1655,0,1655,0,1655,0,1655,0,1655,0,1655,0,1655,0,1655,0,1655,0,1655,0,1655,0,1655,0,1655,0,1655,0,0,0,0,0,
0,0,0,0,0,0,0,0,0,0,0,0,0,0,0,0,0,0,0,0,0,0,0,0,0,0,0,0,0,0,0,0,0,0,0,0,0,0,0,0,0,0,0,0,0,0,0,0,0,0,
1655,0,1655,0,1655,0,1655,0,1655,0,1655,0,1655,0,1655,0,1655,0,1655,0,1655,0,1655,0,1655,0,1655,0,1655,0,1655,0,1655,0,1655,0,1655,0,1655,0,1655,0,1655,0,1655,0,0,0,0,0,
0,0,0,0,0,0,0,0,0,0,0,0,0,0,0,0,0,0,0,0,0,0,0,0,0,0,0,0,0,0,0,0,0,0,0,0,0,0,0,0,0,0,0,0,0,0,0,0,0,0,
1655,0,1655,0,1655,0,1655,0,1655,0,1655,0,1655,0,1655,0,1655,0,1655,0,1655,0,1655,0,1655,0,1655,0,1655,0,1655,0,1655,0,1655,0,1655,0,1655,0,1655,0,1655,0,1655,0,0,0,0,0,
0,0,0,0,0,0,0,0,0,0,0,0,0,0,0,0,0,0,0,0,0,0,0,0,0,0,0,0,0,0,0,0,0,0,0,0,0,0,0,0,0,0,0,0,0,0,0,0,0,0,
1655,0,1655,0,1655,0,1655,0,1655,0,1655,0,1655,0,1655,0,1655,0,1655,0,1655,0,1655,0,1655,0,1655,0,1655,0,1655,0,1655,0,1655,0,1655,0,1655,0,1655,0,1655,0,1655,0,0,0,0,0,
0,0,0,0,0,0,0,0,0,0,0,0,0,0,0,0,0,0,0,0,0,0,0,0,0,0,0,0,0,0,0,0,0,0,0,0,0,0,0,0,0,0,0,0,0,0,0,0,0,0,
1655,0,1655,0,1655,0,1655,0,1655,0,1655,0,1655,0,1655,0,1655,0,1655,0,1655,0,1655,0,1655,0,1655,0,1655,0,1655,0,1655,0,1655,0,1655,0,1655,0,1655,0,1655,0,1655,0,0,0,0,0,
0,0,0,0,0,0,0,0,0,0,0,0,0,0,0,0,0,0,0,0,0,0,0,0,0,0,0,0,0,0,0,0,0,0,0,0,0,0,0,0,0,0,0,0,0,0,0,0,0,0,
1655,0,1655,0,1655,0,1655,0,1655,0,1655,0,1655,0,1655,0,1655,0,1655,0,1655,0,1655,0,1655,0,1655,0,1655,0,1655,0,1655,0,1655,0,1655,0,1655,0,1655,0,1655,0,1655,0,0,0,0,0,
0,0,0,0,0,0,0,0,0,0,0,0,0,0,0,0,0,0,0,0,0,0,0,0,0,0,0,0,0,0,0,0,0,0,0,0,0,0,0,0,0,0,0,0,0,0,0,0,0,0,
1655,0,1655,0,1655,0,1655,0,1655,0,1655,0,1655,0,1655,0,1655,0,1655,0,1655,0,1655,0,1655,0,1655,0,1655,0,1655,0,1655,0,1655,0,1655,0,1655,0,1655,0,1655,0,1655,0,0,0,0,0,
0,0,0,0,0,0,0,0,0,0,0,0,0,0,0,0,0,0,0,0,0,0,0,0,0,0,0,0,0,0,0,0,0,0,0,0,0,0,0,0,0,0,0,0,0,0,0,0,0,0,
1655,0,1655,0,1655,0,1655,0,1655,0,1655,0,1655,0,1655,0,1655,0,1655,0,1655,0,1655,0,1655,0,1655,0,1655,0,1655,0,1655,0,1655,0,1655,0,1655,0,1655,0,1655,0,1655,0,0,0,0,0,
0,0,0,0,0,0,0,0,0,0,0,0,0,0,0,0,0,0,0,0,0,0,0,0,0,0,0,0,0,0,0,0,0,0,0,0,0,0,0,0,0,0,0,0,0,0,0,0,0,0,
1655,0,1655,0,1655,0,1655,0,1655,0,1655,0,1655,0,1655,0,1655,0,1655,0,1655,0,1655,0,1655,0,1655,0,1655,0,1655,0,1655,0,1655,0,1655,0,1655,0,1655,0,1655,0,1655,0,0,0,0,0,
0,0,0,0,0,0,0,0,0,0,0,0,0,0,0,0,0,0,0,0,0,0,0,0,0,0,0,0,0,0,0,0,0,0,0,0,0,0,0,0,0,0,0,0,0,0,0,0,0,0,
0,0,0,0,0,0,0,0,0,0,0,0,0,0,0,0,0,0,0,0,0,0,0,0,0,0,0,0,0,0,0,0,0,0,0,0,0,0,0,0,0,0,0,0,0,0,0,0,0,0,
0,0,0,0,0,0,0,0,0,0,0,0,0,0,0,0,0,0,0,0,0,0,0,0,0,0,0,0,0,0,0,0,0,0,0,0,0,0,0,0,0,0,0,0,0,0,0,0,0,0,
0,0,0,0,0,0,0,0,0,0,0,0,0,0,0,0,0,0,0,0,0,0,0,0,0,0,0,0,0,0,0,0,0,0,0,0,0,0,0,0,0,0,0,0,0,0,0,0,0,0,
0,0,0,0,0,0,0,0,0,0,0,0,0,0,0,0,0,0,0,0,0,0,0,0,0,0,0,0,0,0,0,0,0,0,0,0,0,0,0,0,0,0,0,0,0,0,0,0,0,0,
1655,0,0,0,0,0,0,0,0,0,0,0,0,0,0,0,0,0,0,0,0,0,0,0,0,0,0,0,0,0,0,0,0,0,0,0,0,0,0,0,0,0,0,0,0,0,0,0,0,0,
0,0,0,0,0,0,0,0,0,0,0,0,0,0,0,0,0,0,0,0,0,0,0,0,0,0,0,0,0,0,0,0,0,0,0,0,0,0,0,0,0,0,0,0,0,0,0,0,0,0,
0,0,0,0,0,0,0,0,0,0,0,0,0,0,0,0,0,0,0,0,0,0,0,0,0,0,0,0,0,0,0,0,0,0,0,0,0,0,0,0,0,0,0,0,0,0,0,0,0,0,
0,0,0,0,0,0,0,0,0,0,0,0,0,0,0,0,0,0,0,0,0,0,0,0,0,0,0,0,0,0,0,0,0,0,0,0,0,0,0,0,0,0,0,0,0,0,0,0,0,0,
0,0,0,0,0,0,0,0,0,0,0,0,0,0,0,0,0,0,0,0,0,0,0,0,0,0,0,0,0,0,0,0,0,0,0,0,0,0,0,0,0,0,0,0,0,0,0,0,0,0,
0,0,0,0,0,0,0,0,0,0,0,0,0,0,0,0,0,0,0,0,0,0,0,0,0,0,0,0,0,0,0,0,0,0,0,0,0,0,0,0,0,0,0,0,0,0,0,0,0,0,
0,0,0,0,0,0,0,0,0,0,0,0,0,0,0,0,0,0,0,0,0,0,0,0,0,0,0,0,0,0,0,0,0,0,0,0,0,0,0,0,0,0,0,0,0,0,0,0,0,0,
0,0,0,0,0,0,0,0,0,0,0,0,0,0,0,0,0,0,0,0,0,0,0,0,0,0,0,0,0,0,0,0,0,0,0,0,0,0,0,0,0,0,0,0,0,0,0,0,0,0
</data>
  </layer>
  <objectgroup draworder="index" id="5" name="Level_0_Assets">
   <object id="3" type="asset" gid="458" x="168" y="114" width="64" height="48"/>
   <object id="4" type="asset" gid="1002" x="168" y="136" width="64" height="64"/>
   <object id="5" type="asset" gid="1471" x="176" y="144" width="48" height="72"/>
   <object id="6" type="asset" gid="912" x="158" y="152" width="24" height="104"/>
   <object id="7" type="asset" gid="912" x="219" y="152" width="24" height="104"/>
   <object id="8" type="asset" gid="273" x="64" y="212" width="32" height="80"/>
   <object id="9" type="asset" gid="919" x="312" y="212" width="24" height="72"/>
   <object id="10" type="asset" gid="256" x="112" y="160" width="56" height="80"/>
   <object id="11" type="asset" gid="1110" x="232" y="160" width="56" height="72"/>
  </objectgroup>
 </group>
 <group id="6" name="Level_1">
  <layer id="7" name="Level_1_BlackArea" width="50" height="56">
   <properties>
    <property name="maybe_animation_id" value="75ea443e6634d96"/>
    <property name="maybe_tileset_id" value="d8b504e9a8480fbe"/>
    <property name="tile_size" type="int" value="16"/>
   </properties>
   <data encoding="csv">
4318,0,4318,0,4318,0,4318,0,4318,0,4318,0,4318,0,4318,0,4318,0,4318,0,4318,0,4318,0,4318,0,4318,0,4318,0,4318,0,4318,0,4318,0,4318,0,4318,0,4318,0,4318,0,4318,0,4318,0,4318,0,
0,0,0,0,0,0,0,0,0,0,0,0,0,0,0,0,0,0,0,0,0,0,0,0,0,0,0,0,0,0,0,0,0,0,0,0,0,0,0,0,0,0,0,0,0,0,0,0,0,0,
4318,0,4318,0,4318,0,4318,0,4318,0,4318,0,4318,0,4318,0,4318,0,4318,0,4318,0,4318,0,4318,0,4318,0,4318,0,4318,0,4318,0,4318,0,4318,0,4318,0,1793,0,1793,0,1793,0,4318,0,4318,0,
0,0,0,0,0,0,0,0,0,0,0,0,0,0,0,0,0,0,0,0,0,0,0,0,0,0,0,0,0,0,0,0,0,0,0,0,0,0,0,0,0,0,0,0,0,0,0,0,0,0,
4318,0,4318,0,4318,0,4318,0,1793,0,1793,0,1655,0,1655,0,1655,0,1655,0,1655,0,1655,0,1655,0,1655,0,1655,0,1655,0,1655,0,1655,0,1655,0,1793,0,1793,0,1793,0,1793,0,4318,0,4318,0,
0,0,0,0,0,0,0,0,0,0,0,0,0,0,0,0,0,0,0,0,0,0,0,0,0,0,0,0,0,0,0,0,0,0,0,0,0,0,0,0,0,0,0,0,0,0,0,0,0,0,
4318,0,4318,0,4318,0,1793,0,1793,0,1655,0,1655,0,1655,0,1655,0,1655,0,1655,0,1655,0,1655,0,1655,0,1655,0,1655,0,1655,0,1655,0,1655,0,1655,0,1793,0,1793,0,1793,0,4318,0,4318,0,
0,0,0,0,0,0,0,0,0,0,0,0,0,0,0,0,0,0,0,0,0,0,0,0,0,0,0,0,0,0,0,0,0,0,0,0,0,0,0,0,0,0,0,0,0,0,0,0,0,0,
4318,0,4318,0,1793,0,1793,0,1655,0,1655,0,1655,0,1655,0,1655,0,1655,0,1655,0,1655,0,1655,0,1655,0,1655,0,1655,0,1655,0,1655,0,1655,0,1655,0,1655,0,1793,0,1793,0,1793,0,1793,0,
0,0,0,0,0,0,0,0,0,0,0,0,0,0,0,0,0,0,0,0,0,0,0,0,0,0,0,0,0,0,0,0,0,0,0,0,0,0,0,0,0,0,0,0,0,0,0,0,0,0,
1793,0,1793,0,1793,0,1655,0,1655,0,1655,0,1655,0,1655,0,1655,0,1655,0,1655,0,1655,0,1655,0,1655,0,1655,0,1655,0,1655,0,1655,0,1655,0,1655,0,1655,0,1655,0,1793,0,1793,0,1793,0,
0,0,0,0,0,0,0,0,0,0,0,0,0,0,0,0,0,0,0,0,0,0,0,0,0,0,0,0,0,0,0,0,0,0,0,0,0,0,0,0,0,0,0,0,0,0,0,0,0,0,
1793,0,1793,0,1655,0,1655,0,1655,0,1655,0,1655,0,1655,0,1655,0,1655,0,1655,0,1655,0,1655,0,1655,0,1655,0,1655,0,1655,0,1655,0,1655,0,1655,0,1655,0,1655,0,1793,0,1793,0,1793,0,
0,0,0,0,0,0,0,0,0,0,0,0,0,0,0,0,0,0,0,0,0,0,0,0,0,0,0,0,0,0,0,0,0,0,0,0,0,0,0,0,0,0,0,0,0,0,0,0,0,0,
1793,0,1793,0,1655,0,1655,0,1655,0,1655,0,1655,0,1655,0,1655,0,1655,0,1655,0,1655,0,1655,0,1655,0,1655,0,1655,0,1655,0,1655,0,1655,0,1655,0,1655,0,1655,0,1793,0,1793,0,1793,0,
0,0,0,0,0,0,0,0,0,0,0,0,0,0,0,0,0,0,0,0,0,0,0,0,0,0,0,0,0,0,0,0,0,0,0,0,0,0,0,0,0,0,0,0,0,0,0,0,0,0,
1793,0,1793,0,1655,0,1655,0,1655,0,1655,0,1655,0,1655,0,1655,0,1655,0,1655,0,1655,0,1655,0,1655,0,1655,0,1655,0,1655,0,1655,0,1655,0,1655,0,1655,0,1655,0,1793,0,1793,0,1793,0,
0,0,0,0,0,0,0,0,0,0,0,0,0,0,0,0,0,0,0,0,0,0,0,0,0,0,0,0,0,0,0,0,0,0,0,0,0,0,0,0,0,0,0,0,0,0,0,0,0,0,
1793,0,1793,0,1655,0,1655,0,1655,0,1655,0,1655,0,1655,0,1655,0,1655,0,1655,0,1655,0,1655,0,1655,0,1655,0,1655,0,1655,0,1655,0,1655,0,1655,0,1655,0,1655,0,1793,0,1793,0,1793,0,
0,0,0,0,0,0,0,0,0,0,0,0,0,0,0,0,0,0,0,0,0,0,0,0,0,0,0,0,0,0,0,0,0,0,0,0,0,0,0,0,0,0,0,0,0,0,0,0,0,0,
1793,0,1793,0,1655,0,1655,0,1655,0,1655,0,1655,0,1655,0,1655,0,1655,0,1655,0,1655,0,1655,0,1655,0,1655,0,1655,0,1655,0,1655,0,1655,0,1655,0,1655,0,1655,0,1793,0,1793,0,1793,0,
0,0,0,0,0,0,0,0,0,0,0,0,0,0,0,0,0,0,0,0,0,0,0,0,0,0,0,0,0,0,0,0,0,0,0,0,0,0,0,0,0,0,0,0,0,0,0,0,0,0,
1793,0,1793,0,1655,0,1655,0,1655,0,1655,0,1655,0,1655,0,1655,0,1655,0,1655,0,1655,0,1655,0,1655,0,1655,0,1655,0,1655,0,1655,0,1655,0,1655,0,1655,0,1655,0,1793,0,1793,0,1793,0,
0,0,0,0,0,0,0,0,0,0,0,0,0,0,0,0,0,0,0,0,0,0,0,0,0,0,0,0,0,0,0,0,0,0,0,0,0,0,0,0,0,0,0,0,0,0,0,0,0,0,
1793,0,1793,0,1655,0,1655,0,1655,0,1655,0,1655,0,1655,0,1655,0,1655,0,1655,0,1655,0,1655,0,1655,0,1655,0,1655,0,1655,0,1655,0,1655,0,1655,0,1655,0,1655,0,1793,0,1793,0,1793,0,
0,0,0,0,0,0,0,0,0,0,0,0,0,0,0,0,0,0,0,0,0,0,0,0,0,0,0,0,0,0,0,0,0,0,0,0,0,0,0,0,0,0,0,0,0,0,0,0,0,0,
1793,0,1793,0,1655,0,1655,0,1655,0,1655,0,1655,0,1655,0,1655,0,1655,0,1655,0,1655,0,1655,0,1655,0,1655,0,1655,0,1655,0,1655,0,1655,0,1655,0,1655,0,1655,0,1793,0,1793,0,1793,0,
0,0,0,0,0,0,0,0,0,0,0,0,0,0,0,0,0,0,0,0,0,0,0,0,0,0,0,0,0,0,0,0,0,0,0,0,0,0,0,0,0,0,0,0,0,0,0,0,0,0,
1793,0,1793,0,1655,0,1655,0,1655,0,1655,0,1655,0,1655,0,1655,0,1655,0,1655,0,1655,0,1655,0,1655,0,1655,0,1655,0,1655,0,1655,0,1655,0,1655,0,1655,0,1655,0,1793,0,1793,0,1793,0,
0,0,0,0,0,0,0,0,0,0,0,0,0,0,0,0,0,0,0,0,0,0,0,0,0,0,0,0,0,0,0,0,0,0,0,0,0,0,0,0,0,0,0,0,0,0,0,0,0,0,
1793,0,1793,0,1655,0,1655,0,1655,0,1655,0,1655,0,1655,0,1655,0,1655,0,1655,0,1655,0,1655,0,1655,0,1655,0,1655,0,1655,0,1655,0,1655,0,1655,0,1655,0,1655,0,1793,0,1793,0,1793,0,
0,0,0,0,0,0,0,0,0,0,0,0,0,0,0,0,0,0,0,0,0,0,0,0,0,0,0,0,0,0,0,0,0,0,0,0,0,0,0,0,0,0,0,0,0,0,0,0,0,0,
1793,0,1793,0,1655,0,1655,0,1655,0,1655,0,1655,0,1655,0,1655,0,1655,0,1655,0,1655,0,1655,0,1655,0,1655,0,1655,0,1655,0,1655,0,1655,0,1655,0,1655,0,1655,0,1793,0,1793,0,1793,0,
0,0,0,0,0,0,0,0,0,0,0,0,0,0,0,0,0,0,0,0,0,0,0,0,0,0,0,0,0,0,0,0,0,0,0,0,0,0,0,0,0,0,0,0,0,0,0,0,0,0,
1793,0,1793,0,1655,0,1655,0,1655,0,1655,0,1655,0,1655,0,1655,0,1655,0,1655,0,1655,0,1655,0,1655,0,1655,0,1655,0,1655,0,1655,0,1655,0,1655,0,1655,0,1655,0,1793,0,1793,0,1793,0,
0,0,0,0,0,0,0,0,0,0,0,0,0,0,0,0,0,0,0,0,0,0,0,0,0,0,0,0,0,0,0,0,0,0,0,0,0,0,0,0,0,0,0,0,0,0,0,0,0,0,
1793,0,1793,0,1655,0,1655,0,1655,0,1655,0,1655,0,1655,0,1655,0,1655,0,1655,0,1655,0,1655,0,1655,0,1655,0,1655,0,1655,0,1655,0,1655,0,1655,0,1655,0,1655,0,1793,0,1793,0,1793,0,
0,0,0,0,0,0,0,0,0,0,0,0,0,0,0,0,0,0,0,0,0,0,0,0,0,0,0,0,0,0,0,0,0,0,0,0,0,0,0,0,0,0,0,0,0,0,0,0,0,0,
1793,0,1793,0,1655,0,1655,0,1655,0,1655,0,1655,0,1655,0,1655,0,1655,0,1655,0,1655,0,1655,0,1655,0,1655,0,1655,0,1655,0,1655,0,1655,0,1655,0,1655,0,1655,0,1793,0,1793,0,1793,0,
0,0,0,0,0,0,0,0,0,0,0,0,0,0,0,0,0,0,0,0,0,0,0,0,0,0,0,0,0,0,0,0,0,0,0,0,0,0,0,0,0,0,0,0,0,0,0,0,0,0,
1793,0,1793,0,1655,0,1655,0,1655,0,1655,0,1655,0,1655,0,1655,0,1655,0,1655,0,1655,0,1655,0,1655,0,1655,0,1655,0,1655,0,1655,0,1655,0,1655,0,1655,0,1655,0,1793,0,1793,0,1793,0,
0,0,0,0,0,0,0,0,0,0,0,0,0,0,0,0,0,0,0,0,0,0,0,0,0,0,0,0,0,0,0,0,0,0,0,0,0,0,0,0,0,0,0,0,0,0,0,0,0,0,
1793,0,1793,0,1655,0,1655,0,1655,0,1655,0,1655,0,1655,0,1655,0,1655,0,1655,0,1655,0,1655,0,1655,0,1655,0,1655,0,1655,0,1655,0,1655,0,1655,0,1655,0,1655,0,1793,0,1793,0,1793,0,
0,0,0,0,0,0,0,0,0,0,0,0,0,0,0,0,0,0,0,0,0,0,0,0,0,0,0,0,0,0,0,0,0,0,0,0,0,0,0,0,0,0,0,0,0,0,0,0,0,0,
1793,0,1793,0,1793,0,0,0,0,0,0,0,0,0,0,0,0,0,0,0,0,0,0,0,0,0,0,0,0,0,0,0,0,0,0,0,0,0,0,0,0,0,0,0,1793,0,1793,0,1793,0,
0,0,0,0,0,0,0,0,0,0,0,0,0,0,0,0,0,0,0,0,0,0,0,0,0,0,0,0,0,0,0,0,0,0,0,0,0,0,0,0,0,0,0,0,0,0,0,0,0,0,
1793,0,1793,0,1793,0,1793,0,0,0,0,0,0,0,0,0,0,0,0,0,0,0,0,0,0,0,0,0,0,0,0,0,0,0,0,0,0,0,0,0,0,0,1793,0,1793,0,1793,0,1793,0,
0,0,0,0,0,0,0,0,0,0,0,0,0,0,0,0,0,0,0,0,0,0,0,0,0,0,0,0,0,0,0,0,0,0,0,0,0,0,0,0,0,0,0,0,0,0,0,0,0,0,
1793,0,1793,0,1793,0,1793,0,1793,0,0,0,0,0,0,0,0,0,0,0,0,0,0,0,0,0,0,0,0,0,0,0,0,0,0,0,0,0,0,0,1793,0,1793,0,1793,0,1793,0,1793,0,
0,0,0,0,0,0,0,0,0,0,0,0,0,0,0,0,0,0,0,0,0,0,0,0,0,0,0,0,0,0,0,0,0,0,0,0,0,0,0,0,0,0,0,0,0,0,0,0,0,0,
1793,0,1793,0,1793,0,1793,0,1793,0,1793,0,0,0,0,0,0,0,0,0,0,0,0,0,0,0,0,0,0,0,0,0,0,0,0,0,0,0,1793,0,1793,0,1793,0,1793,0,1793,0,1793,0,
0,0,0,0,0,0,0,0,0,0,0,0,0,0,0,0,0,0,0,0,0,0,0,0,0,0,0,0,0,0,0,0,0,0,0,0,0,0,0,0,0,0,0,0,0,0,0,0,0,0,
1793,0,1793,0,1793,0,1793,0,1793,0,1793,0,4318,0,4318,0,4318,0,4318,0,4318,0,4318,0,4318,0,4318,0,4318,0,4318,0,4318,0,4318,0,4318,0,1793,0,1793,0,1793,0,1793,0,4318,0,4318,0,
0,0,0,0,0,0,0,0,0,0,0,0,0,0,0,0,0,0,0,0,0,0,0,0,0,0,0,0,0,0,0,0,0,0,0,0,0,0,0,0,0,0,0,0,0,0,0,0,0,0,
1793,0,1793,0,1793,0,1793,0,1793,0,1793,0,4318,0,4318,0,4318,0,4318,0,4318,0,4318,0,4318,0,4318,0,4318,0,4318,0,4318,0,4318,0,4318,0,1793,0,1793,0,1793,0,1793,0,4318,0,4318,0,
0,0,0,0,0,0,0,0,0,0,0,0,0,0,0,0,0,0,0,0,0,0,0,0,0,0,0,0,0,0,0,0,0,0,0,0,0,0,0,0,0,0,0,0,0,0,0,0,0,0
</data>
  </layer>
  <layer id="8" name="Level_1_Ceiling" width="50" height="56">
   <properties>
    <property name="maybe_animation_id" value="75ea443e6634d96"/>
    <property name="maybe_tileset_id" value="d8b504e9a8480fbe"/>
    <property name="tile_size" type="int" value="16"/>
   </properties>
   <data encoding="csv">
1655,0,1655,0,1655,0,1655,0,1655,0,1655,0,1655,0,1655,0,1655,0,1655,0,1655,0,1655,0,1655,0,1655,0,1655,0,1655,0,1655,0,1655,0,1655,0,1655,0,1655,0,1655,0,1655,0,1655,0,1655,0,
0,0,0,0,0,0,0,0,0,0,0,0,0,0,0,0,0,0,0,0,0,0,0,0,0,0,0,0,0,0,0,0,0,0,0,0,0,0,0,0,0,0,0,0,0,0,0,0,0,0,
1655,0,1655,0,1655,0,1655,0,1655,0,1655,0,1655,0,1655,0,1655,0,1655,0,2354,0,2355,0,2356,0,2357,0,2358,0,1655,0,1655,0,1655,0,1655,0,1655,0,1655,0,1655,0,1655,0,1655,0,1655,0,
0,0,0,0,0,0,0,0,0,0,0,0,0,0,0,0,0,0,0,0,0,0,0,0,0,0,0,0,0,0,0,0,0,0,0,0,0,0,0,0,0,0,0,0,0,0,0,0,0,0,
1655,0,1655,0,1655,0,1655,0,2341,0,2342,0,2343,0,2343,0,2343,0,2343,0,2418,0,2419,0,2420,0,2421,0,2422,0,2343,0,2343,0,2343,0,2147485991,0,2147485990,0,2147485989,0,1655,0,1655,0,1655,0,1655,0,
0,0,0,0,0,0,0,0,0,0,0,0,0,0,0,0,0,0,0,0,0,0,0,0,0,0,0,0,0,0,0,0,0,0,0,0,0,0,0,0,0,0,0,0,0,0,0,0,0,0,
1655,0,1655,0,1655,0,2404,0,2405,0,2406,0,2407,0,2407,0,2407,0,2407,0,2482,0,2483,0,2484,0,2485,0,2486,0,2407,0,2407,0,2407,0,2147486055,0,2147486054,0,2147486053,0,2147486052,0,1655,0,1655,0,1655,0,
0,0,0,0,0,0,0,0,0,0,0,0,0,0,0,0,0,0,0,0,0,0,0,0,0,0,0,0,0,0,0,0,0,0,0,0,0,0,0,0,0,0,0,0,0,0,0,0,0,0,
1655,0,1655,0,2467,0,2468,0,2469,0,2470,0,2471,0,2471,0,2471,0,2471,0,2546,0,2547,0,2548,0,2549,0,2550,0,2471,0,2471,0,2471,0,2147486119,0,2147486118,0,2147486117,0,2147486116,0,2147486115,0,1655,0,1655,0,
0,0,0,0,0,0,0,0,0,0,0,0,0,0,0,0,0,0,0,0,0,0,0,0,0,0,0,0,0,0,0,0,0,0,0,0,0,0,0,0,0,0,0,0,0,0,0,0,0,0,
1655,0,1655,0,2531,0,2532,0,2533,0,1655,0,1655,0,1655,0,1655,0,1655,0,1655,0,1655,0,1655,0,1655,0,1655,0,1655,0,1655,0,1655,0,1655,0,1655,0,2147486181,0,2147486180,0,2147486179,0,1655,0,1655,0,
0,0,0,0,0,0,0,0,0,0,0,0,0,0,0,0,0,0,0,0,0,0,0,0,0,0,0,0,0,0,0,0,0,0,0,0,0,0,0,0,0,0,0,0,0,0,0,0,0,0,
1655,0,1655,0,2595,0,2596,0,1655,0,1655,0,1655,0,1655,0,1655,0,1655,0,1655,0,1655,0,1655,0,1655,0,1655,0,1655,0,1655,0,1655,0,1655,0,1655,0,1655,0,2147486244,0,2147486243,0,1655,0,1655,0,
0,0,0,0,0,0,0,0,0,0,0,0,0,0,0,0,0,0,0,0,0,0,0,0,0,0,0,0,0,0,0,0,0,0,0,0,0,0,0,0,0,0,0,0,0,0,0,0,0,0,
1655,0,1655,0,2595,0,2596,0,1655,0,1655,0,1655,0,1655,0,1655,0,1655,0,1655,0,1655,0,1655,0,1655,0,1655,0,1655,0,1655,0,1655,0,1655,0,1655,0,1655,0,2147486244,0,2147486243,0,1655,0,1655,0,
0,0,0,0,0,0,0,0,0,0,0,0,0,0,0,0,0,0,0,0,0,0,0,0,0,0,0,0,0,0,0,0,0,0,0,0,0,0,0,0,0,0,0,0,0,0,0,0,0,0,
1655,0,1655,0,2595,0,2596,0,1655,0,1655,0,1655,0,1655,0,1655,0,1655,0,1655,0,1655,0,1655,0,1655,0,1655,0,1655,0,1655,0,1655,0,1655,0,1655,0,1655,0,2147486244,0,2147486243,0,1655,0,1655,0,
0,0,0,0,0,0,0,0,0,0,0,0,0,0,0,0,0,0,0,0,0,0,0,0,0,0,0,0,0,0,0,0,0,0,0,0,0,0,0,0,0,0,0,0,0,0,0,0,0,0,
1655,0,1655,0,2595,0,2596,0,1655,0,1655,0,1655,0,1655,0,1655,0,1655,0,1655,0,1655,0,1655,0,1655,0,1655,0,1655,0,1655,0,1655,0,1655,0,1655,0,1655,0,2147486244,0,2147486243,0,1655,0,1655,0,
0,0,0,0,0,0,0,0,0,0,0,0,0,0,0,0,0,0,0,0,0,0,0,0,0,0,0,0,0,0,0,0,0,0,0,0,0,0,0,0,0,0,0,0,0,0,0,0,0,0,
1655,0,1655,0,2595,0,2596,0,1655,0,1655,0,1655,0,1655,0,1655,0,1655,0,1655,0,1655,0,1655,0,1655,0,1655,0,1655,0,1655,0,1655,0,1655,0,1655,0,1655,0,2147486244,0,2147486243,0,1655,0,1655,0,
0,0,0,0,0,0,0,0,0,0,0,0,0,0,0,0,0,0,0,0,0,0,0,0,0,0,0,0,0,0,0,0,0,0,0,0,0,0,0,0,0,0,0,0,0,0,0,0,0,0,
1655,0,1655,0,2595,0,2596,0,1655,0,1655,0,1655,0,1655,0,1655,0,1655,0,1655,0,1655,0,1655,0,1655,0,1655,0,1655,0,1655,0,1655,0,1655,0,1655,0,1655,0,2147486244,0,2147486243,0,1655,0,1655,0,
0,0,0,0,0,0,0,0,0,0,0,0,0,0,0,0,0,0,0,0,0,0,0,0,0,0,0,0,0,0,0,0,0,0,0,0,0,0,0,0,0,0,0,0,0,0,0,0,0,0,
1655,0,1655,0,2595,0,2596,0,1655,0,1655,0,1655,0,1655,0,1655,0,1655,0,1655,0,1655,0,1655,0,1655,0,1655,0,1655,0,1655,0,1655,0,1655,0,1655,0,1655,0,2147486244,0,2147486243,0,1655,0,1655,0,
0,0,0,0,0,0,0,0,0,0,0,0,0,0,0,0,0,0,0,0,0,0,0,0,0,0,0,0,0,0,0,0,0,0,0,0,0,0,0,0,0,0,0,0,0,0,0,0,0,0,
1655,0,1655,0,2595,0,2596,0,1655,0,1655,0,1655,0,1655,0,1655,0,1655,0,1655,0,1655,0,1655,0,1655,0,1655,0,1655,0,1655,0,1655,0,1655,0,1655,0,1655,0,2147486244,0,2147486243,0,1655,0,1655,0,
0,0,0,0,0,0,0,0,0,0,0,0,0,0,0,0,0,0,0,0,0,0,0,0,0,0,0,0,0,0,0,0,0,0,0,0,0,0,0,0,0,0,0,0,0,0,0,0,0,0,
1655,0,1655,0,2595,0,2596,0,1655,0,1655,0,1655,0,1655,0,1655,0,1655,0,1655,0,1655,0,1655,0,1655,0,1655,0,1655,0,1655,0,1655,0,1655,0,1655,0,1655,0,2147486244,0,2147486243,0,1655,0,1655,0,
0,0,0,0,0,0,0,0,0,0,0,0,0,0,0,0,0,0,0,0,0,0,0,0,0,0,0,0,0,0,0,0,0,0,0,0,0,0,0,0,0,0,0,0,0,0,0,0,0,0,
1655,0,1655,0,2595,0,2596,0,1655,0,1655,0,1655,0,1655,0,1655,0,1655,0,1655,0,1655,0,1655,0,1655,0,1655,0,1655,0,1655,0,1655,0,1655,0,1655,0,1655,0,2147486244,0,2147486243,0,1655,0,1655,0,
0,0,0,0,0,0,0,0,0,0,0,0,0,0,0,0,0,0,0,0,0,0,0,0,0,0,0,0,0,0,0,0,0,0,0,0,0,0,0,0,0,0,0,0,0,0,0,0,0,0,
1655,0,1655,0,2595,0,2596,0,1655,0,1655,0,1655,0,1655,0,1655,0,1655,0,1655,0,1655,0,1655,0,1655,0,1655,0,1655,0,1655,0,1655,0,1655,0,1655,0,1655,0,2147486244,0,2147486243,0,1655,0,1655,0,
0,0,0,0,0,0,0,0,0,0,0,0,0,0,0,0,0,0,0,0,0,0,0,0,0,0,0,0,0,0,0,0,0,0,0,0,0,0,0,0,0,0,0,0,0,0,0,0,0,0,
1655,0,1655,0,2595,0,2596,0,1655,0,1655,0,1655,0,1655,0,1655,0,1655,0,1655,0,1655,0,1655,0,1655,0,1655,0,1655,0,1655,0,1655,0,1655,0,1655,0,1655,0,2147486244,0,2147486243,0,1655,0,1655,0,
0,0,0,0,0,0,0,0,0,0,0,0,0,0,0,0,0,0,0,0,0,0,0,0,0,0,0,0,0,0,0,0,0,0,0,0,0,0,0,0,0,0,0,0,0,0,0,0,0,0,
1655,0,1655,0,2595,0,2596,0,1655,0,1655,0,1655,0,1655,0,1655,0,1655,0,1655,0,1655,0,1655,0,1655,0,1655,0,1655,0,1655,0,1655,0,1655,0,1655,0,1655,0,2147486244,0,2147486243,0,1655,0,1655,0,
0,0,0,0,0,0,0,0,0,0,0,0,0,0,0,0,0,0,0,0,0,0,0,0,0,0,0,0,0,0,0,0,0,0,0,0,0,0,0,0,0,0,0,0,0,0,0,0,0,0,
1655,0,1655,0,2595,0,2596,0,1655,0,1655,0,1655,0,1655,0,1655,0,1655,0,1655,0,1655,0,1655,0,1655,0,1655,0,1655,0,1655,0,1655,0,1655,0,1655,0,1655,0,2147486244,0,2147486243,0,1655,0,1655,0,
0,0,0,0,0,0,0,0,0,0,0,0,0,0,0,0,0,0,0,0,0,0,0,0,0,0,0,0,0,0,0,0,0,0,0,0,0,0,0,0,0,0,0,0,0,0,0,0,0,0,
1655,0,1655,0,2595,0,2596,0,1655,0,1655,0,1655,0,1655,0,1655,0,1655,0,1655,0,1655,0,1655,0,1655,0,1655,0,1655,0,1655,0,1655,0,1655,0,1655,0,1655,0,2147486244,0,2147486243,0,1655,0,1655,0,
0,0,0,0,0,0,0,0,0,0,0,0,0,0,0,0,0,0,0,0,0,0,0,0,0,0,0,0,0,0,0,0,0,0,0,0,0,0,0,0,0,0,0,0,0,0,0,0,0,0,
1655,0,1655,0,2344,0,2345,0,2346,0,1655,0,1655,0,1655,0,1655,0,1655,0,1655,0,1655,0,1655,0,1655,0,1655,0,1655,0,1655,0,1655,0,1655,0,1655,0,2147485994,0,2147485993,0,2147485992,0,1655,0,1655,0,
0,0,0,0,0,0,0,0,0,0,0,0,0,0,0,0,0,0,0,0,0,0,0,0,0,0,0,0,0,0,0,0,0,0,0,0,0,0,0,0,0,0,0,0,0,0,0,0,0,0,
1655,0,1655,0,2408,0,2409,0,2410,0,2411,0,1655,0,1655,0,1655,0,1655,0,1655,0,1655,0,1655,0,1655,0,1655,0,1655,0,1655,0,1655,0,1655,0,2147486059,0,2147486058,0,2147486057,0,2147486056,0,1655,0,1655,0,
0,0,0,0,0,0,0,0,0,0,0,0,0,0,0,0,0,0,0,0,0,0,0,0,0,0,0,0,0,0,0,0,0,0,0,0,0,0,0,0,0,0,0,0,0,0,0,0,0,0,
1655,0,1655,0,2472,0,2473,0,2409,0,2410,0,2411,0,1655,0,1655,0,1655,0,2349,0,2350,0,2351,0,2352,0,2353,0,1655,0,1655,0,1655,0,2147486059,0,2147486058,0,2147486122,0,2147486121,0,2147486120,0,1655,0,1655,0,
0,0,0,0,0,0,0,0,0,0,0,0,0,0,0,0,0,0,0,0,0,0,0,0,0,0,0,0,0,0,0,0,0,0,0,0,0,0,0,0,0,0,0,0,0,0,0,0,0,0,
1655,0,1655,0,1655,0,2537,0,2473,0,2474,0,2475,0,2476,0,2476,0,2476,0,2413,0,2414,0,2415,0,2416,0,2417,0,2476,0,2476,0,2147486124,0,2147486123,0,2147486122,0,2147486121,0,2147486185,0,1655,0,1655,0,1655,0,
0,0,0,0,0,0,0,0,0,0,0,0,0,0,0,0,0,0,0,0,0,0,0,0,0,0,0,0,0,0,0,0,0,0,0,0,0,0,0,0,0,0,0,0,0,0,0,0,0,0,
1655,0,1655,0,1655,0,1655,0,2537,0,2538,0,2539,0,2540,0,2540,0,2540,0,2477,0,2478,0,2479,0,2480,0,2481,0,2540,0,2540,0,2147486188,0,2147486187,0,2147486186,0,2147486185,0,1655,0,1655,0,1655,0,1655,0,
0,0,0,0,0,0,0,0,0,0,0,0,0,0,0,0,0,0,0,0,0,0,0,0,0,0,0,0,0,0,0,0,0,0,0,0,0,0,0,0,0,0,0,0,0,0,0,0,0,0,
1655,0,1655,0,1655,0,1655,0,1655,0,1655,0,1655,0,1655,0,1655,0,1655,0,2221,0,2222,0,2223,0,2224,0,2225,0,1655,0,1655,0,1655,0,1655,0,1655,0,1655,0,1655,0,1655,0,1655,0,1655,0,
0,0,0,0,0,0,0,0,0,0,0,0,0,0,0,0,0,0,0,0,0,0,0,0,0,0,0,0,0,0,0,0,0,0,0,0,0,0,0,0,0,0,0,0,0,0,0,0,0,0,
1655,0,1655,0,1655,0,1655,0,1655,0,1655,0,1655,0,1655,0,1655,0,1655,0,1655,0,1655,0,1655,0,1655,0,1655,0,1655,0,1655,0,1655,0,1655,0,1655,0,1655,0,1655,0,1655,0,1655,0,1655,0,
0,0,0,0,0,0,0,0,0,0,0,0,0,0,0,0,0,0,0,0,0,0,0,0,0,0,0,0,0,0,0,0,0,0,0,0,0,0,0,0,0,0,0,0,0,0,0,0,0,0
</data>
  </layer>
 </group>
 <layer id="9" name="PriorityObjects" width="50" height="56">
  <properties>
   <property name="maybe_animation_id" value="c17a3f663f237941"/>
   <property name="maybe_tileset_id" value="6517ec72c0df75c4"/>
   <property name="tile_size" type="int" value="16"/>
  </properties>
  <data encoding="csv">
0,0,0,0,0,0,0,0,0,0,0,0,0,0,0,0,0,0,0,0,0,0,0,0,0,0,0,0,0,0,0,0,0,0,0,0,0,0,0,0,0,0,0,0,0,0,0,0,0,0,
0,0,0,0,0,0,0,0,0,0,0,0,0,0,0,0,0,0,0,0,0,0,0,0,0,0,0,0,0,0,0,0,0,0,0,0,0,0,0,0,0,0,0,0,0,0,0,0,0,0,
0,0,0,0,0,0,0,0,0,0,0,0,0,0,0,0,0,0,0,0,0,0,0,0,0,0,0,0,0,0,0,0,0,0,0,0,0,0,0,0,0,0,0,0,0,0,0,0,0,0,
0,0,0,0,0,0,0,0,0,0,0,0,0,0,0,0,0,0,0,0,0,0,0,0,0,0,0,0,0,0,0,0,0,0,0,0,0,0,0,0,0,0,0,0,0,0,0,0,0,0,
0,0,0,0,0,0,0,0,0,0,0,0,0,0,0,0,0,0,0,0,0,0,0,0,0,0,0,0,0,0,0,0,0,0,0,0,0,0,0,0,0,0,0,0,0,0,0,0,0,0,
0,0,0,0,0,0,0,0,0,0,0,0,0,0,0,0,0,0,0,0,0,0,0,0,0,0,0,0,0,0,0,0,0,0,0,0,0,0,0,0,0,0,0,0,0,0,0,0,0,0,
0,0,0,0,0,0,0,0,0,0,0,0,0,0,0,0,0,0,0,0,0,0,0,0,0,0,0,0,0,0,0,0,0,0,0,0,0,0,0,0,0,0,0,0,0,0,0,0,0,0,
0,0,0,0,0,0,0,0,0,0,0,0,0,0,0,0,0,0,0,0,0,0,0,0,0,0,0,0,0,0,0,0,0,0,0,0,0,0,0,0,0,0,0,0,0,0,0,0,0,0,
0,0,0,0,0,0,0,0,0,0,0,0,0,0,0,0,0,0,0,0,0,0,6013,0,0,0,0,0,0,0,0,0,0,0,0,0,0,0,0,0,0,0,0,0,0,0,0,0,0,0,
0,0,0,0,0,0,0,0,0,0,0,0,0,0,0,0,0,0,0,0,0,0,0,0,0,0,0,0,0,0,0,0,0,0,0,0,0,0,0,0,0,0,0,0,0,0,0,0,0,0,
0,0,0,0,0,0,0,0,0,0,0,0,0,0,0,0,0,0,0,0,0,0,6133,0,0,0,0,0,0,0,0,0,0,0,0,0,0,0,0,0,0,0,0,0,0,0,0,0,0,0,
0,0,0,0,0,0,0,0,0,0,0,0,0,0,0,0,0,0,0,0,0,0,0,0,0,0,0,0,0,0,0,0,0,0,0,0,0,0,0,0,0,0,0,0,0,0,0,0,0,0,
0,0,0,0,0,0,0,0,0,0,0,0,0,0,0,0,0,0,0,0,0,0,6013,0,0,0,0,0,0,0,0,0,0,0,0,0,0,0,0,0,0,0,0,0,0,0,0,0,0,0,
0,0,0,0,0,0,0,0,0,0,0,0,0,0,0,0,0,0,0,0,0,0,0,0,0,0,0,0,0,0,0,0,0,0,0,0,0,0,0,0,0,0,0,0,0,0,0,0,0,0,
0,0,0,0,0,0,0,0,0,0,0,0,0,0,0,0,0,0,0,0,0,0,0,0,0,0,0,0,0,0,0,0,0,0,0,0,0,0,0,0,0,0,0,0,0,0,0,0,0,0,
0,0,0,0,0,0,0,0,0,0,0,0,0,0,0,0,0,0,0,0,0,0,0,0,0,0,0,0,0,0,0,0,0,0,0,0,0,0,0,0,0,0,0,0,0,0,0,0,0,0,
0,0,0,0,0,0,0,0,0,0,0,0,0,0,0,0,0,0,0,0,0,0,0,0,0,0,0,0,0,0,0,0,0,0,0,0,0,0,0,0,0,0,0,0,0,0,0,0,0,0,
0,0,0,0,0,0,0,0,0,0,0,0,0,0,0,0,0,0,0,0,0,0,0,0,0,0,0,0,0,0,0,0,0,0,0,0,0,0,0,0,0,0,0,0,0,0,0,0,0,0,
0,0,0,0,0,0,0,0,0,0,0,0,0,0,0,0,0,0,0,0,0,0,0,0,0,0,0,0,0,0,0,0,0,0,0,0,0,0,0,0,0,0,0,0,0,0,0,0,0,0,
0,0,0,0,0,0,0,0,0,0,0,0,0,0,0,0,0,0,0,0,0,0,0,0,0,0,0,0,0,0,0,0,0,0,0,0,0,0,0,0,0,0,0,0,0,0,0,0,0,0,
0,0,0,0,0,0,0,0,0,0,0,0,0,0,0,0,0,0,0,0,0,0,0,0,0,0,0,0,0,0,0,0,0,0,0,0,0,0,0,0,0,0,0,0,0,0,0,0,0,0,
0,0,0,0,0,0,0,0,0,0,0,0,0,0,0,0,0,0,0,0,0,0,0,0,0,0,0,0,0,0,0,0,0,0,0,0,0,0,0,0,0,0,0,0,0,0,0,0,0,0,
0,0,0,0,0,0,0,0,0,0,0,0,0,0,0,0,0,0,0,0,0,0,0,0,0,0,0,0,0,0,0,0,0,0,0,0,0,0,0,0,0,0,0,0,0,0,0,0,0,0,
0,0,0,0,0,0,0,0,0,0,0,0,0,0,0,0,0,0,0,0,0,0,0,0,0,0,0,0,0,0,0,0,0,0,0,0,0,0,0,0,0,0,0,0,0,0,0,0,0,0,
0,0,0,0,0,0,0,0,0,0,0,0,0,0,0,0,0,0,0,0,0,0,0,0,0,0,0,0,0,0,0,0,0,0,0,0,0,0,0,0,0,0,0,0,0,0,0,0,0,0,
0,0,0,0,0,0,0,0,0,0,0,0,0,0,0,0,0,0,0,0,0,0,0,0,0,0,0,0,0,0,0,0,0,0,0,0,0,0,0,0,0,0,0,0,0,0,0,0,0,0,
0,0,0,0,0,0,0,0,0,0,0,0,0,0,0,0,0,0,0,0,0,0,0,0,0,0,0,0,0,0,0,0,0,0,0,0,0,0,0,0,0,0,0,0,0,0,0,0,0,0,
0,0,0,0,0,0,0,0,0,0,0,0,0,0,0,0,0,0,0,0,0,0,0,0,0,0,0,0,0,0,0,0,0,0,0,0,0,0,0,0,0,0,0,0,0,0,0,0,0,0,
0,0,0,0,0,0,0,0,0,0,0,0,0,0,0,0,0,0,0,0,0,0,0,0,0,0,0,0,0,0,0,0,0,0,0,0,0,0,0,0,0,0,0,0,0,0,0,0,0,0,
0,0,0,0,0,0,0,0,0,0,0,0,0,0,0,0,0,0,0,0,0,0,0,0,0,0,0,0,0,0,0,0,0,0,0,0,0,0,0,0,0,0,0,0,0,0,0,0,0,0,
0,0,0,0,0,0,0,0,0,0,0,0,0,0,0,0,0,0,0,0,0,0,0,0,0,0,0,0,0,0,0,0,0,0,0,0,0,0,0,0,0,0,0,0,0,0,0,0,0,0,
0,0,0,0,0,0,0,0,0,0,0,0,0,0,0,0,0,0,0,0,0,0,0,0,0,0,0,0,0,0,0,0,0,0,0,0,0,0,0,0,0,0,0,0,0,0,0,0,0,0,
0,0,0,0,0,0,0,0,0,0,0,0,0,0,0,0,0,0,0,0,0,0,0,0,0,0,0,0,0,0,0,0,0,0,0,0,0,0,0,0,0,0,0,0,0,0,0,0,0,0,
0,0,0,0,0,0,0,0,0,0,0,0,0,0,0,0,0,0,0,0,0,0,0,0,0,0,0,0,0,0,0,0,0,0,0,0,0,0,0,0,0,0,0,0,0,0,0,0,0,0,
0,0,0,0,0,0,0,0,0,0,0,0,0,0,0,0,0,0,0,0,0,0,0,0,0,0,0,0,0,0,0,0,0,0,0,0,0,0,0,0,0,0,0,0,0,0,0,0,0,0,
0,0,0,0,0,0,0,0,0,0,0,0,0,0,0,0,0,0,0,0,0,0,0,0,0,0,0,0,0,0,0,0,0,0,0,0,0,0,0,0,0,0,0,0,0,0,0,0,0,0,
0,0,0,0,0,0,0,0,0,0,0,0,0,0,0,0,0,0,0,0,0,0,0,0,0,0,0,0,0,0,0,0,0,0,0,0,0,0,0,0,0,0,0,0,0,0,0,0,0,0,
0,0,0,0,0,0,0,0,0,0,0,0,0,0,0,0,0,0,0,0,0,0,0,0,0,0,0,0,0,0,0,0,0,0,0,0,0,0,0,0,0,0,0,0,0,0,0,0,0,0,
0,0,0,0,0,0,0,0,0,0,0,0,0,0,0,0,0,0,0,0,0,0,0,0,0,0,0,0,0,0,0,0,0,0,0,0,0,0,0,0,0,0,0,0,0,0,0,0,0,0,
0,0,0,0,0,0,0,0,0,0,0,0,0,0,0,0,0,0,0,0,0,0,0,0,0,0,0,0,0,0,0,0,0,0,0,0,0,0,0,0,0,0,0,0,0,0,0,0,0,0,
0,0,0,0,0,0,0,0,0,0,0,0,0,0,0,0,0,0,0,0,0,0,0,0,0,0,0,0,0,0,0,0,0,0,6042,0,0,0,0,0,0,0,0,0,0,0,0,0,0,0,
0,0,0,0,0,0,0,0,0,0,0,0,0,0,0,0,0,0,0,0,0,0,0,0,0,0,0,0,0,0,0,0,0,0,0,0,0,0,0,0,0,0,0,0,0,0,0,0,0,0,
0,0,0,0,0,0,0,0,0,0,0,0,0,0,0,0,0,0,0,0,0,0,0,0,0,0,0,0,0,0,0,0,0,0,0,0,0,0,0,0,0,0,0,0,0,0,0,0,0,0,
0,0,0,0,0,0,0,0,0,0,0,0,0,0,0,0,0,0,0,0,0,0,0,0,0,0,0,0,0,0,0,0,0,0,0,0,0,0,0,0,0,0,0,0,0,0,0,0,0,0,
0,0,0,0,0,0,0,0,0,0,0,0,0,0,0,0,0,0,0,0,0,0,0,0,0,0,0,0,0,0,0,0,0,0,0,0,0,0,0,0,0,0,0,0,0,0,0,0,0,0,
0,0,0,0,0,0,0,0,0,0,0,0,0,0,0,0,0,0,0,0,0,0,0,0,0,0,0,0,0,0,0,0,0,0,0,0,0,0,0,0,0,0,0,0,0,0,0,0,0,0,
0,0,0,0,0,0,0,0,0,0,0,0,0,0,0,0,0,0,0,0,0,0,0,0,0,0,0,0,0,0,0,0,0,0,0,0,0,0,0,0,0,0,0,0,0,0,0,0,0,0,
0,0,0,0,0,0,0,0,0,0,0,0,0,0,0,0,0,0,0,0,0,0,0,0,0,0,0,0,0,0,0,0,0,0,0,0,0,0,0,0,0,0,0,0,0,0,0,0,0,0,
0,0,0,0,0,0,0,0,0,0,0,0,0,0,0,0,0,0,0,0,0,0,0,0,0,0,0,0,0,0,0,0,0,0,0,0,0,0,0,0,0,0,0,0,0,0,0,0,0,0,
0,0,0,0,0,0,0,0,0,0,0,0,0,0,0,0,0,0,0,0,0,0,0,0,0,0,0,0,0,0,0,0,0,0,0,0,0,0,0,0,0,0,0,0,0,0,0,0,0,0,
0,0,0,0,0,0,0,0,0,0,0,0,0,0,0,0,0,0,0,0,0,0,0,0,0,0,0,0,0,0,0,0,0,0,0,0,0,0,0,0,0,0,0,0,0,0,0,0,0,0,
0,0,0,0,0,0,0,0,0,0,0,0,0,0,0,0,0,0,0,0,0,0,0,0,0,0,0,0,0,0,0,0,0,0,0,0,0,0,0,0,0,0,0,0,0,0,0,0,0,0,
0,0,0,0,0,0,0,0,0,0,0,0,0,0,0,0,0,0,0,0,0,0,0,0,0,0,0,0,0,0,0,0,0,0,0,0,0,0,0,0,0,0,0,0,0,0,0,0,0,0,
0,0,0,0,0,0,0,0,0,0,0,0,0,0,0,0,0,0,0,0,0,0,0,0,0,0,0,0,0,0,0,0,0,0,0,0,0,0,0,0,0,0,0,0,0,0,0,0,0,0,
0,0,0,0,0,0,0,0,0,0,0,0,0,0,0,0,0,0,0,0,0,0,0,0,0,0,0,0,0,0,0,0,0,0,0,0,0,0,0,0,0,0,0,0,0,0,0,0,0,0,
0,0,0,0,0,0,0,0,0,0,0,0,0,0,0,0,0,0,0,0,0,0,0,0,0,0,0,0,0,0,0,0,0,0,0,0,0,0,0,0,0,0,0,0,0,0,0,0,0,0
</data>
 </layer>
 <objectgroup draworder="index" id="10" name="Instances">
  <object id="12" template="../../../templates/dungeon/obj_dungeon_elevator.tx" type="obj_dungeon_elevator" x="112" y="344"/>
  <object id="13" template="../../../templates/obj_seal_tablet.tx" type="obj_seal_tablet" x="184" y="208">
   <properties>
    <property name="seal_id" type="int" propertytype="Seal" value="2"/>
   </properties>
  </object>
  <object id="14" template="../../../templates/obj_seal_altar.tx" type="obj_seal_altar" x="72" y="269">
   <properties>
    <property name="item_id" value="faceted_rock_gem"/>
   </properties>
  </object>
  <object id="15" template="../../../templates/obj_seal_altar.tx" type="obj_seal_altar" x="96" y="245">
   <properties>
    <property name="item_id" value="ore_emerald"/>
    <property name="sin_wave_offset" type="int" value="1"/>
   </properties>
  </object>
  <object id="16" template="../../../templates/obj_seal_altar.tx" type="obj_seal_altar" x="280" y="245">
   <properties>
    <property name="item_id" value="rockroot"/>
    <property name="sin_wave_offset" type="int" value="1"/>
   </properties>
  </object>
  <object id="17" template="../../../templates/obj_seal_altar.tx" type="obj_seal_altar" x="304" y="269">
   <properties>
    <property name="item_id" value="sealing_scroll"/>
   </properties>
  </object>
 </objectgroup>
 <objectgroup draworder="index" id="11" name="Lighting" visible="0">
  <object id="18" template="../../../templates/system/lighting/lights/obj_light_small.tx" type="obj_light_small" x="285" y="224"/>
  <object id="19" template="../../../templates/system/lighting/lights/obj_light_small.tx" type="obj_light_small" x="35" y="224"/>
  <object id="20" template="../../../templates/system/lighting/lights/obj_light_med.tx" type="obj_light_med" x="152" y="152"/>
  <object id="21" template="../../../templates/system/lighting/lights/obj_light_small.tx" type="obj_light_small" x="129" y="160"/>
  <object id="22" template="../../../templates/system/lighting/lights/obj_light_small.tx" type="obj_light_small" x="191" y="160"/>
 </objectgroup>
 <layer id="12" name="FootstepTiles" width="50" height="56" visible="0">
  <properties>
   <property name="maybe_animation_id" value="9b6388374855b54b"/>
   <property name="maybe_tileset_id" value="5fc72aa2902dea7"/>
   <property name="tile_size" type="int" value="16"/>
  </properties>
  <data encoding="csv">
1511,0,1511,0,1511,0,1511,0,1511,0,1511,0,1511,0,1511,0,1511,0,1511,0,1511,0,1511,0,1511,0,1511,0,1511,0,1511,0,1511,0,1511,0,1511,0,1511,0,1511,0,1511,0,1511,0,1511,0,0,0,
0,0,0,0,0,0,0,0,0,0,0,0,0,0,0,0,0,0,0,0,0,0,0,0,0,0,0,0,0,0,0,0,0,0,0,0,0,0,0,0,0,0,0,0,0,0,0,0,0,0,
1511,0,1511,0,1511,0,1511,0,1511,0,1511,0,1511,0,1511,0,1511,0,1511,0,1511,0,1511,0,1511,0,1511,0,1511,0,1511,0,1511,0,1511,0,1511,0,1511,0,1511,0,1511,0,1511,0,1511,0,0,0,
0,0,0,0,0,0,0,0,0,0,0,0,0,0,0,0,0,0,0,0,0,0,0,0,0,0,0,0,0,0,0,0,0,0,0,0,0,0,0,0,0,0,0,0,0,0,0,0,0,0,
1511,0,1511,0,1511,0,1511,0,1511,0,1511,0,1511,0,1511,0,1511,0,1511,0,1513,0,1513,0,1513,0,1513,0,1513,0,1511,0,1511,0,1511,0,1511,0,1511,0,1511,0,1511,0,1511,0,1511,0,0,0,
0,0,0,0,0,0,0,0,0,0,0,0,0,0,0,0,0,0,0,0,0,0,0,0,0,0,0,0,0,0,0,0,0,0,0,0,0,0,0,0,0,0,0,0,0,0,0,0,0,0,
1511,0,1511,0,1511,0,1511,0,1511,0,1511,0,1511,0,1511,0,1511,0,1511,0,1513,0,1513,0,1513,0,1513,0,1513,0,1511,0,1511,0,1511,0,1511,0,1511,0,1511,0,1511,0,1511,0,1511,0,0,0,
0,0,0,0,0,0,0,0,0,0,0,0,0,0,0,0,0,0,0,0,0,0,0,0,0,0,0,0,0,0,0,0,0,0,0,0,0,0,0,0,0,0,0,0,0,0,0,0,0,0,
1511,0,1511,0,1511,0,1511,0,1511,0,1511,0,1511,0,1511,0,1511,0,1511,0,1513,0,1513,0,1513,0,1513,0,1513,0,1511,0,1511,0,1511,0,1511,0,1511,0,1511,0,1511,0,1511,0,1511,0,0,0,
0,0,0,0,0,0,0,0,0,0,0,0,0,0,0,0,0,0,0,0,0,0,0,0,0,0,0,0,0,0,0,0,0,0,0,0,0,0,0,0,0,0,0,0,0,0,0,0,0,0,
1511,0,1511,0,1511,0,1511,0,1511,0,1511,0,1511,0,1511,0,1511,0,1511,0,1513,0,1513,0,1513,0,1513,0,1513,0,1511,0,1511,0,1511,0,1511,0,1511,0,1511,0,1511,0,1511,0,1511,0,0,0,
0,0,0,0,0,0,0,0,0,0,0,0,0,0,0,0,0,0,0,0,0,0,0,0,0,0,0,0,0,0,0,0,0,0,0,0,0,0,0,0,0,0,0,0,0,0,0,0,0,0,
1511,0,1511,0,1511,0,1511,0,1511,0,1511,0,1511,0,1511,0,1511,0,1511,0,1513,0,1513,0,1513,0,1513,0,1513,0,1511,0,1511,0,1511,0,1511,0,1511,0,1511,0,1511,0,1511,0,1511,0,0,0,
0,0,0,0,0,0,0,0,0,0,0,0,0,0,0,0,0,0,0,0,0,0,0,0,0,0,0,0,0,0,0,0,0,0,0,0,0,0,0,0,0,0,0,0,0,0,0,0,0,0,
1511,0,1511,0,1511,0,1511,0,1511,0,1511,0,1511,0,1511,0,1511,0,1511,0,1513,0,1513,0,1513,0,1513,0,1513,0,1511,0,1511,0,1511,0,1511,0,1511,0,1511,0,1511,0,1511,0,1511,0,0,0,
0,0,0,0,0,0,0,0,0,0,0,0,0,0,0,0,0,0,0,0,0,0,0,0,0,0,0,0,0,0,0,0,0,0,0,0,0,0,0,0,0,0,0,0,0,0,0,0,0,0,
1511,0,1511,0,1511,0,1511,0,1511,0,1511,0,1511,0,1511,0,1511,0,1513,0,1513,0,1513,0,1513,0,1513,0,1513,0,1513,0,1511,0,1511,0,1511,0,1511,0,1511,0,1511,0,1511,0,1511,0,0,0,
0,0,0,0,0,0,0,0,0,0,0,0,0,0,0,0,0,0,0,0,0,0,0,0,0,0,0,0,0,0,0,0,0,0,0,0,0,0,0,0,0,0,0,0,0,0,0,0,0,0,
1511,0,1511,0,1511,0,1511,0,1511,0,1513,0,1513,0,1513,0,1513,0,1513,0,1513,0,1513,0,1513,0,1513,0,1513,0,1513,0,1513,0,1513,0,1513,0,1513,0,1511,0,1511,0,1511,0,1511,0,0,0,
0,0,0,0,0,0,0,0,0,0,0,0,0,0,0,0,0,0,0,0,0,0,0,0,0,0,0,0,0,0,0,0,0,0,0,0,0,0,0,0,0,0,0,0,0,0,0,0,0,0,
1511,0,1511,0,1511,0,1511,0,1513,0,1513,0,1513,0,1513,0,1513,0,1513,0,1513,0,1513,0,1513,0,1513,0,1513,0,1513,0,1513,0,1513,0,1513,0,1513,0,1513,0,1511,0,1511,0,1511,0,0,0,
0,0,0,0,0,0,0,0,0,0,0,0,0,0,0,0,0,0,0,0,0,0,0,0,0,0,0,0,0,0,0,0,0,0,0,0,0,0,0,0,0,0,0,0,0,0,0,0,0,0,
1511,0,1511,0,1511,0,1511,0,1513,0,1513,0,1513,0,1513,0,1513,0,1513,0,1513,0,1513,0,1513,0,1513,0,1513,0,1513,0,1513,0,1513,0,1513,0,1513,0,1513,0,1511,0,1511,0,1511,0,0,0,
0,0,0,0,0,0,0,0,0,0,0,0,0,0,0,0,0,0,0,0,0,0,0,0,0,0,0,0,0,0,0,0,0,0,0,0,0,0,0,0,0,0,0,0,0,0,0,0,0,0,
1511,0,1511,0,1511,0,1511,0,1513,0,1513,0,1513,0,1513,0,1513,0,1513,0,1513,0,1513,0,1513,0,1513,0,1513,0,1513,0,1513,0,1513,0,1513,0,1513,0,1513,0,1511,0,1511,0,1511,0,0,0,
0,0,0,0,0,0,0,0,0,0,0,0,0,0,0,0,0,0,0,0,0,0,0,0,0,0,0,0,0,0,0,0,0,0,0,0,0,0,0,0,0,0,0,0,0,0,0,0,0,0,
1511,0,1511,0,1511,0,1511,0,1513,0,1513,0,1513,0,1513,0,1513,0,1513,0,1513,0,1513,0,1513,0,1513,0,1513,0,1513,0,1513,0,1513,0,1513,0,1513,0,1513,0,1511,0,1511,0,1511,0,0,0,
0,0,0,0,0,0,0,0,0,0,0,0,0,0,0,0,0,0,0,0,0,0,0,0,0,0,0,0,0,0,0,0,0,0,0,0,0,0,0,0,0,0,0,0,0,0,0,0,0,0,
1511,0,1511,0,1511,0,1511,0,1513,0,1513,0,1513,0,1513,0,1513,0,1513,0,1513,0,1513,0,1513,0,1513,0,1513,0,1513,0,1513,0,1513,0,1513,0,1513,0,1513,0,1511,0,1511,0,1511,0,0,0,
0,0,0,0,0,0,0,0,0,0,0,0,0,0,0,0,0,0,0,0,0,0,0,0,0,0,0,0,0,0,0,0,0,0,0,0,0,0,0,0,0,0,0,0,0,0,0,0,0,0,
1511,0,1511,0,1511,0,1511,0,1513,0,1513,0,1513,0,1513,0,1513,0,1513,0,1513,0,1513,0,1513,0,1513,0,1513,0,1513,0,1513,0,1513,0,1513,0,1513,0,1513,0,1511,0,1511,0,1511,0,0,0,
0,0,0,0,0,0,0,0,0,0,0,0,0,0,0,0,0,0,0,0,0,0,0,0,0,0,0,0,0,0,0,0,0,0,0,0,0,0,0,0,0,0,0,0,0,0,0,0,0,0,
1511,0,1511,0,1511,0,1511,0,1513,0,1513,0,1513,0,1513,0,1513,0,1513,0,1513,0,1513,0,1513,0,1513,0,1513,0,1513,0,1513,0,1513,0,1513,0,1513,0,1513,0,1511,0,1511,0,1511,0,0,0,
0,0,0,0,0,0,0,0,0,0,0,0,0,0,0,0,0,0,0,0,0,0,0,0,0,0,0,0,0,0,0,0,0,0,0,0,0,0,0,0,0,0,0,0,0,0,0,0,0,0,
1511,0,1511,0,1511,0,1511,0,1513,0,1513,0,1513,0,1513,0,1513,0,1513,0,1513,0,1513,0,1513,0,1513,0,1513,0,1513,0,1513,0,1513,0,1513,0,1513,0,1513,0,1511,0,1511,0,1511,0,0,0,
0,0,0,0,0,0,0,0,0,0,0,0,0,0,0,0,0,0,0,0,0,0,0,0,0,0,0,0,0,0,0,0,0,0,0,0,0,0,0,0,0,0,0,0,0,0,0,0,0,0,
1511,0,1511,0,1511,0,1511,0,1513,0,1513,0,1513,0,1513,0,1513,0,1513,0,1513,0,1513,0,1513,0,1513,0,1513,0,1513,0,1513,0,1513,0,1513,0,1513,0,1513,0,1511,0,1511,0,1511,0,0,0,
0,0,0,0,0,0,0,0,0,0,0,0,0,0,0,0,0,0,0,0,0,0,0,0,0,0,0,0,0,0,0,0,0,0,0,0,0,0,0,0,0,0,0,0,0,0,0,0,0,0,
1511,0,1511,0,1511,0,1511,0,1513,0,1513,0,1513,0,1513,0,1513,0,1513,0,1513,0,1513,0,1513,0,1513,0,1513,0,1513,0,1513,0,1513,0,1513,0,1513,0,1513,0,1511,0,1511,0,1511,0,0,0,
0,0,0,0,0,0,0,0,0,0,0,0,0,0,0,0,0,0,0,0,0,0,0,0,0,0,0,0,0,0,0,0,0,0,0,0,0,0,0,0,0,0,0,0,0,0,0,0,0,0,
1511,0,1511,0,1511,0,1511,0,1513,0,1513,0,1513,0,1513,0,1513,0,1513,0,1513,0,1513,0,1513,0,1513,0,1513,0,1513,0,1513,0,1513,0,1513,0,1513,0,1513,0,1511,0,1511,0,1511,0,0,0,
0,0,0,0,0,0,0,0,0,0,0,0,0,0,0,0,0,0,0,0,0,0,0,0,0,0,0,0,0,0,0,0,0,0,0,0,0,0,0,0,0,0,0,0,0,0,0,0,0,0,
1511,0,1511,0,1511,0,1511,0,1513,0,1513,0,1513,0,1513,0,1513,0,1513,0,1513,0,1513,0,1513,0,1513,0,1513,0,1513,0,1513,0,1513,0,1513,0,1513,0,1513,0,1511,0,1511,0,1511,0,0,0,
0,0,0,0,0,0,0,0,0,0,0,0,0,0,0,0,0,0,0,0,0,0,0,0,0,0,0,0,0,0,0,0,0,0,0,0,0,0,0,0,0,0,0,0,0,0,0,0,0,0,
1511,0,1511,0,1511,0,1511,0,1513,0,1513,0,1513,0,1513,0,1513,0,1513,0,1513,0,1513,0,1513,0,1513,0,1513,0,1513,0,1513,0,1513,0,1513,0,1513,0,1511,0,1511,0,1511,0,1511,0,0,0,
0,0,0,0,0,0,0,0,0,0,0,0,0,0,0,0,0,0,0,0,0,0,0,0,0,0,0,0,0,0,0,0,0,0,0,0,0,0,0,0,0,0,0,0,0,0,0,0,0,0,
1511,0,1511,0,1511,0,1511,0,1511,0,1513,0,1513,0,1513,0,1513,0,1513,0,1513,0,1513,0,1513,0,1513,0,1513,0,1513,0,1513,0,1513,0,1513,0,1511,0,1511,0,1511,0,1511,0,1511,0,0,0,
0,0,0,0,0,0,0,0,0,0,0,0,0,0,0,0,0,0,0,0,0,0,0,0,0,0,0,0,0,0,0,0,0,0,0,0,0,0,0,0,0,0,0,0,0,0,0,0,0,0,
0,0,1511,0,1511,0,1511,0,1511,0,1511,0,1511,0,1511,0,1511,0,1511,0,1511,0,1513,0,1513,0,1513,0,1511,0,1511,0,1511,0,1511,0,1511,0,1511,0,1511,0,1511,0,1511,0,1511,0,0,0,
0,0,0,0,0,0,0,0,0,0,0,0,0,0,0,0,0,0,0,0,0,0,0,0,0,0,0,0,0,0,0,0,0,0,0,0,0,0,0,0,0,0,0,0,0,0,0,0,0,0,
0,0,1511,0,1511,0,1511,0,1511,0,1511,0,1511,0,1511,0,1511,0,1511,0,1511,0,1513,0,1513,0,1513,0,1511,0,1511,0,1511,0,1511,0,1511,0,1511,0,1511,0,1511,0,1511,0,1511,0,0,0,
0,0,0,0,0,0,0,0,0,0,0,0,0,0,0,0,0,0,0,0,0,0,0,0,0,0,0,0,0,0,0,0,0,0,0,0,0,0,0,0,0,0,0,0,0,0,0,0,0,0,
0,0,0,0,0,0,0,0,0,0,0,0,0,0,0,0,0,0,0,0,0,0,0,0,0,0,0,0,0,0,0,0,1511,0,1511,0,1511,0,1511,0,1511,0,1511,0,1511,0,1511,0,0,0,
0,0,0,0,0,0,0,0,0,0,0,0,0,0,0,0,0,0,0,0,0,0,0,0,0,0,0,0,0,0,0,0,0,0,0,0,0,0,0,0,0,0,0,0,0,0,0,0,0,0,
0,0,0,0,0,0,0,0,0,0,0,0,0,0,0,0,0,0,0,0,0,0,0,0,0,0,0,0,0,0,0,0,1511,0,1511,0,1511,0,1511,0,1511,0,1511,0,1511,0,1511,0,0,0,
0,0,0,0,0,0,0,0,0,0,0,0,0,0,0,0,0,0,0,0,0,0,0,0,0,0,0,0,0,0,0,0,0,0,0,0,0,0,0,0,0,0,0,0,0,0,0,0,0,0
</data>
 </layer>
 <layer id="13" name="Tiles_Collision" width="50" height="56" visible="0">
  <properties>
   <property name="maybe_animation_id" value="d5b5e9552171fe70"/>
   <property name="maybe_tileset_id" value="b29026a2ad0be741"/>
   <property name="tile_size" type="int" value="8"/>
  </properties>
  <data encoding="csv">
1507,1507,1507,1507,1507,1507,1507,1507,1507,1507,1507,1507,1507,1507,1507,1507,1507,1507,1507,1507,1507,1507,1507,1507,1507,1507,1507,1507,1507,1507,1507,1507,1507,1507,1507,1507,1507,1507,1507,1507,1507,1507,1507,1507,1507,1507,1507,1507,1507,1507,
1507,1507,1507,1507,1507,1507,1507,1507,1507,1507,1507,1507,1507,1507,1507,1507,1507,1507,1507,1507,1507,1507,1507,1507,1507,1507,1507,1507,1507,1507,1507,1507,1507,1507,1507,1507,1507,1507,1507,1507,1507,1507,1507,1507,1507,1507,1507,1507,1507,1507,
1507,1507,1507,1507,1507,1507,1507,1507,1507,1507,1507,1507,1507,1507,1507,1507,1507,1507,1507,1507,1507,1507,1507,1507,1507,1507,1507,1507,1507,1507,1507,1507,1507,1507,1507,1507,1507,1507,1507,1507,1507,1507,1507,1507,1507,1507,1507,1507,1507,1507,
1507,1507,1507,1507,1507,1507,1507,1507,1507,1507,1507,1507,1507,1507,1507,1507,1507,1507,1507,1507,1507,1507,1507,1507,1507,1507,1507,1507,1507,1507,1507,1507,1507,1507,1507,1507,1507,1507,1507,1507,1507,1507,1507,1507,1507,1507,1507,1507,1507,1507,
1507,1507,1507,1507,1507,1507,1507,1507,1507,1507,1507,1507,1507,1507,1507,1507,1507,1507,1507,1507,1507,1507,1507,1507,1507,1507,1507,1507,1507,1507,1507,1507,1507,1507,1507,1507,1507,1507,1507,1507,1507,1507,1507,1507,1507,1507,1507,1507,1507,1507,
1507,1507,1507,1507,1507,1507,1507,1507,1507,1507,1507,1507,1507,1507,1507,1507,1507,1507,1507,1507,1507,1507,1507,1507,1507,1507,1507,1507,1507,1507,1507,1507,1507,1507,1507,1507,1507,1507,1507,1507,1507,1507,1507,1507,1507,1507,1507,1507,1507,1507,
1507,1507,1507,1507,1507,1507,1507,1507,1507,1507,1507,1507,1507,1507,1507,1507,1507,1507,1507,1507,1507,1507,1507,1507,1507,1507,1507,1507,1507,1507,1507,1507,1507,1507,1507,1507,1507,1507,1507,1507,1507,1507,1507,1507,1507,1507,1507,1507,1507,1507,
1507,1507,1507,1507,1507,1507,1507,1507,1507,1507,1507,1507,1507,1507,1507,1507,1507,1507,1507,1507,1507,1507,1507,1507,1507,1507,1507,1507,1507,1507,1507,1507,1507,1507,1507,1507,1507,1507,1507,1507,1507,1507,1507,1507,1507,1507,1507,1507,1507,1507,
1507,1507,1507,1507,1507,1507,1507,1507,1507,1507,1507,1507,1507,1507,1507,1507,1507,1507,1507,1507,1507,1507,1507,1507,1507,1507,1507,1507,1507,1507,1507,1507,1507,1507,1507,1507,1507,1507,1507,1507,1507,1507,1507,1507,1507,1507,1507,1507,1507,1507,
1507,1507,1507,1507,1507,1507,1507,1507,1507,1507,1507,1507,1507,1507,1507,1507,1507,1507,1507,1507,1507,1507,1504,1504,1504,1504,1504,1504,1507,1507,1507,1507,1507,1507,1507,1507,1507,1507,1507,1507,1507,1507,1507,1507,1507,1507,1507,1507,1507,1507,
1507,1507,1507,1507,1507,1507,1507,1507,1507,1507,1507,1507,1507,1507,1507,1507,1507,1507,1507,1507,1507,1507,1504,1504,1504,1504,1504,1504,1507,1507,1507,1507,1507,1507,1507,1507,1507,1507,1507,1507,1507,1507,1507,1507,1507,1507,1507,1507,1507,1507,
1507,1507,1507,1507,1507,1507,1507,1507,1507,1507,1507,1507,1507,1507,1507,1507,1507,1507,1507,1507,1507,1507,1504,1504,1504,1504,1504,1504,1507,1507,1507,1507,1507,1507,1507,1507,1507,1507,1507,1507,1507,1507,1507,1507,1507,1507,1507,1507,1507,1507,
1507,1507,1507,1507,1507,1507,1507,1507,1507,1507,1507,1507,1507,1507,1507,1507,1507,1507,1507,1507,1507,1507,1504,1504,1504,1504,1504,1504,1507,1507,1507,1507,1507,1507,1507,1507,1507,1507,1507,1507,1507,1507,1507,1507,1507,1507,1507,1507,1507,1507,
1507,1507,1507,1507,1507,1507,1507,1507,1507,1507,1507,1507,1507,1507,1507,1507,1507,1507,1507,1507,1507,1507,1504,1504,1504,1504,1504,1504,1507,1507,1507,1507,1507,1507,1507,1507,1507,1507,1507,1507,1507,1507,1507,1507,1507,1507,1507,1507,1507,1507,
1507,1507,1507,1507,1507,1507,1507,1507,1507,1507,1507,1507,1507,1507,1507,1507,1507,1507,1507,1507,1507,1507,1504,1504,1504,1504,1504,1504,1507,1507,1507,1507,1507,1507,1507,1507,1507,1507,1507,1507,1507,1507,1507,1507,1507,1507,1507,1507,1507,1507,
1507,1507,1507,1507,1507,1507,1507,1507,1507,1507,1507,1507,1507,1507,1507,1507,1507,1507,1507,1507,1507,1507,1504,1504,1504,1504,1504,1504,1507,1507,1507,1507,1507,1507,1507,1507,1507,1507,1507,1507,1507,1507,1507,1507,1507,1507,1507,1507,1507,1507,
1507,1507,1507,1507,1507,1507,1507,1507,1507,1507,1507,1507,1507,1507,1507,1507,1507,1507,1507,1507,1507,1507,1504,1504,1504,1504,1504,1504,1507,1507,1507,1507,1507,1507,1507,1507,1507,1507,1507,1507,1507,1507,1507,1507,1507,1507,1507,1507,1507,1507,
1507,1507,1507,1507,1507,1507,1507,1507,1507,1507,1507,1507,1507,1507,1507,1507,1507,1507,1507,1507,1507,1507,1504,1504,1504,1504,1504,1504,1507,1507,1507,1507,1507,1507,1507,1507,1507,1507,1507,1507,1507,1507,1507,1507,1507,1507,1507,1507,1507,1507,
1507,1507,1507,1507,1507,1507,1507,1507,1507,1507,1507,1507,1504,1504,1507,1507,1507,1507,1504,1504,1504,1504,1504,1504,1504,1504,1504,1504,1504,1504,1504,1504,1507,1507,1507,1507,1504,1504,1507,1507,1507,1507,1507,1507,1507,1507,1507,1507,1507,1507,
1507,1507,1507,1507,1507,1507,1507,1507,1507,1507,1507,1504,1504,1504,1504,1504,1504,1506,1504,1504,1504,1504,1504,1504,1504,1504,1504,1504,1504,1504,1504,1504,1506,1504,1504,1504,1504,1504,1504,1507,1507,1507,1507,1507,1507,1507,1507,1507,1507,1507,
1507,1507,1507,1507,1507,1507,1507,1507,1507,1507,1504,1504,1504,1504,1504,1504,1504,1506,1504,1504,1504,1504,1504,1504,1504,1504,1504,1504,1504,1504,1504,1504,1506,1504,1504,1504,1504,1504,1504,1504,1507,1507,1507,1507,1507,1507,1507,1507,1507,1507,
1507,1507,1507,1507,1507,1507,1507,1507,1507,1504,1504,1504,1504,1504,1504,1504,1504,1506,1504,1504,1504,1504,1504,1504,1504,1504,1504,1504,1504,1504,1504,1504,1506,1504,1504,1504,1504,1504,1504,1504,1504,1507,1507,1507,1507,1507,1507,1507,1507,1507,
1507,1507,1507,1507,1507,1507,1507,1507,1504,1504,1504,1504,1504,1504,1504,1504,1504,1506,1504,1504,1504,1504,1504,1504,1504,1504,1504,1504,1504,1504,1504,1504,1506,1504,1504,1504,1504,1504,1504,1504,1504,1504,1507,1507,1507,1507,1507,1507,1507,1507,
1507,1507,1507,1507,1507,1507,1507,1507,1504,1504,1504,1504,1504,1504,1504,1504,1504,1506,1504,1504,1504,1504,1504,1507,1507,1507,1507,1504,1504,1504,1504,1504,1506,1504,1504,1504,1504,1504,1504,1504,1504,1504,1507,1507,1507,1507,1507,1507,1507,1507,
1507,1507,1507,1507,1507,1507,1507,1507,1507,1507,1507,1504,1504,1504,1504,1504,1504,1506,1504,1504,1504,1504,1504,1507,1507,1507,1507,1504,1504,1504,1504,1504,1506,1504,1504,1504,1504,1504,1504,1507,1507,1507,1507,1507,1507,1507,1507,1507,1507,1507,
1507,1507,1507,1507,1507,1507,1507,1507,1507,1507,1507,1504,1504,1504,1504,1504,1504,1506,1504,1504,1504,1504,1504,1504,1504,1504,1504,1504,1504,1504,1504,1504,1506,1504,1504,1504,1504,1504,1504,1507,1507,1507,1507,1507,1507,1507,1507,1507,1507,1507,
1507,1507,1507,1507,1507,1507,1507,1507,1504,1504,1504,1504,1504,1504,1504,1504,1504,1506,1504,1504,1504,1504,1504,1504,1504,1504,1504,1504,1504,1504,1504,1504,1506,1504,1504,1504,1504,1504,1504,1504,1504,1504,1507,1507,1507,1507,1507,1507,1507,1507,
1507,1507,1507,1507,1507,1507,1507,1507,1504,1504,1504,1504,1504,1504,1504,1504,1504,1506,1504,1504,1504,1504,1504,1504,1504,1504,1504,1504,1504,1504,1504,1504,1506,1504,1504,1504,1504,1504,1504,1504,1504,1504,1507,1507,1507,1507,1507,1507,1507,1507,
1507,1507,1507,1507,1507,1507,1507,1507,1504,1504,1504,1504,1507,1507,1507,1504,1504,1506,1504,1504,1504,1504,1504,1504,1504,1504,1504,1504,1504,1504,1504,1504,1506,1504,1504,1507,1507,1507,1504,1504,1504,1504,1507,1507,1507,1507,1507,1507,1507,1507,
1507,1507,1507,1507,1507,1507,1507,1507,1504,1504,1504,1504,1507,1507,1507,1504,1504,1506,1504,1504,1504,1504,1504,1504,1504,1504,1504,1504,1504,1504,1504,1504,1506,1504,1504,1507,1507,1507,1504,1504,1504,1504,1507,1507,1507,1507,1507,1507,1507,1507,
1507,1507,1507,1507,1507,1507,1507,1507,1504,1504,1504,1504,1504,1504,1504,1504,1504,1506,1504,1504,1504,1504,1504,1504,1504,1504,1504,1504,1504,1504,1504,1504,1506,1504,1504,1504,1504,1504,1504,1504,1504,1504,1507,1507,1507,1507,1507,1507,1507,1507,
1507,1507,1507,1507,1507,1507,1507,1507,1504,1507,1507,1507,1504,1504,1504,1504,1504,1506,1504,1504,1504,1504,1504,1504,1504,1504,1504,1504,1504,1504,1504,1504,1506,1504,1504,1504,1504,1504,1507,1507,1507,1504,1507,1507,1507,1507,1507,1507,1507,1507,
1507,1507,1507,1507,1507,1507,1507,1507,1504,1507,1507,1507,1504,1504,1504,1504,1504,1504,1504,1504,1504,1504,1504,1504,1504,1504,1504,1504,1504,1504,1504,1504,1504,1504,1504,1504,1504,1504,1507,1507,1507,1504,1507,1507,1507,1507,1507,1507,1507,1507,
1507,1507,1507,1507,1507,1507,1507,1507,1504,1504,1504,1504,1504,1504,1504,1504,1504,1504,1504,1504,1504,1504,1504,1504,1504,1504,1504,1504,1504,1504,1504,1504,1504,1504,1504,1504,1504,1504,1504,1504,1504,1504,1507,1507,1507,1507,1507,1507,1507,1507,
1507,1507,1507,1507,1507,1507,1507,1507,1504,1504,1504,1504,1504,1504,1504,1504,1504,1504,1504,1504,1504,1504,1504,1504,1504,1504,1504,1504,1504,1504,1504,1504,1504,1504,1504,1504,1504,1504,1504,1504,1504,1504,1507,1507,1507,1507,1507,1507,1507,1507,
1507,1507,1507,1507,1507,1507,1507,1507,1504,1504,1504,1504,1504,1504,1504,1504,1504,1504,1504,1504,1504,1504,1504,1504,1504,1504,1504,1504,1504,1504,1504,1504,1504,1504,1504,1504,1504,1504,1504,1504,1504,1504,1507,1507,1507,1507,1507,1507,1507,1507,
1507,1507,1507,1507,1507,1507,1507,1507,1504,1504,1504,1504,1504,1504,1504,1504,1504,1504,1504,1504,1504,1504,1504,1504,1504,1504,1504,1504,1504,1504,1504,1504,1504,1504,1504,1504,1504,1504,1504,1504,1504,1504,1507,1507,1507,1507,1507,1507,1507,1507,
1507,1507,1507,1507,1507,1507,1507,1507,1504,1504,1504,1504,1504,1504,1504,1504,1504,1504,1504,1504,1504,1504,1504,1504,1504,1504,1504,1504,1504,1504,1504,1504,1504,1504,1504,1504,1504,1504,1504,1504,1504,1504,1507,1507,1507,1507,1507,1507,1507,1507,
1507,1507,1507,1507,1507,1507,1507,1507,1504,1504,1504,1504,1504,1504,1504,1504,1504,1504,1504,1504,1504,1504,1504,1504,1504,1504,1504,1504,1504,1504,1504,1504,1504,1504,1504,1504,1504,1504,1504,1504,1504,1504,1507,1507,1507,1507,1507,1507,1507,1507,
1507,1507,1507,1507,1507,1507,1507,1507,1504,1504,1504,1504,1504,1504,1504,1504,1504,1504,1504,1504,1504,1504,1504,1504,1504,1504,1504,1504,1504,1504,1504,1504,1504,1504,1504,1504,1504,1504,1504,1504,1504,1504,1507,1507,1507,1507,1507,1507,1507,1507,
1507,1507,1507,1507,1507,1507,1507,1507,1504,1504,1504,1504,1504,1504,1504,1504,1504,1504,1504,1504,1504,1504,1504,1504,1504,1504,1504,1504,1504,1504,1504,1504,1504,1504,1504,1504,1504,1504,1504,1504,1504,1504,1507,1507,1507,1507,1507,1507,1507,1507,
1507,1507,1507,1507,1507,1507,1507,1507,1504,1504,1504,1504,1504,1504,1504,1504,1504,1504,1504,1504,1504,1504,1504,1504,1504,1504,1504,1504,1504,1504,1504,1504,1504,1504,1504,1504,1504,1504,1504,1504,1504,1504,1507,1507,1507,1507,1507,1507,1507,1507,
1507,1507,1507,1507,1507,1507,1507,1507,1504,1504,1504,1504,1504,1504,1504,1504,1504,1504,1504,1504,1504,1504,1504,1504,1504,1504,1504,1504,1504,1504,1504,1504,1504,1504,1504,1504,1504,1504,1504,1504,1504,1504,1507,1507,1507,1507,1507,1507,1507,1507,
1507,1507,1507,1507,1507,1507,1507,1507,1504,1504,1504,1504,1504,1504,1504,1504,1504,1504,1504,1504,1504,1504,1504,1504,1504,1504,1504,1504,1504,1504,1504,1504,1504,1504,1504,1504,1504,1504,1504,1504,1504,1504,1507,1507,1507,1507,1507,1507,1507,1507,
1507,1507,1507,1507,1507,1507,1507,1507,1504,1504,1504,1504,1504,1504,1504,1504,1504,1504,1504,1504,1504,1504,1504,1504,1504,1504,1504,1504,1504,1504,1504,1504,1504,1504,1504,1504,1504,1504,1504,1504,1504,1504,1507,1507,1507,1507,1507,1507,1507,1507,
1507,1507,1507,1507,1507,1507,1507,1507,1507,1504,1504,1504,1504,1504,1504,1504,1504,1504,1504,1504,1504,1504,1504,1504,1504,1504,1504,1504,1504,1504,1504,1504,1504,1504,1504,1504,1504,1504,1504,1504,1504,1507,1507,1507,1507,1507,1507,1507,1507,1507,
1507,1507,1507,1507,1507,1507,1507,1507,1507,1507,1504,1504,1504,1504,1504,1504,1504,1504,1504,1504,1504,1504,1504,1504,1504,1504,1504,1504,1504,1504,1504,1504,1504,1504,1504,1504,1504,1504,1504,1504,1507,1507,1507,1507,1507,1507,1507,1507,1507,1507,
1507,1507,1507,1507,1507,1507,1507,1507,1507,1507,1507,1504,1504,1504,1504,1504,1504,1504,1504,1504,1504,1504,1504,1504,1504,1504,1504,1504,1504,1504,1504,1504,1504,1504,1504,1504,1504,1504,1504,1507,1507,1507,1507,1507,1507,1507,1507,1507,1507,1507,
1507,1507,1507,1507,1507,1507,1507,1507,1507,1507,1507,1507,1504,1504,1504,1504,1504,1504,1504,1504,1504,1504,1504,1504,1504,1504,1504,1504,1504,1504,1504,1504,1504,1504,1504,1504,1504,1504,1507,1507,1507,1507,1507,1507,1507,1507,1507,1507,1507,1507,
1507,1507,1507,1507,1507,1507,1507,1507,1507,1507,1507,1507,1507,1507,1507,1507,1507,1507,1507,1507,1507,1507,1504,1504,1504,1504,1504,1504,1507,1507,1507,1507,1507,1507,1507,1507,1507,1507,1507,1507,1507,1507,1507,1507,1507,1507,1507,1507,1507,1507,
1507,1507,1507,1507,1507,1507,1507,1507,1507,1507,1507,1507,1507,1507,1507,1507,1507,1507,1507,1507,1507,1507,1504,1504,1504,1504,1504,1504,1507,1507,1507,1507,1507,1507,1507,1507,1507,1507,1507,1507,1507,1507,1507,1507,1507,1507,1507,1507,1507,1507,
1507,1507,1507,1507,1507,1507,1507,1507,1507,1507,1507,1507,1507,1507,1507,1507,1507,1507,1507,1507,1507,1507,1504,1504,1504,1504,1504,1504,1507,1507,1507,1507,1507,1507,1507,1507,1507,1507,1507,1507,1507,1507,1507,1507,1507,1507,1507,1507,1507,1507,
1507,1507,1507,1507,1507,1507,1507,1507,1507,1507,1507,1507,1507,1507,1507,1507,1507,1507,1507,1507,1507,1507,1504,1504,1504,1504,1504,1504,1507,1507,1507,1507,1507,1507,1507,1507,1507,1507,1507,1507,1507,1507,1507,1507,1507,1507,1507,1507,1507,1507,
1507,1507,1507,1507,1507,1507,1507,1507,1507,1507,1507,1507,1507,1507,1507,1507,1507,1507,1507,1507,1507,1507,1504,1504,1504,1504,1504,1504,1507,1507,1507,1507,1507,1507,1507,1507,1507,1507,1507,1507,1507,1507,1507,1507,1507,1507,1507,1507,1507,1507,
1507,1507,1507,1507,1507,1507,1507,1507,1507,1507,1507,1507,1507,1507,1507,1507,1507,1507,1507,1507,1507,1507,1504,1504,1504,1504,1504,1504,1507,1507,1507,1507,1507,1507,1507,1507,1507,1507,1507,1507,1507,1507,1507,1507,1507,1507,1507,1507,1507,1507,
1507,1507,1507,1507,1507,1507,1507,1507,1507,1507,1507,1507,1507,1507,1507,1507,1507,1507,1507,1507,1507,1507,1507,1507,1507,1507,1507,1507,1507,1507,1507,1507,1507,1507,1507,1507,1507,1507,1507,1507,1507,1507,1507,1507,1507,1507,1507,1507,1507,1507
</data>
 </layer>
 <layer id="14" name="Tiles_Rules" width="50" height="56" visible="0">
  <properties>
   <property name="maybe_animation_id" value="f525790c1101b1a1"/>
   <property name="maybe_tileset_id" value="a3b6ca91b299d4f5"/>
   <property name="tile_size" type="int" value="8"/>
  </properties>
  <data encoding="csv">
6181,6181,6181,6181,6181,6181,6181,6181,6181,6181,6181,6181,6181,6181,6181,6181,6181,6181,6181,6181,6181,6181,6181,6181,6181,6181,6181,6181,6181,6181,6181,6181,6181,6181,6181,6181,6181,6181,6181,6181,6181,6181,6181,6181,6181,6181,6181,6181,6181,6181,
6181,6181,6181,6181,6181,6181,6181,6181,6181,6181,6181,6181,6181,6181,6181,6181,6181,6181,6181,6181,6181,6181,6181,6181,6181,6181,6181,6181,6181,6181,6181,6181,6181,6181,6181,6181,6181,6181,6181,6181,6181,6181,6181,6181,6181,6181,6181,6181,6181,6181,
6181,6181,6181,6181,6181,6181,6181,6181,6181,6181,6181,6181,6181,6181,6181,6181,6181,6181,6181,6181,6181,6181,6181,6181,6181,6181,6181,6181,6181,6181,6181,6181,6181,6181,6181,6181,6181,6181,6181,6181,6181,6181,6181,6181,6181,6181,6181,6181,6181,6181,
6181,6181,6181,6181,6181,6181,6181,6181,6181,6181,6181,6181,6181,6181,6181,6181,6181,6181,6181,6181,6181,6181,6181,6181,6181,6181,6181,6181,6181,6181,6181,6181,6181,6181,6181,6181,6181,6181,6181,6181,6181,6181,6181,6181,6181,6181,6181,6181,6181,6181,
6181,6181,6181,6181,6181,6181,6181,6181,6181,6181,6181,6181,6181,6181,6181,6181,6181,6181,6181,6181,6181,6181,6181,6181,6181,6181,6181,6181,6181,6181,6181,6181,6181,6181,6181,6181,6181,6181,6181,6181,6181,6181,6181,6181,6181,6181,6181,6181,6181,6181,
6181,6181,6181,6181,6181,6181,6181,6181,6181,6181,6181,6181,6181,6181,6181,6181,6181,6181,6181,6181,6181,6181,6181,6181,6181,6181,6181,6181,6181,6181,6181,6181,6181,6181,6181,6181,6181,6181,6181,6181,6181,6181,6181,6181,6181,6181,6181,6181,6181,6181,
6181,6181,6181,6181,6181,6181,6181,6181,6181,6181,6181,6181,6181,6181,6181,6181,6181,6181,6181,6181,6181,6181,6181,6181,6181,6181,6181,6181,6181,6181,6181,6181,6181,6181,6181,6181,6181,6181,6181,6181,6181,6181,6181,6181,6181,6181,6181,6181,6181,6181,
6181,6181,6181,6181,6181,6181,6181,6181,6181,6181,6181,6181,6181,6181,6181,6181,6181,6181,6181,6181,6181,6181,6181,6181,6181,6181,6181,6181,6181,6181,6181,6181,6181,6181,6181,6181,6181,6181,6181,6181,6181,6181,6181,6181,6181,6181,6181,6181,6181,6181,
6181,6181,6181,6181,6181,6181,6181,6181,6181,6181,6181,6181,6181,6181,6181,6181,6181,6181,6181,6181,6181,6181,6181,6181,6181,6181,6181,6181,6181,6181,6181,6181,6181,6181,6181,6181,6181,6181,6181,6181,6181,6181,6181,6181,6181,6181,6181,6181,6181,6181,
6181,6181,6181,6181,6181,6181,6181,6181,6181,6181,6181,6181,6181,6181,6181,6181,6181,6181,6181,6181,6181,6181,6181,6181,6181,6181,6181,6181,6181,6181,6181,6181,6181,6181,6181,6181,6181,6181,6181,6181,6181,6181,6181,6181,6181,6181,6181,6181,6181,6181,
6181,6181,6181,6181,6181,6181,6181,6181,6181,6181,6181,6181,6181,6181,6181,6181,6181,6181,6181,6181,6181,6181,6181,6181,6181,6181,6181,6181,6181,6181,6181,6181,6181,6181,6181,6181,6181,6181,6181,6181,6181,6181,6181,6181,6181,6181,6181,6181,6181,6181,
6181,6181,6181,6181,6181,6181,6181,6181,6181,6181,6181,6181,6181,6181,6181,6181,6181,6181,6181,6181,6181,6181,6181,6181,6181,6181,6181,6181,6181,6181,6181,6181,6181,6181,6181,6181,6181,6181,6181,6181,6181,6181,6181,6181,6181,6181,6181,6181,6181,6181,
6181,6181,6181,6181,6181,6181,6181,6181,6181,6181,6181,6181,6181,6181,6181,6181,6181,6181,6181,6181,6181,6181,6181,6181,6181,6181,6181,6181,6181,6181,6181,6181,6181,6181,6181,6181,6181,6181,6181,6181,6181,6181,6181,6181,6181,6181,6181,6181,6181,6181,
6181,6181,6181,6181,6181,6181,6181,6181,6181,6181,6181,6181,6181,6181,6181,6181,6181,6181,6181,6181,6181,6181,6181,6181,6181,6181,6181,6181,6181,6181,6181,6181,6181,6181,6181,6181,6181,6181,6181,6181,6181,6181,6181,6181,6181,6181,6181,6181,6181,6181,
6181,6181,6181,6181,6181,6181,6181,6181,6181,6181,6181,6181,6181,6181,6181,6181,6181,6181,6181,6181,6181,6181,6181,6181,6181,6181,6181,6181,6181,6181,6181,6181,6181,6181,6181,6181,6181,6181,6181,6181,6181,6181,6181,6181,6181,6181,6181,6181,6181,6181,
6181,6181,6181,6181,6181,6181,6181,6181,6181,6181,6181,6181,6181,6181,6181,6181,6181,6181,6181,6181,6181,6181,6181,6181,6181,6181,6181,6181,6181,6181,6181,6181,6181,6181,6181,6181,6181,6181,6181,6181,6181,6181,6181,6181,6181,6181,6181,6181,6181,6181,
6181,6181,6181,6181,6181,6181,6181,6181,6181,6181,6181,6181,6181,6181,6181,6181,6181,6181,6181,6181,6181,6181,6181,6181,6181,6181,6181,6181,6181,6181,6181,6181,6181,6181,6181,6181,6181,6181,6181,6181,6181,6181,6181,6181,6181,6181,6181,6181,6181,6181,
6181,6181,6181,6181,6181,6181,6181,6181,6181,6181,6181,6181,6181,6181,6181,6181,6181,6181,6181,6181,6181,6181,6181,6181,6181,6181,6181,6181,6181,6181,6181,6181,6181,6181,6181,6181,6181,6181,6181,6181,6181,6181,6181,6181,6181,6181,6181,6181,6181,6181,
6181,6181,6181,6181,6181,6181,6181,6181,6181,6181,6181,6181,6181,6181,6181,6181,6181,6181,6181,6181,6181,6181,6181,6181,6181,6181,6181,6181,6181,6181,6181,6181,6181,6181,6181,6181,6181,6181,6181,6181,6181,6181,6181,6181,6181,6181,6181,6181,6181,6181,
6181,6181,6181,6181,6181,6181,6181,6181,6181,6181,6181,6181,6181,6181,6181,6181,6181,6181,6181,6181,6181,6181,6181,6181,6181,6181,6181,6181,6181,6181,6181,6181,6181,6181,6181,6181,6181,6181,6181,6181,6181,6181,6181,6181,6181,6181,6181,6181,6181,6181,
6181,6181,6181,6181,6181,6181,6181,6181,6181,6181,6181,6181,6181,6181,6181,6181,6181,6181,6181,6181,6181,6181,6181,6181,6181,6181,6181,6181,6181,6181,6181,6181,6181,6181,6181,6181,6181,6181,6181,6181,6181,6181,6181,6181,6181,6181,6181,6181,6181,6181,
6181,6181,6181,6181,6181,6181,6181,6181,6181,6181,6181,6181,6181,6181,6181,6181,6181,6181,6181,6181,6181,6181,6181,6181,6181,6181,6181,6181,6181,6181,6181,6181,6181,6181,6181,6181,6181,6181,6181,6181,6181,6181,6181,6181,6181,6181,6181,6181,6181,6181,
6181,6181,6181,6181,6181,6181,6181,6181,6181,6181,6181,6181,6181,6181,6181,6181,6181,6181,6181,6181,6181,6181,6181,6181,6181,6181,6181,6181,6181,6181,6181,6181,6181,6181,6181,6181,6181,6181,6181,6181,6181,6181,6181,6181,6181,6181,6181,6181,6181,6181,
6181,6181,6181,6181,6181,6181,6181,6181,6181,6181,6181,6181,6181,6181,6181,6181,6181,6181,6181,6181,6181,6181,6181,6181,6181,6181,6181,6181,6181,6181,6181,6181,6181,6181,6181,6181,6181,6181,6181,6181,6181,6181,6181,6181,6181,6181,6181,6181,6181,6181,
6181,6181,6181,6181,6181,6181,6181,6181,6181,6181,6181,6181,6181,6181,6181,6181,6181,6181,6181,6181,6181,6181,6181,6181,6181,6181,6181,6181,6181,6181,6181,6181,6181,6181,6181,6181,6181,6181,6181,6181,6181,6181,6181,6181,6181,6181,6181,6181,6181,6181,
6181,6181,6181,6181,6181,6181,6181,6181,6181,6181,6181,6181,6181,6181,6181,6181,6181,6181,6181,6181,6181,6181,6181,6181,6181,6181,6181,6181,6181,6181,6181,6181,6181,6181,6181,6181,6181,6181,6181,6181,6181,6181,6181,6181,6181,6181,6181,6181,6181,6181,
6181,6181,6181,6181,6181,6181,6181,6181,6181,6181,6181,6181,6181,6181,6181,6181,6181,6181,6181,6181,6181,6181,6181,6181,6181,6181,6181,6181,6181,6181,6181,6181,6181,6181,6181,6181,6181,6181,6181,6181,6181,6181,6181,6181,6181,6181,6181,6181,6181,6181,
6181,6181,6181,6181,6181,6181,6181,6181,6181,6181,6181,6181,6181,6181,6181,6181,6181,6181,6181,6181,6181,6181,6181,6181,6181,6181,6181,6181,6181,6181,6181,6181,6181,6181,6181,6181,6181,6181,6181,6181,6181,6181,6181,6181,6181,6181,6181,6181,6181,6181,
6181,6181,6181,6181,6181,6181,6181,6181,6181,6181,6181,6181,6181,6181,6181,6181,6181,6181,6181,6181,6181,6181,6181,6181,6181,6181,6181,6181,6181,6181,6181,6181,6181,6181,6181,6181,6181,6181,6181,6181,6181,6181,6181,6181,6181,6181,6181,6181,6181,6181,
6181,6181,6181,6181,6181,6181,6181,6181,6181,6181,6181,6181,6181,6181,6181,6181,6181,6181,6181,6181,6181,6181,6181,6181,6181,6181,6181,6181,6181,6181,6181,6181,6181,6181,6181,6181,6181,6181,6181,6181,6181,6181,6181,6181,6181,6181,6181,6181,6181,6181,
6181,6181,6181,6181,6181,6181,6181,6181,6181,6181,6181,6181,6181,6181,6181,6181,6181,6181,6181,6181,6181,6181,6181,6181,6181,6181,6181,6181,6181,6181,6181,6181,6181,6181,6181,6181,6181,6181,6181,6181,6181,6181,6181,6181,6181,6181,6181,6181,6181,6181,
6181,6181,6181,6181,6181,6181,6181,6181,6181,6181,6181,6181,6181,6181,6181,6181,6181,6181,6181,6181,6181,6181,6181,6181,6181,6181,6181,6181,6181,6181,6181,6181,6181,6181,6181,6181,6181,6181,6181,6181,6181,6181,6181,6181,6181,6181,6181,6181,6181,6181,
6181,6181,6181,6181,6181,6181,6181,6181,6181,6181,6181,6181,6181,6181,6181,6181,6181,6181,6181,6181,6181,6181,6181,6181,6181,6181,6181,6181,6181,6181,6181,6181,6181,6181,6181,6181,6181,6181,6181,6181,6181,6181,6181,6181,6181,6181,6181,6181,6181,6181,
6181,6181,6181,6181,6181,6181,6181,6181,6181,6181,6181,6181,6181,6181,6181,6181,6181,6181,6181,6181,6181,6181,6181,6181,6181,6181,6181,6181,6181,6181,6181,6181,6181,6181,6181,6181,6181,6181,6181,6181,6181,6181,6181,6181,6181,6181,6181,6181,6181,6181,
6181,6181,6181,6181,6181,6181,6181,6181,6181,6181,6181,6181,6181,6181,6181,6181,6181,6181,6181,6181,6181,6181,6181,6181,6181,6181,6181,6181,6181,6181,6181,6181,6181,6181,6181,6181,6181,6181,6181,6181,6181,6181,6181,6181,6181,6181,6181,6181,6181,6181,
6181,6181,6181,6181,6181,6181,6181,6181,6181,6181,6181,6181,6181,6181,6181,6181,6181,6181,6181,6181,6181,6181,6181,6181,6181,6181,6181,6181,6181,6181,6181,6181,6181,6181,6181,6181,6181,6181,6181,6181,6181,6181,6181,6181,6181,6181,6181,6181,6181,6181,
6181,6181,6181,6181,6181,6181,6181,6181,6181,6181,6181,6181,6181,6181,6181,6181,6181,6181,6181,6181,6181,6181,6181,6181,6181,6181,6181,6181,6181,6181,6181,6181,6181,6181,6181,6181,6181,6181,6181,6181,6181,6181,6181,6181,6181,6181,6181,6181,6181,6181,
6181,6181,6181,6181,6181,6181,6181,6181,6181,6181,6181,6181,6181,6181,6181,6181,6181,6181,6181,6181,6181,6181,6181,6181,6181,6181,6181,6181,6181,6181,6181,6181,6181,6181,6181,6181,6181,6181,6181,6181,6181,6181,6181,6181,6181,6181,6181,6181,6181,6181,
6181,6181,6181,6181,6181,6181,6181,6181,6181,6181,6181,6181,6181,6181,6181,6181,6181,6181,6181,6181,6181,6181,6181,6181,6181,6181,6181,6181,6181,6181,6181,6181,6181,6181,6181,6181,6181,6181,6181,6181,6181,6181,6181,6181,6181,6181,6181,6181,6181,6181,
6181,6181,6181,6181,6181,6181,6181,6181,6181,6181,6181,6181,6181,6181,6181,6181,6181,6181,6181,6181,6181,6181,6181,6181,6181,6181,6181,6181,6181,6181,6181,6181,6181,6181,6181,6181,6181,6181,6181,6181,6181,6181,6181,6181,6181,6181,6181,6181,6181,6181,
6181,6181,6181,6181,6181,6181,6181,6181,6181,6181,6181,6181,6181,6181,6181,6181,6181,6181,6181,6181,6181,6181,6181,6181,6181,6181,6181,6181,6181,6181,6181,6181,6181,6181,6181,6181,6181,6181,6181,6181,6181,6181,6181,6181,6181,6181,6181,6181,6181,6181,
6181,6181,6181,6181,6181,6181,6181,6181,6181,6181,6181,6181,6181,6181,6181,6181,6181,6181,6181,6181,6181,6181,6181,6181,6181,6181,6181,6181,6181,6181,6181,6181,6181,6181,6181,6181,6181,6181,6181,6181,6181,6181,6181,6181,6181,6181,6181,6181,6181,6181,
6181,6181,6181,6181,6181,6181,6181,6181,6181,6181,6181,6181,6181,6181,6181,6181,6181,6181,6181,6181,6181,6181,6181,6181,6181,6181,6181,6181,6181,6181,6181,6181,6181,6181,6181,6181,6181,6181,6181,6181,6181,6181,6181,6181,6181,6181,6181,6181,6181,6181,
6181,6181,6181,6181,6181,6181,6181,6181,6181,6181,6181,6181,6181,6181,6181,6181,6181,6181,6181,6181,6181,6181,6181,6181,6181,6181,6181,6181,6181,6181,6181,6181,6181,6181,6181,6181,6181,6181,6181,6181,6181,6181,6181,6181,6181,6181,6181,6181,6181,6181,
6181,6181,6181,6181,6181,6181,6181,6181,6181,6181,6181,6181,6181,6181,6181,6181,6181,6181,6181,6181,6181,6181,6181,6181,6181,6181,6181,6181,6181,6181,6181,6181,6181,6181,6181,6181,6181,6181,6181,6181,6181,6181,6181,6181,6181,6181,6181,6181,6181,6181,
6181,6181,6181,6181,6181,6181,6181,6181,6181,6181,6181,6181,6181,6181,6181,6181,6181,6181,6181,6181,6181,6181,6181,6181,6181,6181,6181,6181,6181,6181,6181,6181,6181,6181,6181,6181,6181,6181,6181,6181,6181,6181,6181,6181,6181,6181,6181,6181,6181,6181,
6181,6181,6181,6181,6181,6181,6181,6181,6181,6181,6181,6181,6181,6181,6181,6181,6181,6181,6181,6181,6181,6181,6181,6181,6181,6181,6181,6181,6181,6181,6181,6181,6181,6181,6181,6181,6181,6181,6181,6181,6181,6181,6181,6181,6181,6181,6181,6181,6181,6181,
6181,6181,6181,6181,6181,6181,6181,6181,6181,6181,6181,6181,6181,6181,6181,6181,6181,6181,6181,6181,6181,6181,6181,6181,6181,6181,6181,6181,6181,6181,6181,6181,6181,6181,6181,6181,6181,6181,6181,6181,6181,6181,6181,6181,6181,6181,6181,6181,6181,6181,
6181,6181,6181,6181,6181,6181,6181,6181,6181,6181,6181,6181,6181,6181,6181,6181,6181,6181,6181,6181,6181,6181,6181,6181,6181,6181,6181,6181,6181,6181,6181,6181,6181,6181,6181,6181,6181,6181,6181,6181,6181,6181,6181,6181,6181,6181,6181,6181,6181,6181,
0,0,0,0,0,0,0,0,0,0,0,0,0,0,0,0,0,0,0,0,0,0,0,0,0,0,0,0,0,0,0,0,0,0,0,0,0,0,0,0,0,0,0,0,0,0,0,0,0,0,
0,0,0,0,0,0,0,0,0,0,0,0,0,0,0,0,0,0,0,0,0,0,0,0,0,0,0,0,0,0,0,0,0,0,0,0,0,0,0,0,0,0,0,0,0,0,0,0,0,0,
0,0,0,0,0,0,0,0,0,0,0,0,0,0,0,0,0,0,0,0,0,0,0,0,0,0,0,0,0,0,0,0,0,0,0,0,0,0,0,0,0,0,0,0,0,0,0,0,0,0,
0,0,0,0,0,0,0,0,0,0,0,0,0,0,0,0,0,0,0,0,0,0,0,0,0,0,0,0,0,0,0,0,0,0,0,0,0,0,0,0,0,0,0,0,0,0,0,0,0,0,
0,0,0,0,0,0,0,0,0,0,0,0,0,0,0,0,0,0,0,0,0,0,0,0,0,0,0,0,0,0,0,0,0,0,0,0,0,0,0,0,0,0,0,0,0,0,0,0,0,0,
0,0,0,0,0,0,0,0,0,0,0,0,0,0,0,0,0,0,0,0,0,0,0,0,0,0,0,0,0,0,0,0,0,0,0,0,0,0,0,0,0,0,0,0,0,0,0,0,0,0,
0,0,0,0,0,0,0,0,0,0,0,0,0,0,0,0,0,0,0,0,0,0,0,0,0,0,0,0,0,0,0,0,0,0,0,0,0,0,0,0,0,0,0,0,0,0,0,0,0,0
</data>
 </layer>
 <layer id="15" name="Pathfinding" width="50" height="56" visible="0">
  <properties>
   <property name="maybe_animation_id" value="6d2460f008fb99d4"/>
   <property name="maybe_tileset_id" value="264fe6c9523400a1"/>
   <property name="tile_size" type="int" value="8"/>
  </properties>
  <data encoding="csv">
0,6007,6007,6007,6007,6007,6007,6007,6007,6007,6007,6007,6007,6007,6007,6007,6007,6007,6007,6007,6007,6007,6007,6007,6007,6007,6007,6007,6007,6007,6007,6007,6007,6007,6007,6007,6007,6007,6007,6007,6007,6007,6007,6007,6007,6007,6007,0,0,0,
0,6007,6007,6007,6007,6007,6007,6007,6007,6007,6007,6007,6007,6007,6007,6007,6007,6007,6007,6007,6007,6007,6007,6007,6007,6007,6007,6007,6007,6007,6007,6007,6007,6007,6007,6007,6007,6007,6007,6007,6007,6007,6007,6007,6007,6007,6007,0,0,0,
0,6007,6007,6007,6007,6007,6007,6007,6007,6007,6007,6007,6007,6007,6007,6007,6007,6007,6007,6007,6007,6007,6007,6007,6007,6007,6007,6007,6007,6007,6007,6007,6007,6007,6007,6007,6007,6007,6007,6007,6007,6007,6007,6007,6007,6007,6007,0,0,0,
0,6007,6007,6007,6007,6007,6007,6007,6007,6007,6007,6007,6007,6007,6007,6007,6007,6007,6007,6007,6007,6007,6007,6007,6007,6007,6007,6007,6007,6007,6007,6007,6007,6007,6007,6007,6007,6007,6007,6007,6007,6007,6007,6007,6007,6007,6007,0,0,0,
0,6007,6007,6007,6007,6007,6007,6007,6007,6007,6007,6007,6007,6007,6007,6007,6007,6007,6007,6007,6007,6007,6007,6007,6007,6007,6007,6007,6007,6007,6007,6007,6007,6007,6007,6007,6007,6007,6007,6007,6007,6007,6007,6007,6007,6007,6007,0,0,0,
0,6007,6007,6007,6007,6007,6007,6007,6007,6007,6007,6007,6007,6007,6007,6007,6007,6007,6007,6007,6007,6007,6007,6007,6007,6007,6007,6007,6007,6007,6007,6007,6007,6007,6007,6007,6007,6007,6007,6007,6007,6007,6007,6007,6007,6007,6007,0,0,0,
0,6007,6007,6007,6007,6007,6007,6007,6007,6007,6007,6007,6007,6007,6007,6007,6007,6007,6007,6007,6007,6007,6007,6007,6007,6007,6007,6007,6007,6007,6007,6007,6007,6007,6007,6007,6007,6007,6007,6007,6007,6007,6007,6007,6007,6007,6007,0,0,0,
0,6007,6007,6007,6007,6007,6007,6007,6007,6007,6007,6007,6007,6007,6007,6007,6007,6007,6007,6007,6007,6007,6007,6007,6007,6007,6007,6007,6007,6007,6007,6007,6007,6007,6007,6007,6007,6007,6007,6007,6007,6007,6007,6007,6007,6007,6007,0,0,0,
0,6007,6007,6007,6007,6007,6007,6007,6007,6007,6007,6007,6007,6007,6007,6007,6007,6007,6007,6007,6007,6007,6007,6007,6007,6007,6007,6007,6007,6007,6007,6007,6007,6007,6007,6007,6007,6007,6007,6007,6007,6007,6007,6007,6007,6007,6007,0,0,0,
0,6007,6007,6007,6007,6007,6007,6007,6007,6007,6007,6007,6007,6007,6007,6007,6007,6007,6007,6007,6007,6007,6007,6007,6007,6007,6007,6007,6007,6007,6007,6007,6007,6007,6007,6007,6007,6007,6007,6007,6007,6007,6007,6007,6007,6007,6007,0,0,0,
0,6007,6007,6007,6007,6007,6007,6007,6007,6007,6007,6007,6007,6007,6007,6007,6007,6007,6007,6007,6007,6007,6007,6007,6007,6007,6007,6007,6007,6007,6007,6007,6007,6007,6007,6007,6007,6007,6007,6007,6007,6007,6007,6007,6007,6007,6007,0,0,0,
0,6007,6007,6007,6007,6007,6007,6007,6007,6007,6007,6007,6007,6007,6007,6007,6007,6007,6007,6007,6007,6007,6007,6007,6007,6007,6007,6007,6007,6007,6007,6007,6007,6007,6007,6007,6007,6007,6007,6007,6007,6007,6007,6007,6007,6007,6007,0,0,0,
0,6007,6007,6007,6007,6007,6007,6007,6007,6007,6007,6007,6007,6007,6007,6007,6007,6007,6007,6007,6007,6007,6007,6007,6007,6007,6007,6007,6007,6007,6007,6007,6007,6007,6007,6007,6007,6007,6007,6007,6007,6007,6007,6007,6007,6007,6007,0,0,0,
0,6007,6007,6007,6007,6007,6007,6007,6007,6007,6007,6007,6007,6007,6007,6007,6007,6007,6007,6007,6007,6007,6007,6007,6007,6007,6007,6007,6007,6007,6007,6007,6007,6007,6007,6007,6007,6007,6007,6007,6007,6007,6007,6007,6007,6007,6007,0,0,0,
0,6007,6007,6007,6007,6007,6007,6007,6007,6007,6007,6007,6007,6007,6007,6007,6007,6007,6007,6007,6007,6007,6007,6007,6007,6007,6007,6007,6007,6007,6007,6007,6007,6007,6007,6007,6007,6007,6007,6007,6007,6007,6007,6007,6007,6007,6007,0,0,0,
0,6007,6007,6007,6007,6007,6007,6007,6007,6007,6007,6007,6007,6007,6007,6007,6007,6007,6007,6007,6007,6007,6007,6007,6007,6007,6007,6007,6007,6007,6007,6007,6007,6007,6007,6007,6007,6007,6007,6007,6007,6007,6007,6007,6007,6007,6007,0,0,0,
0,6007,6007,6007,6007,6007,6007,6007,6007,6007,6007,6007,6007,6007,6007,6007,6007,6007,6007,6007,6007,6007,6007,6007,6007,6007,6007,6007,6007,6007,6007,6007,6007,6007,6007,6007,6007,6007,6007,6007,6007,6007,6007,6007,6007,6007,6007,0,0,0,
0,6007,6007,6007,6007,6007,6007,6007,6007,6007,6007,6007,6007,6007,6007,6007,6007,6007,6007,6007,6007,6007,6007,6007,6007,6007,6007,6007,6007,6007,6007,6007,6007,6007,6007,6007,6007,6007,6007,6007,6007,6007,6007,6007,6007,6007,6007,0,0,0,
0,6007,6007,6007,6007,6007,6007,6007,6007,6007,6007,6007,6007,6007,6007,6007,6007,6007,6007,6007,6007,6007,6007,6007,6007,6007,6007,6007,6007,6007,6007,6007,6007,6007,6007,6007,6007,6007,6007,6007,6007,6007,6007,6007,6007,6007,6007,0,0,0,
0,6007,6007,6007,6007,6007,6007,6007,6007,6007,6007,6007,6007,6007,6007,6007,6007,6007,6007,6007,6007,6007,6007,6007,6007,6007,6007,6007,6007,6007,6007,6007,6007,6007,6007,6007,6007,6007,6007,6007,6007,6007,6007,6007,6007,6007,6007,0,0,0,
0,6007,6007,6007,6007,6007,6007,6007,6007,6007,6007,6007,6007,6007,6007,6007,6007,6007,6007,6007,6007,6007,6007,6007,6007,6007,6007,6007,6007,6007,6007,6007,6007,6007,6007,6007,6007,6007,6007,6007,6007,6007,6007,6007,6007,6007,6007,0,0,0,
0,6007,6007,6007,6007,6007,6007,6007,6007,6007,6007,6007,6007,6007,6007,6007,6007,6007,6007,6007,6007,6007,6007,6007,6007,6007,6007,6007,6007,6007,6007,6007,6007,6007,6007,6007,6007,6007,6007,6007,6007,6007,6007,6007,6007,6007,6007,0,0,0,
0,6007,6007,6007,6007,6007,6007,6007,6007,6007,6007,6007,6007,6007,6007,6007,6007,6007,6007,6007,6007,6007,6007,6007,6007,6007,6007,6007,6007,6007,6007,6007,6007,6007,6007,6007,6007,6007,6007,6007,6007,6007,6007,6007,6007,6007,6007,0,0,0,
0,6007,6007,6007,6007,6007,6007,6007,6007,6007,6007,6007,6007,6007,6007,6007,6007,6007,6007,6007,6007,6007,6007,6007,6007,6007,6007,6007,6007,6007,6007,6007,6007,6007,6007,6007,6007,6007,6007,6007,6007,6007,6007,6007,6007,6007,6007,0,0,0,
0,6007,6007,6007,6007,6007,6007,6007,6007,6007,6007,6007,6007,6007,6007,6007,6007,6007,6007,6007,6007,6007,6007,6007,6007,6007,6007,6007,6007,6007,6007,6007,6007,6007,6007,6007,6007,6007,6007,6007,6007,6007,6007,6007,6007,6007,6007,0,0,0,
0,6007,6007,6007,6007,6007,6007,6007,6007,6007,6007,6007,6007,6007,6007,6007,6007,6007,6007,6007,6007,6007,6007,6007,6007,6007,6007,6007,6007,6007,6007,6007,6007,6007,6007,6007,6007,6007,6007,6007,6007,6007,6007,6007,6007,6007,6007,0,0,0,
0,6007,6007,6007,6007,6007,6007,6007,6007,6007,6007,6007,6007,6007,6007,6007,6007,6007,6007,6007,6007,6007,6007,6007,6007,6007,6007,6007,6007,6007,6007,6007,6007,6007,6007,6007,6007,6007,6007,6007,6007,6007,6007,6007,6007,6007,6007,0,0,0,
0,6007,6007,6007,6007,6007,6007,6007,6007,6007,6007,6007,6007,6007,6007,6007,6007,6007,6007,6007,6007,6007,6007,6007,6007,6007,6007,6007,6007,6007,6007,6007,6007,6007,6007,6007,6007,6007,6007,6007,6007,6007,6007,6007,6007,6007,6007,0,0,0,
0,6007,6007,6007,6007,6007,6007,6007,6007,6007,6007,6007,6007,6007,6007,6007,6007,6007,6007,6007,6007,6007,6007,6007,6007,6007,6007,6007,6007,6007,6007,6007,6007,6007,6007,6007,6007,6007,6007,6007,6007,6007,6007,6007,6007,6007,6007,0,0,0,
0,6007,6007,6007,6007,6007,6007,6007,6007,6007,6007,6007,6007,6007,6007,6007,6007,6007,6007,6007,6007,6007,6007,6007,6007,6007,6007,6007,6007,6007,6007,6007,6007,6007,6007,6007,6007,6007,6007,6007,6007,6007,6007,6007,6007,6007,6007,0,0,0,
0,6007,6007,6007,6007,6007,6007,6007,6007,6007,6007,6007,6007,6007,6007,6007,6007,6007,6007,6007,6007,6007,6007,6007,6007,6007,6007,6007,6007,6007,6007,6007,6007,6007,6007,6007,6007,6007,6007,6007,6007,6007,6007,6007,6007,6007,6007,0,0,0,
0,6007,6007,6007,6007,6007,6007,6007,6007,6007,6007,6007,6007,6007,6007,6007,6007,6007,6007,6007,6007,6007,6007,6007,6007,6007,6007,6007,6007,6007,6007,6007,6007,6007,6007,6007,6007,6007,6007,6007,6007,6007,6007,6007,6007,6007,6007,0,0,0,
0,6007,6007,6007,6007,6007,6007,6007,6007,6007,6007,6007,6007,6007,6007,6007,6007,6007,6007,6007,6007,6007,6007,6007,6007,6007,6007,6007,6007,6007,6007,6007,6007,6007,6007,6007,6007,6007,6007,6007,6007,6007,6007,6007,6007,6007,6007,0,0,0,
0,6007,6007,6007,6007,6007,6007,6007,6007,6007,6007,6007,6007,6007,6007,6007,6007,6007,6007,6007,6007,6007,6007,6007,6007,6007,6007,6007,6007,6007,6007,6007,6007,6007,6007,6007,6007,6007,6007,6007,6007,6007,6007,6007,6007,6007,6007,0,0,0,
0,6007,6007,6007,6007,6007,6007,6007,6007,6007,6007,6007,6007,6007,6007,6007,6007,6007,6007,6007,6007,6007,6007,6007,6007,6007,6007,6007,6007,6007,6007,6007,6007,6007,6007,6007,6007,6007,6007,6007,6007,6007,6007,6007,6007,6007,6007,0,0,0,
0,6007,6007,6007,6007,6007,6007,6007,6007,6007,6007,6007,6007,6007,6007,6007,6007,6007,6007,6007,6007,6007,6007,6007,6007,6007,6007,6007,6007,6007,6007,6007,6007,6007,6007,6007,6007,6007,6007,6007,6007,6007,6007,6007,6007,6007,6007,0,0,0,
0,6007,6007,6007,6007,6007,6007,6007,6007,6007,6007,6007,6007,6007,6007,6007,6007,6007,6007,6007,6007,6007,6007,6007,6007,6007,6007,6007,6007,6007,6007,6007,6007,6007,6007,6007,6007,6007,6007,6007,6007,6007,6007,6007,6007,6007,6007,0,0,0,
0,6007,6007,6007,6007,6007,6007,6007,6007,6007,6007,6007,6007,6007,6007,6007,6007,6007,6007,6007,6007,6007,6007,6007,6007,6007,6007,6007,6007,6007,6007,6007,6007,6007,6007,6007,6007,6007,6007,6007,6007,6007,6007,6007,6007,6007,6007,0,0,0,
0,6007,6007,6007,6007,6007,6007,6007,6007,6007,6007,6007,6007,6007,6007,6007,6007,6007,6007,6007,6007,6007,6007,6007,6007,6007,6007,6007,6007,6007,6007,6007,6007,6007,6007,6007,6007,6007,6007,6007,6007,6007,6007,6007,6007,6007,6007,0,0,0,
0,6007,6007,6007,6007,6007,6007,6007,6007,6007,6007,6007,6007,6007,6007,6007,6007,6007,6007,6007,6007,6007,6007,6007,6007,6007,6007,6007,6007,6007,6007,6007,6007,6007,6007,6007,6007,6007,6007,6007,6007,6007,6007,6007,6007,6007,6007,0,0,0,
0,6007,6007,6007,6007,6007,6007,6007,6007,6007,6007,6007,6007,6007,6007,6007,6007,6007,6007,6007,6007,6007,6007,6007,6007,6007,6007,6007,6007,6007,6007,6007,6007,6007,6007,6007,6007,6007,6007,6007,6007,6007,6007,6007,6007,6007,6007,0,0,0,
0,6007,6007,6007,6007,6007,6007,6007,6007,6007,6007,6007,6007,6007,6007,6007,6007,6007,6007,6007,6007,6007,6007,6007,6007,6007,6007,6007,6007,6007,6007,6007,6007,6007,6007,6007,6007,6007,6007,6007,6007,6007,6007,6007,6007,6007,6007,0,0,0,
0,6007,6007,6007,6007,6007,6007,6007,6007,6007,6007,6007,6007,6007,6007,6007,6007,6007,6007,6007,6007,6007,6007,6007,6007,6007,6007,6007,6007,6007,6007,6007,6007,6007,6007,6007,6007,6007,6007,6007,6007,6007,6007,6007,6007,6007,6007,0,0,0,
0,6007,6007,6007,6007,6007,6007,6007,6007,6007,6007,6007,6007,6007,6007,6007,6007,6007,6007,6007,6007,6007,6007,6007,6007,6007,6007,6007,6007,6007,6007,6007,6007,6007,6007,6007,6007,6007,6007,6007,6007,6007,6007,6007,6007,6007,6007,0,0,0,
0,6007,6007,6007,6007,6007,6007,6007,6007,6007,6007,6007,6007,6007,6007,6007,6007,6007,6007,6007,6007,6007,6007,6007,6007,6007,6007,6007,6007,6007,6007,6007,6007,6007,6007,6007,6007,6007,6007,6007,6007,6007,6007,6007,6007,6007,6007,0,0,0,
0,6007,6007,6007,6007,6007,6007,6007,6007,6007,6007,6007,6007,6007,6007,6007,6007,6007,6007,6007,6007,6007,6007,6007,6007,6007,6007,6007,6007,6007,6007,6007,6007,6007,6007,6007,6007,6007,6007,6007,6007,6007,6007,6007,6007,6007,6007,0,0,0,
0,6007,6007,6007,6007,6007,6007,6007,6007,6007,6007,6007,6007,6007,6007,6007,6007,6007,6007,6007,6007,6007,6007,6007,6007,6007,6007,6007,6007,6007,6007,6007,6007,6007,6007,6007,6007,6007,6007,6007,6007,6007,6007,6007,6007,6007,6007,0,0,0,
0,0,0,0,0,0,0,0,0,0,0,0,0,0,0,0,0,0,0,0,0,0,0,0,0,0,0,0,0,0,0,0,0,0,0,0,0,0,0,0,0,0,0,0,0,0,0,0,0,0,
0,0,0,0,0,0,0,0,0,0,0,0,0,0,0,0,0,0,0,0,0,0,0,0,0,0,0,0,0,0,0,0,0,0,0,0,0,0,0,0,0,0,0,0,0,0,0,0,0,0,
0,0,0,0,0,0,0,0,0,0,0,0,0,0,0,0,0,0,0,0,0,0,0,0,0,0,0,0,0,0,0,0,0,0,0,0,0,0,0,0,0,0,0,0,0,0,0,0,0,0,
0,0,0,0,0,0,0,0,0,0,0,0,0,0,0,0,0,0,0,0,0,0,0,0,0,0,0,0,0,0,0,0,0,0,0,0,0,0,0,0,0,0,0,0,0,0,0,0,0,0,
0,0,0,0,0,0,0,0,0,0,0,0,0,0,0,0,0,0,0,0,0,0,0,0,0,0,0,0,0,0,0,0,0,0,0,0,0,0,0,0,0,0,0,0,0,0,0,0,0,0,
0,0,0,0,0,0,0,0,0,0,0,0,0,0,0,0,0,0,0,0,0,0,0,0,0,0,0,0,0,0,0,0,0,0,0,0,0,0,0,0,0,0,0,0,0,0,0,0,0,0,
0,0,0,0,0,0,0,0,0,0,0,0,0,0,0,0,0,0,0,0,0,0,0,0,0,0,0,0,0,0,0,0,0,0,0,0,0,0,0,0,0,0,0,0,0,0,0,0,0,0,
0,0,0,0,0,0,0,0,0,0,0,0,0,0,0,0,0,0,0,0,0,0,0,0,0,0,0,0,0,0,0,0,0,0,0,0,0,0,0,0,0,0,0,0,0,0,0,0,0,0,
0,0,0,0,0,0,0,0,0,0,0,0,0,0,0,0,0,0,0,0,0,0,0,0,0,0,0,0,0,0,0,0,0,0,0,0,0,0,0,0,0,0,0,0,0,0,0,0,0,0
</data>
 </layer>
 <objectgroup draworder="index" id="16" name="Meta" visible="0">
  <object id="23" template="../../../templates/obj_roomtransition.tx" type="obj_roomtransition" x="176" y="120" width="48" height="32">
   <properties>
    <property name="player_direction" type="int" value="90"/>
   </properties>
  </object>
  <object id="24" template="../../../templates/obj_roomtransition.tx" type="obj_roomtransition" x="176" y="424" width="48" height="32">
   <properties>
    <property name="player_direction" type="int" value="270"/>
   </properties>
  </object>
  <object id="25" template="../../../templates/meta/obj_sound_emitter.tx" type="obj_sound_emitter" x="72" y="184" width="8" height="24">
   <properties>
    <property name="sound_asset" value="SoundEffects/Environment/FirePlace"/>
   </properties>
  </object>
  <object id="26" template="../../../templates/meta/obj_sound_emitter.tx" type="obj_sound_emitter" x="320" y="184" width="8" height="24">
   <properties>
    <property name="sound_asset" value="SoundEffects/Environment/FirePlace"/>
   </properties>
  </object>
  <object id="27" template="../../../templates/meta/obj_sound_emitter.tx" type="obj_sound_emitter" x="224" y="112" width="16" height="8">
   <properties>
    <property name="sound_asset" value="SoundEffects/Environment/FirePlace"/>
   </properties>
  </object>
  <object id="28" template="../../../templates/meta/obj_sound_emitter.tx" type="obj_sound_emitter" x="160" y="112" width="16" height="8">
   <properties>
    <property name="sound_asset" value="SoundEffects/Environment/FirePlace"/>
   </properties>
  </object>
 </objectgroup>
 <objectgroup draworder="index" id="17" name="TrellisPoints_Fire_Seal" visible="0">
  <object id="29" template="../../../templates/meta/obj_trellis_point_default.tx" name="fs_ari_entrance" type="obj_trellis_point_default" x="188" y="421"/>
  <object id="30" template="../../../templates/meta/obj_trellis_point_default.tx" name="fs_ari_start" type="obj_trellis_point_default" x="188" y="335"/>
  <object id="31" template="../../../templates/meta/obj_trellis_point_default.tx" name="fs_ari_tablet" type="obj_trellis_point_default" x="188" y="219"/>
  <object id="32" template="../../../templates/meta/obj_trellis_point_default.tx" name="fs_ari_back" type="obj_trellis_point_default" x="188" y="235"/>
  <object id="33" template="../../../templates/meta/obj_trellis_point_camera.tx" name="fs_camera_seal" type="obj_trellis_point_camera" x="188" y="143"/>
  <object id="34" template="../../../templates/meta/obj_trellis_point_camera.tx" name="fs_camera_3" type="obj_trellis_point_camera" x="188" y="203"/>
  <object id="35" template="../../../templates/meta/obj_trellis_point_camera.tx" name="fs_camera_2" type="obj_trellis_point_camera" x="188" y="311"/>
  <object id="36" template="../../../templates/meta/obj_trellis_point_camera.tx" name="fs_camera_1" type="obj_trellis_point_camera" x="188" y="393"/>
  <object id="37" template="../../../templates/meta/obj_trellis_point_camera.tx" name="fs_camera_priestess" type="obj_trellis_point_camera" x="188" y="173"/>
  <object id="38" template="../../../templates/meta/obj_trellis_point_default.tx" name="fs_priestess" type="obj_trellis_point_default" x="188" y="153"/>
 </objectgroup>
 <objectgroup draworder="index" id="18" name="TrellisPoints_Break_Fire_Seal">
  <object id="39" template="../../../templates/meta/obj_trellis_point_default.tx" name="bfs_ari_escape" type="obj_trellis_point_default" x="188" y="317"/>
  <object id="40" template="../../../templates/meta/obj_trellis_point_default.tx" name="bfs_caldarus_entrance" type="obj_trellis_point_default" x="188" y="235"/>
  <object id="41" template="../../../templates/meta/obj_trellis_point_default.tx" name="bfs_caldarus_scroll_destruction" type="obj_trellis_point_default" x="224" y="247"/>
  <object id="42" template="../../../templates/meta/obj_trellis_point_camera.tx" name="bfs_caldarus_poof" type="obj_trellis_point_camera" x="188" y="247"/>
  <object id="43" template="../../../templates/meta/obj_trellis_point_default.tx" name="bfs_caldarus_start" type="obj_trellis_point_default" x="188" y="247"/>
  <object id="44" template="../../../templates/meta/obj_trellis_point_camera.tx" name="bfs_camera_caldarus_dragon" type="obj_trellis_point_camera" x="188" y="261"/>
  <object id="45" template="../../../templates/meta/obj_trellis_point_camera.tx" name="bfs_camera_conversation" type="obj_trellis_point_camera" x="188" y="271"/>
  <object id="46" template="../../../templates/meta/obj_trellis_point_camera.tx" name="bfs_camera_scroll" type="obj_trellis_point_camera" x="268" y="257"/>
  <object id="47" template="../../../templates/meta/obj_trellis_point_camera.tx" name="bfs_camera_scroll_destruction" type="obj_trellis_point_camera" x="224" y="257"/>
  <object id="48" template="../../../templates/meta/obj_trellis_point_camera.tx" name="bfs_magic_animation" type="obj_trellis_point_camera" x="188" y="329"/>
  <object id="49" template="../../../templates/meta/obj_trellis_point_prop.tx" name="db_spell" type="obj_trellis_point_prop" x="179" y="271">
   <properties>
    <property name="prop_name" value="db_spell"/>
   </properties>
  </object>
  <object id="50" template="../../../templates/meta/obj_trellis_point_camera.tx" name="bfs_camera_ari" type="obj_trellis_point_camera" x="188" y="307"/>
  <object id="51" template="../../../templates/meta/obj_trellis_point_camera.tx" name="bfs_caldarus_poof_2" type="obj_trellis_point_camera" x="188" y="225"/>
  <object id="52" template="../../../templates/meta/obj_trellis_point_default.tx" name="bfs_caldarus_stumble" type="obj_trellis_point_default" x="198" y="247"/>
 </objectgroup>
 <objectgroup draworder="index" id="19" name="TrellisPoints" visible="0">
  <object id="53" template="../../../templates/meta/obj_trellis_point_default.tx" name="ari_look" type="obj_trellis_point_default" x="188" y="221">
   <properties>
    <property name="direction" type="int" propertytype="Cardinal" value="1"/>
   </properties>
  </object>
  <object id="54" template="../../../templates/meta/obj_trellis_point_default.tx" name="ari_spawn" type="obj_trellis_point_default" x="188" y="397">
   <properties>
    <property name="direction" type="int" propertytype="Cardinal" value="1"/>
   </properties>
  </object>
 </objectgroup>
</map>
