<?xml version="1.0" encoding="UTF-8"?>
<map version="1.10" tiledversion="1.11.2" class="DungeonSpecial" orientation="orthogonal" renderorder="right-down" width="50" height="56" tilewidth="8" tileheight="8" infinite="0" backgroundcolor="#000000" nextlayerid="24" nextobjectid="106">
 <tileset firstgid="1" source="../../../__gm_import.tsx"/>
 <tileset firstgid="1504" source="../../../tile_sets/__META/tile_collision_info.tsx"/>
 <tileset firstgid="1511" source="../../../tile_sets/tile_footsteps.tsx"/>
 <tileset firstgid="1655" source="../../../tile_sets/_GENERIC/tile_main_interiors.tsx"/>
 <tileset firstgid="5751" source="../../../tile_sets/_GENERIC/tile_main_interiors_shadows.tsx"/>
 <tileset firstgid="6007" source="../../../tile_sets/__META/tile_pathfinding.tsx"/>
 <tileset firstgid="6013" source="../../../tile_sets/tile_priority_objects.tsx"/>
 <tileset firstgid="6181" source="../../../tile_sets/__META/tile_rules.tsx"/>
 <group id="1" name="Level_0">
  <objectgroup draworder="index" id="2" name="Level_0_FloorSprites">
   <object id="1" type="asset" gid="1343" x="48" y="400" width="304" height="336"/>
  </objectgroup>
  <layer id="3" name="Level_0_Shadows" width="50" height="56">
   <properties>
    <property name="maybe_animation_id" value="babd09ade2b55c05"/>
    <property name="maybe_tileset_id" value="339411f6ba88c8f0"/>
    <property name="tile_size" type="int" value="16"/>
   </properties>
   <data encoding="csv">
5751,0,5751,0,5751,0,5751,0,5751,0,5751,0,5751,0,5751,0,5751,0,5751,0,5751,0,5751,0,5751,0,5751,0,5751,0,5751,0,5751,0,5751,0,5751,0,5751,0,5751,0,5751,0,5751,0,5751,0,5751,0,
0,0,0,0,0,0,0,0,0,0,0,0,0,0,0,0,0,0,0,0,0,0,0,0,0,0,0,0,0,0,0,0,0,0,0,0,0,0,0,0,0,0,0,0,0,0,0,0,0,0,
5751,0,5751,0,5751,0,5751,0,5751,0,5751,0,5751,0,5751,0,5751,0,5751,0,5751,0,5751,0,5751,0,5751,0,5751,0,5751,0,5751,0,5751,0,5751,0,5751,0,5751,0,5751,0,5751,0,5751,0,5751,0,
0,0,0,0,0,0,0,0,0,0,0,0,0,0,0,0,0,0,0,0,0,0,0,0,0,0,0,0,0,0,0,0,0,0,0,0,0,0,0,0,0,0,0,0,0,0,0,0,0,0,
5751,0,5751,0,5751,0,5751,0,5751,0,5751,0,5751,0,5751,0,5751,0,5751,0,5751,0,5751,0,5751,0,5751,0,5751,0,5751,0,5751,0,5751,0,5751,0,5751,0,5751,0,5751,0,5751,0,5751,0,5751,0,
0,0,0,0,0,0,0,0,0,0,0,0,0,0,0,0,0,0,0,0,0,0,0,0,0,0,0,0,0,0,0,0,0,0,0,0,0,0,0,0,0,0,0,0,0,0,0,0,0,0,
5751,0,5751,0,5751,0,5751,0,5751,0,5751,0,5751,0,5751,0,5751,0,5751,0,5751,0,5751,0,5751,0,5751,0,5751,0,5751,0,5751,0,5751,0,5751,0,5751,0,5751,0,5751,0,5751,0,5751,0,5751,0,
0,0,0,0,0,0,0,0,0,0,0,0,0,0,0,0,0,0,0,0,0,0,0,0,0,0,0,0,0,0,0,0,0,0,0,0,0,0,0,0,0,0,0,0,0,0,0,0,0,0,
5751,0,5751,0,5751,0,5751,0,5751,0,5751,0,5751,0,5751,0,5751,0,5751,0,5751,0,5751,0,5751,0,5751,0,5751,0,5751,0,5751,0,5751,0,5751,0,5751,0,5751,0,5751,0,5751,0,5751,0,5751,0,
0,0,0,0,0,0,0,0,0,0,0,0,0,0,0,0,0,0,0,0,0,0,0,0,0,0,0,0,0,0,0,0,0,0,0,0,0,0,0,0,0,0,0,0,0,0,0,0,0,0,
5751,0,5751,0,5751,0,5751,0,5751,0,5751,0,5751,0,5751,0,5751,0,5751,0,5751,0,5751,0,5751,0,5751,0,5751,0,5751,0,5751,0,5751,0,5751,0,5751,0,5751,0,5751,0,5751,0,5751,0,5751,0,
0,0,0,0,0,0,0,0,0,0,0,0,0,0,0,0,0,0,0,0,0,0,0,0,0,0,0,0,0,0,0,0,0,0,0,0,0,0,0,0,0,0,0,0,0,0,0,0,0,0,
5751,0,5751,0,5751,0,5751,0,5751,0,5751,0,5751,0,5751,0,5751,0,5751,0,5751,0,5751,0,5751,0,5751,0,5751,0,5751,0,5751,0,5751,0,5751,0,5751,0,5751,0,5751,0,5751,0,5751,0,5751,0,
0,0,0,0,0,0,0,0,0,0,0,0,0,0,0,0,0,0,0,0,0,0,0,0,0,0,0,0,0,0,0,0,0,0,0,0,0,0,0,0,0,0,0,0,0,0,0,0,0,0,
5751,0,5751,0,5751,0,5751,0,5751,0,5751,0,5751,0,5751,0,5751,0,5751,0,5751,0,5751,0,5751,0,5751,0,5751,0,5751,0,5751,0,5751,0,5751,0,5751,0,5751,0,5751,0,5751,0,5751,0,5751,0,
0,0,0,0,0,0,0,0,0,0,0,0,0,0,0,0,0,0,0,0,0,0,0,0,0,0,0,0,0,0,0,0,0,0,0,0,0,0,0,0,0,0,0,0,0,0,0,0,0,0,
5751,0,5751,0,5751,0,5751,0,5783,0,5752,0,5752,0,5816,0,5753,0,5751,0,5751,0,5751,0,5751,0,5751,0,5751,0,5751,0,5814,0,5753,0,5753,0,5753,0,5751,0,5751,0,5751,0,5751,0,5751,0,
0,0,0,0,0,0,0,0,0,0,0,0,0,0,0,0,0,0,0,0,0,0,0,0,0,0,0,0,0,0,0,0,0,0,0,0,0,0,0,0,0,0,0,0,0,0,0,0,0,0,
5751,0,5751,0,5751,0,5815,0,5857,0,5768,0,5784,0,5751,0,5751,0,5751,0,5751,0,5751,0,5751,0,5751,0,5751,0,5751,0,5814,0,5751,0,5751,0,5751,0,5751,0,5751,0,5751,0,5751,0,5751,0,
0,0,0,0,0,0,0,0,0,0,0,0,0,0,0,0,0,0,0,0,0,0,0,0,0,0,0,0,0,0,0,0,0,0,0,0,0,0,0,0,0,0,0,0,0,0,0,0,0,0,
5751,0,5751,0,5752,0,5857,0,5752,0,5784,0,5751,0,5751,0,5751,0,5751,0,5751,0,5751,0,5751,0,5751,0,5751,0,5751,0,5814,0,5751,0,5751,0,5751,0,5751,0,5751,0,5751,0,5751,0,5751,0,
0,0,0,0,0,0,0,0,0,0,0,0,0,0,0,0,0,0,0,0,0,0,0,0,0,0,0,0,0,0,0,0,0,0,0,0,0,0,0,0,0,0,0,0,0,0,0,0,0,0,
5751,0,5751,0,5752,0,5857,0,5752,0,5751,0,5751,0,5751,0,5751,0,5751,0,5751,0,5751,0,5751,0,5751,0,5751,0,5751,0,5814,0,5751,0,5751,0,5751,0,5751,0,5751,0,5751,0,5751,0,5751,0,
0,0,0,0,0,0,0,0,0,0,0,0,0,0,0,0,0,0,0,0,0,0,0,0,0,0,0,0,0,0,0,0,0,0,0,0,0,0,0,0,0,0,0,0,0,0,0,0,0,0,
5751,0,5751,0,5752,0,5857,0,5752,0,5751,0,5751,0,5751,0,5751,0,5751,0,5751,0,5751,0,5751,0,5751,0,5751,0,5751,0,5814,0,5751,0,5751,0,5751,0,5751,0,5751,0,5751,0,5751,0,5751,0,
0,0,0,0,0,0,0,0,0,0,0,0,0,0,0,0,0,0,0,0,0,0,0,0,0,0,0,0,0,0,0,0,0,0,0,0,0,0,0,0,0,0,0,0,0,0,0,0,0,0,
5751,0,5751,0,5752,0,5857,0,5752,0,5751,0,5751,0,5751,0,5751,0,5751,0,5751,0,5751,0,5751,0,5751,0,5751,0,5751,0,5814,0,5751,0,5751,0,5751,0,5751,0,5751,0,5751,0,5751,0,5751,0,
0,0,0,0,0,0,0,0,0,0,0,0,0,0,0,0,0,0,0,0,0,0,0,0,0,0,0,0,0,0,0,0,0,0,0,0,0,0,0,0,0,0,0,0,0,0,0,0,0,0,
5751,0,5751,0,5752,0,5857,0,5752,0,5751,0,5751,0,5751,0,5751,0,5751,0,5751,0,5751,0,5751,0,5751,0,5751,0,5751,0,5814,0,5751,0,5751,0,5751,0,5751,0,5751,0,5751,0,5751,0,5751,0,
0,0,0,0,0,0,0,0,0,0,0,0,0,0,0,0,0,0,0,0,0,0,0,0,0,0,0,0,0,0,0,0,0,0,0,0,0,0,0,0,0,0,0,0,0,0,0,0,0,0,
5751,0,5751,0,5752,0,5857,0,5752,0,5751,0,5751,0,5751,0,5751,0,5751,0,5751,0,5751,0,5751,0,5751,0,5751,0,5751,0,5814,0,5751,0,5751,0,5751,0,5751,0,5751,0,5751,0,5751,0,5751,0,
0,0,0,0,0,0,0,0,0,0,0,0,0,0,0,0,0,0,0,0,0,0,0,0,0,0,0,0,0,0,0,0,0,0,0,0,0,0,0,0,0,0,0,0,0,0,0,0,0,0,
5751,0,5751,0,5752,0,5857,0,5752,0,5751,0,5751,0,5751,0,5828,0,5829,0,5829,0,5829,0,5829,0,5829,0,5829,0,5829,0,5830,0,5751,0,5751,0,5751,0,5751,0,5751,0,5751,0,5751,0,5751,0,
0,0,0,0,0,0,0,0,0,0,0,0,0,0,0,0,0,0,0,0,0,0,0,0,0,0,0,0,0,0,0,0,0,0,0,0,0,0,0,0,0,0,0,0,0,0,0,0,0,0,
5751,0,5751,0,5752,0,5857,0,5752,0,5751,0,5751,0,5751,0,5751,0,5751,0,5751,0,5751,0,5751,0,5751,0,5751,0,5751,0,5751,0,5751,0,5751,0,5751,0,5751,0,5751,0,5751,0,5751,0,5751,0,
0,0,0,0,0,0,0,0,0,0,0,0,0,0,0,0,0,0,0,0,0,0,0,0,0,0,0,0,0,0,0,0,0,0,0,0,0,0,0,0,0,0,0,0,0,0,0,0,0,0,
5751,0,5751,0,5752,0,5857,0,5752,0,5751,0,5751,0,5751,0,5751,0,5751,0,5751,0,5751,0,5751,0,5751,0,5751,0,5751,0,5751,0,5751,0,5751,0,5751,0,5751,0,5751,0,5751,0,5751,0,5751,0,
0,0,0,0,0,0,0,0,0,0,0,0,0,0,0,0,0,0,0,0,0,0,0,0,0,0,0,0,0,0,0,0,0,0,0,0,0,0,0,0,0,0,0,0,0,0,0,0,0,0,
5751,0,5751,0,5752,0,5857,0,5752,0,5751,0,5751,0,5751,0,5751,0,5751,0,5751,0,5751,0,5751,0,5751,0,5751,0,5751,0,5751,0,5751,0,5751,0,5751,0,5751,0,5751,0,5751,0,5751,0,5751,0,
0,0,0,0,0,0,0,0,0,0,0,0,0,0,0,0,0,0,0,0,0,0,0,0,0,0,0,0,0,0,0,0,0,0,0,0,0,0,0,0,0,0,0,0,0,0,0,0,0,0,
5751,0,5751,0,5752,0,5857,0,5752,0,5751,0,5751,0,5751,0,5751,0,5751,0,5751,0,5751,0,5751,0,5751,0,5751,0,5751,0,5751,0,5751,0,5751,0,5751,0,5751,0,5751,0,5751,0,5751,0,5751,0,
0,0,0,0,0,0,0,0,0,0,0,0,0,0,0,0,0,0,0,0,0,0,0,0,0,0,0,0,0,0,0,0,0,0,0,0,0,0,0,0,0,0,0,0,0,0,0,0,0,0,
5751,0,5751,0,5752,0,5857,0,5752,0,5751,0,5751,0,5751,0,5751,0,5751,0,5751,0,5751,0,5751,0,5751,0,5751,0,5751,0,5751,0,5751,0,5751,0,5751,0,5751,0,5751,0,5751,0,5751,0,5751,0,
0,0,0,0,0,0,0,0,0,0,0,0,0,0,0,0,0,0,0,0,0,0,0,0,0,0,0,0,0,0,0,0,0,0,0,0,0,0,0,0,0,0,0,0,0,0,0,0,0,0,
5751,0,5751,0,5752,0,5752,0,5752,0,5751,0,5751,0,5751,0,5751,0,5751,0,5751,0,5751,0,5751,0,5751,0,5751,0,5751,0,5751,0,5751,0,5751,0,5751,0,5751,0,5751,0,5751,0,5751,0,5751,0,
0,0,0,0,0,0,0,0,0,0,0,0,0,0,0,0,0,0,0,0,0,0,0,0,0,0,0,0,0,0,0,0,0,0,0,0,0,0,0,0,0,0,0,0,0,0,0,0,0,0,
5751,0,5751,0,5752,0,5752,0,5751,0,5751,0,5751,0,5751,0,5751,0,5751,0,5751,0,5751,0,5751,0,5751,0,5751,0,5751,0,5751,0,5751,0,5751,0,5751,0,5751,0,5751,0,5751,0,5751,0,5751,0,
0,0,0,0,0,0,0,0,0,0,0,0,0,0,0,0,0,0,0,0,0,0,0,0,0,0,0,0,0,0,0,0,0,0,0,0,0,0,0,0,0,0,0,0,0,0,0,0,0,0,
0,0,0,0,0,0,0,0,0,0,0,0,0,0,0,0,0,0,0,0,0,0,0,0,0,0,0,0,0,0,0,0,0,0,0,0,0,0,0,0,0,0,0,0,0,0,0,0,0,0,
0,0,0,0,0,0,0,0,0,0,0,0,0,0,0,0,0,0,0,0,0,0,0,0,0,0,0,0,0,0,0,0,0,0,0,0,0,0,0,0,0,0,0,0,0,0,0,0,0,0,
0,0,0,0,0,0,0,0,0,0,0,0,0,0,0,0,0,0,0,0,0,0,0,0,0,0,0,0,0,0,0,0,0,0,0,0,0,0,0,0,0,0,0,0,0,0,0,0,0,0,
0,0,0,0,0,0,0,0,0,0,0,0,0,0,0,0,0,0,0,0,0,0,0,0,0,0,0,0,0,0,0,0,0,0,0,0,0,0,0,0,0,0,0,0,0,0,0,0,0,0,
0,0,0,0,0,0,0,0,0,0,0,0,0,0,0,0,0,0,0,0,0,0,0,0,0,0,0,0,0,0,0,0,0,0,0,0,0,0,0,0,0,0,0,0,0,0,0,0,0,0,
0,0,0,0,0,0,0,0,0,0,0,0,0,0,0,0,0,0,0,0,0,0,0,0,0,0,0,0,0,0,0,0,0,0,0,0,0,0,0,0,0,0,0,0,0,0,0,0,0,0,
0,0,0,0,0,0,0,0,0,0,0,0,0,0,0,0,0,0,0,0,0,0,0,0,0,0,0,0,0,0,0,0,0,0,0,0,0,0,0,0,0,0,0,0,0,0,0,0,0,0,
0,0,0,0,0,0,0,0,0,0,0,0,0,0,0,0,0,0,0,0,0,0,0,0,0,0,0,0,0,0,0,0,0,0,0,0,0,0,0,0,0,0,0,0,0,0,0,0,0,0
</data>
  </layer>
  <objectgroup draworder="index" id="4" name="Level_0_Walls">
   <object id="2" type="asset" gid="158" x="48" y="191" width="304" height="128"/>
  </objectgroup>
  <objectgroup draworder="index" id="5" name="Level_0_Assets">
   <object id="3" type="asset" gid="458" x="168" y="114" width="64" height="48"/>
   <object id="4" type="asset" gid="1002" x="168" y="136" width="64" height="64"/>
   <object id="5" type="asset" gid="846" x="136" y="152" width="128" height="88"/>
   <object id="6" type="asset" gid="1400" x="120" y="160" width="64" height="88"/>
   <object id="7" type="asset" gid="379" x="216" y="160" width="64" height="88"/>
   <object id="8" type="asset" gid="328" x="64" y="178" width="24" height="112"/>
   <object id="9" type="asset" gid="328" x="313" y="178" width="24" height="112"/>
   <object id="10" type="asset" gid="328" x="280" y="159" width="24" height="112"/>
   <object id="11" type="asset" gid="328" x="96" y="159" width="24" height="112"/>
   <object id="12" type="asset" gid="1176" x="64" y="215" width="24" height="104"/>
   <object id="13" type="asset" gid="1176" x="313" y="215" width="24" height="104"/>
  </objectgroup>
  <objectgroup draworder="index" id="6" name="Level_0_Assets_Void_Portal">
   <object id="14" type="asset" gid="352" x="176" y="300" width="56" height="48"/>
  </objectgroup>
 </group>
 <group id="7" name="Level_1">
  <layer id="8" name="Level_1_BlackArea" width="50" height="56">
   <properties>
    <property name="maybe_animation_id" value="75ea443e6634d96"/>
    <property name="maybe_tileset_id" value="d8b504e9a8480fbe"/>
    <property name="tile_size" type="int" value="16"/>
   </properties>
   <data encoding="csv">
4318,0,4318,0,4318,0,4318,0,4318,0,4318,0,4318,0,4318,0,4318,0,4318,0,4318,0,4318,0,4318,0,4318,0,4318,0,4318,0,4318,0,4318,0,4318,0,4318,0,4318,0,4318,0,4318,0,4318,0,4318,0,
0,0,0,0,0,0,0,0,0,0,0,0,0,0,0,0,0,0,0,0,0,0,0,0,0,0,0,0,0,0,0,0,0,0,0,0,0,0,0,0,0,0,0,0,0,0,0,0,0,0,
4318,0,4318,0,4318,0,4318,0,4318,0,4318,0,4318,0,4318,0,4318,0,4318,0,4318,0,4318,0,4318,0,4318,0,4318,0,4318,0,4318,0,4318,0,4318,0,4318,0,1793,0,1793,0,1793,0,4318,0,4318,0,
0,0,0,0,0,0,0,0,0,0,0,0,0,0,0,0,0,0,0,0,0,0,0,0,0,0,0,0,0,0,0,0,0,0,0,0,0,0,0,0,0,0,0,0,0,0,0,0,0,0,
4318,0,4318,0,4318,0,4318,0,1793,0,1793,0,1655,0,1655,0,1655,0,1655,0,1655,0,1655,0,1655,0,1655,0,1655,0,1655,0,1655,0,1655,0,1655,0,1793,0,1793,0,1793,0,1793,0,4318,0,4318,0,
0,0,0,0,0,0,0,0,0,0,0,0,0,0,0,0,0,0,0,0,0,0,0,0,0,0,0,0,0,0,0,0,0,0,0,0,0,0,0,0,0,0,0,0,0,0,0,0,0,0,
4318,0,4318,0,4318,0,1793,0,1793,0,1655,0,1655,0,1655,0,1655,0,1655,0,1655,0,1655,0,1655,0,1655,0,1655,0,1655,0,1655,0,1655,0,1655,0,1655,0,1793,0,1793,0,1793,0,4318,0,4318,0,
0,0,0,0,0,0,0,0,0,0,0,0,0,0,0,0,0,0,0,0,0,0,0,0,0,0,0,0,0,0,0,0,0,0,0,0,0,0,0,0,0,0,0,0,0,0,0,0,0,0,
4318,0,4318,0,1793,0,1793,0,1655,0,1655,0,1655,0,1655,0,1655,0,1655,0,1655,0,1655,0,1655,0,1655,0,1655,0,1655,0,1655,0,1655,0,1655,0,1655,0,1655,0,1793,0,1793,0,1793,0,1793,0,
0,0,0,0,0,0,0,0,0,0,0,0,0,0,0,0,0,0,0,0,0,0,0,0,0,0,0,0,0,0,0,0,0,0,0,0,0,0,0,0,0,0,0,0,0,0,0,0,0,0,
1793,0,1793,0,1793,0,1655,0,1655,0,1655,0,1655,0,1655,0,1655,0,1655,0,1655,0,1655,0,1655,0,1655,0,1655,0,1655,0,1655,0,1655,0,1655,0,1655,0,1655,0,1655,0,1793,0,1793,0,1793,0,
0,0,0,0,0,0,0,0,0,0,0,0,0,0,0,0,0,0,0,0,0,0,0,0,0,0,0,0,0,0,0,0,0,0,0,0,0,0,0,0,0,0,0,0,0,0,0,0,0,0,
1793,0,1793,0,1655,0,1655,0,1655,0,1655,0,1655,0,1655,0,1655,0,1655,0,1655,0,1655,0,1655,0,1655,0,1655,0,1655,0,1655,0,1655,0,1655,0,1655,0,1655,0,1655,0,1793,0,1793,0,1793,0,
0,0,0,0,0,0,0,0,0,0,0,0,0,0,0,0,0,0,0,0,0,0,0,0,0,0,0,0,0,0,0,0,0,0,0,0,0,0,0,0,0,0,0,0,0,0,0,0,0,0,
1793,0,1793,0,1655,0,1655,0,1655,0,1655,0,1655,0,1655,0,1655,0,1655,0,1655,0,1655,0,1655,0,1655,0,1655,0,1655,0,1655,0,1655,0,1655,0,1655,0,1655,0,1655,0,1793,0,1793,0,1793,0,
0,0,0,0,0,0,0,0,0,0,0,0,0,0,0,0,0,0,0,0,0,0,0,0,0,0,0,0,0,0,0,0,0,0,0,0,0,0,0,0,0,0,0,0,0,0,0,0,0,0,
1793,0,1793,0,1655,0,1655,0,1655,0,1655,0,1655,0,1655,0,1655,0,1655,0,1655,0,1655,0,1655,0,1655,0,1655,0,1655,0,1655,0,1655,0,1655,0,1655,0,1655,0,1655,0,1793,0,1793,0,1793,0,
0,0,0,0,0,0,0,0,0,0,0,0,0,0,0,0,0,0,0,0,0,0,0,0,0,0,0,0,0,0,0,0,0,0,0,0,0,0,0,0,0,0,0,0,0,0,0,0,0,0,
1793,0,1793,0,1655,0,1655,0,1655,0,1655,0,1655,0,1655,0,1655,0,1655,0,1655,0,1655,0,1655,0,1655,0,1655,0,1655,0,1655,0,1655,0,1655,0,1655,0,1655,0,1655,0,1793,0,1793,0,1793,0,
0,0,0,0,0,0,0,0,0,0,0,0,0,0,0,0,0,0,0,0,0,0,0,0,0,0,0,0,0,0,0,0,0,0,0,0,0,0,0,0,0,0,0,0,0,0,0,0,0,0,
1793,0,1793,0,1655,0,1655,0,1655,0,1655,0,1655,0,1655,0,1655,0,1655,0,1655,0,1655,0,1655,0,1655,0,1655,0,1655,0,1655,0,1655,0,1655,0,1655,0,1655,0,1655,0,1793,0,1793,0,1793,0,
0,0,0,0,0,0,0,0,0,0,0,0,0,0,0,0,0,0,0,0,0,0,0,0,0,0,0,0,0,0,0,0,0,0,0,0,0,0,0,0,0,0,0,0,0,0,0,0,0,0,
1793,0,1793,0,1655,0,1655,0,1655,0,1655,0,1655,0,1655,0,1655,0,1655,0,1655,0,1655,0,1655,0,1655,0,1655,0,1655,0,1655,0,1655,0,1655,0,1655,0,1655,0,1655,0,1793,0,1793,0,1793,0,
0,0,0,0,0,0,0,0,0,0,0,0,0,0,0,0,0,0,0,0,0,0,0,0,0,0,0,0,0,0,0,0,0,0,0,0,0,0,0,0,0,0,0,0,0,0,0,0,0,0,
1793,0,1793,0,1655,0,1655,0,1655,0,1655,0,1655,0,1655,0,1655,0,1655,0,1655,0,1655,0,1655,0,1655,0,1655,0,1655,0,1655,0,1655,0,1655,0,1655,0,1655,0,1655,0,1793,0,1793,0,1793,0,
0,0,0,0,0,0,0,0,0,0,0,0,0,0,0,0,0,0,0,0,0,0,0,0,0,0,0,0,0,0,0,0,0,0,0,0,0,0,0,0,0,0,0,0,0,0,0,0,0,0,
1793,0,1793,0,1655,0,1655,0,1655,0,1655,0,1655,0,1655,0,1655,0,1655,0,1655,0,1655,0,1655,0,1655,0,1655,0,1655,0,1655,0,1655,0,1655,0,1655,0,1655,0,1655,0,1793,0,1793,0,1793,0,
0,0,0,0,0,0,0,0,0,0,0,0,0,0,0,0,0,0,0,0,0,0,0,0,0,0,0,0,0,0,0,0,0,0,0,0,0,0,0,0,0,0,0,0,0,0,0,0,0,0,
1793,0,1793,0,1655,0,1655,0,1655,0,1655,0,1655,0,1655,0,1655,0,1655,0,1655,0,1655,0,1655,0,1655,0,1655,0,1655,0,1655,0,1655,0,1655,0,1655,0,1655,0,1655,0,1793,0,1793,0,1793,0,
0,0,0,0,0,0,0,0,0,0,0,0,0,0,0,0,0,0,0,0,0,0,0,0,0,0,0,0,0,0,0,0,0,0,0,0,0,0,0,0,0,0,0,0,0,0,0,0,0,0,
1793,0,1793,0,1655,0,1655,0,1655,0,1655,0,1655,0,1655,0,1655,0,1655,0,1655,0,1655,0,1655,0,1655,0,1655,0,1655,0,1655,0,1655,0,1655,0,1655,0,1655,0,1655,0,1793,0,1793,0,1793,0,
0,0,0,0,0,0,0,0,0,0,0,0,0,0,0,0,0,0,0,0,0,0,0,0,0,0,0,0,0,0,0,0,0,0,0,0,0,0,0,0,0,0,0,0,0,0,0,0,0,0,
1793,0,1793,0,1655,0,1655,0,1655,0,1655,0,1655,0,1655,0,1655,0,1655,0,1655,0,1655,0,1655,0,1655,0,1655,0,1655,0,1655,0,1655,0,1655,0,1655,0,1655,0,1655,0,1793,0,1793,0,1793,0,
0,0,0,0,0,0,0,0,0,0,0,0,0,0,0,0,0,0,0,0,0,0,0,0,0,0,0,0,0,0,0,0,0,0,0,0,0,0,0,0,0,0,0,0,0,0,0,0,0,0,
1793,0,1793,0,1655,0,1655,0,1655,0,1655,0,1655,0,1655,0,1655,0,1655,0,1655,0,1655,0,1655,0,1655,0,1655,0,1655,0,1655,0,1655,0,1655,0,1655,0,1655,0,1655,0,1793,0,1793,0,1793,0,
0,0,0,0,0,0,0,0,0,0,0,0,0,0,0,0,0,0,0,0,0,0,0,0,0,0,0,0,0,0,0,0,0,0,0,0,0,0,0,0,0,0,0,0,0,0,0,0,0,0,
1793,0,1793,0,1655,0,1655,0,1655,0,1655,0,1655,0,1655,0,1655,0,1655,0,1655,0,1655,0,1655,0,1655,0,1655,0,1655,0,1655,0,1655,0,1655,0,1655,0,1655,0,1655,0,1793,0,1793,0,1793,0,
0,0,0,0,0,0,0,0,0,0,0,0,0,0,0,0,0,0,0,0,0,0,0,0,0,0,0,0,0,0,0,0,0,0,0,0,0,0,0,0,0,0,0,0,0,0,0,0,0,0,
1793,0,1793,0,1655,0,1655,0,1655,0,1655,0,1655,0,1655,0,1655,0,1655,0,1655,0,1655,0,1655,0,1655,0,1655,0,1655,0,1655,0,1655,0,1655,0,1655,0,1655,0,1655,0,1793,0,1793,0,1793,0,
0,0,0,0,0,0,0,0,0,0,0,0,0,0,0,0,0,0,0,0,0,0,0,0,0,0,0,0,0,0,0,0,0,0,0,0,0,0,0,0,0,0,0,0,0,0,0,0,0,0,
1793,0,1793,0,1655,0,1655,0,1655,0,1655,0,1655,0,1655,0,1655,0,1655,0,1655,0,1655,0,1655,0,1655,0,1655,0,1655,0,1655,0,1655,0,1655,0,1655,0,1655,0,1655,0,1793,0,1793,0,1793,0,
0,0,0,0,0,0,0,0,0,0,0,0,0,0,0,0,0,0,0,0,0,0,0,0,0,0,0,0,0,0,0,0,0,0,0,0,0,0,0,0,0,0,0,0,0,0,0,0,0,0,
1793,0,1793,0,1655,0,1655,0,1655,0,1655,0,1655,0,1655,0,1655,0,1655,0,1655,0,1655,0,1655,0,1655,0,1655,0,1655,0,1655,0,1655,0,1655,0,1655,0,1655,0,1655,0,1793,0,1793,0,1793,0,
0,0,0,0,0,0,0,0,0,0,0,0,0,0,0,0,0,0,0,0,0,0,0,0,0,0,0,0,0,0,0,0,0,0,0,0,0,0,0,0,0,0,0,0,0,0,0,0,0,0,
1793,0,1793,0,1793,0,0,0,0,0,0,0,0,0,0,0,0,0,0,0,0,0,0,0,0,0,0,0,0,0,0,0,0,0,0,0,0,0,0,0,0,0,0,0,1793,0,1793,0,1793,0,
0,0,0,0,0,0,0,0,0,0,0,0,0,0,0,0,0,0,0,0,0,0,0,0,0,0,0,0,0,0,0,0,0,0,0,0,0,0,0,0,0,0,0,0,0,0,0,0,0,0,
1793,0,1793,0,1793,0,1793,0,0,0,0,0,0,0,0,0,0,0,0,0,0,0,0,0,0,0,0,0,0,0,0,0,0,0,0,0,0,0,0,0,0,0,1793,0,1793,0,1793,0,1793,0,
0,0,0,0,0,0,0,0,0,0,0,0,0,0,0,0,0,0,0,0,0,0,0,0,0,0,0,0,0,0,0,0,0,0,0,0,0,0,0,0,0,0,0,0,0,0,0,0,0,0,
1793,0,1793,0,1793,0,1793,0,1793,0,0,0,0,0,0,0,0,0,0,0,0,0,0,0,0,0,0,0,0,0,0,0,0,0,0,0,0,0,0,0,1793,0,1793,0,1793,0,1793,0,1793,0,
0,0,0,0,0,0,0,0,0,0,0,0,0,0,0,0,0,0,0,0,0,0,0,0,0,0,0,0,0,0,0,0,0,0,0,0,0,0,0,0,0,0,0,0,0,0,0,0,0,0,
1793,0,1793,0,1793,0,1793,0,1793,0,1793,0,0,0,0,0,0,0,0,0,0,0,0,0,0,0,0,0,0,0,0,0,0,0,0,0,0,0,1793,0,1793,0,1793,0,1793,0,1793,0,1793,0,
0,0,0,0,0,0,0,0,0,0,0,0,0,0,0,0,0,0,0,0,0,0,0,0,0,0,0,0,0,0,0,0,0,0,0,0,0,0,0,0,0,0,0,0,0,0,0,0,0,0,
1793,0,1793,0,1793,0,1793,0,1793,0,1793,0,4318,0,4318,0,4318,0,4318,0,4318,0,4318,0,4318,0,4318,0,4318,0,4318,0,4318,0,4318,0,4318,0,1793,0,1793,0,1793,0,1793,0,4318,0,4318,0,
0,0,0,0,0,0,0,0,0,0,0,0,0,0,0,0,0,0,0,0,0,0,0,0,0,0,0,0,0,0,0,0,0,0,0,0,0,0,0,0,0,0,0,0,0,0,0,0,0,0,
1793,0,1793,0,1793,0,1793,0,1793,0,1793,0,4318,0,4318,0,4318,0,4318,0,4318,0,4318,0,4318,0,4318,0,4318,0,4318,0,4318,0,4318,0,4318,0,1793,0,1793,0,1793,0,1793,0,4318,0,4318,0,
0,0,0,0,0,0,0,0,0,0,0,0,0,0,0,0,0,0,0,0,0,0,0,0,0,0,0,0,0,0,0,0,0,0,0,0,0,0,0,0,0,0,0,0,0,0,0,0,0,0
</data>
  </layer>
  <layer id="9" name="Level_1_Ceiling" width="50" height="56">
   <properties>
    <property name="maybe_animation_id" value="75ea443e6634d96"/>
    <property name="maybe_tileset_id" value="d8b504e9a8480fbe"/>
    <property name="tile_size" type="int" value="16"/>
   </properties>
   <data encoding="csv">
1655,0,1655,0,1655,0,1655,0,1655,0,1655,0,1655,0,1655,0,1655,0,1655,0,1655,0,1655,0,1655,0,1655,0,1655,0,1655,0,1655,0,1655,0,1655,0,1655,0,1655,0,1655,0,1655,0,1655,0,1655,0,
0,0,0,0,0,0,0,0,0,0,0,0,0,0,0,0,0,0,0,0,0,0,0,0,0,0,0,0,0,0,0,0,0,0,0,0,0,0,0,0,0,0,0,0,0,0,0,0,0,0,
1655,0,1655,0,1655,0,1655,0,1655,0,1655,0,1655,0,1655,0,1655,0,2857,0,2858,0,2859,0,2860,0,2861,0,2862,0,2863,0,1655,0,1655,0,1655,0,1655,0,1655,0,1655,0,1655,0,1655,0,1655,0,
0,0,0,0,0,0,0,0,0,0,0,0,0,0,0,0,0,0,0,0,0,0,0,0,0,0,0,0,0,0,0,0,0,0,0,0,0,0,0,0,0,0,0,0,0,0,0,0,0,0,
1655,0,1655,0,1655,0,1655,0,2663,0,2664,0,2665,0,2666,0,2667,0,2921,0,2922,0,2923,0,2924,0,2925,0,2926,0,2927,0,2666,0,2667,0,2665,0,2147486312,0,2147486311,0,1655,0,1655,0,1655,0,1655,0,
0,0,0,0,0,0,0,0,0,0,0,0,0,0,0,0,0,0,0,0,0,0,0,0,0,0,0,0,0,0,0,0,0,0,0,0,0,0,0,0,0,0,0,0,0,0,0,0,0,0,
1655,0,1655,0,1655,0,2726,0,2727,0,2728,0,2729,0,2730,0,2731,0,2985,0,2986,0,2987,0,2988,0,2989,0,2990,0,2991,0,2730,0,2731,0,2729,0,2147486376,0,2147486375,0,2147486374,0,1655,0,1655,0,1655,0,
0,0,0,0,0,0,0,0,0,0,0,0,0,0,0,0,0,0,0,0,0,0,0,0,0,0,0,0,0,0,0,0,0,0,0,0,0,0,0,0,0,0,0,0,0,0,0,0,0,0,
1655,0,1655,0,2789,0,2790,0,2791,0,2792,0,2793,0,2794,0,2795,0,3049,0,3050,0,3051,0,3052,0,3053,0,3054,0,3055,0,2794,0,2795,0,2793,0,2147486440,0,2147486439,0,2147486438,0,2147486437,0,1655,0,1655,0,
0,0,0,0,0,0,0,0,0,0,0,0,0,0,0,0,0,0,0,0,0,0,0,0,0,0,0,0,0,0,0,0,0,0,0,0,0,0,0,0,0,0,0,0,0,0,0,0,0,0,
1655,0,1655,0,2853,0,2854,0,2855,0,2856,0,1655,0,1655,0,1655,0,1655,0,1655,0,1655,0,1655,0,1655,0,1655,0,1655,0,1655,0,1655,0,1655,0,2147486504,0,2147486503,0,2147486502,0,2147486501,0,1655,0,1655,0,
0,0,0,0,0,0,0,0,0,0,0,0,0,0,0,0,0,0,0,0,0,0,0,0,0,0,0,0,0,0,0,0,0,0,0,0,0,0,0,0,0,0,0,0,0,0,0,0,0,0,
1655,0,1655,0,2917,0,2918,0,2856,0,1655,0,1655,0,1655,0,1655,0,1655,0,1655,0,1655,0,1655,0,1655,0,1655,0,1655,0,1655,0,1655,0,1655,0,1655,0,2147486504,0,2147486566,0,2147486565,0,1655,0,1655,0,
0,0,0,0,0,0,0,0,0,0,0,0,0,0,0,0,0,0,0,0,0,0,0,0,0,0,0,0,0,0,0,0,0,0,0,0,0,0,0,0,0,0,0,0,0,0,0,0,0,0,
1655,0,1655,0,2981,0,2982,0,1655,0,1655,0,1655,0,1655,0,1655,0,1655,0,1655,0,1655,0,1655,0,1655,0,1655,0,1655,0,1655,0,1655,0,1655,0,1655,0,1655,0,2147486630,0,2147486629,0,1655,0,1655,0,
0,0,0,0,0,0,0,0,0,0,0,0,0,0,0,0,0,0,0,0,0,0,0,0,0,0,0,0,0,0,0,0,0,0,0,0,0,0,0,0,0,0,0,0,0,0,0,0,0,0,
1655,0,1655,0,3045,0,3046,0,1655,0,1655,0,1655,0,1655,0,1655,0,1655,0,1655,0,1655,0,1655,0,1655,0,1655,0,1655,0,1655,0,1655,0,1655,0,1655,0,1655,0,2147486694,0,2147486693,0,1655,0,1655,0,
0,0,0,0,0,0,0,0,0,0,0,0,0,0,0,0,0,0,0,0,0,0,0,0,0,0,0,0,0,0,0,0,0,0,0,0,0,0,0,0,0,0,0,0,0,0,0,0,0,0,
1655,0,1655,0,2981,0,2982,0,1655,0,1655,0,1655,0,1655,0,1655,0,1655,0,1655,0,1655,0,1655,0,1655,0,1655,0,1655,0,1655,0,1655,0,1655,0,1655,0,1655,0,2147486630,0,2147486629,0,1655,0,1655,0,
0,0,0,0,0,0,0,0,0,0,0,0,0,0,0,0,0,0,0,0,0,0,0,0,0,0,0,0,0,0,0,0,0,0,0,0,0,0,0,0,0,0,0,0,0,0,0,0,0,0,
1655,0,1655,0,3045,0,3046,0,1655,0,1655,0,1655,0,1655,0,1655,0,1655,0,1655,0,1655,0,1655,0,1655,0,1655,0,1655,0,1655,0,1655,0,1655,0,1655,0,1655,0,2147486694,0,2147486693,0,1655,0,1655,0,
0,0,0,0,0,0,0,0,0,0,0,0,0,0,0,0,0,0,0,0,0,0,0,0,0,0,0,0,0,0,0,0,0,0,0,0,0,0,0,0,0,0,0,0,0,0,0,0,0,0,
1655,0,1655,0,2981,0,2982,0,1655,0,1655,0,1655,0,1655,0,1655,0,1655,0,1655,0,1655,0,1655,0,1655,0,1655,0,1655,0,1655,0,1655,0,1655,0,1655,0,1655,0,2147486630,0,2147486629,0,1655,0,1655,0,
0,0,0,0,0,0,0,0,0,0,0,0,0,0,0,0,0,0,0,0,0,0,0,0,0,0,0,0,0,0,0,0,0,0,0,0,0,0,0,0,0,0,0,0,0,0,0,0,0,0,
1655,0,1655,0,3045,0,3046,0,1655,0,1655,0,1655,0,1655,0,1655,0,1655,0,1655,0,1655,0,1655,0,1655,0,1655,0,1655,0,1655,0,1655,0,1655,0,1655,0,1655,0,2147486694,0,2147486693,0,1655,0,1655,0,
0,0,0,0,0,0,0,0,0,0,0,0,0,0,0,0,0,0,0,0,0,0,0,0,0,0,0,0,0,0,0,0,0,0,0,0,0,0,0,0,0,0,0,0,0,0,0,0,0,0,
1655,0,1655,0,2981,0,2982,0,1655,0,1655,0,1655,0,1655,0,1655,0,1655,0,1655,0,1655,0,1655,0,1655,0,1655,0,1655,0,1655,0,1655,0,1655,0,1655,0,1655,0,2147486630,0,2147486629,0,1655,0,1655,0,
0,0,0,0,0,0,0,0,0,0,0,0,0,0,0,0,0,0,0,0,0,0,0,0,0,0,0,0,0,0,0,0,0,0,0,0,0,0,0,0,0,0,0,0,0,0,0,0,0,0,
1655,0,1655,0,3045,0,3046,0,1655,0,1655,0,1655,0,1655,0,1655,0,1655,0,1655,0,1655,0,1655,0,1655,0,1655,0,1655,0,1655,0,1655,0,1655,0,1655,0,1655,0,2147486694,0,2147486693,0,1655,0,1655,0,
0,0,0,0,0,0,0,0,0,0,0,0,0,0,0,0,0,0,0,0,0,0,0,0,0,0,0,0,0,0,0,0,0,0,0,0,0,0,0,0,0,0,0,0,0,0,0,0,0,0,
1655,0,1655,0,2981,0,2982,0,1655,0,1655,0,1655,0,1655,0,1655,0,1655,0,1655,0,1655,0,1655,0,1655,0,1655,0,1655,0,1655,0,1655,0,1655,0,1655,0,1655,0,2147486630,0,2147486629,0,1655,0,1655,0,
0,0,0,0,0,0,0,0,0,0,0,0,0,0,0,0,0,0,0,0,0,0,0,0,0,0,0,0,0,0,0,0,0,0,0,0,0,0,0,0,0,0,0,0,0,0,0,0,0,0,
1655,0,1655,0,3045,0,3046,0,1655,0,1655,0,1655,0,1655,0,1655,0,1655,0,1655,0,1655,0,1655,0,1655,0,1655,0,1655,0,1655,0,1655,0,1655,0,1655,0,1655,0,2147486694,0,2147486693,0,1655,0,1655,0,
0,0,0,0,0,0,0,0,0,0,0,0,0,0,0,0,0,0,0,0,0,0,0,0,0,0,0,0,0,0,0,0,0,0,0,0,0,0,0,0,0,0,0,0,0,0,0,0,0,0,
1655,0,1655,0,2981,0,2982,0,1655,0,1655,0,1655,0,1655,0,1655,0,1655,0,1655,0,1655,0,1655,0,1655,0,1655,0,1655,0,1655,0,1655,0,1655,0,1655,0,1655,0,2147486630,0,2147486629,0,1655,0,1655,0,
0,0,0,0,0,0,0,0,0,0,0,0,0,0,0,0,0,0,0,0,0,0,0,0,0,0,0,0,0,0,0,0,0,0,0,0,0,0,0,0,0,0,0,0,0,0,0,0,0,0,
1655,0,1655,0,3045,0,3046,0,1655,0,1655,0,1655,0,1655,0,1655,0,1655,0,1655,0,1655,0,1655,0,1655,0,1655,0,1655,0,1655,0,1655,0,1655,0,1655,0,1655,0,2147486694,0,2147486693,0,1655,0,1655,0,
0,0,0,0,0,0,0,0,0,0,0,0,0,0,0,0,0,0,0,0,0,0,0,0,0,0,0,0,0,0,0,0,0,0,0,0,0,0,0,0,0,0,0,0,0,0,0,0,0,0,
1655,0,1655,0,2981,0,2982,0,1655,0,1655,0,1655,0,1655,0,1655,0,1655,0,1655,0,1655,0,1655,0,1655,0,1655,0,1655,0,1655,0,1655,0,1655,0,1655,0,1655,0,2147486630,0,2147486629,0,1655,0,1655,0,
0,0,0,0,0,0,0,0,0,0,0,0,0,0,0,0,0,0,0,0,0,0,0,0,0,0,0,0,0,0,0,0,0,0,0,0,0,0,0,0,0,0,0,0,0,0,0,0,0,0,
1655,0,1655,0,3045,0,3046,0,1655,0,1655,0,1655,0,1655,0,1655,0,1655,0,1655,0,1655,0,1655,0,1655,0,1655,0,1655,0,1655,0,1655,0,1655,0,1655,0,1655,0,2147486694,0,2147486693,0,1655,0,1655,0,
0,0,0,0,0,0,0,0,0,0,0,0,0,0,0,0,0,0,0,0,0,0,0,0,0,0,0,0,0,0,0,0,0,0,0,0,0,0,0,0,0,0,0,0,0,0,0,0,0,0,
1655,0,1655,0,3109,0,3110,0,3111,0,1655,0,1655,0,1655,0,1655,0,1655,0,1655,0,1655,0,1655,0,1655,0,1655,0,1655,0,1655,0,1655,0,1655,0,1655,0,2147486759,0,2147486758,0,2147486757,0,1655,0,1655,0,
0,0,0,0,0,0,0,0,0,0,0,0,0,0,0,0,0,0,0,0,0,0,0,0,0,0,0,0,0,0,0,0,0,0,0,0,0,0,0,0,0,0,0,0,0,0,0,0,0,0,
1655,0,1655,0,3173,0,3174,0,3175,0,3176,0,1655,0,1655,0,1655,0,1655,0,1655,0,1655,0,1655,0,1655,0,1655,0,1655,0,1655,0,1655,0,1655,0,2147486824,0,2147486823,0,2147486822,0,2147486821,0,1655,0,1655,0,
0,0,0,0,0,0,0,0,0,0,0,0,0,0,0,0,0,0,0,0,0,0,0,0,0,0,0,0,0,0,0,0,0,0,0,0,0,0,0,0,0,0,0,0,0,0,0,0,0,0,
1655,0,1655,0,3237,0,3238,0,3239,0,3240,0,3241,0,1655,0,1655,0,1655,0,3114,0,3115,0,3116,0,3117,0,3118,0,1655,0,1655,0,1655,0,2147486889,0,2147486888,0,2147486887,0,2147486886,0,2147486885,0,1655,0,1655,0,
0,0,0,0,0,0,0,0,0,0,0,0,0,0,0,0,0,0,0,0,0,0,0,0,0,0,0,0,0,0,0,0,0,0,0,0,0,0,0,0,0,0,0,0,0,0,0,0,0,0,
1655,0,1655,0,1655,0,3302,0,3303,0,3304,0,3305,0,3306,0,3307,0,3308,0,3178,0,3179,0,3180,0,3181,0,3182,0,2147486956,0,2147486955,0,2147486954,0,2147486953,0,2147486952,0,2147486951,0,2147486950,0,1655,0,1655,0,1655,0,
0,0,0,0,0,0,0,0,0,0,0,0,0,0,0,0,0,0,0,0,0,0,0,0,0,0,0,0,0,0,0,0,0,0,0,0,0,0,0,0,0,0,0,0,0,0,0,0,0,0,
1655,0,1655,0,1655,0,1655,0,3367,0,3368,0,3369,0,3370,0,3371,0,3372,0,3242,0,3243,0,3244,0,3245,0,3246,0,2147487020,0,2147487019,0,2147487018,0,2147487017,0,2147487016,0,2147487015,0,1655,0,1655,0,1655,0,1655,0,
0,0,0,0,0,0,0,0,0,0,0,0,0,0,0,0,0,0,0,0,0,0,0,0,0,0,0,0,0,0,0,0,0,0,0,0,0,0,0,0,0,0,0,0,0,0,0,0,0,0,
1655,0,1655,0,1655,0,1655,0,1655,0,1655,0,1655,0,1655,0,1655,0,1655,0,2221,0,2222,0,2223,0,2224,0,2225,0,1655,0,1655,0,1655,0,1655,0,1655,0,1655,0,1655,0,1655,0,1655,0,1655,0,
0,0,0,0,0,0,0,0,0,0,0,0,0,0,0,0,0,0,0,0,0,0,0,0,0,0,0,0,0,0,0,0,0,0,0,0,0,0,0,0,0,0,0,0,0,0,0,0,0,0,
1655,0,1655,0,1655,0,1655,0,1655,0,1655,0,1655,0,1655,0,1655,0,1655,0,1655,0,1655,0,1655,0,1655,0,1655,0,1655,0,1655,0,1655,0,1655,0,1655,0,1655,0,1655,0,1655,0,1655,0,1655,0,
0,0,0,0,0,0,0,0,0,0,0,0,0,0,0,0,0,0,0,0,0,0,0,0,0,0,0,0,0,0,0,0,0,0,0,0,0,0,0,0,0,0,0,0,0,0,0,0,0,0
</data>
  </layer>
 </group>
 <layer id="10" name="PriorityObjects" width="50" height="56">
  <properties>
   <property name="maybe_animation_id" value="c17a3f663f237941"/>
   <property name="maybe_tileset_id" value="6517ec72c0df75c4"/>
   <property name="tile_size" type="int" value="16"/>
  </properties>
  <data encoding="csv">
0,0,0,0,0,0,0,0,0,0,0,0,0,0,0,0,0,0,0,0,0,0,0,0,0,0,0,0,0,0,0,0,0,0,0,0,0,0,0,0,0,0,0,0,0,0,0,0,0,0,
0,0,0,0,0,0,0,0,0,0,0,0,0,0,0,0,0,0,0,0,0,0,0,0,0,0,0,0,0,0,0,0,0,0,0,0,0,0,0,0,0,0,0,0,0,0,0,0,0,0,
0,0,0,0,0,0,0,0,0,0,0,0,0,0,0,0,0,0,0,0,0,0,0,0,0,0,0,0,0,0,0,0,0,0,0,0,0,0,0,0,0,0,0,0,0,0,0,0,0,0,
0,0,0,0,0,0,0,0,0,0,0,0,0,0,0,0,0,0,0,0,0,0,0,0,0,0,0,0,0,0,0,0,0,0,0,0,0,0,0,0,0,0,0,0,0,0,0,0,0,0,
0,0,0,0,0,0,0,0,0,0,0,0,0,0,0,0,0,0,0,0,0,0,0,0,0,0,0,0,0,0,0,0,0,0,0,0,0,0,0,0,0,0,0,0,0,0,0,0,0,0,
0,0,0,0,0,0,0,0,0,0,0,0,0,0,0,0,0,0,0,0,0,0,0,0,0,0,0,0,0,0,0,0,0,0,0,0,0,0,0,0,0,0,0,0,0,0,0,0,0,0,
0,0,0,0,0,0,0,0,0,0,0,0,0,0,0,0,0,0,0,0,0,0,0,0,0,0,0,0,0,0,0,0,0,0,0,0,0,0,0,0,0,0,0,0,0,0,0,0,0,0,
0,0,0,0,0,0,0,0,0,0,0,0,0,0,0,0,0,0,0,0,0,0,0,0,0,0,0,0,0,0,0,0,0,0,0,0,0,0,0,0,0,0,0,0,0,0,0,0,0,0,
0,0,0,0,0,0,0,0,0,0,0,0,0,0,0,0,0,0,0,0,0,0,6013,0,0,0,0,0,0,0,0,0,0,0,0,0,0,0,0,0,0,0,0,0,0,0,0,0,0,0,
0,0,0,0,0,0,0,0,0,0,0,0,0,0,0,0,0,0,0,0,0,0,0,0,0,0,0,0,0,0,0,0,0,0,0,0,0,0,0,0,0,0,0,0,0,0,0,0,0,0,
0,0,0,0,0,0,0,0,0,0,0,0,0,0,0,0,0,0,0,0,0,0,6157,0,0,0,0,0,0,0,0,0,0,0,0,0,0,0,0,0,0,0,0,0,0,0,0,0,0,0,
0,0,0,0,0,0,0,0,0,0,0,0,0,0,0,0,0,0,0,0,0,0,0,0,0,0,0,0,0,0,0,0,0,0,0,0,0,0,0,0,0,0,0,0,0,0,0,0,0,0,
0,0,0,0,0,0,0,0,0,0,0,0,0,0,0,0,0,0,0,0,0,0,6013,0,0,0,0,0,0,0,0,0,0,0,0,0,0,0,0,0,0,0,0,0,0,0,0,0,0,0,
0,0,0,0,0,0,0,0,0,0,0,0,0,0,0,0,0,0,0,0,0,0,0,0,0,0,0,0,0,0,0,0,0,0,0,0,0,0,0,0,0,0,0,0,0,0,0,0,0,0,
0,0,0,0,0,0,0,0,0,0,0,0,0,0,0,0,0,0,0,0,0,0,0,0,0,0,0,0,0,0,0,0,0,0,0,0,0,0,0,0,0,0,0,0,0,0,0,0,0,0,
0,0,0,0,0,0,0,0,0,0,0,0,0,0,0,0,0,0,0,0,0,0,0,0,0,0,0,0,0,0,0,0,0,0,0,0,0,0,0,0,0,0,0,0,0,0,0,0,0,0,
0,0,0,0,0,0,0,0,0,0,0,0,0,0,0,0,0,0,0,0,0,0,0,0,0,0,0,0,0,0,0,0,0,0,0,0,0,0,0,0,0,0,0,0,0,0,0,0,0,0,
0,0,0,0,0,0,0,0,0,0,0,0,0,0,0,0,0,0,0,0,0,0,0,0,0,0,0,0,0,0,0,0,0,0,0,0,0,0,0,0,0,0,0,0,0,0,0,0,0,0,
0,0,0,0,0,0,0,0,0,0,0,0,0,0,0,0,0,0,0,0,0,0,0,0,0,0,0,0,0,0,0,0,0,0,0,0,0,0,0,0,0,0,0,0,0,0,0,0,0,0,
0,0,0,0,0,0,0,0,0,0,0,0,0,0,0,0,0,0,0,0,0,0,0,0,0,0,0,0,0,0,0,0,0,0,0,0,0,0,0,0,0,0,0,0,0,0,0,0,0,0,
0,0,0,0,0,0,0,0,0,0,0,0,0,0,0,0,0,0,0,0,0,0,0,0,0,0,0,0,0,0,0,0,0,0,0,0,0,0,0,0,0,0,0,0,0,0,0,0,0,0,
0,0,0,0,0,0,0,0,0,0,0,0,0,0,0,0,0,0,0,0,0,0,0,0,0,0,0,0,0,0,0,0,0,0,0,0,0,0,0,0,0,0,0,0,0,0,0,0,0,0,
0,0,0,0,0,0,0,0,0,0,0,0,0,0,0,0,0,0,0,0,0,0,0,0,0,0,0,0,0,0,0,0,0,0,0,0,0,0,0,0,0,0,0,0,0,0,0,0,0,0,
0,0,0,0,0,0,0,0,0,0,0,0,0,0,0,0,0,0,0,0,0,0,0,0,0,0,0,0,0,0,0,0,0,0,0,0,0,0,0,0,0,0,0,0,0,0,0,0,0,0,
0,0,0,0,0,0,0,0,0,0,0,0,0,0,0,0,0,0,0,0,0,0,0,0,0,0,0,0,0,0,0,0,0,0,0,0,0,0,0,0,0,0,0,0,0,0,0,0,0,0,
0,0,0,0,0,0,0,0,0,0,0,0,0,0,0,0,0,0,0,0,0,0,0,0,0,0,0,0,0,0,0,0,0,0,0,0,0,0,0,0,0,0,0,0,0,0,0,0,0,0,
0,0,0,0,0,0,0,0,0,0,0,0,0,0,0,0,0,0,0,0,0,0,0,0,0,0,0,0,0,0,0,0,0,0,0,0,0,0,0,0,0,0,0,0,0,0,0,0,0,0,
0,0,0,0,0,0,0,0,0,0,0,0,0,0,0,0,0,0,0,0,0,0,0,0,0,0,0,0,0,0,0,0,0,0,0,0,0,0,0,0,0,0,0,0,0,0,0,0,0,0,
0,0,0,0,0,0,0,0,0,0,0,0,0,0,0,0,0,0,0,0,0,0,0,0,0,0,0,0,0,0,0,0,0,0,0,0,0,0,0,0,0,0,0,0,0,0,0,0,0,0,
0,0,0,0,0,0,0,0,0,0,0,0,0,0,0,0,0,0,0,0,0,0,0,0,0,0,0,0,0,0,0,0,0,0,0,0,0,0,0,0,0,0,0,0,0,0,0,0,0,0,
0,0,0,0,0,0,0,0,0,0,0,0,0,0,0,0,0,0,0,0,0,0,0,0,0,0,0,0,0,0,0,0,0,0,0,0,0,0,0,0,0,0,0,0,0,0,0,0,0,0,
0,0,0,0,0,0,0,0,0,0,0,0,0,0,0,0,0,0,0,0,0,0,0,0,0,0,0,0,0,0,0,0,0,0,0,0,0,0,0,0,0,0,0,0,0,0,0,0,0,0,
0,0,0,0,0,0,0,0,0,0,0,0,0,0,0,0,0,0,0,0,0,0,0,0,0,0,0,0,0,0,0,0,0,0,0,0,0,0,0,0,0,0,0,0,0,0,0,0,0,0,
0,0,0,0,0,0,0,0,0,0,0,0,0,0,0,0,0,0,0,0,0,0,0,0,0,0,0,0,0,0,0,0,0,0,0,0,0,0,0,0,0,0,0,0,0,0,0,0,0,0,
0,0,0,0,0,0,0,0,0,0,0,0,0,0,0,0,0,0,0,0,0,0,0,0,0,0,0,0,0,0,0,0,0,0,0,0,0,0,0,0,0,0,0,0,0,0,0,0,0,0,
0,0,0,0,0,0,0,0,0,0,0,0,0,0,0,0,0,0,0,0,0,0,0,0,0,0,0,0,0,0,0,0,0,0,0,0,0,0,0,0,0,0,0,0,0,0,0,0,0,0,
0,0,0,0,0,0,0,0,0,0,0,0,0,0,0,0,0,0,0,0,0,0,0,0,0,0,0,0,0,0,0,0,0,0,0,0,0,0,0,0,0,0,0,0,0,0,0,0,0,0,
0,0,0,0,0,0,0,0,0,0,0,0,0,0,0,0,0,0,0,0,0,0,0,0,0,0,0,0,0,0,0,0,0,0,0,0,0,0,0,0,0,0,0,0,0,0,0,0,0,0,
0,0,0,0,0,0,0,0,0,0,0,0,0,0,0,0,0,0,0,0,0,0,0,0,0,0,0,0,0,0,0,0,0,0,0,0,0,0,0,0,0,0,0,0,0,0,0,0,0,0,
0,0,0,0,0,0,0,0,0,0,0,0,0,0,0,0,0,0,0,0,0,0,0,0,0,0,0,0,0,0,0,0,0,0,0,0,0,0,0,0,0,0,0,0,0,0,0,0,0,0,
0,0,0,0,0,0,0,0,0,0,0,0,0,0,0,0,0,0,0,0,0,0,0,0,0,0,0,0,0,0,0,0,0,0,6042,0,0,0,0,0,0,0,0,0,0,0,0,0,0,0,
0,0,0,0,0,0,0,0,0,0,0,0,0,0,0,0,0,0,0,0,0,0,0,0,0,0,0,0,0,0,0,0,0,0,0,0,0,0,0,0,0,0,0,0,0,0,0,0,0,0,
0,0,0,0,0,0,0,0,0,0,0,0,0,0,0,0,0,0,0,0,0,0,0,0,0,0,0,0,0,0,0,0,0,0,0,0,0,0,0,0,0,0,0,0,0,0,0,0,0,0,
0,0,0,0,0,0,0,0,0,0,0,0,0,0,0,0,0,0,0,0,0,0,0,0,0,0,0,0,0,0,0,0,0,0,0,0,0,0,0,0,0,0,0,0,0,0,0,0,0,0,
0,0,0,0,0,0,0,0,0,0,0,0,0,0,0,0,0,0,0,0,0,0,0,0,0,0,0,0,0,0,0,0,0,0,0,0,0,0,0,0,0,0,0,0,0,0,0,0,0,0,
0,0,0,0,0,0,0,0,0,0,0,0,0,0,0,0,0,0,0,0,0,0,0,0,0,0,0,0,0,0,0,0,0,0,0,0,0,0,0,0,0,0,0,0,0,0,0,0,0,0,
0,0,0,0,0,0,0,0,0,0,0,0,0,0,0,0,0,0,0,0,0,0,0,0,0,0,0,0,0,0,0,0,0,0,0,0,0,0,0,0,0,0,0,0,0,0,0,0,0,0,
0,0,0,0,0,0,0,0,0,0,0,0,0,0,0,0,0,0,0,0,0,0,0,0,0,0,0,0,0,0,0,0,0,0,0,0,0,0,0,0,0,0,0,0,0,0,0,0,0,0,
0,0,0,0,0,0,0,0,0,0,0,0,0,0,0,0,0,0,0,0,0,0,0,0,0,0,0,0,0,0,0,0,0,0,0,0,0,0,0,0,0,0,0,0,0,0,0,0,0,0,
0,0,0,0,0,0,0,0,0,0,0,0,0,0,0,0,0,0,0,0,0,0,0,0,0,0,0,0,0,0,0,0,0,0,0,0,0,0,0,0,0,0,0,0,0,0,0,0,0,0,
0,0,0,0,0,0,0,0,0,0,0,0,0,0,0,0,0,0,0,0,0,0,0,0,0,0,0,0,0,0,0,0,0,0,0,0,0,0,0,0,0,0,0,0,0,0,0,0,0,0,
0,0,0,0,0,0,0,0,0,0,0,0,0,0,0,0,0,0,0,0,0,0,0,0,0,0,0,0,0,0,0,0,0,0,0,0,0,0,0,0,0,0,0,0,0,0,0,0,0,0,
0,0,0,0,0,0,0,0,0,0,0,0,0,0,0,0,0,0,0,0,0,0,0,0,0,0,0,0,0,0,0,0,0,0,0,0,0,0,0,0,0,0,0,0,0,0,0,0,0,0,
0,0,0,0,0,0,0,0,0,0,0,0,0,0,0,0,0,0,0,0,0,0,0,0,0,0,0,0,0,0,0,0,0,0,0,0,0,0,0,0,0,0,0,0,0,0,0,0,0,0,
0,0,0,0,0,0,0,0,0,0,0,0,0,0,0,0,0,0,0,0,0,0,0,0,0,0,0,0,0,0,0,0,0,0,0,0,0,0,0,0,0,0,0,0,0,0,0,0,0,0,
0,0,0,0,0,0,0,0,0,0,0,0,0,0,0,0,0,0,0,0,0,0,0,0,0,0,0,0,0,0,0,0,0,0,0,0,0,0,0,0,0,0,0,0,0,0,0,0,0,0
</data>
 </layer>
 <objectgroup draworder="index" id="11" name="Instances">
  <object id="15" template="../../../templates/dungeon/obj_dungeon_elevator.tx" type="obj_dungeon_elevator" x="112" y="344"/>
  <object id="16" template="../../../templates/obj_seal_tablet.tx" type="obj_seal_tablet" x="184" y="208">
   <properties>
    <property name="seal_id" type="int" propertytype="Seal" value="4"/>
   </properties>
  </object>
  <object id="17" template="../../../templates/obj_seal_altar.tx" type="obj_seal_altar" x="72" y="269">
   <properties>
    <property name="item_id" value="breath_of_fire"/>
   </properties>
  </object>
  <object id="18" template="../../../templates/obj_seal_altar.tx" type="obj_seal_altar" x="96" y="245">
   <properties>
    <property name="item_id" value="smoke_moth"/>
    <property name="sin_wave_offset" type="int" value="1"/>
   </properties>
  </object>
  <object id="19" template="../../../templates/obj_seal_altar.tx" type="obj_seal_altar" x="280" y="245">
   <properties>
    <property name="item_id" value="firesail_fish"/>
    <property name="sin_wave_offset" type="int" value="1"/>
   </properties>
  </object>
  <object id="20" template="../../../templates/obj_seal_altar.tx" type="obj_seal_altar" x="304" y="269">
   <properties>
    <property name="item_id" value="obsidian"/>
   </properties>
  </object>
 </objectgroup>
 <objectgroup draworder="index" id="12" name="Lighting" visible="0">
  <object id="21" template="../../../templates/system/lighting/lights/obj_light_small.tx" type="obj_light_small" x="285" y="224"/>
  <object id="22" template="../../../templates/system/lighting/lights/obj_light_small.tx" type="obj_light_small" x="35" y="224"/>
  <object id="23" template="../../../templates/system/lighting/lights/obj_light_med.tx" type="obj_light_med" x="152" y="152"/>
  <object id="24" template="../../../templates/system/lighting/lights/obj_light_small.tx" type="obj_light_small" x="129" y="160"/>
  <object id="25" template="../../../templates/system/lighting/lights/obj_light_small.tx" type="obj_light_small" x="191" y="160"/>
 </objectgroup>
 <layer id="13" name="FootstepTiles" width="50" height="56" visible="0">
  <properties>
   <property name="maybe_animation_id" value="9b6388374855b54b"/>
   <property name="maybe_tileset_id" value="5fc72aa2902dea7"/>
   <property name="tile_size" type="int" value="16"/>
  </properties>
  <data encoding="csv">
1511,0,1511,0,1511,0,1511,0,1511,0,1511,0,1511,0,1511,0,1511,0,1511,0,1511,0,1511,0,1511,0,1511,0,1511,0,1511,0,1511,0,1511,0,1511,0,1511,0,1511,0,1511,0,1511,0,1511,0,0,0,
0,0,0,0,0,0,0,0,0,0,0,0,0,0,0,0,0,0,0,0,0,0,0,0,0,0,0,0,0,0,0,0,0,0,0,0,0,0,0,0,0,0,0,0,0,0,0,0,0,0,
1511,0,1511,0,1511,0,1511,0,1511,0,1511,0,1511,0,1511,0,1511,0,1511,0,1511,0,1511,0,1511,0,1511,0,1511,0,1511,0,1511,0,1511,0,1511,0,1511,0,1511,0,1511,0,1511,0,1511,0,0,0,
0,0,0,0,0,0,0,0,0,0,0,0,0,0,0,0,0,0,0,0,0,0,0,0,0,0,0,0,0,0,0,0,0,0,0,0,0,0,0,0,0,0,0,0,0,0,0,0,0,0,
1511,0,1511,0,1511,0,1511,0,1511,0,1511,0,1511,0,1511,0,1511,0,1511,0,1513,0,1513,0,1513,0,1513,0,1513,0,1511,0,1511,0,1511,0,1511,0,1511,0,1511,0,1511,0,1511,0,1511,0,0,0,
0,0,0,0,0,0,0,0,0,0,0,0,0,0,0,0,0,0,0,0,0,0,0,0,0,0,0,0,0,0,0,0,0,0,0,0,0,0,0,0,0,0,0,0,0,0,0,0,0,0,
1511,0,1511,0,1511,0,1511,0,1511,0,1511,0,1511,0,1511,0,1511,0,1511,0,1513,0,1513,0,1513,0,1513,0,1513,0,1511,0,1511,0,1511,0,1511,0,1511,0,1511,0,1511,0,1511,0,1511,0,0,0,
0,0,0,0,0,0,0,0,0,0,0,0,0,0,0,0,0,0,0,0,0,0,0,0,0,0,0,0,0,0,0,0,0,0,0,0,0,0,0,0,0,0,0,0,0,0,0,0,0,0,
1511,0,1511,0,1511,0,1511,0,1511,0,1511,0,1511,0,1511,0,1511,0,1511,0,1513,0,1513,0,1513,0,1513,0,1513,0,1511,0,1511,0,1511,0,1511,0,1511,0,1511,0,1511,0,1511,0,1511,0,0,0,
0,0,0,0,0,0,0,0,0,0,0,0,0,0,0,0,0,0,0,0,0,0,0,0,0,0,0,0,0,0,0,0,0,0,0,0,0,0,0,0,0,0,0,0,0,0,0,0,0,0,
1511,0,1511,0,1511,0,1511,0,1511,0,1511,0,1511,0,1511,0,1511,0,1511,0,1513,0,1513,0,1513,0,1513,0,1513,0,1511,0,1511,0,1511,0,1511,0,1511,0,1511,0,1511,0,1511,0,1511,0,0,0,
0,0,0,0,0,0,0,0,0,0,0,0,0,0,0,0,0,0,0,0,0,0,0,0,0,0,0,0,0,0,0,0,0,0,0,0,0,0,0,0,0,0,0,0,0,0,0,0,0,0,
1511,0,1511,0,1511,0,1511,0,1511,0,1511,0,1511,0,1511,0,1511,0,1511,0,1513,0,1513,0,1513,0,1513,0,1513,0,1511,0,1511,0,1511,0,1511,0,1511,0,1511,0,1511,0,1511,0,1511,0,0,0,
0,0,0,0,0,0,0,0,0,0,0,0,0,0,0,0,0,0,0,0,0,0,0,0,0,0,0,0,0,0,0,0,0,0,0,0,0,0,0,0,0,0,0,0,0,0,0,0,0,0,
1511,0,1511,0,1511,0,1511,0,1511,0,1511,0,1511,0,1511,0,1511,0,1511,0,1513,0,1513,0,1513,0,1513,0,1513,0,1511,0,1511,0,1511,0,1511,0,1511,0,1511,0,1511,0,1511,0,1511,0,0,0,
0,0,0,0,0,0,0,0,0,0,0,0,0,0,0,0,0,0,0,0,0,0,0,0,0,0,0,0,0,0,0,0,0,0,0,0,0,0,0,0,0,0,0,0,0,0,0,0,0,0,
1511,0,1511,0,1511,0,1511,0,1511,0,1511,0,1511,0,1511,0,1511,0,1513,0,1513,0,1513,0,1513,0,1513,0,1513,0,1513,0,1511,0,1511,0,1511,0,1511,0,1511,0,1511,0,1511,0,1511,0,0,0,
0,0,0,0,0,0,0,0,0,0,0,0,0,0,0,0,0,0,0,0,0,0,0,0,0,0,0,0,0,0,0,0,0,0,0,0,0,0,0,0,0,0,0,0,0,0,0,0,0,0,
1511,0,1511,0,1511,0,1511,0,1511,0,1513,0,1513,0,1513,0,1513,0,1513,0,1513,0,1513,0,1513,0,1513,0,1513,0,1513,0,1513,0,1513,0,1513,0,1513,0,1511,0,1511,0,1511,0,1511,0,0,0,
0,0,0,0,0,0,0,0,0,0,0,0,0,0,0,0,0,0,0,0,0,0,0,0,0,0,0,0,0,0,0,0,0,0,0,0,0,0,0,0,0,0,0,0,0,0,0,0,0,0,
1511,0,1511,0,1511,0,1511,0,1513,0,1513,0,1513,0,1513,0,1513,0,1513,0,1513,0,1513,0,1513,0,1513,0,1513,0,1513,0,1513,0,1513,0,1513,0,1513,0,1513,0,1511,0,1511,0,1511,0,0,0,
0,0,0,0,0,0,0,0,0,0,0,0,0,0,0,0,0,0,0,0,0,0,0,0,0,0,0,0,0,0,0,0,0,0,0,0,0,0,0,0,0,0,0,0,0,0,0,0,0,0,
1511,0,1511,0,1511,0,1511,0,1513,0,1513,0,1513,0,1513,0,1513,0,1513,0,1513,0,1513,0,1513,0,1513,0,1513,0,1513,0,1513,0,1513,0,1513,0,1513,0,1513,0,1511,0,1511,0,1511,0,0,0,
0,0,0,0,0,0,0,0,0,0,0,0,0,0,0,0,0,0,0,0,0,0,0,0,0,0,0,0,0,0,0,0,0,0,0,0,0,0,0,0,0,0,0,0,0,0,0,0,0,0,
1511,0,1511,0,1511,0,1511,0,1513,0,1513,0,1513,0,1513,0,1513,0,1513,0,1513,0,1513,0,1513,0,1513,0,1513,0,1513,0,1513,0,1513,0,1513,0,1513,0,1513,0,1511,0,1511,0,1511,0,0,0,
0,0,0,0,0,0,0,0,0,0,0,0,0,0,0,0,0,0,0,0,0,0,0,0,0,0,0,0,0,0,0,0,0,0,0,0,0,0,0,0,0,0,0,0,0,0,0,0,0,0,
1511,0,1511,0,1511,0,1511,0,1513,0,1513,0,1513,0,1513,0,1513,0,1513,0,1513,0,1513,0,1513,0,1513,0,1513,0,1513,0,1513,0,1513,0,1513,0,1513,0,1513,0,1511,0,1511,0,1511,0,0,0,
0,0,0,0,0,0,0,0,0,0,0,0,0,0,0,0,0,0,0,0,0,0,0,0,0,0,0,0,0,0,0,0,0,0,0,0,0,0,0,0,0,0,0,0,0,0,0,0,0,0,
1511,0,1511,0,1511,0,1511,0,1513,0,1513,0,1513,0,1513,0,1513,0,1513,0,1513,0,1513,0,1513,0,1513,0,1513,0,1513,0,1513,0,1513,0,1513,0,1513,0,1513,0,1511,0,1511,0,1511,0,0,0,
0,0,0,0,0,0,0,0,0,0,0,0,0,0,0,0,0,0,0,0,0,0,0,0,0,0,0,0,0,0,0,0,0,0,0,0,0,0,0,0,0,0,0,0,0,0,0,0,0,0,
1511,0,1511,0,1511,0,1511,0,1513,0,1513,0,1513,0,1513,0,1513,0,1513,0,1513,0,1513,0,1513,0,1513,0,1513,0,1513,0,1513,0,1513,0,1513,0,1513,0,1513,0,1511,0,1511,0,1511,0,0,0,
0,0,0,0,0,0,0,0,0,0,0,0,0,0,0,0,0,0,0,0,0,0,0,0,0,0,0,0,0,0,0,0,0,0,0,0,0,0,0,0,0,0,0,0,0,0,0,0,0,0,
1511,0,1511,0,1511,0,1511,0,1513,0,1513,0,1513,0,1513,0,1513,0,1513,0,1513,0,1513,0,1513,0,1513,0,1513,0,1513,0,1513,0,1513,0,1513,0,1513,0,1513,0,1511,0,1511,0,1511,0,0,0,
0,0,0,0,0,0,0,0,0,0,0,0,0,0,0,0,0,0,0,0,0,0,0,0,0,0,0,0,0,0,0,0,0,0,0,0,0,0,0,0,0,0,0,0,0,0,0,0,0,0,
1511,0,1511,0,1511,0,1511,0,1513,0,1513,0,1513,0,1513,0,1513,0,1513,0,1513,0,1513,0,1513,0,1513,0,1513,0,1513,0,1513,0,1513,0,1513,0,1513,0,1513,0,1511,0,1511,0,1511,0,0,0,
0,0,0,0,0,0,0,0,0,0,0,0,0,0,0,0,0,0,0,0,0,0,0,0,0,0,0,0,0,0,0,0,0,0,0,0,0,0,0,0,0,0,0,0,0,0,0,0,0,0,
1511,0,1511,0,1511,0,1511,0,1513,0,1513,0,1513,0,1513,0,1513,0,1513,0,1513,0,1513,0,1513,0,1513,0,1513,0,1513,0,1513,0,1513,0,1513,0,1513,0,1513,0,1511,0,1511,0,1511,0,0,0,
0,0,0,0,0,0,0,0,0,0,0,0,0,0,0,0,0,0,0,0,0,0,0,0,0,0,0,0,0,0,0,0,0,0,0,0,0,0,0,0,0,0,0,0,0,0,0,0,0,0,
1511,0,1511,0,1511,0,1511,0,1513,0,1513,0,1513,0,1513,0,1513,0,1513,0,1513,0,1513,0,1513,0,1513,0,1513,0,1513,0,1513,0,1513,0,1513,0,1513,0,1513,0,1511,0,1511,0,1511,0,0,0,
0,0,0,0,0,0,0,0,0,0,0,0,0,0,0,0,0,0,0,0,0,0,0,0,0,0,0,0,0,0,0,0,0,0,0,0,0,0,0,0,0,0,0,0,0,0,0,0,0,0,
1511,0,1511,0,1511,0,1511,0,1513,0,1513,0,1513,0,1513,0,1513,0,1513,0,1513,0,1513,0,1513,0,1513,0,1513,0,1513,0,1513,0,1513,0,1513,0,1513,0,1513,0,1511,0,1511,0,1511,0,0,0,
0,0,0,0,0,0,0,0,0,0,0,0,0,0,0,0,0,0,0,0,0,0,0,0,0,0,0,0,0,0,0,0,0,0,0,0,0,0,0,0,0,0,0,0,0,0,0,0,0,0,
1511,0,1511,0,1511,0,1511,0,1513,0,1513,0,1513,0,1513,0,1513,0,1513,0,1513,0,1513,0,1513,0,1513,0,1513,0,1513,0,1513,0,1513,0,1513,0,1513,0,1513,0,1511,0,1511,0,1511,0,0,0,
0,0,0,0,0,0,0,0,0,0,0,0,0,0,0,0,0,0,0,0,0,0,0,0,0,0,0,0,0,0,0,0,0,0,0,0,0,0,0,0,0,0,0,0,0,0,0,0,0,0,
1511,0,1511,0,1511,0,1511,0,1513,0,1513,0,1513,0,1513,0,1513,0,1513,0,1513,0,1513,0,1513,0,1513,0,1513,0,1513,0,1513,0,1513,0,1513,0,1513,0,1513,0,1511,0,1511,0,1511,0,0,0,
0,0,0,0,0,0,0,0,0,0,0,0,0,0,0,0,0,0,0,0,0,0,0,0,0,0,0,0,0,0,0,0,0,0,0,0,0,0,0,0,0,0,0,0,0,0,0,0,0,0,
1511,0,1511,0,1511,0,1511,0,1511,0,1513,0,1513,0,1513,0,1513,0,1513,0,1513,0,1513,0,1513,0,1513,0,1513,0,1513,0,1513,0,1513,0,1513,0,1513,0,1511,0,1511,0,1511,0,1511,0,0,0,
0,0,0,0,0,0,0,0,0,0,0,0,0,0,0,0,0,0,0,0,0,0,0,0,0,0,0,0,0,0,0,0,0,0,0,0,0,0,0,0,0,0,0,0,0,0,0,0,0,0,
0,0,1511,0,1511,0,1511,0,1511,0,1511,0,1513,0,1513,0,1513,0,1513,0,1513,0,1513,0,1513,0,1513,0,1513,0,1513,0,1513,0,1513,0,1513,0,1511,0,1511,0,1511,0,1511,0,1511,0,0,0,
0,0,0,0,0,0,0,0,0,0,0,0,0,0,0,0,0,0,0,0,0,0,0,0,0,0,0,0,0,0,0,0,0,0,0,0,0,0,0,0,0,0,0,0,0,0,0,0,0,0,
0,0,1511,0,1511,0,1511,0,1511,0,1511,0,1511,0,1511,0,1511,0,1511,0,1511,0,1513,0,1513,0,1513,0,1511,0,1511,0,1511,0,1511,0,1511,0,1511,0,1511,0,1511,0,1511,0,1511,0,0,0,
0,0,0,0,0,0,0,0,0,0,0,0,0,0,0,0,0,0,0,0,0,0,0,0,0,0,0,0,0,0,0,0,0,0,0,0,0,0,0,0,0,0,0,0,0,0,0,0,0,0,
0,0,0,0,0,0,0,0,0,0,0,0,0,0,0,0,0,0,0,0,0,0,1513,0,1513,0,1513,0,0,0,0,0,1511,0,1511,0,1511,0,1511,0,1511,0,1511,0,1511,0,1511,0,0,0,
0,0,0,0,0,0,0,0,0,0,0,0,0,0,0,0,0,0,0,0,0,0,0,0,0,0,0,0,0,0,0,0,0,0,0,0,0,0,0,0,0,0,0,0,0,0,0,0,0,0,
0,0,0,0,0,0,0,0,0,0,0,0,0,0,0,0,0,0,0,0,0,0,1513,0,1513,0,1513,0,0,0,0,0,1511,0,1511,0,1511,0,1511,0,1511,0,1511,0,1511,0,1511,0,0,0,
0,0,0,0,0,0,0,0,0,0,0,0,0,0,0,0,0,0,0,0,0,0,0,0,0,0,0,0,0,0,0,0,0,0,0,0,0,0,0,0,0,0,0,0,0,0,0,0,0,0
</data>
 </layer>
 <layer id="14" name="Tiles_Collision" width="50" height="56">
  <properties>
   <property name="maybe_animation_id" value="d5b5e9552171fe70"/>
   <property name="maybe_tileset_id" value="b29026a2ad0be741"/>
   <property name="tile_size" type="int" value="8"/>
  </properties>
  <data encoding="csv">
1507,1507,1507,1507,1507,1507,1507,1507,1507,1507,1507,1507,1507,1507,1507,1507,1507,1507,1507,1507,1507,1507,1507,1507,1507,1507,1507,1507,1507,1507,1507,1507,1507,1507,1507,1507,1507,1507,1507,1507,1507,1507,1507,1507,1507,1507,1507,1507,1507,1507,
1507,1507,1507,1507,1507,1507,1507,1507,1507,1507,1507,1507,1507,1507,1507,1507,1507,1507,1507,1507,1507,1507,1507,1507,1507,1507,1507,1507,1507,1507,1507,1507,1507,1507,1507,1507,1507,1507,1507,1507,1507,1507,1507,1507,1507,1507,1507,1507,1507,1507,
1507,1507,1507,1507,1507,1507,1507,1507,1507,1507,1507,1507,1507,1507,1507,1507,1507,1507,1507,1507,1507,1507,1507,1507,1507,1507,1507,1507,1507,1507,1507,1507,1507,1507,1507,1507,1507,1507,1507,1507,1507,1507,1507,1507,1507,1507,1507,1507,1507,1507,
1507,1507,1507,1507,1507,1507,1507,1507,1507,1507,1507,1507,1507,1507,1507,1507,1507,1507,1507,1507,1507,1507,1507,1507,1507,1507,1507,1507,1507,1507,1507,1507,1507,1507,1507,1507,1507,1507,1507,1507,1507,1507,1507,1507,1507,1507,1507,1507,1507,1507,
1507,1507,1507,1507,1507,1507,1507,1507,1507,1507,1507,1507,1507,1507,1507,1507,1507,1507,1507,1507,1507,1507,1507,1507,1507,1507,1507,1507,1507,1507,1507,1507,1507,1507,1507,1507,1507,1507,1507,1507,1507,1507,1507,1507,1507,1507,1507,1507,1507,1507,
1507,1507,1507,1507,1507,1507,1507,1507,1507,1507,1507,1507,1507,1507,1507,1507,1507,1507,1507,1507,1507,1507,1507,1507,1507,1507,1507,1507,1507,1507,1507,1507,1507,1507,1507,1507,1507,1507,1507,1507,1507,1507,1507,1507,1507,1507,1507,1507,1507,1507,
1507,1507,1507,1507,1507,1507,1507,1507,1507,1507,1507,1507,1507,1507,1507,1507,1507,1507,1507,1507,1507,1507,1507,1507,1507,1507,1507,1507,1507,1507,1507,1507,1507,1507,1507,1507,1507,1507,1507,1507,1507,1507,1507,1507,1507,1507,1507,1507,1507,1507,
1507,1507,1507,1507,1507,1507,1507,1507,1507,1507,1507,1507,1507,1507,1507,1507,1507,1507,1507,1507,1507,1507,1507,1507,1507,1507,1507,1507,1507,1507,1507,1507,1507,1507,1507,1507,1507,1507,1507,1507,1507,1507,1507,1507,1507,1507,1507,1507,1507,1507,
1507,1507,1507,1507,1507,1507,1507,1507,1507,1507,1507,1507,1507,1507,1507,1507,1507,1507,1507,1507,1507,1507,1507,1507,1507,1507,1507,1507,1507,1507,1507,1507,1507,1507,1507,1507,1507,1507,1507,1507,1507,1507,1507,1507,1507,1507,1507,1507,1507,1507,
1507,1507,1507,1507,1507,1507,1507,1507,1507,1507,1507,1507,1507,1507,1507,1507,1507,1507,1507,1507,1507,1507,1504,1504,1504,1504,1504,1504,1507,1507,1507,1507,1507,1507,1507,1507,1507,1507,1507,1507,1507,1507,1507,1507,1507,1507,1507,1507,1507,1507,
1507,1507,1507,1507,1507,1507,1507,1507,1507,1507,1507,1507,1507,1507,1507,1507,1507,1507,1507,1507,1507,1507,1504,1504,1504,1504,1504,1504,1507,1507,1507,1507,1507,1507,1507,1507,1507,1507,1507,1507,1507,1507,1507,1507,1507,1507,1507,1507,1507,1507,
1507,1507,1507,1507,1507,1507,1507,1507,1507,1507,1507,1507,1507,1507,1507,1507,1507,1507,1507,1507,1507,1507,1504,1504,1504,1504,1504,1504,1507,1507,1507,1507,1507,1507,1507,1507,1507,1507,1507,1507,1507,1507,1507,1507,1507,1507,1507,1507,1507,1507,
1507,1507,1507,1507,1507,1507,1507,1507,1507,1507,1507,1507,1507,1507,1507,1507,1507,1507,1507,1507,1507,1507,1504,1504,1504,1504,1504,1504,1507,1507,1507,1507,1507,1507,1507,1507,1507,1507,1507,1507,1507,1507,1507,1507,1507,1507,1507,1507,1507,1507,
1507,1507,1507,1507,1507,1507,1507,1507,1507,1507,1507,1507,1507,1507,1507,1507,1507,1507,1507,1507,1507,1507,1504,1504,1504,1504,1504,1504,1507,1507,1507,1507,1507,1507,1507,1507,1507,1507,1507,1507,1507,1507,1507,1507,1507,1507,1507,1507,1507,1507,
1507,1507,1507,1507,1507,1507,1507,1507,1507,1507,1507,1507,1507,1507,1507,1507,1507,1507,1507,1507,1507,1507,1504,1504,1504,1504,1504,1504,1507,1507,1507,1507,1507,1507,1507,1507,1507,1507,1507,1507,1507,1507,1507,1507,1507,1507,1507,1507,1507,1507,
1507,1507,1507,1507,1507,1507,1507,1507,1507,1507,1507,1507,1507,1507,1507,1507,1507,1507,1507,1507,1507,1507,1504,1504,1504,1504,1504,1504,1507,1507,1507,1507,1507,1507,1507,1507,1507,1507,1507,1507,1507,1507,1507,1507,1507,1507,1507,1507,1507,1507,
1507,1507,1507,1507,1507,1507,1507,1507,1507,1507,1507,1507,1507,1507,1507,1507,1507,1507,1507,1507,1507,1507,1504,1504,1504,1504,1504,1504,1507,1507,1507,1507,1507,1507,1507,1507,1507,1507,1507,1507,1507,1507,1507,1507,1507,1507,1507,1507,1507,1507,
1507,1507,1507,1507,1507,1507,1507,1507,1507,1507,1507,1507,1507,1507,1507,1507,1507,1507,1507,1507,1507,1507,1504,1504,1504,1504,1504,1504,1507,1507,1507,1507,1507,1507,1507,1507,1507,1507,1507,1507,1507,1507,1507,1507,1507,1507,1507,1507,1507,1507,
1507,1507,1507,1507,1507,1507,1507,1507,1507,1507,1507,1507,1507,1507,1507,1507,1507,1507,1504,1504,1504,1504,1504,1504,1504,1504,1504,1504,1504,1504,1504,1504,1507,1507,1507,1507,1507,1507,1507,1507,1507,1507,1507,1507,1507,1507,1507,1507,1507,1507,
1507,1507,1507,1507,1507,1507,1507,1507,1507,1507,1507,1504,1504,1504,1504,1507,1507,1507,1504,1504,1504,1504,1504,1504,1504,1504,1504,1504,1504,1504,1504,1504,1507,1507,1507,1504,1504,1504,1504,1507,1507,1507,1507,1507,1507,1507,1507,1507,1507,1507,
1507,1507,1507,1507,1507,1507,1507,1507,1507,1507,1507,1504,1504,1504,1504,1504,1504,1506,1504,1504,1504,1504,1504,1504,1504,1504,1504,1504,1504,1504,1504,1504,1506,1504,1504,1504,1504,1504,1504,1507,1507,1507,1507,1507,1507,1507,1507,1507,1507,1507,
1507,1507,1507,1507,1507,1507,1507,1507,1507,1507,1507,1504,1504,1504,1504,1504,1504,1506,1504,1504,1504,1504,1504,1504,1504,1504,1504,1504,1504,1504,1504,1504,1506,1504,1504,1504,1504,1504,1504,1507,1507,1507,1507,1507,1507,1507,1507,1507,1507,1507,
1507,1507,1507,1507,1507,1507,1507,1507,1504,1504,1504,1504,1504,1504,1504,1504,1504,1506,1504,1504,1504,1504,1504,1504,1504,1504,1504,1504,1504,1504,1504,1504,1506,1504,1504,1504,1504,1504,1504,1504,1504,1504,1507,1507,1507,1507,1507,1507,1507,1507,
1507,1507,1507,1507,1507,1507,1507,1507,1504,1504,1504,1504,1504,1504,1504,1504,1504,1506,1504,1504,1504,1504,1504,1507,1507,1507,1507,1504,1504,1504,1504,1504,1506,1504,1504,1504,1504,1504,1504,1504,1504,1504,1507,1507,1507,1507,1507,1507,1507,1507,
1507,1507,1507,1507,1507,1507,1507,1507,1507,1507,1507,1504,1504,1504,1504,1504,1504,1506,1504,1504,1504,1504,1504,1507,1507,1507,1507,1504,1504,1504,1504,1504,1506,1504,1504,1504,1504,1504,1504,1507,1507,1507,1507,1507,1507,1507,1507,1507,1507,1507,
1507,1507,1507,1507,1507,1507,1507,1507,1507,1507,1507,1504,1504,1504,1504,1504,1504,1506,1504,1504,1504,1504,1504,1504,1504,1504,1504,1504,1504,1504,1504,1504,1506,1504,1504,1504,1504,1504,1504,1507,1507,1507,1507,1507,1507,1507,1507,1507,1507,1507,
1507,1507,1507,1507,1507,1507,1507,1507,1504,1504,1504,1504,1504,1504,1504,1504,1504,1506,1504,1504,1504,1504,1504,1504,1504,1504,1504,1504,1504,1504,1504,1504,1506,1504,1504,1504,1504,1504,1504,1504,1504,1504,1507,1507,1507,1507,1507,1507,1507,1507,
1507,1507,1507,1507,1507,1507,1507,1507,1504,1504,1504,1504,1504,1504,1504,1504,1504,1506,1504,1504,1504,1504,1504,1504,1504,1504,1504,1504,1504,1504,1504,1504,1506,1504,1504,1504,1504,1504,1504,1504,1504,1504,1507,1507,1507,1507,1507,1507,1507,1507,
1507,1507,1507,1507,1507,1507,1507,1507,1504,1504,1504,1504,1507,1507,1507,1504,1504,1506,1504,1504,1504,1504,1504,1504,1504,1504,1504,1504,1504,1504,1504,1504,1506,1504,1504,1507,1507,1507,1504,1504,1504,1504,1507,1507,1507,1507,1507,1507,1507,1507,
1507,1507,1507,1507,1507,1507,1507,1507,1504,1504,1504,1504,1507,1507,1507,1504,1504,1506,1504,1504,1504,1504,1504,1504,1504,1504,1504,1504,1504,1504,1504,1504,1506,1504,1504,1507,1507,1507,1504,1504,1504,1504,1507,1507,1507,1507,1507,1507,1507,1507,
1507,1507,1507,1507,1507,1507,1507,1507,1504,1504,1504,1504,1504,1504,1504,1504,1504,1506,1504,1504,1504,1504,1504,1504,1504,1504,1504,1504,1504,1504,1504,1504,1506,1504,1504,1504,1504,1504,1504,1504,1504,1504,1507,1507,1507,1507,1507,1507,1507,1507,
1507,1507,1507,1507,1507,1507,1507,1507,1504,1507,1507,1507,1504,1504,1504,1504,1504,1506,1504,1504,1504,1504,1504,1504,1504,1504,1504,1504,1504,1504,1504,1504,1506,1504,1504,1504,1504,1504,1507,1507,1507,1504,1507,1507,1507,1507,1507,1507,1507,1507,
1507,1507,1507,1507,1507,1507,1507,1507,1504,1507,1507,1507,1504,1504,1504,1504,1504,1504,1504,1504,1504,1504,1504,1504,1504,1504,1504,1504,1504,1504,1504,1504,1504,1504,1504,1504,1504,1504,1507,1507,1507,1504,1507,1507,1507,1507,1507,1507,1507,1507,
1507,1507,1507,1507,1507,1507,1507,1507,1504,1504,1504,1504,1504,1504,1504,1504,1504,1504,1504,1504,1504,1504,1504,1504,1504,1504,1504,1504,1504,1504,1504,1504,1504,1504,1504,1504,1504,1504,1504,1504,1504,1504,1507,1507,1507,1507,1507,1507,1507,1507,
1507,1507,1507,1507,1507,1507,1507,1507,1504,1504,1504,1504,1504,1504,1504,1504,1504,1504,1504,1504,1504,1504,1504,1504,1504,1504,1504,1504,1504,1504,1504,1504,1504,1504,1504,1504,1504,1504,1504,1504,1504,1504,1507,1507,1507,1507,1507,1507,1507,1507,
1507,1507,1507,1507,1507,1507,1507,1507,1504,1504,1504,1504,1504,1504,1504,1504,1504,1504,1504,1504,1504,1504,1504,1507,1507,1507,1507,1504,1504,1504,1504,1504,1504,1504,1504,1504,1504,1504,1504,1504,1504,1504,1507,1507,1507,1507,1507,1507,1507,1507,
1507,1507,1507,1507,1507,1507,1507,1507,1504,1504,1504,1504,1504,1504,1504,1504,1504,1504,1504,1504,1504,1504,1504,1507,1507,1507,1507,1504,1504,1504,1504,1504,1504,1504,1504,1504,1504,1504,1504,1504,1504,1504,1507,1507,1507,1507,1507,1507,1507,1507,
1507,1507,1507,1507,1507,1507,1507,1507,1504,1504,1504,1504,1504,1504,1504,1504,1504,1504,1504,1504,1504,1504,1504,1504,1504,1504,1504,1504,1504,1504,1504,1504,1504,1504,1504,1504,1504,1504,1504,1504,1504,1504,1507,1507,1507,1507,1507,1507,1507,1507,
1507,1507,1507,1507,1507,1507,1507,1507,1504,1504,1504,1504,1504,1504,1504,1504,1504,1504,1504,1504,1504,1504,1504,1504,1504,1504,1504,1504,1504,1504,1504,1504,1504,1504,1504,1504,1504,1504,1504,1504,1504,1504,1507,1507,1507,1507,1507,1507,1507,1507,
1507,1507,1507,1507,1507,1507,1507,1507,1504,1504,1504,1504,1504,1504,1504,1504,1504,1504,1504,1504,1504,1504,1504,1504,1504,1504,1504,1504,1504,1504,1504,1504,1504,1504,1504,1504,1504,1504,1504,1504,1504,1504,1507,1507,1507,1507,1507,1507,1507,1507,
1507,1507,1507,1507,1507,1507,1507,1507,1504,1504,1504,1504,1504,1504,1504,1504,1504,1504,1504,1504,1504,1504,1504,1504,1504,1504,1504,1504,1504,1504,1504,1504,1504,1504,1504,1504,1504,1504,1504,1504,1504,1504,1507,1507,1507,1507,1507,1507,1507,1507,
1507,1507,1507,1507,1507,1507,1507,1507,1504,1504,1504,1504,1504,1504,1504,1504,1504,1504,1504,1504,1504,1504,1504,1504,1504,1504,1504,1504,1504,1504,1504,1504,1504,1504,1504,1504,1504,1504,1504,1504,1504,1504,1507,1507,1507,1507,1507,1507,1507,1507,
1507,1507,1507,1507,1507,1507,1507,1507,1504,1504,1504,1504,1504,1504,1504,1504,1504,1504,1504,1504,1504,1504,1504,1504,1504,1504,1504,1504,1504,1504,1504,1504,1504,1504,1504,1504,1504,1504,1504,1504,1504,1504,1507,1507,1507,1507,1507,1507,1507,1507,
1507,1507,1507,1507,1507,1507,1507,1507,1504,1504,1504,1504,1504,1504,1504,1504,1504,1504,1504,1504,1504,1504,1504,1504,1504,1504,1504,1504,1504,1504,1504,1504,1504,1504,1504,1504,1504,1504,1504,1504,1504,1504,1507,1507,1507,1507,1507,1507,1507,1507,
1507,1507,1507,1507,1507,1507,1507,1507,1504,1504,1504,1504,1504,1504,1504,1504,1504,1504,1504,1504,1504,1504,1504,1504,1504,1504,1504,1504,1504,1504,1504,1504,1504,1504,1504,1504,1504,1504,1504,1504,1504,1504,1507,1507,1507,1507,1507,1507,1507,1507,
1507,1507,1507,1507,1507,1507,1507,1507,1507,1504,1504,1504,1504,1504,1504,1504,1504,1504,1504,1504,1504,1504,1504,1504,1504,1504,1504,1504,1504,1504,1504,1504,1504,1504,1504,1504,1504,1504,1504,1504,1504,1507,1507,1507,1507,1507,1507,1507,1507,1507,
1507,1507,1507,1507,1507,1507,1507,1507,1507,1507,1504,1504,1504,1504,1504,1504,1504,1504,1504,1504,1504,1504,1504,1504,1504,1504,1504,1504,1504,1504,1504,1504,1504,1504,1504,1504,1504,1504,1504,1504,1507,1507,1507,1507,1507,1507,1507,1507,1507,1507,
1507,1507,1507,1507,1507,1507,1507,1507,1507,1507,1507,1504,1504,1504,1504,1504,1504,1504,1504,1504,1504,1504,1504,1504,1504,1504,1504,1504,1504,1504,1504,1504,1504,1504,1504,1504,1504,1504,1504,1507,1507,1507,1507,1507,1507,1507,1507,1507,1507,1507,
1507,1507,1507,1507,1507,1507,1507,1507,1507,1507,1507,1507,1504,1504,1504,1504,1504,1504,1504,1504,1504,1504,1504,1504,1504,1504,1504,1504,1504,1504,1504,1504,1504,1504,1504,1504,1504,1504,1507,1507,1507,1507,1507,1507,1507,1507,1507,1507,1507,1507,
1507,1507,1507,1507,1507,1507,1507,1507,1507,1507,1507,1507,1507,1507,1507,1507,1507,1507,1507,1507,1507,1507,1504,1504,1504,1504,1504,1504,1507,1507,1507,1507,1507,1507,1507,1507,1507,1507,1507,1507,1507,1507,1507,1507,1507,1507,1507,1507,1507,1507,
1507,1507,1507,1507,1507,1507,1507,1507,1507,1507,1507,1507,1507,1507,1507,1507,1507,1507,1507,1507,1507,1507,1504,1504,1504,1504,1504,1504,1507,1507,1507,1507,1507,1507,1507,1507,1507,1507,1507,1507,1507,1507,1507,1507,1507,1507,1507,1507,1507,1507,
1507,1507,1507,1507,1507,1507,1507,1507,1507,1507,1507,1507,1507,1507,1507,1507,1507,1507,1507,1507,1507,1507,1504,1504,1504,1504,1504,1504,1507,1507,1507,1507,1507,1507,1507,1507,1507,1507,1507,1507,1507,1507,1507,1507,1507,1507,1507,1507,1507,1507,
1507,1507,1507,1507,1507,1507,1507,1507,1507,1507,1507,1507,1507,1507,1507,1507,1507,1507,1507,1507,1507,1507,1504,1504,1504,1504,1504,1504,1507,1507,1507,1507,1507,1507,1507,1507,1507,1507,1507,1507,1507,1507,1507,1507,1507,1507,1507,1507,1507,1507,
1507,1507,1507,1507,1507,1507,1507,1507,1507,1507,1507,1507,1507,1507,1507,1507,1507,1507,1507,1507,1507,1507,1504,1504,1504,1504,1504,1504,1507,1507,1507,1507,1507,1507,1507,1507,1507,1507,1507,1507,1507,1507,1507,1507,1507,1507,1507,1507,1507,1507,
1507,1507,1507,1507,1507,1507,1507,1507,1507,1507,1507,1507,1507,1507,1507,1507,1507,1507,1507,1507,1507,1507,1504,1504,1504,1504,1504,1504,1507,1507,1507,1507,1507,1507,1507,1507,1507,1507,1507,1507,1507,1507,1507,1507,1507,1507,1507,1507,1507,1507,
1507,1507,1507,1507,1507,1507,1507,1507,1507,1507,1507,1507,1507,1507,1507,1507,1507,1507,1507,1507,1507,1507,1507,1507,1507,1507,1507,1507,1507,1507,1507,1507,1507,1507,1507,1507,1507,1507,1507,1507,1507,1507,1507,1507,1507,1507,1507,1507,1507,1507
</data>
 </layer>
 <layer id="15" name="Tiles_Rules" width="50" height="56" visible="0">
  <properties>
   <property name="maybe_animation_id" value="f525790c1101b1a1"/>
   <property name="maybe_tileset_id" value="a3b6ca91b299d4f5"/>
   <property name="tile_size" type="int" value="8"/>
  </properties>
  <data encoding="csv">
6181,6181,6181,6181,6181,6181,6181,6181,6181,6181,6181,6181,6181,6181,6181,6181,6181,6181,6181,6181,6181,6181,6181,6181,6181,6181,6181,6181,6181,6181,6181,6181,6181,6181,6181,6181,6181,6181,6181,6181,6181,6181,6181,6181,6181,6181,6181,6181,6181,6181,
6181,6181,6181,6181,6181,6181,6181,6181,6181,6181,6181,6181,6181,6181,6181,6181,6181,6181,6181,6181,6181,6181,6181,6181,6181,6181,6181,6181,6181,6181,6181,6181,6181,6181,6181,6181,6181,6181,6181,6181,6181,6181,6181,6181,6181,6181,6181,6181,6181,6181,
6181,6181,6181,6181,6181,6181,6181,6181,6181,6181,6181,6181,6181,6181,6181,6181,6181,6181,6181,6181,6181,6181,6181,6181,6181,6181,6181,6181,6181,6181,6181,6181,6181,6181,6181,6181,6181,6181,6181,6181,6181,6181,6181,6181,6181,6181,6181,6181,6181,6181,
6181,6181,6181,6181,6181,6181,6181,6181,6181,6181,6181,6181,6181,6181,6181,6181,6181,6181,6181,6181,6181,6181,6181,6181,6181,6181,6181,6181,6181,6181,6181,6181,6181,6181,6181,6181,6181,6181,6181,6181,6181,6181,6181,6181,6181,6181,6181,6181,6181,6181,
6181,6181,6181,6181,6181,6181,6181,6181,6181,6181,6181,6181,6181,6181,6181,6181,6181,6181,6181,6181,6181,6181,6181,6181,6181,6181,6181,6181,6181,6181,6181,6181,6181,6181,6181,6181,6181,6181,6181,6181,6181,6181,6181,6181,6181,6181,6181,6181,6181,6181,
6181,6181,6181,6181,6181,6181,6181,6181,6181,6181,6181,6181,6181,6181,6181,6181,6181,6181,6181,6181,6181,6181,6181,6181,6181,6181,6181,6181,6181,6181,6181,6181,6181,6181,6181,6181,6181,6181,6181,6181,6181,6181,6181,6181,6181,6181,6181,6181,6181,6181,
6181,6181,6181,6181,6181,6181,6181,6181,6181,6181,6181,6181,6181,6181,6181,6181,6181,6181,6181,6181,6181,6181,6181,6181,6181,6181,6181,6181,6181,6181,6181,6181,6181,6181,6181,6181,6181,6181,6181,6181,6181,6181,6181,6181,6181,6181,6181,6181,6181,6181,
6181,6181,6181,6181,6181,6181,6181,6181,6181,6181,6181,6181,6181,6181,6181,6181,6181,6181,6181,6181,6181,6181,6181,6181,6181,6181,6181,6181,6181,6181,6181,6181,6181,6181,6181,6181,6181,6181,6181,6181,6181,6181,6181,6181,6181,6181,6181,6181,6181,6181,
6181,6181,6181,6181,6181,6181,6181,6181,6181,6181,6181,6181,6181,6181,6181,6181,6181,6181,6181,6181,6181,6181,6181,6181,6181,6181,6181,6181,6181,6181,6181,6181,6181,6181,6181,6181,6181,6181,6181,6181,6181,6181,6181,6181,6181,6181,6181,6181,6181,6181,
6181,6181,6181,6181,6181,6181,6181,6181,6181,6181,6181,6181,6181,6181,6181,6181,6181,6181,6181,6181,6181,6181,6181,6181,6181,6181,6181,6181,6181,6181,6181,6181,6181,6181,6181,6181,6181,6181,6181,6181,6181,6181,6181,6181,6181,6181,6181,6181,6181,6181,
6181,6181,6181,6181,6181,6181,6181,6181,6181,6181,6181,6181,6181,6181,6181,6181,6181,6181,6181,6181,6181,6181,6181,6181,6181,6181,6181,6181,6181,6181,6181,6181,6181,6181,6181,6181,6181,6181,6181,6181,6181,6181,6181,6181,6181,6181,6181,6181,6181,6181,
6181,6181,6181,6181,6181,6181,6181,6181,6181,6181,6181,6181,6181,6181,6181,6181,6181,6181,6181,6181,6181,6181,6181,6181,6181,6181,6181,6181,6181,6181,6181,6181,6181,6181,6181,6181,6181,6181,6181,6181,6181,6181,6181,6181,6181,6181,6181,6181,6181,6181,
6181,6181,6181,6181,6181,6181,6181,6181,6181,6181,6181,6181,6181,6181,6181,6181,6181,6181,6181,6181,6181,6181,6181,6181,6181,6181,6181,6181,6181,6181,6181,6181,6181,6181,6181,6181,6181,6181,6181,6181,6181,6181,6181,6181,6181,6181,6181,6181,6181,6181,
6181,6181,6181,6181,6181,6181,6181,6181,6181,6181,6181,6181,6181,6181,6181,6181,6181,6181,6181,6181,6181,6181,6181,6181,6181,6181,6181,6181,6181,6181,6181,6181,6181,6181,6181,6181,6181,6181,6181,6181,6181,6181,6181,6181,6181,6181,6181,6181,6181,6181,
6181,6181,6181,6181,6181,6181,6181,6181,6181,6181,6181,6181,6181,6181,6181,6181,6181,6181,6181,6181,6181,6181,6181,6181,6181,6181,6181,6181,6181,6181,6181,6181,6181,6181,6181,6181,6181,6181,6181,6181,6181,6181,6181,6181,6181,6181,6181,6181,6181,6181,
6181,6181,6181,6181,6181,6181,6181,6181,6181,6181,6181,6181,6181,6181,6181,6181,6181,6181,6181,6181,6181,6181,6181,6181,6181,6181,6181,6181,6181,6181,6181,6181,6181,6181,6181,6181,6181,6181,6181,6181,6181,6181,6181,6181,6181,6181,6181,6181,6181,6181,
6181,6181,6181,6181,6181,6181,6181,6181,6181,6181,6181,6181,6181,6181,6181,6181,6181,6181,6181,6181,6181,6181,6181,6181,6181,6181,6181,6181,6181,6181,6181,6181,6181,6181,6181,6181,6181,6181,6181,6181,6181,6181,6181,6181,6181,6181,6181,6181,6181,6181,
6181,6181,6181,6181,6181,6181,6181,6181,6181,6181,6181,6181,6181,6181,6181,6181,6181,6181,6181,6181,6181,6181,6181,6181,6181,6181,6181,6181,6181,6181,6181,6181,6181,6181,6181,6181,6181,6181,6181,6181,6181,6181,6181,6181,6181,6181,6181,6181,6181,6181,
6181,6181,6181,6181,6181,6181,6181,6181,6181,6181,6181,6181,6181,6181,6181,6181,6181,6181,6181,6181,6181,6181,6181,6181,6181,6181,6181,6181,6181,6181,6181,6181,6181,6181,6181,6181,6181,6181,6181,6181,6181,6181,6181,6181,6181,6181,6181,6181,6181,6181,
6181,6181,6181,6181,6181,6181,6181,6181,6181,6181,6181,6181,6181,6181,6181,6181,6181,6181,6181,6181,6181,6181,6181,6181,6181,6181,6181,6181,6181,6181,6181,6181,6181,6181,6181,6181,6181,6181,6181,6181,6181,6181,6181,6181,6181,6181,6181,6181,6181,6181,
6181,6181,6181,6181,6181,6181,6181,6181,6181,6181,6181,6181,6181,6181,6181,6181,6181,6181,6181,6181,6181,6181,6181,6181,6181,6181,6181,6181,6181,6181,6181,6181,6181,6181,6181,6181,6181,6181,6181,6181,6181,6181,6181,6181,6181,6181,6181,6181,6181,6181,
6181,6181,6181,6181,6181,6181,6181,6181,6181,6181,6181,6181,6181,6181,6181,6181,6181,6181,6181,6181,6181,6181,6181,6181,6181,6181,6181,6181,6181,6181,6181,6181,6181,6181,6181,6181,6181,6181,6181,6181,6181,6181,6181,6181,6181,6181,6181,6181,6181,6181,
6181,6181,6181,6181,6181,6181,6181,6181,6181,6181,6181,6181,6181,6181,6181,6181,6181,6181,6181,6181,6181,6181,6181,6181,6181,6181,6181,6181,6181,6181,6181,6181,6181,6181,6181,6181,6181,6181,6181,6181,6181,6181,6181,6181,6181,6181,6181,6181,6181,6181,
6181,6181,6181,6181,6181,6181,6181,6181,6181,6181,6181,6181,6181,6181,6181,6181,6181,6181,6181,6181,6181,6181,6181,6181,6181,6181,6181,6181,6181,6181,6181,6181,6181,6181,6181,6181,6181,6181,6181,6181,6181,6181,6181,6181,6181,6181,6181,6181,6181,6181,
6181,6181,6181,6181,6181,6181,6181,6181,6181,6181,6181,6181,6181,6181,6181,6181,6181,6181,6181,6181,6181,6181,6181,6181,6181,6181,6181,6181,6181,6181,6181,6181,6181,6181,6181,6181,6181,6181,6181,6181,6181,6181,6181,6181,6181,6181,6181,6181,6181,6181,
6181,6181,6181,6181,6181,6181,6181,6181,6181,6181,6181,6181,6181,6181,6181,6181,6181,6181,6181,6181,6181,6181,6181,6181,6181,6181,6181,6181,6181,6181,6181,6181,6181,6181,6181,6181,6181,6181,6181,6181,6181,6181,6181,6181,6181,6181,6181,6181,6181,6181,
6181,6181,6181,6181,6181,6181,6181,6181,6181,6181,6181,6181,6181,6181,6181,6181,6181,6181,6181,6181,6181,6181,6181,6181,6181,6181,6181,6181,6181,6181,6181,6181,6181,6181,6181,6181,6181,6181,6181,6181,6181,6181,6181,6181,6181,6181,6181,6181,6181,6181,
6181,6181,6181,6181,6181,6181,6181,6181,6181,6181,6181,6181,6181,6181,6181,6181,6181,6181,6181,6181,6181,6181,6181,6181,6181,6181,6181,6181,6181,6181,6181,6181,6181,6181,6181,6181,6181,6181,6181,6181,6181,6181,6181,6181,6181,6181,6181,6181,6181,6181,
6181,6181,6181,6181,6181,6181,6181,6181,6181,6181,6181,6181,6181,6181,6181,6181,6181,6181,6181,6181,6181,6181,6181,6181,6181,6181,6181,6181,6181,6181,6181,6181,6181,6181,6181,6181,6181,6181,6181,6181,6181,6181,6181,6181,6181,6181,6181,6181,6181,6181,
6181,6181,6181,6181,6181,6181,6181,6181,6181,6181,6181,6181,6181,6181,6181,6181,6181,6181,6181,6181,6181,6181,6181,6181,6181,6181,6181,6181,6181,6181,6181,6181,6181,6181,6181,6181,6181,6181,6181,6181,6181,6181,6181,6181,6181,6181,6181,6181,6181,6181,
6181,6181,6181,6181,6181,6181,6181,6181,6181,6181,6181,6181,6181,6181,6181,6181,6181,6181,6181,6181,6181,6181,6181,6181,6181,6181,6181,6181,6181,6181,6181,6181,6181,6181,6181,6181,6181,6181,6181,6181,6181,6181,6181,6181,6181,6181,6181,6181,6181,6181,
6181,6181,6181,6181,6181,6181,6181,6181,6181,6181,6181,6181,6181,6181,6181,6181,6181,6181,6181,6181,6181,6181,6181,6181,6181,6181,6181,6181,6181,6181,6181,6181,6181,6181,6181,6181,6181,6181,6181,6181,6181,6181,6181,6181,6181,6181,6181,6181,6181,6181,
6181,6181,6181,6181,6181,6181,6181,6181,6181,6181,6181,6181,6181,6181,6181,6181,6181,6181,6181,6181,6181,6181,6181,6181,6181,6181,6181,6181,6181,6181,6181,6181,6181,6181,6181,6181,6181,6181,6181,6181,6181,6181,6181,6181,6181,6181,6181,6181,6181,6181,
6181,6181,6181,6181,6181,6181,6181,6181,6181,6181,6181,6181,6181,6181,6181,6181,6181,6181,6181,6181,6181,6181,6181,6181,6181,6181,6181,6181,6181,6181,6181,6181,6181,6181,6181,6181,6181,6181,6181,6181,6181,6181,6181,6181,6181,6181,6181,6181,6181,6181,
6181,6181,6181,6181,6181,6181,6181,6181,6181,6181,6181,6181,6181,6181,6181,6181,6181,6181,6181,6181,6181,6181,6181,6181,6181,6181,6181,6181,6181,6181,6181,6181,6181,6181,6181,6181,6181,6181,6181,6181,6181,6181,6181,6181,6181,6181,6181,6181,6181,6181,
6181,6181,6181,6181,6181,6181,6181,6181,6181,6181,6181,6181,6181,6181,6181,6181,6181,6181,6181,6181,6181,6181,6181,6181,6181,6181,6181,6181,6181,6181,6181,6181,6181,6181,6181,6181,6181,6181,6181,6181,6181,6181,6181,6181,6181,6181,6181,6181,6181,6181,
6181,6181,6181,6181,6181,6181,6181,6181,6181,6181,6181,6181,6181,6181,6181,6181,6181,6181,6181,6181,6181,6181,6181,6181,6181,6181,6181,6181,6181,6181,6181,6181,6181,6181,6181,6181,6181,6181,6181,6181,6181,6181,6181,6181,6181,6181,6181,6181,6181,6181,
6181,6181,6181,6181,6181,6181,6181,6181,6181,6181,6181,6181,6181,6181,6181,6181,6181,6181,6181,6181,6181,6181,6181,6181,6181,6181,6181,6181,6181,6181,6181,6181,6181,6181,6181,6181,6181,6181,6181,6181,6181,6181,6181,6181,6181,6181,6181,6181,6181,6181,
6181,6181,6181,6181,6181,6181,6181,6181,6181,6181,6181,6181,6181,6181,6181,6181,6181,6181,6181,6181,6181,6181,6181,6181,6181,6181,6181,6181,6181,6181,6181,6181,6181,6181,6181,6181,6181,6181,6181,6181,6181,6181,6181,6181,6181,6181,6181,6181,6181,6181,
6181,6181,6181,6181,6181,6181,6181,6181,6181,6181,6181,6181,6181,6181,6181,6181,6181,6181,6181,6181,6181,6181,6181,6181,6181,6181,6181,6181,6181,6181,6181,6181,6181,6181,6181,6181,6181,6181,6181,6181,6181,6181,6181,6181,6181,6181,6181,6181,6181,6181,
6181,6181,6181,6181,6181,6181,6181,6181,6181,6181,6181,6181,6181,6181,6181,6181,6181,6181,6181,6181,6181,6181,6181,6181,6181,6181,6181,6181,6181,6181,6181,6181,6181,6181,6181,6181,6181,6181,6181,6181,6181,6181,6181,6181,6181,6181,6181,6181,6181,6181,
6181,6181,6181,6181,6181,6181,6181,6181,6181,6181,6181,6181,6181,6181,6181,6181,6181,6181,6181,6181,6181,6181,6181,6181,6181,6181,6181,6181,6181,6181,6181,6181,6181,6181,6181,6181,6181,6181,6181,6181,6181,6181,6181,6181,6181,6181,6181,6181,6181,6181,
6181,6181,6181,6181,6181,6181,6181,6181,6181,6181,6181,6181,6181,6181,6181,6181,6181,6181,6181,6181,6181,6181,6181,6181,6181,6181,6181,6181,6181,6181,6181,6181,6181,6181,6181,6181,6181,6181,6181,6181,6181,6181,6181,6181,6181,6181,6181,6181,6181,6181,
6181,6181,6181,6181,6181,6181,6181,6181,6181,6181,6181,6181,6181,6181,6181,6181,6181,6181,6181,6181,6181,6181,6181,6181,6181,6181,6181,6181,6181,6181,6181,6181,6181,6181,6181,6181,6181,6181,6181,6181,6181,6181,6181,6181,6181,6181,6181,6181,6181,6181,
6181,6181,6181,6181,6181,6181,6181,6181,6181,6181,6181,6181,6181,6181,6181,6181,6181,6181,6181,6181,6181,6181,6181,6181,6181,6181,6181,6181,6181,6181,6181,6181,6181,6181,6181,6181,6181,6181,6181,6181,6181,6181,6181,6181,6181,6181,6181,6181,6181,6181,
6181,6181,6181,6181,6181,6181,6181,6181,6181,6181,6181,6181,6181,6181,6181,6181,6181,6181,6181,6181,6181,6181,6181,6181,6181,6181,6181,6181,6181,6181,6181,6181,6181,6181,6181,6181,6181,6181,6181,6181,6181,6181,6181,6181,6181,6181,6181,6181,6181,6181,
6181,6181,6181,6181,6181,6181,6181,6181,6181,6181,6181,6181,6181,6181,6181,6181,6181,6181,6181,6181,6181,6181,6181,6181,6181,6181,6181,6181,6181,6181,6181,6181,6181,6181,6181,6181,6181,6181,6181,6181,6181,6181,6181,6181,6181,6181,6181,6181,6181,6181,
6181,6181,6181,6181,6181,6181,6181,6181,6181,6181,6181,6181,6181,6181,6181,6181,6181,6181,6181,6181,6181,6181,6181,6181,6181,6181,6181,6181,6181,6181,6181,6181,6181,6181,6181,6181,6181,6181,6181,6181,6181,6181,6181,6181,6181,6181,6181,6181,6181,6181,
6181,6181,6181,6181,6181,6181,6181,6181,6181,6181,6181,6181,6181,6181,6181,6181,6181,6181,6181,6181,6181,6181,6181,6181,6181,6181,6181,6181,6181,6181,6181,6181,6181,6181,6181,6181,6181,6181,6181,6181,6181,6181,6181,6181,6181,6181,6181,6181,6181,6181,
0,0,0,0,0,0,0,0,0,0,0,0,0,0,0,0,0,0,0,0,0,0,0,0,0,0,0,0,0,0,0,0,0,0,0,0,0,0,0,0,0,0,0,0,0,0,0,0,0,0,
0,0,0,0,0,0,0,0,0,0,0,0,0,0,0,0,0,0,0,0,0,0,0,0,0,0,0,0,0,0,0,0,0,0,0,0,0,0,0,0,0,0,0,0,0,0,0,0,0,0,
0,0,0,0,0,0,0,0,0,0,0,0,0,0,0,0,0,0,0,0,0,0,0,0,0,0,0,0,0,0,0,0,0,0,0,0,0,0,0,0,0,0,0,0,0,0,0,0,0,0,
0,0,0,0,0,0,0,0,0,0,0,0,0,0,0,0,0,0,0,0,0,0,0,0,0,0,0,0,0,0,0,0,0,0,0,0,0,0,0,0,0,0,0,0,0,0,0,0,0,0,
0,0,0,0,0,0,0,0,0,0,0,0,0,0,0,0,0,0,0,0,0,0,0,0,0,0,0,0,0,0,0,0,0,0,0,0,0,0,0,0,0,0,0,0,0,0,0,0,0,0,
0,0,0,0,0,0,0,0,0,0,0,0,0,0,0,0,0,0,0,0,0,0,0,0,0,0,0,0,0,0,0,0,0,0,0,0,0,0,0,0,0,0,0,0,0,0,0,0,0,0,
0,0,0,0,0,0,0,0,0,0,0,0,0,0,0,0,0,0,0,0,0,0,0,0,0,0,0,0,0,0,0,0,0,0,0,0,0,0,0,0,0,0,0,0,0,0,0,0,0,0
</data>
 </layer>
 <layer id="16" name="Pathfinding" width="50" height="56" visible="0">
  <properties>
   <property name="maybe_animation_id" value="6d2460f008fb99d4"/>
   <property name="maybe_tileset_id" value="264fe6c9523400a1"/>
   <property name="tile_size" type="int" value="8"/>
  </properties>
  <data encoding="csv">
0,6007,6007,6007,6007,6007,6007,6007,6007,6007,6007,6007,6007,6007,6007,6007,6007,6007,6007,6007,6007,6007,6007,6007,6007,6007,6007,6007,6007,6007,6007,6007,6007,6007,6007,6007,6007,6007,6007,6007,6007,6007,6007,6007,6007,6007,6007,0,0,0,
0,6007,6007,6007,6007,6007,6007,6007,6007,6007,6007,6007,6007,6007,6007,6007,6007,6007,6007,6007,6007,6007,6007,6007,6007,6007,6007,6007,6007,6007,6007,6007,6007,6007,6007,6007,6007,6007,6007,6007,6007,6007,6007,6007,6007,6007,6007,0,0,0,
0,6007,6007,6007,6007,6007,6007,6007,6007,6007,6007,6007,6007,6007,6007,6007,6007,6007,6007,6007,6007,6007,6007,6007,6007,6007,6007,6007,6007,6007,6007,6007,6007,6007,6007,6007,6007,6007,6007,6007,6007,6007,6007,6007,6007,6007,6007,0,0,0,
0,6007,6007,6007,6007,6007,6007,6007,6007,6007,6007,6007,6007,6007,6007,6007,6007,6007,6007,6007,6007,6007,6007,6007,6007,6007,6007,6007,6007,6007,6007,6007,6007,6007,6007,6007,6007,6007,6007,6007,6007,6007,6007,6007,6007,6007,6007,0,0,0,
0,6007,6007,6007,6007,6007,6007,6007,6007,6007,6007,6007,6007,6007,6007,6007,6007,6007,6007,6007,6007,6007,6007,6007,6007,6007,6007,6007,6007,6007,6007,6007,6007,6007,6007,6007,6007,6007,6007,6007,6007,6007,6007,6007,6007,6007,6007,0,0,0,
0,6007,6007,6007,6007,6007,6007,6007,6007,6007,6007,6007,6007,6007,6007,6007,6007,6007,6007,6007,6007,6007,6007,6007,6007,6007,6007,6007,6007,6007,6007,6007,6007,6007,6007,6007,6007,6007,6007,6007,6007,6007,6007,6007,6007,6007,6007,0,0,0,
0,6007,6007,6007,6007,6007,6007,6007,6007,6007,6007,6007,6007,6007,6007,6007,6007,6007,6007,6007,6007,6007,6007,6007,6007,6007,6007,6007,6007,6007,6007,6007,6007,6007,6007,6007,6007,6007,6007,6007,6007,6007,6007,6007,6007,6007,6007,0,0,0,
0,6007,6007,6007,6007,6007,6007,6007,6007,6007,6007,6007,6007,6007,6007,6007,6007,6007,6007,6007,6007,6007,6007,6007,6007,6007,6007,6007,6007,6007,6007,6007,6007,6007,6007,6007,6007,6007,6007,6007,6007,6007,6007,6007,6007,6007,6007,0,0,0,
0,6007,6007,6007,6007,6007,6007,6007,6007,6007,6007,6007,6007,6007,6007,6007,6007,6007,6007,6007,6007,6007,6007,6007,6007,6007,6007,6007,6007,6007,6007,6007,6007,6007,6007,6007,6007,6007,6007,6007,6007,6007,6007,6007,6007,6007,6007,0,0,0,
0,6007,6007,6007,6007,6007,6007,6007,6007,6007,6007,6007,6007,6007,6007,6007,6007,6007,6007,6007,6007,6007,6007,6007,6007,6007,6007,6007,6007,6007,6007,6007,6007,6007,6007,6007,6007,6007,6007,6007,6007,6007,6007,6007,6007,6007,6007,0,0,0,
0,6007,6007,6007,6007,6007,6007,6007,6007,6007,6007,6007,6007,6007,6007,6007,6007,6007,6007,6007,6007,6007,6007,6007,6007,6007,6007,6007,6007,6007,6007,6007,6007,6007,6007,6007,6007,6007,6007,6007,6007,6007,6007,6007,6007,6007,6007,0,0,0,
0,6007,6007,6007,6007,6007,6007,6007,6007,6007,6007,6007,6007,6007,6007,6007,6007,6007,6007,6007,6007,6007,6007,6007,6007,6007,6007,6007,6007,6007,6007,6007,6007,6007,6007,6007,6007,6007,6007,6007,6007,6007,6007,6007,6007,6007,6007,0,0,0,
0,6007,6007,6007,6007,6007,6007,6007,6007,6007,6007,6007,6007,6007,6007,6007,6007,6007,6007,6007,6007,6007,6007,6007,6007,6007,6007,6007,6007,6007,6007,6007,6007,6007,6007,6007,6007,6007,6007,6007,6007,6007,6007,6007,6007,6007,6007,0,0,0,
0,6007,6007,6007,6007,6007,6007,6007,6007,6007,6007,6007,6007,6007,6007,6007,6007,6007,6007,6007,6007,6007,6007,6007,6007,6007,6007,6007,6007,6007,6007,6007,6007,6007,6007,6007,6007,6007,6007,6007,6007,6007,6007,6007,6007,6007,6007,0,0,0,
0,6007,6007,6007,6007,6007,6007,6007,6007,6007,6007,6007,6007,6007,6007,6007,6007,6007,6007,6007,6007,6007,6007,6007,6007,6007,6007,6007,6007,6007,6007,6007,6007,6007,6007,6007,6007,6007,6007,6007,6007,6007,6007,6007,6007,6007,6007,0,0,0,
0,6007,6007,6007,6007,6007,6007,6007,6007,6007,6007,6007,6007,6007,6007,6007,6007,6007,6007,6007,6007,6007,6007,6007,6007,6007,6007,6007,6007,6007,6007,6007,6007,6007,6007,6007,6007,6007,6007,6007,6007,6007,6007,6007,6007,6007,6007,0,0,0,
0,6007,6007,6007,6007,6007,6007,6007,6007,6007,6007,6007,6007,6007,6007,6007,6007,6007,6007,6007,6007,6007,6007,6007,6007,6007,6007,6007,6007,6007,6007,6007,6007,6007,6007,6007,6007,6007,6007,6007,6007,6007,6007,6007,6007,6007,6007,0,0,0,
0,6007,6007,6007,6007,6007,6007,6007,6007,6007,6007,6007,6007,6007,6007,6007,6007,6007,6007,6007,6007,6007,6007,6007,6007,6007,6007,6007,6007,6007,6007,6007,6007,6007,6007,6007,6007,6007,6007,6007,6007,6007,6007,6007,6007,6007,6007,0,0,0,
0,6007,6007,6007,6007,6007,6007,6007,6007,6007,6007,6007,6007,6007,6007,6007,6007,6007,6007,6007,6007,6007,6007,6007,6007,6007,6007,6007,6007,6007,6007,6007,6007,6007,6007,6007,6007,6007,6007,6007,6007,6007,6007,6007,6007,6007,6007,0,0,0,
0,6007,6007,6007,6007,6007,6007,6007,6007,6007,6007,6007,6007,6007,6007,6007,6007,6007,6007,6007,6007,6007,6007,6007,6007,6007,6007,6007,6007,6007,6007,6007,6007,6007,6007,6007,6007,6007,6007,6007,6007,6007,6007,6007,6007,6007,6007,0,0,0,
0,6007,6007,6007,6007,6007,6007,6007,6007,6007,6007,6007,6007,6007,6007,6007,6007,6007,6007,6007,6007,6007,6007,6007,6007,6007,6007,6007,6007,6007,6007,6007,6007,6007,6007,6007,6007,6007,6007,6007,6007,6007,6007,6007,6007,6007,6007,0,0,0,
0,6007,6007,6007,6007,6007,6007,6007,6007,6007,6007,6007,6007,6007,6007,6007,6007,6007,6007,6007,6007,6007,6007,6007,6007,6007,6007,6007,6007,6007,6007,6007,6007,6007,6007,6007,6007,6007,6007,6007,6007,6007,6007,6007,6007,6007,6007,0,0,0,
0,6007,6007,6007,6007,6007,6007,6007,6007,6007,6007,6007,6007,6007,6007,6007,6007,6007,6007,6007,6007,6007,6007,6007,6007,6007,6007,6007,6007,6007,6007,6007,6007,6007,6007,6007,6007,6007,6007,6007,6007,6007,6007,6007,6007,6007,6007,0,0,0,
0,6007,6007,6007,6007,6007,6007,6007,6007,6007,6007,6007,6007,6007,6007,6007,6007,6007,6007,6007,6007,6007,6007,6007,6007,6007,6007,6007,6007,6007,6007,6007,6007,6007,6007,6007,6007,6007,6007,6007,6007,6007,6007,6007,6007,6007,6007,0,0,0,
0,6007,6007,6007,6007,6007,6007,6007,6007,6007,6007,6007,6007,6007,6007,6007,6007,6007,6007,6007,6007,6007,6007,6007,6007,6007,6007,6007,6007,6007,6007,6007,6007,6007,6007,6007,6007,6007,6007,6007,6007,6007,6007,6007,6007,6007,6007,0,0,0,
0,6007,6007,6007,6007,6007,6007,6007,6007,6007,6007,6007,6007,6007,6007,6007,6007,6007,6007,6007,6007,6007,6007,6007,6007,6007,6007,6007,6007,6007,6007,6007,6007,6007,6007,6007,6007,6007,6007,6007,6007,6007,6007,6007,6007,6007,6007,0,0,0,
0,6007,6007,6007,6007,6007,6007,6007,6007,6007,6007,6007,6007,6007,6007,6007,6007,6007,6007,6007,6007,6007,6007,6007,6007,6007,6007,6007,6007,6007,6007,6007,6007,6007,6007,6007,6007,6007,6007,6007,6007,6007,6007,6007,6007,6007,6007,0,0,0,
0,6007,6007,6007,6007,6007,6007,6007,6007,6007,6007,6007,6007,6007,6007,6007,6007,6007,6007,6007,6007,6007,6007,6007,6007,6007,6007,6007,6007,6007,6007,6007,6007,6007,6007,6007,6007,6007,6007,6007,6007,6007,6007,6007,6007,6007,6007,0,0,0,
0,6007,6007,6007,6007,6007,6007,6007,6007,6007,6007,6007,6007,6007,6007,6007,6007,6007,6007,6007,6007,6007,6007,6007,6007,6007,6007,6007,6007,6007,6007,6007,6007,6007,6007,6007,6007,6007,6007,6007,6007,6007,6007,6007,6007,6007,6007,0,0,0,
0,6007,6007,6007,6007,6007,6007,6007,6007,6007,6007,6007,6007,6007,6007,6007,6007,6007,6007,6007,6007,6007,6007,6007,6007,6007,6007,6007,6007,6007,6007,6007,6007,6007,6007,6007,6007,6007,6007,6007,6007,6007,6007,6007,6007,6007,6007,0,0,0,
0,6007,6007,6007,6007,6007,6007,6007,6007,6007,6007,6007,6007,6007,6007,6007,6007,6007,6007,6007,6007,6007,6007,6007,6007,6007,6007,6007,6007,6007,6007,6007,6007,6007,6007,6007,6007,6007,6007,6007,6007,6007,6007,6007,6007,6007,6007,0,0,0,
0,6007,6007,6007,6007,6007,6007,6007,6007,6007,6007,6007,6007,6007,6007,6007,6007,6007,6007,6007,6007,6007,6007,6007,6007,6007,6007,6007,6007,6007,6007,6007,6007,6007,6007,6007,6007,6007,6007,6007,6007,6007,6007,6007,6007,6007,6007,0,0,0,
0,6007,6007,6007,6007,6007,6007,6007,6007,6007,6007,6007,6007,6007,6007,6007,6007,6007,6007,6007,6007,6007,6007,6007,6007,6007,6007,6007,6007,6007,6007,6007,6007,6007,6007,6007,6007,6007,6007,6007,6007,6007,6007,6007,6007,6007,6007,0,0,0,
0,6007,6007,6007,6007,6007,6007,6007,6007,6007,6007,6007,6007,6007,6007,6007,6007,6007,6007,6007,6007,6007,6007,6007,6007,6007,6007,6007,6007,6007,6007,6007,6007,6007,6007,6007,6007,6007,6007,6007,6007,6007,6007,6007,6007,6007,6007,0,0,0,
0,6007,6007,6007,6007,6007,6007,6007,6007,6007,6007,6007,6007,6007,6007,6007,6007,6007,6007,6007,6007,6007,6007,6007,6007,6007,6007,6007,6007,6007,6007,6007,6007,6007,6007,6007,6007,6007,6007,6007,6007,6007,6007,6007,6007,6007,6007,0,0,0,
0,6007,6007,6007,6007,6007,6007,6007,6007,6007,6007,6007,6007,6007,6007,6007,6007,6007,6007,6007,6007,6007,6007,6007,6007,6007,6007,6007,6007,6007,6007,6007,6007,6007,6007,6007,6007,6007,6007,6007,6007,6007,6007,6007,6007,6007,6007,0,0,0,
0,6007,6007,6007,6007,6007,6007,6007,6007,6007,6007,6007,6007,6007,6007,6007,6007,6007,6007,6007,6007,6007,6007,6007,6007,6007,6007,6007,6007,6007,6007,6007,6007,6007,6007,6007,6007,6007,6007,6007,6007,6007,6007,6007,6007,6007,6007,0,0,0,
0,6007,6007,6007,6007,6007,6007,6007,6007,6007,6007,6007,6007,6007,6007,6007,6007,6007,6007,6007,6007,6007,6007,6007,6007,6007,6007,6007,6007,6007,6007,6007,6007,6007,6007,6007,6007,6007,6007,6007,6007,6007,6007,6007,6007,6007,6007,0,0,0,
0,6007,6007,6007,6007,6007,6007,6007,6007,6007,6007,6007,6007,6007,6007,6007,6007,6007,6007,6007,6007,6007,6007,6007,6007,6007,6007,6007,6007,6007,6007,6007,6007,6007,6007,6007,6007,6007,6007,6007,6007,6007,6007,6007,6007,6007,6007,0,0,0,
0,6007,6007,6007,6007,6007,6007,6007,6007,6007,6007,6007,6007,6007,6007,6007,6007,6007,6007,6007,6007,6007,6007,6007,6007,6007,6007,6007,6007,6007,6007,6007,6007,6007,6007,6007,6007,6007,6007,6007,6007,6007,6007,6007,6007,6007,6007,0,0,0,
0,6007,6007,6007,6007,6007,6007,6007,6007,6007,6007,6007,6007,6007,6007,6007,6007,6007,6007,6007,6007,6007,6007,6007,6007,6007,6007,6007,6007,6007,6007,6007,6007,6007,6007,6007,6007,6007,6007,6007,6007,6007,6007,6007,6007,6007,6007,0,0,0,
0,6007,6007,6007,6007,6007,6007,6007,6007,6007,6007,6007,6007,6007,6007,6007,6007,6007,6007,6007,6007,6007,6007,6007,6007,6007,6007,6007,6007,6007,6007,6007,6007,6007,6007,6007,6007,6007,6007,6007,6007,6007,6007,6007,6007,6007,6007,0,0,0,
0,6007,6007,6007,6007,6007,6007,6007,6007,6007,6007,6007,6007,6007,6007,6007,6007,6007,6007,6007,6007,6007,6007,6007,6007,6007,6007,6007,6007,6007,6007,6007,6007,6007,6007,6007,6007,6007,6007,6007,6007,6007,6007,6007,6007,6007,6007,0,0,0,
0,6007,6007,6007,6007,6007,6007,6007,6007,6007,6007,6007,6007,6007,6007,6007,6007,6007,6007,6007,6007,6007,6007,6007,6007,6007,6007,6007,6007,6007,6007,6007,6007,6007,6007,6007,6007,6007,6007,6007,6007,6007,6007,6007,6007,6007,6007,0,0,0,
0,6007,6007,6007,6007,6007,6007,6007,6007,6007,6007,6007,6007,6007,6007,6007,6007,6007,6007,6007,6007,6007,6007,6007,6007,6007,6007,6007,6007,6007,6007,6007,6007,6007,6007,6007,6007,6007,6007,6007,6007,6007,6007,6007,6007,6007,6007,0,0,0,
0,6007,6007,6007,6007,6007,6007,6007,6007,6007,6007,6007,6007,6007,6007,6007,6007,6007,6007,6007,6007,6007,6007,6007,6007,6007,6007,6007,6007,6007,6007,6007,6007,6007,6007,6007,6007,6007,6007,6007,6007,6007,6007,6007,6007,6007,6007,0,0,0,
0,6007,6007,6007,6007,6007,6007,6007,6007,6007,6007,6007,6007,6007,6007,6007,6007,6007,6007,6007,6007,6007,6007,6007,6007,6007,6007,6007,6007,6007,6007,6007,6007,6007,6007,6007,6007,6007,6007,6007,6007,6007,6007,6007,6007,6007,6007,0,0,0,
0,0,0,0,0,0,0,0,0,0,0,0,0,0,0,0,0,0,0,0,0,0,0,0,0,0,0,0,0,0,0,0,0,0,0,0,0,0,0,0,0,0,0,0,0,0,0,0,0,0,
0,0,0,0,0,0,0,0,0,0,0,0,0,0,0,0,0,0,0,0,0,0,0,0,0,0,0,0,0,0,0,0,0,0,0,0,0,0,0,0,0,0,0,0,0,0,0,0,0,0,
0,0,0,0,0,0,0,0,0,0,0,0,0,0,0,0,0,0,0,0,0,0,0,0,0,0,0,0,0,0,0,0,0,0,0,0,0,0,0,0,0,0,0,0,0,0,0,0,0,0,
0,0,0,0,0,0,0,0,0,0,0,0,0,0,0,0,0,0,0,0,0,0,0,0,0,0,0,0,0,0,0,0,0,0,0,0,0,0,0,0,0,0,0,0,0,0,0,0,0,0,
0,0,0,0,0,0,0,0,0,0,0,0,0,0,0,0,0,0,0,0,0,0,0,0,0,0,0,0,0,0,0,0,0,0,0,0,0,0,0,0,0,0,0,0,0,0,0,0,0,0,
0,0,0,0,0,0,0,0,0,0,0,0,0,0,0,0,0,0,0,0,0,0,0,0,0,0,0,0,0,0,0,0,0,0,0,0,0,0,0,0,0,0,0,0,0,0,0,0,0,0,
0,0,0,0,0,0,0,0,0,0,0,0,0,0,0,0,0,0,0,0,0,0,0,0,0,0,0,0,0,0,0,0,0,0,0,0,0,0,0,0,0,0,0,0,0,0,0,0,0,0,
0,0,0,0,0,0,0,0,0,0,0,0,0,0,0,0,0,0,0,0,0,0,0,0,0,0,0,0,0,0,0,0,0,0,0,0,0,0,0,0,0,0,0,0,0,0,0,0,0,0,
0,0,0,0,0,0,0,0,0,0,0,0,0,0,0,0,0,0,0,0,0,0,0,0,0,0,0,0,0,0,0,0,0,0,0,0,0,0,0,0,0,0,0,0,0,0,0,0,0,0
</data>
 </layer>
 <objectgroup draworder="index" id="17" name="Meta" visible="0">
  <object id="26" template="../../../templates/obj_roomtransition.tx" type="obj_roomtransition" x="176" y="120" width="48" height="32">
   <properties>
    <property name="player_direction" type="int" value="90"/>
   </properties>
  </object>
  <object id="27" template="../../../templates/obj_roomtransition.tx" type="obj_roomtransition" x="176" y="424" width="48" height="32">
   <properties>
    <property name="player_direction" type="int" value="270"/>
   </properties>
  </object>
  <object id="28" template="../../../templates/meta/obj_sound_emitter.tx" type="obj_sound_emitter" x="320" y="184" width="8" height="16">
   <properties>
    <property name="sound_asset" value="SoundEffects/Environment/FirePlace"/>
   </properties>
  </object>
  <object id="29" template="../../../templates/meta/obj_sound_emitter.tx" type="obj_sound_emitter" x="224" y="112" width="16" height="8">
   <properties>
    <property name="sound_asset" value="SoundEffects/Environment/FirePlace"/>
   </properties>
  </object>
  <object id="30" template="../../../templates/meta/obj_sound_emitter.tx" type="obj_sound_emitter" x="160" y="112" width="16" height="8">
   <properties>
    <property name="sound_asset" value="SoundEffects/Environment/FirePlace"/>
   </properties>
  </object>
  <object id="31" template="../../../templates/meta/obj_sound_emitter.tx" type="obj_sound_emitter" x="72" y="184" width="8" height="16">
   <properties>
    <property name="sound_asset" value="SoundEffects/Environment/FirePlace"/>
   </properties>
  </object>
  <object id="32" template="../../../templates/obj_void_teleport.tx" type="obj_void_teleport" x="192" y="296"/>
 </objectgroup>
 <objectgroup draworder="index" id="18" name="TrellisPoints_Earth_Seal" visible="0">
  <object id="33" template="../../../templates/meta/obj_trellis_point_default.tx" name="es_ari_entrance" type="obj_trellis_point_default" x="188" y="421"/>
  <object id="34" template="../../../templates/meta/obj_trellis_point_default.tx" name="es_ari_start" type="obj_trellis_point_default" x="188" y="335"/>
  <object id="35" template="../../../templates/meta/obj_trellis_point_default.tx" name="es_ari_tablet" type="obj_trellis_point_default" x="188" y="219"/>
  <object id="36" template="../../../templates/meta/obj_trellis_point_default.tx" name="es_ari_back" type="obj_trellis_point_default" x="188" y="235"/>
  <object id="37" template="../../../templates/meta/obj_trellis_point_camera.tx" name="es_camera_seal" type="obj_trellis_point_camera" x="188" y="143"/>
  <object id="38" template="../../../templates/meta/obj_trellis_point_camera.tx" name="es_camera_3" type="obj_trellis_point_camera" x="188" y="209"/>
  <object id="39" template="../../../templates/meta/obj_trellis_point_camera.tx" name="es_camera_2" type="obj_trellis_point_camera" x="188" y="311"/>
  <object id="40" template="../../../templates/meta/obj_trellis_point_camera.tx" name="es_camera_1" type="obj_trellis_point_camera" x="188" y="393"/>
  <object id="41" template="../../../templates/meta/obj_trellis_point_camera.tx" name="es_camera_priestess" type="obj_trellis_point_camera" x="188" y="179"/>
  <object id="42" template="../../../templates/meta/obj_trellis_point_default.tx" name="es_priestess" type="obj_trellis_point_default" x="188" y="153"/>
 </objectgroup>
 <objectgroup draworder="index" id="19" name="TrellisPoints" visible="0">
  <object id="43" template="../../../templates/meta/obj_trellis_point_default.tx" name="ari_look" type="obj_trellis_point_default" x="188" y="221">
   <properties>
    <property name="direction" type="int" propertytype="Cardinal" value="1"/>
   </properties>
  </object>
  <object id="44" template="../../../templates/meta/obj_trellis_point_default.tx" name="ari_spawn" type="obj_trellis_point_default" x="188" y="397">
   <properties>
    <property name="direction" type="int" propertytype="Cardinal" value="1"/>
   </properties>
  </object>
 </objectgroup>
 <objectgroup draworder="index" id="20" name="TrellisPoints_Break_Ruins_Seal_Pt_1" visible="0">
  <object id="45" template="../../../templates/meta/obj_trellis_point_default.tx" name="rs1_ari_entrance" type="obj_trellis_point_default" x="188" y="419"/>
  <object id="46" template="../../../templates/meta/obj_trellis_point_default.tx" name="rs1_ari_start" type="obj_trellis_point_default" x="188" y="325"/>
  <object id="47" template="../../../templates/meta/obj_trellis_point_default.tx" name="rs1_void" type="obj_trellis_point_default" x="188" y="309"/>
  <object id="48" template="../../../templates/meta/obj_trellis_point_default.tx" name="rs1_ari_breath" type="obj_trellis_point_default" x="260" y="289"/>
  <object id="49" template="../../../templates/meta/obj_trellis_point_default.tx" name="rs1_priestess_breath" type="obj_trellis_point_default" x="116" y="289"/>
  <object id="50" template="../../../templates/meta/obj_trellis_point_default.tx" name="rs1_priestess_entrance" type="obj_trellis_point_default" x="188" y="223"/>
  <object id="51" template="../../../templates/meta/obj_trellis_point_default.tx" name="rs1_priestess_start" type="obj_trellis_point_default" x="188" y="247"/>
  <object id="52" template="../../../templates/meta/obj_trellis_point_default.tx" name="rs1_priestess_forward" type="obj_trellis_point_default" x="188" y="261"/>
  <object id="53" template="../../../templates/meta/obj_trellis_point_default.tx" name="rs1_priestess_pace_left" type="obj_trellis_point_default" x="162" y="261"/>
  <object id="54" template="../../../templates/meta/obj_trellis_point_default.tx" name="rs1_priestess_pace_right" type="obj_trellis_point_default" x="214" y="261"/>
  <object id="55" template="../../../templates/meta/obj_trellis_point_camera.tx" name="rs1_camera_1" type="obj_trellis_point_camera" x="188" y="405"/>
  <object id="56" template="../../../templates/meta/obj_trellis_point_camera.tx" name="rs1_camera_2" type="obj_trellis_point_camera" x="188" y="339"/>
  <object id="57" template="../../../templates/meta/obj_trellis_point_camera.tx" name="rs1_camera_3" type="obj_trellis_point_camera" x="188" y="255"/>
  <object id="58" template="../../../templates/meta/obj_trellis_point_camera.tx" name="rs1_camera_4" type="obj_trellis_point_camera" x="222" y="255"/>
  <object id="59" template="../../../templates/meta/obj_trellis_point_camera.tx" name="rs1_camera_5" type="obj_trellis_point_camera" x="188" y="225"/>
  <object id="60" template="../../../templates/meta/obj_trellis_point_camera.tx" name="rs1_camera_6" type="obj_trellis_point_camera" x="188" y="281"/>
  <object id="61" template="../../../templates/meta/obj_trellis_point_camera.tx" name="rs1_camera_7" type="obj_trellis_point_camera" x="188" y="311"/>
  <object id="62" template="../../../templates/meta/obj_trellis_point_camera.tx" name="rs1_camera_8" type="obj_trellis_point_camera" x="188" y="277"/>
  <object id="63" template="../../../templates/meta/obj_trellis_point_camera.tx" name="rs1_camera_extra_0" type="obj_trellis_point_camera" x="188" y="277"/>
  <object id="64" template="../../../templates/meta/obj_trellis_point_default.tx" name="rs1_priestess_shock" type="obj_trellis_point_default" x="188" y="244"/>
  <object id="65" template="../../../templates/meta/obj_trellis_point_camera.tx" name="rs1_camera_jump" type="obj_trellis_point_camera" x="188" y="269"/>
  <object id="66" template="../../../templates/meta/obj_trellis_point_default.tx" name="rs1_seridia_door_1" type="obj_trellis_point_default" x="156" y="325"/>
  <object id="67" template="../../../templates/meta/obj_trellis_point_default.tx" name="rs1_door_2" type="obj_trellis_point_default" x="188" y="325"/>
  <object id="68" template="../../../templates/meta/obj_trellis_point_default.tx" name="rs1_ari_door_1" type="obj_trellis_point_default" x="220" y="325"/>
 </objectgroup>
 <objectgroup draworder="index" id="21" name="TrellisPoints_Break_Ruins_Seal_Pt_2" visible="0">
  <object id="69" template="../../../templates/meta/obj_trellis_point_default.tx" name="rs2_ari_ruins_entrance" type="obj_trellis_point_default" x="176" y="245"/>
  <object id="70" template="../../../templates/meta/obj_trellis_point_default.tx" name="rs2_void_ari_ruins_entrance" type="obj_trellis_point_default" x="200" y="245"/>
  <object id="71" template="../../../templates/meta/obj_trellis_point_default.tx" name="rs2_priestess_ruins_entrance" type="obj_trellis_point_default" x="188" y="273"/>
  <object id="72" template="../../../templates/meta/obj_trellis_point_default.tx" name="rs2_void_ari_ruins_tablet" type="obj_trellis_point_default" x="188" y="215"/>
  <object id="73" template="../../../templates/meta/obj_trellis_point_default.tx" name="rs2_void_ari_ruins_stand" type="obj_trellis_point_default" x="188" y="221"/>
  <object id="74" template="../../../templates/meta/obj_trellis_point_default.tx" name="rs2_ari_ruins_start" type="obj_trellis_point_default" x="188" y="245"/>
  <object id="75" template="../../../templates/meta/obj_trellis_point_camera.tx" name="rs2_camera_5" type="obj_trellis_point_camera" x="188" y="203"/>
  <object id="76" template="../../../templates/meta/obj_trellis_point_camera.tx" name="rs2_camera_6" type="obj_trellis_point_camera" x="188" y="245"/>
  <object id="77" template="../../../templates/meta/obj_trellis_point_camera.tx" name="rs2_camera_7" type="obj_trellis_point_camera" x="188" y="203"/>
  <object id="78" template="../../../templates/meta/obj_trellis_point_camera.tx" name="rs2_camera_8" type="obj_trellis_point_camera" x="188" y="239"/>
  <object id="79" template="../../../templates/meta/obj_trellis_point_camera.tx" name="rs2_camera_9" type="obj_trellis_point_camera" x="188" y="255"/>
  <object id="80" template="../../../templates/meta/obj_trellis_point_camera.tx" name="rs2_camera_10" type="obj_trellis_point_camera" x="188" y="215"/>
 </objectgroup>
 <objectgroup draworder="index" id="22" name="TrellisPoints_Break_Ruins_Seal_Pt_3" visible="0">
  <object id="81" template="../../../templates/meta/obj_trellis_point_default.tx" name="rs3_ari_entrance" type="obj_trellis_point_default" x="188" y="247"/>
  <object id="82" template="../../../templates/meta/obj_trellis_point_default.tx" name="rs3_ari_start" type="obj_trellis_point_default" x="176" y="247"/>
  <object id="83" template="../../../templates/meta/obj_trellis_point_default.tx" name="rs3_priestess_start" type="obj_trellis_point_default" x="200" y="247"/>
  <object id="84" template="../../../templates/meta/obj_trellis_point_default.tx" name="rs3_priestess_entrance" type="obj_trellis_point_default" x="188" y="161"/>
  <object id="85" template="../../../templates/meta/obj_trellis_point_default.tx" name="rs3_ari_activate" type="obj_trellis_point_default" x="176" y="273"/>
  <object id="86" template="../../../templates/meta/obj_trellis_point_default.tx" name="rs3_priestess_activate" type="obj_trellis_point_default" x="200" y="273"/>
  <object id="87" template="../../../templates/meta/obj_trellis_point_default.tx" name="rs3_ari_hop" type="obj_trellis_point_default" x="176" y="277"/>
  <object id="88" template="../../../templates/meta/obj_trellis_point_default.tx" name="rs3_priestess_hop" type="obj_trellis_point_default" x="200" y="277"/>
  <object id="89" template="../../../templates/meta/obj_trellis_point_default.tx" name="rs3_priestess_exit" type="obj_trellis_point_default" x="188" y="215"/>
  <object id="90" template="../../../templates/meta/obj_trellis_point_default.tx" name="rs3_void_ari_entrance" type="obj_trellis_point_default" x="188" y="221"/>
  <object id="91" template="../../../templates/meta/obj_trellis_point_default.tx" name="rs3_void_ari_tablet" type="obj_trellis_point_default" x="188" y="215"/>
  <object id="92" template="../../../templates/meta/obj_trellis_point_default.tx" name="rs3_void_ari_bof" type="obj_trellis_point_default" x="72" y="285"/>
  <object id="93" template="../../../templates/meta/obj_trellis_point_default.tx" name="rs3_void_ari_sm" type="obj_trellis_point_default" x="96" y="261"/>
  <object id="94" template="../../../templates/meta/obj_trellis_point_default.tx" name="rs3_void_ari_ff" type="obj_trellis_point_default" x="280" y="261"/>
  <object id="95" template="../../../templates/meta/obj_trellis_point_default.tx" name="rs3_void_ari_o" type="obj_trellis_point_default" x="304" y="285"/>
  <object id="96" template="../../../templates/meta/obj_trellis_point_camera.tx" name="rs3_camera_1" type="obj_trellis_point_camera" x="188" y="181"/>
  <object id="97" template="../../../templates/meta/obj_trellis_point_camera.tx" name="rs3_camera_2" type="obj_trellis_point_camera" x="188" y="243"/>
  <object id="98" template="../../../templates/meta/obj_trellis_point_camera.tx" name="rs3_camera_3" type="obj_trellis_point_camera" x="188" y="263"/>
  <object id="99" template="../../../templates/meta/obj_trellis_point_camera.tx" name="rs3_camera_4" type="obj_trellis_point_camera" x="122" y="261"/>
  <object id="100" template="../../../templates/meta/obj_trellis_point_camera.tx" name="rs3_camera_5" type="obj_trellis_point_camera" x="146" y="247"/>
  <object id="101" template="../../../templates/meta/obj_trellis_point_camera.tx" name="rs3_camera_6" type="obj_trellis_point_camera" x="232" y="247"/>
  <object id="102" template="../../../templates/meta/obj_trellis_point_camera.tx" name="rs3_camera_7" type="obj_trellis_point_camera" x="254" y="261"/>
  <object id="103" template="../../../templates/meta/obj_trellis_point_camera.tx" name="rs3_camera_8" type="obj_trellis_point_camera" x="188" y="215"/>
  <object id="104" template="../../../templates/meta/obj_trellis_point_camera.tx" name="rs3_camera_9" type="obj_trellis_point_camera" x="188" y="237"/>
  <object id="105" template="../../../templates/meta/obj_trellis_point_camera.tx" name="rs3_camera_10" type="obj_trellis_point_camera" x="188" y="271"/>
 </objectgroup>
</map>
