<?xml version="1.0" encoding="UTF-8"?>
<map version="1.10" tiledversion="1.11.2" class="DungeonSpecial" orientation="orthogonal" renderorder="right-down" width="50" height="56" tilewidth="8" tileheight="8" infinite="0" backgroundcolor="#000000" nextlayerid="26" nextobjectid="91">
 <tileset firstgid="1" source="../../../__gm_import.tsx"/>
 <tileset firstgid="1505" source="../../../tile_sets/__META/tile_collision_info.tsx"/>
 <tileset firstgid="1512" source="../../../tile_sets/tile_footsteps.tsx"/>
 <tileset firstgid="1656" source="../../../tile_sets/_GENERIC/tile_main_interiors.tsx"/>
 <tileset firstgid="5752" source="../../../tile_sets/_GENERIC/tile_main_interiors_shadows.tsx"/>
 <tileset firstgid="6008" source="../../../tile_sets/__META/tile_pathfinding.tsx"/>
 <tileset firstgid="6014" source="../../../tile_sets/__META/tile_rules.tsx"/>
 <group id="1" name="Level_0">
  <layer id="2" name="Level_0_Floor" width="50" height="56">
   <properties>
    <property name="maybe_animation_id" value="75ea443e6634d96"/>
    <property name="maybe_tileset_id" value="d8b504e9a8480fbe"/>
    <property name="tile_size" type="int" value="16"/>
   </properties>
   <data encoding="csv">
1656,0,1656,0,1656,0,1656,0,1656,0,1656,0,1656,0,1656,0,1656,0,1656,0,1656,0,1656,0,1656,0,1656,0,1656,0,1656,0,1656,0,0,0,0,0,0,0,0,0,0,0,0,0,0,0,0,0,
0,0,0,0,0,0,0,0,0,0,0,0,0,0,0,0,0,0,0,0,0,0,0,0,0,0,0,0,0,0,0,0,0,0,0,0,0,0,0,0,0,0,0,0,0,0,0,0,0,0,
1656,0,1656,0,1656,0,1656,0,1656,0,1656,0,1656,0,1656,0,1656,0,1656,0,1656,0,1656,0,1656,0,1656,0,1656,0,1656,0,1656,0,0,0,0,0,0,0,0,0,0,0,0,0,0,0,0,0,
0,0,0,0,0,0,0,0,0,0,0,0,0,0,0,0,0,0,0,0,0,0,0,0,0,0,0,0,0,0,0,0,0,0,0,0,0,0,0,0,0,0,0,0,0,0,0,0,0,0,
1656,0,1656,0,1656,0,1656,0,1656,0,1656,0,1656,0,1656,0,1656,0,1656,0,1656,0,1656,0,1656,0,1656,0,1656,0,1656,0,1656,0,0,0,0,0,0,0,0,0,0,0,0,0,0,0,0,0,
0,0,0,0,0,0,0,0,0,0,0,0,0,0,0,0,0,0,0,0,0,0,0,0,0,0,0,0,0,0,0,0,0,0,0,0,0,0,0,0,0,0,0,0,0,0,0,0,0,0,
1656,0,1656,0,1656,0,1656,0,1656,0,1656,0,1656,0,1656,0,1656,0,1656,0,1656,0,1656,0,1656,0,1656,0,1656,0,1656,0,1656,0,0,0,0,0,0,0,0,0,0,0,0,0,0,0,0,0,
0,0,0,0,0,0,0,0,0,0,0,0,0,0,0,0,0,0,0,0,0,0,0,0,0,0,0,0,0,0,0,0,0,0,0,0,0,0,0,0,0,0,0,0,0,0,0,0,0,0,
1656,0,1656,0,1656,0,1656,0,1656,0,1656,0,1656,0,1656,0,1656,0,1656,0,1656,0,1656,0,1656,0,1656,0,1656,0,1656,0,1656,0,1656,0,1656,0,1656,0,1656,0,0,0,0,0,0,0,0,0,
0,0,0,0,0,0,0,0,0,0,0,0,0,0,0,0,0,0,0,0,0,0,0,0,0,0,0,0,0,0,0,0,0,0,0,0,0,0,0,0,0,0,0,0,0,0,0,0,0,0,
1656,0,1656,0,1656,0,1656,0,1656,0,1656,0,1656,0,1656,0,1656,0,1656,0,1656,0,1656,0,1656,0,1656,0,1656,0,1656,0,1656,0,1656,0,1656,0,1656,0,1656,0,0,0,0,0,0,0,0,0,
0,0,0,0,0,0,0,0,0,0,0,0,0,0,0,0,0,0,0,0,0,0,0,0,0,0,0,0,0,0,0,0,0,0,0,0,0,0,0,0,0,0,0,0,0,0,0,0,0,0,
1656,0,1656,0,1656,0,1656,0,1656,0,1656,0,1656,0,1656,0,1656,0,1656,0,1656,0,1656,0,1656,0,1656,0,1656,0,1656,0,1656,0,1656,0,1656,0,1656,0,1656,0,1656,0,1656,0,0,0,0,0,
0,0,0,0,0,0,0,0,0,0,0,0,0,0,0,0,0,0,0,0,0,0,0,0,0,0,0,0,0,0,0,0,0,0,0,0,0,0,0,0,0,0,0,0,0,0,0,0,0,0,
1656,0,1656,0,1656,0,1656,0,1656,0,1656,0,1656,0,1656,0,1656,0,1656,0,1656,0,1656,0,1656,0,1656,0,1656,0,1656,0,1656,0,1656,0,1656,0,1656,0,1656,0,1656,0,1656,0,0,0,0,0,
0,0,0,0,0,0,0,0,0,0,0,0,0,0,0,0,0,0,0,0,0,0,0,0,0,0,0,0,0,0,0,0,0,0,0,0,0,0,0,0,0,0,0,0,0,0,0,0,0,0,
1656,0,1656,0,1656,0,1656,0,1656,0,1656,0,1656,0,1656,0,1656,0,1656,0,1656,0,1656,0,1656,0,1656,0,1656,0,1656,0,1656,0,1656,0,1656,0,1656,0,1656,0,1656,0,1656,0,0,0,0,0,
0,0,0,0,0,0,0,0,0,0,0,0,0,0,0,0,0,0,0,0,0,0,0,0,0,0,0,0,0,0,0,0,0,0,0,0,0,0,0,0,0,0,0,0,0,0,0,0,0,0,
1656,0,1656,0,1656,0,1656,0,1656,0,1656,0,1656,0,1656,0,1656,0,1656,0,1656,0,1656,0,1656,0,1656,0,1656,0,1656,0,1656,0,1656,0,1656,0,1656,0,1656,0,1656,0,1656,0,0,0,0,0,
0,0,0,0,0,0,0,0,0,0,0,0,0,0,0,0,0,0,0,0,0,0,0,0,0,0,0,0,0,0,0,0,0,0,0,0,0,0,0,0,0,0,0,0,0,0,0,0,0,0,
1656,0,1656,0,1656,0,1656,0,1656,0,1656,0,1656,0,1656,0,1656,0,1656,0,1656,0,1656,0,1656,0,1656,0,1656,0,1656,0,1656,0,1656,0,1656,0,1656,0,1656,0,1656,0,1656,0,0,0,0,0,
0,0,0,0,0,0,0,0,0,0,0,0,0,0,0,0,0,0,0,0,0,0,0,0,0,0,0,0,0,0,0,0,0,0,0,0,0,0,0,0,0,0,0,0,0,0,0,0,0,0,
1656,0,1656,0,1656,0,1656,0,1656,0,1656,0,1656,0,1656,0,1656,0,1656,0,1656,0,1656,0,1656,0,1656,0,1656,0,1656,0,1656,0,1656,0,1656,0,1656,0,1656,0,1656,0,1656,0,0,0,0,0,
0,0,0,0,0,0,0,0,0,0,0,0,0,0,0,0,0,0,0,0,0,0,0,0,0,0,0,0,0,0,0,0,0,0,0,0,0,0,0,0,0,0,0,0,0,0,0,0,0,0,
1656,0,1656,0,1656,0,1656,0,1656,0,1656,0,1656,0,1656,0,1656,0,1656,0,1656,0,1656,0,1656,0,1656,0,1656,0,1656,0,1656,0,1656,0,1656,0,1656,0,1656,0,1656,0,1656,0,0,0,0,0,
0,0,0,0,0,0,0,0,0,0,0,0,0,0,0,0,0,0,0,0,0,0,0,0,0,0,0,0,0,0,0,0,0,0,0,0,0,0,0,0,0,0,0,0,0,0,0,0,0,0,
1656,0,1656,0,1656,0,1656,0,1656,0,1656,0,1656,0,1656,0,1656,0,1656,0,1656,0,1656,0,1656,0,1656,0,1656,0,1656,0,1656,0,1656,0,1656,0,1656,0,1656,0,1656,0,1656,0,0,0,0,0,
0,0,0,0,0,0,0,0,0,0,0,0,0,0,0,0,0,0,0,0,0,0,0,0,0,0,0,0,0,0,0,0,0,0,0,0,0,0,0,0,0,0,0,0,0,0,0,0,0,0,
1656,0,1656,0,1656,0,1656,0,1656,0,1656,0,1656,0,1656,0,1656,0,1656,0,1656,0,1656,0,1656,0,1656,0,1656,0,1656,0,1656,0,1656,0,1656,0,1656,0,1656,0,1656,0,1656,0,0,0,0,0,
0,0,0,0,0,0,0,0,0,0,0,0,0,0,0,0,0,0,0,0,0,0,0,0,0,0,0,0,0,0,0,0,0,0,0,0,0,0,0,0,0,0,0,0,0,0,0,0,0,0,
1656,0,1656,0,1656,0,1656,0,1656,0,1656,0,1656,0,1656,0,1656,0,1656,0,1656,0,1656,0,1656,0,1656,0,1656,0,1656,0,1656,0,1656,0,1656,0,1656,0,1656,0,1656,0,1656,0,0,0,0,0,
0,0,0,0,0,0,0,0,0,0,0,0,0,0,0,0,0,0,0,0,0,0,0,0,0,0,0,0,0,0,0,0,0,0,0,0,0,0,0,0,0,0,0,0,0,0,0,0,0,0,
1656,0,1656,0,1656,0,1656,0,1656,0,1656,0,1656,0,1656,0,1656,0,1656,0,1656,0,1656,0,1656,0,1656,0,1656,0,1656,0,1656,0,1656,0,1656,0,1656,0,1656,0,1656,0,1656,0,0,0,0,0,
0,0,0,0,0,0,0,0,0,0,0,0,0,0,0,0,0,0,0,0,0,0,0,0,0,0,0,0,0,0,0,0,0,0,0,0,0,0,0,0,0,0,0,0,0,0,0,0,0,0,
0,0,0,0,1656,0,1656,0,1656,0,1656,0,1656,0,1656,0,1656,0,1656,0,1656,0,1656,0,1656,0,1656,0,1656,0,1656,0,1656,0,1656,0,1656,0,1656,0,1656,0,1656,0,1656,0,0,0,0,0,
0,0,0,0,0,0,0,0,0,0,0,0,0,0,0,0,0,0,0,0,0,0,0,0,0,0,0,0,0,0,0,0,0,0,0,0,0,0,0,0,0,0,0,0,0,0,0,0,0,0,
0,0,0,0,1656,0,1656,0,1656,0,1656,0,1656,0,1656,0,1656,0,1656,0,1656,0,1656,0,1656,0,1656,0,1656,0,1656,0,1656,0,1656,0,1656,0,1656,0,1656,0,1656,0,1656,0,0,0,0,0,
0,0,0,0,0,0,0,0,0,0,0,0,0,0,0,0,0,0,0,0,0,0,0,0,0,0,0,0,0,0,0,0,0,0,0,0,0,0,0,0,0,0,0,0,0,0,0,0,0,0,
0,0,0,0,1656,0,1656,0,1656,0,1656,0,1656,0,1656,0,1656,0,1656,0,1656,0,1656,0,1656,0,1656,0,1656,0,1656,0,1656,0,1656,0,1656,0,1656,0,1656,0,1656,0,1656,0,0,0,0,0,
0,0,0,0,0,0,0,0,0,0,0,0,0,0,0,0,0,0,0,0,0,0,0,0,0,0,0,0,0,0,0,0,0,0,0,0,0,0,0,0,0,0,0,0,0,0,0,0,0,0,
0,0,0,0,1656,0,1656,0,1656,0,1656,0,1656,0,1656,0,1656,0,1656,0,1656,0,1656,0,1656,0,1656,0,1656,0,1656,0,1656,0,1656,0,1656,0,1656,0,1656,0,1656,0,1656,0,0,0,0,0,
0,0,0,0,0,0,0,0,0,0,0,0,0,0,0,0,0,0,0,0,0,0,0,0,0,0,0,0,0,0,0,0,0,0,0,0,0,0,0,0,0,0,0,0,0,0,0,0,0,0,
0,0,0,0,1656,0,1656,0,1656,0,1656,0,1656,0,1656,0,1656,0,1656,0,1656,0,1656,0,0,0,0,0,0,0,0,0,0,0,0,0,0,0,0,0,0,0,0,0,0,0,0,0,0,0,
0,0,0,0,0,0,0,0,0,0,0,0,0,0,0,0,0,0,0,0,0,0,0,0,0,0,0,0,0,0,0,0,0,0,0,0,0,0,0,0,0,0,0,0,0,0,0,0,0,0,
0,0,0,0,0,0,0,0,0,0,0,0,0,0,0,0,0,0,0,0,0,0,0,0,0,0,0,0,0,0,0,0,0,0,0,0,0,0,0,0,0,0,0,0,0,0,0,0,0,0,
0,0,0,0,0,0,0,0,0,0,0,0,0,0,0,0,0,0,0,0,0,0,0,0,0,0,0,0,0,0,0,0,0,0,0,0,0,0,0,0,0,0,0,0,0,0,0,0,0,0,
0,0,0,0,0,0,0,0,0,0,0,0,0,0,0,0,0,0,0,0,0,0,0,0,0,0,0,0,0,0,0,0,0,0,0,0,0,0,0,0,0,0,0,0,0,0,0,0,0,0,
0,0,0,0,0,0,0,0,0,0,0,0,0,0,0,0,0,0,0,0,0,0,0,0,0,0,0,0,0,0,0,0,0,0,0,0,0,0,0,0,0,0,0,0,0,0,0,0,0,0,
0,0,0,0,0,0,0,0,0,0,0,0,0,0,0,0,0,0,0,0,0,0,0,0,0,0,0,0,0,0,0,0,0,0,0,0,0,0,0,0,0,0,0,0,0,0,0,0,0,0,
0,0,0,0,0,0,0,0,0,0,0,0,0,0,0,0,0,0,0,0,0,0,0,0,0,0,0,0,0,0,0,0,0,0,0,0,0,0,0,0,0,0,0,0,0,0,0,0,0,0,
0,0,0,0,0,0,0,0,0,0,0,0,0,0,0,0,0,0,0,0,0,0,0,0,0,0,0,0,0,0,0,0,0,0,0,0,0,0,0,0,0,0,0,0,0,0,0,0,0,0,
0,0,0,0,0,0,0,0,0,0,0,0,0,0,0,0,0,0,0,0,0,0,0,0,0,0,0,0,0,0,0,0,0,0,0,0,0,0,0,0,0,0,0,0,0,0,0,0,0,0,
0,0,0,0,0,0,0,0,0,0,0,0,0,0,0,0,0,0,0,0,0,0,0,0,0,0,0,0,0,0,0,0,0,0,0,0,0,0,0,0,0,0,0,0,0,0,0,0,0,0,
0,0,0,0,0,0,0,0,0,0,0,0,0,0,0,0,0,0,0,0,0,0,0,0,0,0,0,0,0,0,0,0,0,0,0,0,0,0,0,0,0,0,0,0,0,0,0,0,0,0,
0,0,0,0,0,0,0,0,0,0,0,0,0,0,0,0,0,0,0,0,0,0,0,0,0,0,0,0,0,0,0,0,0,0,0,0,0,0,0,0,0,0,0,0,0,0,0,0,0,0,
0,0,0,0,0,0,0,0,0,0,0,0,0,0,0,0,0,0,0,0,0,0,0,0,0,0,0,0,0,0,0,0,0,0,0,0,0,0,0,0,0,0,0,0,0,0,0,0,0,0
</data>
  </layer>
  <objectgroup draworder="index" id="3" name="Level_0_FloorSprites">
   <object id="1" type="asset" gid="809" x="40" y="392" width="320" height="256"/>
   <object id="2" type="asset" gid="767" x="128" y="264" width="144" height="192"/>
  </objectgroup>
  <layer id="4" name="Level_0_Shadows" width="50" height="56">
   <properties>
    <property name="maybe_animation_id" value="babd09ade2b55c05"/>
    <property name="maybe_tileset_id" value="339411f6ba88c8f0"/>
    <property name="tile_size" type="int" value="16"/>
   </properties>
   <data encoding="csv">
5752,0,5752,0,5752,0,5752,0,5752,0,5752,0,5752,0,5752,0,5752,0,5752,0,5752,0,5752,0,5752,0,5752,0,5752,0,5752,0,5752,0,5752,0,5752,0,5752,0,5752,0,5752,0,5752,0,5752,0,5752,0,
0,0,0,0,0,0,0,0,0,0,0,0,0,0,0,0,0,0,0,0,0,0,0,0,0,0,0,0,0,0,0,0,0,0,0,0,0,0,0,0,0,0,0,0,0,0,0,0,0,0,
5752,0,5752,0,5752,0,5752,0,5752,0,5752,0,5752,0,5752,0,5752,0,5752,0,5752,0,5752,0,5752,0,5752,0,5752,0,5752,0,5752,0,5752,0,5752,0,5752,0,5752,0,5752,0,5752,0,5752,0,5752,0,
0,0,0,0,0,0,0,0,0,0,0,0,0,0,0,0,0,0,0,0,0,0,0,0,0,0,0,0,0,0,0,0,0,0,0,0,0,0,0,0,0,0,0,0,0,0,0,0,0,0,
5752,0,5752,0,5752,0,5752,0,5752,0,5752,0,5752,0,5752,0,5752,0,5752,0,5752,0,5752,0,5752,0,5752,0,5752,0,5752,0,5752,0,5752,0,5752,0,5752,0,5752,0,5752,0,5752,0,5752,0,5752,0,
0,0,0,0,0,0,0,0,0,0,0,0,0,0,0,0,0,0,0,0,0,0,0,0,0,0,0,0,0,0,0,0,0,0,0,0,0,0,0,0,0,0,0,0,0,0,0,0,0,0,
5752,0,5752,0,5752,0,5752,0,5752,0,5752,0,5752,0,5752,0,5752,0,5752,0,5752,0,5752,0,5752,0,5752,0,5752,0,5752,0,5752,0,5752,0,5752,0,5752,0,5752,0,5752,0,5752,0,5752,0,5752,0,
0,0,0,0,0,0,0,0,0,0,0,0,0,0,0,0,0,0,0,0,0,0,0,0,0,0,0,0,0,0,0,0,0,0,0,0,0,0,0,0,0,0,0,0,0,0,0,0,0,0,
5752,0,5752,0,5752,0,5752,0,5752,0,5752,0,5752,0,5752,0,5752,0,5752,0,5752,0,5752,0,5752,0,5752,0,5752,0,5752,0,5752,0,5752,0,5752,0,5752,0,5752,0,5752,0,5752,0,5752,0,5752,0,
0,0,0,0,0,0,0,0,0,0,0,0,0,0,0,0,0,0,0,0,0,0,0,0,0,0,0,0,0,0,0,0,0,0,0,0,0,0,0,0,0,0,0,0,0,0,0,0,0,0,
5752,0,5752,0,5752,0,5752,0,5752,0,5752,0,5752,0,5752,0,5752,0,5752,0,5752,0,5752,0,5752,0,5752,0,5752,0,5752,0,5752,0,5752,0,5752,0,5752,0,5752,0,5752,0,5752,0,5752,0,5752,0,
0,0,0,0,0,0,0,0,0,0,0,0,0,0,0,0,0,0,0,0,0,0,0,0,0,0,0,0,0,0,0,0,0,0,0,0,0,0,0,0,0,0,0,0,0,0,0,0,0,0,
5752,0,5752,0,5752,0,5752,0,5752,0,5752,0,5752,0,5752,0,5752,0,5752,0,5752,0,5752,0,5752,0,5752,0,5752,0,5752,0,5752,0,5752,0,5752,0,5752,0,5752,0,5752,0,5752,0,5752,0,5752,0,
0,0,0,0,0,0,0,0,0,0,0,0,0,0,0,0,0,0,0,0,0,0,0,0,0,0,0,0,0,0,0,0,0,0,0,0,0,0,0,0,0,0,0,0,0,0,0,0,0,0,
5752,0,5752,0,5752,0,5752,0,5752,0,5752,0,5752,0,5752,0,5752,0,5752,0,5752,0,5752,0,5752,0,5752,0,5752,0,5752,0,5752,0,5752,0,5752,0,5752,0,5752,0,5752,0,5752,0,5752,0,5752,0,
0,0,0,0,0,0,0,0,0,0,0,0,0,0,0,0,0,0,0,0,0,0,0,0,0,0,0,0,0,0,0,0,0,0,0,0,0,0,0,0,0,0,0,0,0,0,0,0,0,0,
5752,0,5752,0,5752,0,5752,0,5784,0,5817,0,5754,0,5754,0,5800,0,5752,0,5752,0,5752,0,5752,0,5752,0,5752,0,5752,0,5801,0,5754,0,5754,0,5754,0,5752,0,5752,0,5752,0,5752,0,5752,0,
0,0,0,0,0,0,0,0,0,0,0,0,0,0,0,0,0,0,0,0,0,0,0,0,0,0,0,0,0,0,0,0,0,0,0,0,0,0,0,0,0,0,0,0,0,0,0,0,0,0,
5752,0,5752,0,5752,0,5816,0,5785,0,5752,0,5752,0,5752,0,5752,0,5752,0,5752,0,5752,0,5752,0,5752,0,5752,0,5752,0,5802,0,5752,0,5752,0,5752,0,5752,0,5752,0,5752,0,5752,0,5752,0,
0,0,0,0,0,0,0,0,0,0,0,0,0,0,0,0,0,0,0,0,0,0,0,0,0,0,0,0,0,0,0,0,0,0,0,0,0,0,0,0,0,0,0,0,0,0,0,0,0,0,
5752,0,5752,0,5753,0,5753,0,5752,0,5752,0,5752,0,5752,0,5752,0,5752,0,5752,0,5752,0,5752,0,5752,0,5752,0,5752,0,5802,0,5752,0,5752,0,5752,0,5752,0,5752,0,5752,0,5752,0,5752,0,
0,0,0,0,0,0,0,0,0,0,0,0,0,0,0,0,0,0,0,0,0,0,0,0,0,0,0,0,0,0,0,0,0,0,0,0,0,0,0,0,0,0,0,0,0,0,0,0,0,0,
5752,0,5752,0,5753,0,5753,0,5752,0,5752,0,5752,0,5752,0,5752,0,5752,0,5752,0,5752,0,5752,0,5752,0,5752,0,5752,0,5802,0,5752,0,5752,0,5752,0,5752,0,5752,0,5752,0,5752,0,5752,0,
0,0,0,0,0,0,0,0,0,0,0,0,0,0,0,0,0,0,0,0,0,0,0,0,0,0,0,0,0,0,0,0,0,0,0,0,0,0,0,0,0,0,0,0,0,0,0,0,0,0,
5752,0,5752,0,5753,0,5753,0,5752,0,5752,0,5752,0,5752,0,5752,0,5752,0,5752,0,5752,0,5752,0,5752,0,5752,0,5752,0,5802,0,5752,0,5752,0,5752,0,5752,0,5752,0,5752,0,5752,0,5752,0,
0,0,0,0,0,0,0,0,0,0,0,0,0,0,0,0,0,0,0,0,0,0,0,0,0,0,0,0,0,0,0,0,0,0,0,0,0,0,0,0,0,0,0,0,0,0,0,0,0,0,
5752,0,5752,0,5753,0,5753,0,5752,0,5752,0,5752,0,5752,0,5752,0,5752,0,5752,0,5752,0,5752,0,5752,0,5752,0,5752,0,5802,0,5752,0,5752,0,5752,0,5752,0,5752,0,5752,0,5752,0,5752,0,
0,0,0,0,0,0,0,0,0,0,0,0,0,0,0,0,0,0,0,0,0,0,0,0,0,0,0,0,0,0,0,0,0,0,0,0,0,0,0,0,0,0,0,0,0,0,0,0,0,0,
5752,0,5752,0,5753,0,5753,0,5752,0,5752,0,5752,0,5752,0,5752,0,5752,0,5752,0,5752,0,5752,0,5752,0,5752,0,5752,0,5802,0,5752,0,5752,0,5752,0,5752,0,5752,0,5752,0,5752,0,5752,0,
0,0,0,0,0,0,0,0,0,0,0,0,0,0,0,0,0,0,0,0,0,0,0,0,0,0,0,0,0,0,0,0,0,0,0,0,0,0,0,0,0,0,0,0,0,0,0,0,0,0,
5752,0,5752,0,5753,0,5753,0,5752,0,5752,0,5752,0,5752,0,5752,0,5752,0,5752,0,5752,0,5752,0,5752,0,5752,0,5752,0,5818,0,5752,0,5752,0,5752,0,5752,0,5752,0,5752,0,5752,0,5752,0,
0,0,0,0,0,0,0,0,0,0,0,0,0,0,0,0,0,0,0,0,0,0,0,0,0,0,0,0,0,0,0,0,0,0,0,0,0,0,0,0,0,0,0,0,0,0,0,0,0,0,
5752,0,5752,0,5753,0,5753,0,5752,0,5752,0,5752,0,5752,0,5832,0,5833,0,5833,0,5833,0,5833,0,5833,0,5833,0,5833,0,5834,0,5752,0,5752,0,5752,0,5752,0,5752,0,5752,0,5752,0,5752,0,
0,0,0,0,0,0,0,0,0,0,0,0,0,0,0,0,0,0,0,0,0,0,0,0,0,0,0,0,0,0,0,0,0,0,0,0,0,0,0,0,0,0,0,0,0,0,0,0,0,0,
5752,0,5752,0,5753,0,5753,0,5752,0,5752,0,5752,0,5752,0,5752,0,5752,0,5752,0,5752,0,5752,0,5752,0,5752,0,5752,0,5752,0,5752,0,5752,0,5752,0,5752,0,5752,0,5752,0,5752,0,5752,0,
0,0,0,0,0,0,0,0,0,0,0,0,0,0,0,0,0,0,0,0,0,0,0,0,0,0,0,0,0,0,0,0,0,0,0,0,0,0,0,0,0,0,0,0,0,0,0,0,0,0,
5752,0,5752,0,5753,0,5753,0,5752,0,5752,0,5752,0,5752,0,5752,0,5752,0,5752,0,5752,0,5752,0,5752,0,5752,0,5752,0,5752,0,5752,0,5752,0,5752,0,5752,0,5752,0,5752,0,5752,0,5752,0,
0,0,0,0,0,0,0,0,0,0,0,0,0,0,0,0,0,0,0,0,0,0,0,0,0,0,0,0,0,0,0,0,0,0,0,0,0,0,0,0,0,0,0,0,0,0,0,0,0,0,
5752,0,5752,0,5753,0,5753,0,5752,0,5752,0,5752,0,5752,0,5752,0,5752,0,5752,0,5752,0,5752,0,5752,0,5752,0,5752,0,5752,0,5752,0,5752,0,5752,0,5752,0,5752,0,5752,0,5752,0,5752,0,
0,0,0,0,0,0,0,0,0,0,0,0,0,0,0,0,0,0,0,0,0,0,0,0,0,0,0,0,0,0,0,0,0,0,0,0,0,0,0,0,0,0,0,0,0,0,0,0,0,0,
5752,0,5752,0,5753,0,5753,0,5752,0,5752,0,5752,0,5752,0,5752,0,5752,0,5752,0,5752,0,5752,0,5752,0,5752,0,5752,0,5752,0,5752,0,5752,0,5752,0,5752,0,5752,0,5752,0,5752,0,5752,0,
0,0,0,0,0,0,0,0,0,0,0,0,0,0,0,0,0,0,0,0,0,0,0,0,0,0,0,0,0,0,0,0,0,0,0,0,0,0,0,0,0,0,0,0,0,0,0,0,0,0,
5752,0,5752,0,5753,0,5753,0,5752,0,5752,0,5752,0,5752,0,5752,0,5752,0,5752,0,5752,0,5752,0,5752,0,5752,0,5752,0,5752,0,5752,0,5752,0,5752,0,5752,0,5752,0,5752,0,5752,0,5752,0,
0,0,0,0,0,0,0,0,0,0,0,0,0,0,0,0,0,0,0,0,0,0,0,0,0,0,0,0,0,0,0,0,0,0,0,0,0,0,0,0,0,0,0,0,0,0,0,0,0,0,
5752,0,5752,0,5753,0,5753,0,5752,0,5752,0,5752,0,5752,0,5752,0,5752,0,5752,0,5752,0,5752,0,5752,0,5752,0,5752,0,5752,0,5752,0,5752,0,5752,0,5752,0,5752,0,5752,0,5752,0,5752,0,
0,0,0,0,0,0,0,0,0,0,0,0,0,0,0,0,0,0,0,0,0,0,0,0,0,0,0,0,0,0,0,0,0,0,0,0,0,0,0,0,0,0,0,0,0,0,0,0,0,0,
5752,0,5752,0,5753,0,5753,0,5752,0,5752,0,5752,0,5752,0,5752,0,5752,0,5752,0,5752,0,5752,0,5752,0,5752,0,5752,0,5752,0,5752,0,5752,0,5752,0,5752,0,5752,0,5752,0,5752,0,5752,0,
0,0,0,0,0,0,0,0,0,0,0,0,0,0,0,0,0,0,0,0,0,0,0,0,0,0,0,0,0,0,0,0,0,0,0,0,0,0,0,0,0,0,0,0,0,0,0,0,0,0,
0,0,0,0,0,0,0,0,0,0,0,0,0,0,0,0,0,0,0,0,0,0,0,0,0,0,0,0,0,0,0,0,0,0,0,0,0,0,0,0,0,0,0,0,0,0,0,0,0,0,
0,0,0,0,0,0,0,0,0,0,0,0,0,0,0,0,0,0,0,0,0,0,0,0,0,0,0,0,0,0,0,0,0,0,0,0,0,0,0,0,0,0,0,0,0,0,0,0,0,0,
0,0,0,0,0,0,0,0,0,0,0,0,0,0,0,0,0,0,0,0,0,0,0,0,0,0,0,0,0,0,0,0,0,0,0,0,0,0,0,0,0,0,0,0,0,0,0,0,0,0,
0,0,0,0,0,0,0,0,0,0,0,0,0,0,0,0,0,0,0,0,0,0,0,0,0,0,0,0,0,0,0,0,0,0,0,0,0,0,0,0,0,0,0,0,0,0,0,0,0,0,
0,0,0,0,0,0,0,0,0,0,0,0,0,0,0,0,0,0,0,0,0,0,0,0,0,0,0,0,0,0,0,0,0,0,0,0,0,0,0,0,0,0,0,0,0,0,0,0,0,0,
0,0,0,0,0,0,0,0,0,0,0,0,0,0,0,0,0,0,0,0,0,0,0,0,0,0,0,0,0,0,0,0,0,0,0,0,0,0,0,0,0,0,0,0,0,0,0,0,0,0,
0,0,0,0,0,0,0,0,0,0,0,0,0,0,0,0,0,0,0,0,0,0,0,0,0,0,0,0,0,0,0,0,0,0,0,0,0,0,0,0,0,0,0,0,0,0,0,0,0,0,
0,0,0,0,0,0,0,0,0,0,0,0,0,0,0,0,0,0,0,0,0,0,0,0,0,0,0,0,0,0,0,0,0,0,0,0,0,0,0,0,0,0,0,0,0,0,0,0,0,0
</data>
  </layer>
  <layer id="5" name="Level_0_Walls" width="50" height="56">
   <properties>
    <property name="maybe_animation_id" value="75ea443e6634d96"/>
    <property name="maybe_tileset_id" value="d8b504e9a8480fbe"/>
    <property name="tile_size" type="int" value="16"/>
   </properties>
   <data encoding="csv">
1656,0,1656,0,1656,0,1656,0,1656,0,1656,0,1656,0,1656,0,1656,0,1656,0,1656,0,1656,0,1656,0,1656,0,1656,0,1656,0,1656,0,1656,0,1656,0,1656,0,1656,0,1656,0,0,0,0,0,0,0,
0,0,0,0,0,0,0,0,0,0,0,0,0,0,0,0,0,0,0,0,0,0,0,0,0,0,0,0,0,0,0,0,0,0,0,0,0,0,0,0,0,0,0,0,0,0,0,0,0,0,
1656,0,1656,0,1656,0,1656,0,1656,0,1656,0,1656,0,1656,0,1656,0,1656,0,1656,0,1656,0,1656,0,1656,0,1656,0,1656,0,1656,0,1656,0,1656,0,1656,0,1656,0,1656,0,0,0,0,0,0,0,
0,0,0,0,0,0,0,0,0,0,0,0,0,0,0,0,0,0,0,0,0,0,0,0,0,0,0,0,0,0,0,0,0,0,0,0,0,0,0,0,0,0,0,0,0,0,0,0,0,0,
1656,0,1656,0,1656,0,1656,0,1656,0,1656,0,1656,0,1656,0,1656,0,1656,0,1656,0,1656,0,1656,0,1656,0,1656,0,1656,0,1656,0,1656,0,1656,0,1656,0,1656,0,1656,0,1656,0,0,0,0,0,
0,0,0,0,0,0,0,0,0,0,0,0,0,0,0,0,0,0,0,0,0,0,0,0,0,0,0,0,0,0,0,0,0,0,0,0,0,0,0,0,0,0,0,0,0,0,0,0,0,0,
1656,0,1656,0,1656,0,1656,0,1656,0,1656,0,1656,0,1656,0,1656,0,1656,0,1656,0,1656,0,1656,0,1656,0,1656,0,1656,0,1656,0,1656,0,1656,0,1656,0,1656,0,1656,0,1656,0,0,0,0,0,
0,0,0,0,0,0,0,0,0,0,0,0,0,0,0,0,0,0,0,0,0,0,0,0,0,0,0,0,0,0,0,0,0,0,0,0,0,0,0,0,0,0,0,0,0,0,0,0,0,0,
1656,0,1656,0,1656,0,1656,0,1656,0,1656,0,1656,0,1656,0,1656,0,1656,0,1656,0,1656,0,1656,0,1656,0,1656,0,1656,0,1656,0,1656,0,1656,0,1656,0,1656,0,1656,0,1656,0,0,0,0,0,
0,0,0,0,0,0,0,0,0,0,0,0,0,0,0,0,0,0,0,0,0,0,0,0,0,0,0,0,0,0,0,0,0,0,0,0,0,0,0,0,0,0,0,0,0,0,0,0,0,0,
1656,0,1656,0,1656,0,1656,0,1656,0,1656,0,1656,0,1656,0,1656,0,1656,0,1656,0,1656,0,1656,0,1656,0,1656,0,1656,0,1656,0,1656,0,1656,0,1656,0,1656,0,1656,0,1656,0,0,0,0,0,
0,0,0,0,0,0,0,0,0,0,0,0,0,0,0,0,0,0,0,0,0,0,0,0,0,0,0,0,0,0,0,0,0,0,0,0,0,0,0,0,0,0,0,0,0,0,0,0,0,0,
1656,0,1656,0,1656,0,1656,0,1656,0,1656,0,1656,0,1656,0,1656,0,1656,0,1656,0,1656,0,1656,0,1656,0,1656,0,1656,0,1656,0,1656,0,1656,0,1656,0,1656,0,1656,0,1656,0,0,0,0,0,
0,0,0,0,0,0,0,0,0,0,0,0,0,0,0,0,0,0,0,0,0,0,0,0,0,0,0,0,0,0,0,0,0,0,0,0,0,0,0,0,0,0,0,0,0,0,0,0,0,0,
1656,0,1656,0,1656,0,1656,0,1656,0,1656,0,1656,0,1656,0,1656,0,1656,0,1656,0,1656,0,1656,0,1656,0,1656,0,1656,0,1656,0,1656,0,1656,0,1656,0,1656,0,1656,0,1656,0,0,0,0,0,
0,0,0,0,0,0,0,0,0,0,0,0,0,0,0,0,0,0,0,0,0,0,0,0,0,0,0,0,0,0,0,0,0,0,0,0,0,0,0,0,0,0,0,0,0,0,0,0,0,0,
1656,0,1656,0,1656,0,1656,0,1656,0,1656,0,1656,0,1656,0,1656,0,1656,0,1656,0,1656,0,1656,0,1656,0,1656,0,1656,0,1656,0,1656,0,1656,0,1656,0,1656,0,1656,0,1656,0,0,0,0,0,
0,0,0,0,0,0,0,0,0,0,0,0,0,0,0,0,0,0,0,0,0,0,0,0,0,0,0,0,0,0,0,0,0,0,0,0,0,0,0,0,0,0,0,0,0,0,0,0,0,0,
1656,0,1656,0,1656,0,1656,0,1656,0,1656,0,1656,0,1656,0,1656,0,1656,0,1656,0,1656,0,1656,0,1656,0,1656,0,1656,0,1656,0,1656,0,1656,0,1656,0,1656,0,1656,0,1656,0,0,0,0,0,
0,0,0,0,0,0,0,0,0,0,0,0,0,0,0,0,0,0,0,0,0,0,0,0,0,0,0,0,0,0,0,0,0,0,0,0,0,0,0,0,0,0,0,0,0,0,0,0,0,0,
1656,0,1656,0,1656,0,1656,0,1656,0,1656,0,1656,0,1656,0,1656,0,1656,0,1656,0,1656,0,1656,0,1656,0,1656,0,1656,0,1656,0,1656,0,1656,0,1656,0,1656,0,1656,0,1656,0,0,0,0,0,
0,0,0,0,0,0,0,0,0,0,0,0,0,0,0,0,0,0,0,0,0,0,0,0,0,0,0,0,0,0,0,0,0,0,0,0,0,0,0,0,0,0,0,0,0,0,0,0,0,0,
1656,0,1656,0,1656,0,1656,0,1656,0,1656,0,1656,0,1656,0,1656,0,1656,0,1656,0,1656,0,1656,0,1656,0,1656,0,1656,0,1656,0,1656,0,1656,0,1656,0,1656,0,1656,0,1656,0,0,0,0,0,
0,0,0,0,0,0,0,0,0,0,0,0,0,0,0,0,0,0,0,0,0,0,0,0,0,0,0,0,0,0,0,0,0,0,0,0,0,0,0,0,0,0,0,0,0,0,0,0,0,0,
1656,0,1656,0,1656,0,1656,0,1656,0,1656,0,1656,0,1656,0,1656,0,1656,0,1656,0,1656,0,1656,0,1656,0,1656,0,1656,0,1656,0,1656,0,1656,0,1656,0,1656,0,1656,0,1656,0,0,0,0,0,
0,0,0,0,0,0,0,0,0,0,0,0,0,0,0,0,0,0,0,0,0,0,0,0,0,0,0,0,0,0,0,0,0,0,0,0,0,0,0,0,0,0,0,0,0,0,0,0,0,0,
1656,0,1656,0,1656,0,1656,0,1656,0,1656,0,1656,0,1656,0,1656,0,1656,0,1656,0,1656,0,1656,0,1656,0,1656,0,1656,0,1656,0,1656,0,1656,0,1656,0,1656,0,1656,0,1656,0,0,0,0,0,
0,0,0,0,0,0,0,0,0,0,0,0,0,0,0,0,0,0,0,0,0,0,0,0,0,0,0,0,0,0,0,0,0,0,0,0,0,0,0,0,0,0,0,0,0,0,0,0,0,0,
1656,0,1656,0,1656,0,1656,0,1656,0,1656,0,1656,0,1656,0,1656,0,1656,0,1656,0,1656,0,1656,0,1656,0,1656,0,1656,0,1656,0,1656,0,1656,0,1656,0,1656,0,1656,0,1656,0,0,0,0,0,
0,0,0,0,0,0,0,0,0,0,0,0,0,0,0,0,0,0,0,0,0,0,0,0,0,0,0,0,0,0,0,0,0,0,0,0,0,0,0,0,0,0,0,0,0,0,0,0,0,0,
1656,0,1656,0,1656,0,1656,0,1656,0,1656,0,1656,0,1656,0,1656,0,1656,0,1656,0,1656,0,1656,0,1656,0,1656,0,1656,0,1656,0,1656,0,1656,0,1656,0,1656,0,1656,0,1656,0,0,0,0,0,
0,0,0,0,0,0,0,0,0,0,0,0,0,0,0,0,0,0,0,0,0,0,0,0,0,0,0,0,0,0,0,0,0,0,0,0,0,0,0,0,0,0,0,0,0,0,0,0,0,0,
1656,0,1656,0,1656,0,1656,0,1656,0,1656,0,1656,0,1656,0,1656,0,1656,0,1656,0,1656,0,1656,0,1656,0,1656,0,1656,0,1656,0,1656,0,1656,0,1656,0,1656,0,1656,0,1656,0,0,0,0,0,
0,0,0,0,0,0,0,0,0,0,0,0,0,0,0,0,0,0,0,0,0,0,0,0,0,0,0,0,0,0,0,0,0,0,0,0,0,0,0,0,0,0,0,0,0,0,0,0,0,0,
1656,0,1656,0,1656,0,1656,0,1656,0,1656,0,1656,0,1656,0,1656,0,1656,0,1656,0,1656,0,1656,0,1656,0,1656,0,1656,0,1656,0,1656,0,1656,0,1656,0,1656,0,1656,0,1656,0,0,0,0,0,
0,0,0,0,0,0,0,0,0,0,0,0,0,0,0,0,0,0,0,0,0,0,0,0,0,0,0,0,0,0,0,0,0,0,0,0,0,0,0,0,0,0,0,0,0,0,0,0,0,0,
1656,0,1656,0,1656,0,1656,0,1656,0,1656,0,1656,0,1656,0,1656,0,1656,0,1656,0,1656,0,1656,0,1656,0,1656,0,1656,0,1656,0,1656,0,1656,0,1656,0,1656,0,1656,0,1656,0,0,0,0,0,
0,0,0,0,0,0,0,0,0,0,0,0,0,0,0,0,0,0,0,0,0,0,0,0,0,0,0,0,0,0,0,0,0,0,0,0,0,0,0,0,0,0,0,0,0,0,0,0,0,0,
1656,0,1656,0,1656,0,1656,0,1656,0,1656,0,1656,0,1656,0,1656,0,1656,0,1656,0,1656,0,1656,0,1656,0,1656,0,1656,0,1656,0,1656,0,1656,0,1656,0,1656,0,1656,0,1656,0,0,0,0,0,
0,0,0,0,0,0,0,0,0,0,0,0,0,0,0,0,0,0,0,0,0,0,0,0,0,0,0,0,0,0,0,0,0,0,0,0,0,0,0,0,0,0,0,0,0,0,0,0,0,0,
1656,0,1656,0,1656,0,1656,0,1656,0,1656,0,1656,0,1656,0,1656,0,1656,0,1656,0,1656,0,1656,0,1656,0,1656,0,1656,0,1656,0,1656,0,1656,0,1656,0,1656,0,1656,0,1656,0,0,0,0,0,
0,0,0,0,0,0,0,0,0,0,0,0,0,0,0,0,0,0,0,0,0,0,0,0,0,0,0,0,0,0,0,0,0,0,0,0,0,0,0,0,0,0,0,0,0,0,0,0,0,0,
1656,0,1656,0,1656,0,1656,0,1656,0,1656,0,1656,0,1656,0,1656,0,1656,0,1656,0,1656,0,1656,0,1656,0,1656,0,1656,0,1656,0,1656,0,1656,0,1656,0,1656,0,1656,0,1656,0,0,0,0,0,
0,0,0,0,0,0,0,0,0,0,0,0,0,0,0,0,0,0,0,0,0,0,0,0,0,0,0,0,0,0,0,0,0,0,0,0,0,0,0,0,0,0,0,0,0,0,0,0,0,0,
0,0,0,0,0,0,0,0,0,0,0,0,0,0,0,0,0,0,0,0,0,0,0,0,0,0,0,0,0,0,0,0,0,0,0,0,0,0,0,0,0,0,0,0,0,0,0,0,0,0,
0,0,0,0,0,0,0,0,0,0,0,0,0,0,0,0,0,0,0,0,0,0,0,0,0,0,0,0,0,0,0,0,0,0,0,0,0,0,0,0,0,0,0,0,0,0,0,0,0,0,
0,0,0,0,0,0,0,0,0,0,0,0,0,0,0,0,0,0,0,0,0,0,0,0,0,0,0,0,0,0,0,0,0,0,0,0,0,0,0,0,0,0,0,0,0,0,0,0,0,0,
0,0,0,0,0,0,0,0,0,0,0,0,0,0,0,0,0,0,0,0,0,0,0,0,0,0,0,0,0,0,0,0,0,0,0,0,0,0,0,0,0,0,0,0,0,0,0,0,0,0,
0,0,0,0,0,0,0,0,0,0,0,0,0,0,0,0,0,0,0,0,0,0,0,0,0,0,0,0,0,0,0,0,0,0,0,0,0,0,0,0,0,0,0,0,0,0,0,0,0,0,
0,0,0,0,0,0,0,0,0,0,0,0,0,0,0,0,0,0,0,0,0,0,0,0,0,0,0,0,0,0,0,0,0,0,0,0,0,0,0,0,0,0,0,0,0,0,0,0,0,0,
0,0,0,0,0,0,0,0,0,0,0,0,0,0,0,0,0,0,0,0,0,0,0,0,0,0,0,0,0,0,0,0,0,0,0,0,0,0,0,0,0,0,0,0,0,0,0,0,0,0,
0,0,0,0,0,0,0,0,0,0,0,0,0,0,0,0,0,0,0,0,0,0,0,0,0,0,0,0,0,0,0,0,0,0,0,0,0,0,0,0,0,0,0,0,0,0,0,0,0,0,
0,0,0,0,0,0,0,0,0,0,0,0,0,0,0,0,0,0,0,0,0,0,0,0,0,0,0,0,0,0,0,0,0,0,0,0,0,0,0,0,0,0,0,0,0,0,0,0,0,0,
0,0,0,0,0,0,0,0,0,0,0,0,0,0,0,0,0,0,0,0,0,0,0,0,0,0,0,0,0,0,0,0,0,0,0,0,0,0,0,0,0,0,0,0,0,0,0,0,0,0,
0,0,0,0,0,0,0,0,0,0,0,0,0,0,0,0,0,0,0,0,0,0,0,0,0,0,0,0,0,0,0,0,0,0,0,0,0,0,0,0,0,0,0,0,0,0,0,0,0,0,
0,0,0,0,0,0,0,0,0,0,0,0,0,0,0,0,0,0,0,0,0,0,0,0,0,0,0,0,0,0,0,0,0,0,0,0,0,0,0,0,0,0,0,0,0,0,0,0,0,0
</data>
  </layer>
  <objectgroup draworder="index" id="6" name="Level_0_Assets">
   <object id="3" type="asset" gid="1056" x="64" y="190" width="48" height="64"/>
   <object id="4" type="asset" gid="1056" x="289" y="190" width="48" height="64"/>
   <object id="5" type="asset" gid="820" x="119" y="337" width="32" height="64"/>
   <object id="6" type="asset" gid="820" x="255" y="337" width="32" height="64"/>
   <object id="7" type="asset" gid="1313" x="40" y="176" width="320" height="120"/>
   <object id="8" type="asset" gid="601" x="40" y="248" width="40" height="104"/>
   <object id="9" type="asset" gid="1447" x="40" y="344" width="40" height="104"/>
   <object id="10" type="asset" gid="283" x="320" y="344" width="40" height="104"/>
   <object id="11" type="asset" gid="840" x="320" y="250" width="40" height="104"/>
   <object id="12" type="asset" gid="66" x="210" y="145" width="40" height="104"/>
   <object id="13" type="asset" gid="802" x="149" y="145" width="40" height="104"/>
   <object id="14" type="asset" gid="424" x="282" y="232" width="16" height="16"/>
   <object id="15" type="asset" gid="424" x="80" y="374" width="16" height="16"/>
   <object id="16" type="asset" gid="522" x="41" y="221" width="16" height="16"/>
   <object id="17" type="asset" gid="522" x="334" y="176" width="16" height="16"/>
   <object id="18" type="asset" gid="518" x="311" y="257" width="16" height="16"/>
   <object id="19" type="asset" gid="963" x="315" y="340" width="16" height="16"/>
   <object id="20" type="asset" gid="976" x="300" y="336" width="16" height="16"/>
   <object id="21" type="asset" gid="976" x="342" y="311" width="16" height="16"/>
   <object id="22" type="asset" gid="434" x="279" y="163" width="32" height="32"/>
   <object id="23" type="asset" gid="1020" x="48" y="370" width="32" height="32"/>
   <object id="24" type="asset" gid="976" x="97" y="315" width="16" height="16"/>
   <object id="25" type="asset" gid="1373" x="280" y="224" width="64" height="48"/>
  </objectgroup>
  <objectgroup draworder="index" id="7" name="Level_0_Assets_Default">
   <object id="30" type="asset" gid="1276" x="176" y="144" width="48" height="80"/>
   <object id="31" type="asset" gid="752" x="176" y="200" width="48" height="72"/>
   <object id="32" type="asset" gid="626" x="176" y="199" width="48" height="72"/>
  </objectgroup>
  <objectgroup draworder="index" id="8" name="Level_0_Assets_Barrier">
   <object id="33" type="asset" gid="1224" x="176" y="144" width="48" height="80"/>
  </objectgroup>
 </group>
 <objectgroup draworder="index" id="9" name="Instances">
  <object id="34" template="../../../templates/obj_seal_altar.tx" type="obj_seal_altar" x="72" y="303">
   <properties>
    <property name="item_id" value="dragon_forged_fang"/>
   </properties>
  </object>
  <object id="35" template="../../../templates/obj_seal_altar.tx" type="obj_seal_altar" x="96" y="279">
   <properties>
    <property name="item_id" value="dragon_forged_horn"/>
    <property name="sin_wave_offset" type="int" value="1"/>
   </properties>
  </object>
  <object id="36" template="../../../templates/obj_seal_altar.tx" type="obj_seal_altar" x="280" y="279">
   <properties>
    <property name="item_id" value="dragon_forged_core"/>
    <property name="sin_wave_offset" type="int" value="1"/>
   </properties>
  </object>
  <object id="37" template="../../../templates/obj_seal_altar.tx" type="obj_seal_altar" x="304" y="303">
   <properties>
    <property name="item_id" value="dragon_forged_powder"/>
   </properties>
  </object>
  <object id="38" template="../../../templates/obj_seal_tablet.tx" type="obj_seal_tablet" x="184" y="332">
   <properties>
    <property name="seal_id" type="int" propertytype="Seal" value="1"/>
   </properties>
  </object>
 </objectgroup>
 <group id="10" name="Level_1">
  <layer id="11" name="Level_1_BlackArea" width="50" height="56">
   <properties>
    <property name="maybe_animation_id" value="75ea443e6634d96"/>
    <property name="maybe_tileset_id" value="d8b504e9a8480fbe"/>
    <property name="tile_size" type="int" value="16"/>
   </properties>
   <data encoding="csv">
4319,0,4319,0,4319,0,4319,0,4319,0,4319,0,4319,0,4319,0,4319,0,4319,0,4319,0,4319,0,4319,0,4319,0,4319,0,4319,0,4319,0,4319,0,4319,0,4319,0,4319,0,4319,0,4319,0,4319,0,4319,0,
0,0,0,0,0,0,0,0,0,0,0,0,0,0,0,0,0,0,0,0,0,0,0,0,0,0,0,0,0,0,0,0,0,0,0,0,0,0,0,0,0,0,0,0,0,0,0,0,0,0,
4319,0,4319,0,4319,0,4319,0,4319,0,4319,0,4319,0,4319,0,4319,0,4319,0,4319,0,4319,0,4319,0,4319,0,4319,0,4319,0,4319,0,4319,0,4319,0,4319,0,4319,0,4319,0,4319,0,4319,0,4319,0,
0,0,0,0,0,0,0,0,0,0,0,0,0,0,0,0,0,0,0,0,0,0,0,0,0,0,0,0,0,0,0,0,0,0,0,0,0,0,0,0,0,0,0,0,0,0,0,0,0,0,
4319,0,4319,0,4319,0,4319,0,1656,0,1656,0,1656,0,1656,0,1656,0,1656,0,1656,0,1656,0,1656,0,1656,0,1656,0,1656,0,1656,0,1656,0,1656,0,1656,0,1656,0,4319,0,4319,0,4319,0,4319,0,
0,0,0,0,0,0,0,0,0,0,0,0,0,0,0,0,0,0,0,0,0,0,0,0,0,0,0,0,0,0,0,0,0,0,0,0,0,0,0,0,0,0,0,0,0,0,0,0,0,0,
4319,0,4319,0,4319,0,1656,0,1656,0,1656,0,1656,0,1656,0,1656,0,1656,0,1656,0,1656,0,1656,0,1656,0,1656,0,1656,0,1656,0,1656,0,1656,0,1656,0,1656,0,1656,0,4319,0,4319,0,4319,0,
0,0,0,0,0,0,0,0,0,0,0,0,0,0,0,0,0,0,0,0,0,0,0,0,0,0,0,0,0,0,0,0,0,0,0,0,0,0,0,0,0,0,0,0,0,0,0,0,0,0,
4319,0,4319,0,1656,0,1656,0,1656,0,1656,0,1656,0,1656,0,1656,0,1656,0,1656,0,1656,0,1656,0,1656,0,1656,0,1656,0,1656,0,1656,0,1656,0,1656,0,1656,0,1656,0,0,0,4319,0,4319,0,
0,0,0,0,0,0,0,0,0,0,0,0,0,0,0,0,0,0,0,0,0,0,0,0,0,0,0,0,0,0,0,0,0,0,0,0,0,0,0,0,0,0,0,0,0,0,0,0,0,0,
4319,0,1656,0,1656,0,1656,0,1656,0,1656,0,1656,0,1656,0,1656,0,1656,0,1656,0,1656,0,1656,0,1656,0,1656,0,1656,0,1656,0,1656,0,1656,0,1656,0,1656,0,1656,0,0,0,0,0,4319,0,
0,0,0,0,0,0,0,0,0,0,0,0,0,0,0,0,0,0,0,0,0,0,0,0,0,0,0,0,0,0,0,0,0,0,0,0,0,0,0,0,0,0,0,0,0,0,0,0,0,0,
4319,0,1656,0,1656,0,1656,0,1656,0,1656,0,1656,0,1656,0,1656,0,1656,0,1656,0,1656,0,1656,0,1656,0,1656,0,1656,0,1656,0,1656,0,1656,0,1656,0,1656,0,1656,0,0,0,0,0,4319,0,
0,0,0,0,0,0,0,0,0,0,0,0,0,0,0,0,0,0,0,0,0,0,0,0,0,0,0,0,0,0,0,0,0,0,0,0,0,0,0,0,0,0,0,0,0,0,0,0,0,0,
4319,0,1656,0,1656,0,1656,0,1656,0,1656,0,1656,0,1656,0,1656,0,1656,0,1656,0,1656,0,1656,0,1656,0,1656,0,1656,0,1656,0,1656,0,1656,0,1656,0,1656,0,1656,0,0,0,0,0,4319,0,
0,0,0,0,0,0,0,0,0,0,0,0,0,0,0,0,0,0,0,0,0,0,0,0,0,0,0,0,0,0,0,0,0,0,0,0,0,0,0,0,0,0,0,0,0,0,0,0,0,0,
4319,0,1656,0,1656,0,1656,0,1656,0,1656,0,1656,0,1656,0,1656,0,1656,0,1656,0,1656,0,1656,0,1656,0,1656,0,1656,0,1656,0,1656,0,1656,0,1656,0,1656,0,1656,0,0,0,0,0,4319,0,
0,0,0,0,0,0,0,0,0,0,0,0,0,0,0,0,0,0,0,0,0,0,0,0,0,0,0,0,0,0,0,0,0,0,0,0,0,0,0,0,0,0,0,0,0,0,0,0,0,0,
4319,0,1656,0,1656,0,1656,0,1656,0,1656,0,1656,0,1656,0,1656,0,1656,0,1656,0,1656,0,1656,0,1656,0,1656,0,1656,0,1656,0,1656,0,1656,0,1656,0,1656,0,1656,0,0,0,0,0,4319,0,
0,0,0,0,0,0,0,0,0,0,0,0,0,0,0,0,0,0,0,0,0,0,0,0,0,0,0,0,0,0,0,0,0,0,0,0,0,0,0,0,0,0,0,0,0,0,0,0,0,0,
4319,0,1656,0,1656,0,1656,0,1656,0,1656,0,1656,0,1656,0,1656,0,1656,0,1656,0,1656,0,1656,0,1656,0,1656,0,1656,0,1656,0,1656,0,1656,0,1656,0,1656,0,1656,0,0,0,0,0,4319,0,
0,0,0,0,0,0,0,0,0,0,0,0,0,0,0,0,0,0,0,0,0,0,0,0,0,0,0,0,0,0,0,0,0,0,0,0,0,0,0,0,0,0,0,0,0,0,0,0,0,0,
4319,0,1656,0,1656,0,1656,0,1656,0,1656,0,1656,0,1656,0,1656,0,1656,0,1656,0,1656,0,1656,0,1656,0,1656,0,1656,0,1656,0,1656,0,1656,0,1656,0,1656,0,1656,0,0,0,0,0,4319,0,
0,0,0,0,0,0,0,0,0,0,0,0,0,0,0,0,0,0,0,0,0,0,0,0,0,0,0,0,0,0,0,0,0,0,0,0,0,0,0,0,0,0,0,0,0,0,0,0,0,0,
4319,0,1656,0,1656,0,1656,0,1656,0,1656,0,1656,0,1656,0,1656,0,1656,0,1656,0,1656,0,1656,0,1656,0,1656,0,1656,0,1656,0,1656,0,1656,0,1656,0,1656,0,1656,0,0,0,0,0,4319,0,
0,0,0,0,0,0,0,0,0,0,0,0,0,0,0,0,0,0,0,0,0,0,0,0,0,0,0,0,0,0,0,0,0,0,0,0,0,0,0,0,0,0,0,0,0,0,0,0,0,0,
4319,0,1656,0,1656,0,1656,0,1656,0,1656,0,1656,0,1656,0,1656,0,1656,0,1656,0,1656,0,1656,0,1656,0,1656,0,1656,0,1656,0,1656,0,1656,0,1656,0,1656,0,1656,0,0,0,0,0,4319,0,
0,0,0,0,0,0,0,0,0,0,0,0,0,0,0,0,0,0,0,0,0,0,0,0,0,0,0,0,0,0,0,0,0,0,0,0,0,0,0,0,0,0,0,0,0,0,0,0,0,0,
4319,0,1656,0,1656,0,1656,0,1656,0,1656,0,1656,0,1656,0,1656,0,1656,0,1656,0,1656,0,1656,0,1656,0,1656,0,1656,0,1656,0,1656,0,1656,0,1656,0,1656,0,1656,0,0,0,0,0,4319,0,
0,0,0,0,0,0,0,0,0,0,0,0,0,0,0,0,0,0,0,0,0,0,0,0,0,0,0,0,0,0,0,0,0,0,0,0,0,0,0,0,0,0,0,0,0,0,0,0,0,0,
4319,0,1656,0,1656,0,1656,0,1656,0,1656,0,1656,0,1656,0,1656,0,1656,0,1656,0,1656,0,1656,0,1656,0,1656,0,1656,0,1656,0,1656,0,1656,0,1656,0,1656,0,1656,0,0,0,0,0,4319,0,
0,0,0,0,0,0,0,0,0,0,0,0,0,0,0,0,0,0,0,0,0,0,0,0,0,0,0,0,0,0,0,0,0,0,0,0,0,0,0,0,0,0,0,0,0,0,0,0,0,0,
4319,0,1656,0,1656,0,1656,0,1656,0,1656,0,1656,0,1656,0,1656,0,1656,0,1656,0,1656,0,1656,0,1656,0,1656,0,1656,0,1656,0,1656,0,1656,0,1656,0,1656,0,1656,0,0,0,0,0,4319,0,
0,0,0,0,0,0,0,0,0,0,0,0,0,0,0,0,0,0,0,0,0,0,0,0,0,0,0,0,0,0,0,0,0,0,0,0,0,0,0,0,0,0,0,0,0,0,0,0,0,0,
4319,0,1656,0,1656,0,1656,0,1656,0,1656,0,1656,0,1656,0,1656,0,1656,0,1656,0,1656,0,1656,0,1656,0,1656,0,1656,0,1656,0,1656,0,1656,0,1656,0,1656,0,1656,0,0,0,0,0,4319,0,
0,0,0,0,0,0,0,0,0,0,0,0,0,0,0,0,0,0,0,0,0,0,0,0,0,0,0,0,0,0,0,0,0,0,0,0,0,0,0,0,0,0,0,0,0,0,0,0,0,0,
4319,0,1656,0,1656,0,1656,0,1656,0,1656,0,1656,0,1656,0,1656,0,1656,0,1656,0,1656,0,1656,0,1656,0,1656,0,1656,0,1656,0,1656,0,1656,0,1656,0,1656,0,1656,0,0,0,0,0,4319,0,
0,0,0,0,0,0,0,0,0,0,0,0,0,0,0,0,0,0,0,0,0,0,0,0,0,0,0,0,0,0,0,0,0,0,0,0,0,0,0,0,0,0,0,0,0,0,0,0,0,0,
4319,0,1656,0,1656,0,1656,0,1656,0,1656,0,1656,0,1656,0,1656,0,1656,0,1656,0,1656,0,1656,0,1656,0,1656,0,1656,0,1656,0,1656,0,1656,0,1656,0,1656,0,1656,0,0,0,0,0,4319,0,
0,0,0,0,0,0,0,0,0,0,0,0,0,0,0,0,0,0,0,0,0,0,0,0,0,0,0,0,0,0,0,0,0,0,0,0,0,0,0,0,0,0,0,0,0,0,0,0,0,0,
4319,0,1656,0,1656,0,1656,0,1656,0,1656,0,1656,0,1656,0,1656,0,1656,0,1656,0,1656,0,1656,0,1656,0,1656,0,1656,0,1656,0,1656,0,1656,0,1656,0,1656,0,1656,0,0,0,0,0,4319,0,
0,0,0,0,0,0,0,0,0,0,0,0,0,0,0,0,0,0,0,0,0,0,0,0,0,0,0,0,0,0,0,0,0,0,0,0,0,0,0,0,0,0,0,0,0,0,0,0,0,0,
4319,0,1656,0,1656,0,1656,0,1656,0,1656,0,1656,0,1656,0,1656,0,1656,0,1656,0,1656,0,1656,0,1656,0,1656,0,1656,0,1656,0,1656,0,1656,0,1656,0,1656,0,1656,0,0,0,0,0,4319,0,
0,0,0,0,0,0,0,0,0,0,0,0,0,0,0,0,0,0,0,0,0,0,0,0,0,0,0,0,0,0,0,0,0,0,0,0,0,0,0,0,0,0,0,0,0,0,0,0,0,0,
4319,0,1656,0,0,0,0,0,0,0,0,0,0,0,0,0,0,0,0,0,0,0,0,0,0,0,0,0,0,0,0,0,0,0,0,0,0,0,0,0,0,0,0,0,0,0,0,0,4319,0,
0,0,0,0,0,0,0,0,0,0,0,0,0,0,0,0,0,0,0,0,0,0,0,0,0,0,0,0,0,0,0,0,0,0,0,0,0,0,0,0,0,0,0,0,0,0,0,0,0,0,
4319,0,4319,0,0,0,0,0,0,0,0,0,0,0,0,0,0,0,0,0,0,0,0,0,0,0,0,0,0,0,0,0,0,0,0,0,0,0,0,0,0,0,0,0,0,0,4319,0,4319,0,
0,0,0,0,0,0,0,0,0,0,0,0,0,0,0,0,0,0,0,0,0,0,0,0,0,0,0,0,0,0,0,0,0,0,0,0,0,0,0,0,0,0,0,0,0,0,0,0,0,0,
4319,0,4319,0,4319,0,0,0,0,0,0,0,0,0,0,0,0,0,0,0,0,0,0,0,0,0,0,0,0,0,0,0,0,0,0,0,0,0,0,0,0,0,0,0,4319,0,4319,0,4319,0,
0,0,0,0,0,0,0,0,0,0,0,0,0,0,0,0,0,0,0,0,0,0,0,0,0,0,0,0,0,0,0,0,0,0,0,0,0,0,0,0,0,0,0,0,0,0,0,0,0,0,
4319,0,4319,0,4319,0,4319,0,0,0,0,0,0,0,0,0,0,0,0,0,0,0,0,0,0,0,0,0,0,0,0,0,0,0,0,0,0,0,0,0,0,0,4319,0,4319,0,4319,0,4319,0,
0,0,0,0,0,0,0,0,0,0,0,0,0,0,0,0,0,0,0,0,0,0,0,0,0,0,0,0,0,0,0,0,0,0,0,0,0,0,0,0,0,0,0,0,0,0,0,0,0,0,
4319,0,4319,0,4319,0,4319,0,4319,0,4319,0,4319,0,4319,0,4319,0,4319,0,4319,0,4319,0,4319,0,4319,0,4319,0,4319,0,4319,0,4319,0,4319,0,4319,0,4319,0,4319,0,4319,0,4319,0,4319,0,
0,0,0,0,0,0,0,0,0,0,0,0,0,0,0,0,0,0,0,0,0,0,0,0,0,0,0,0,0,0,0,0,0,0,0,0,0,0,0,0,0,0,0,0,0,0,0,0,0,0,
4319,0,4319,0,4319,0,4319,0,4319,0,4319,0,4319,0,4319,0,4319,0,4319,0,4319,0,4319,0,4319,0,4319,0,4319,0,4319,0,4319,0,4319,0,4319,0,4319,0,4319,0,4319,0,4319,0,4319,0,4319,0,
0,0,0,0,0,0,0,0,0,0,0,0,0,0,0,0,0,0,0,0,0,0,0,0,0,0,0,0,0,0,0,0,0,0,0,0,0,0,0,0,0,0,0,0,0,0,0,0,0,0
</data>
  </layer>
  <layer id="12" name="Level_1_Ceiling" width="50" height="56">
   <properties>
    <property name="maybe_animation_id" value="75ea443e6634d96"/>
    <property name="maybe_tileset_id" value="d8b504e9a8480fbe"/>
    <property name="tile_size" type="int" value="16"/>
   </properties>
   <data encoding="csv">
1656,0,1656,0,1656,0,1656,0,1656,0,1656,0,1656,0,1656,0,1656,0,1656,0,1656,0,1656,0,1656,0,1656,0,1656,0,1656,0,1656,0,1656,0,1656,0,1656,0,1656,0,1656,0,0,0,0,0,0,0,
0,0,0,0,0,0,0,0,0,0,0,0,0,0,0,0,0,0,0,0,0,0,0,0,0,0,0,0,0,0,0,0,0,0,0,0,0,0,0,0,0,0,0,0,0,0,0,0,0,0,
1656,0,1656,0,1656,0,1656,0,1656,0,1656,0,1656,0,1656,0,1656,0,1656,0,1656,0,4133,0,4134,0,4135,0,1656,0,1656,0,1656,0,1656,0,1656,0,1656,0,1656,0,1656,0,0,0,0,0,0,0,
0,0,0,0,0,0,0,0,0,0,0,0,0,0,0,0,0,0,0,0,0,0,0,0,0,0,0,0,0,0,0,0,0,0,0,0,0,0,0,0,0,0,0,0,0,0,0,0,0,0,
1656,0,1656,0,1656,0,4061,0,4062,0,4063,0,4063,0,4063,0,4063,0,4063,0,4196,0,4197,0,4198,0,4199,0,4200,0,4063,0,4063,0,4063,0,4063,0,4063,0,4064,0,4065,0,0,0,0,0,0,0,
0,0,0,0,0,0,0,0,0,0,0,0,0,0,0,0,0,0,0,0,0,0,0,0,0,0,0,0,0,0,0,0,0,0,0,0,0,0,0,0,0,0,0,0,0,0,0,0,0,0,
1656,0,1656,0,4124,0,4125,0,4126,0,4127,0,4127,0,4127,0,4127,0,4127,0,4260,0,4261,0,4262,0,4263,0,4264,0,4127,0,4127,0,4127,0,4127,0,4127,0,4128,0,4129,0,4130,0,0,0,0,0,
0,0,0,0,0,0,0,0,0,0,0,0,0,0,0,0,0,0,0,0,0,0,0,0,0,0,0,0,0,0,0,0,0,0,0,0,0,0,0,0,0,0,0,0,0,0,0,0,0,0,
1656,0,4187,0,4188,0,4189,0,4190,0,1656,0,1656,0,1656,0,1656,0,1656,0,1656,0,4325,0,4326,0,4327,0,1656,0,1656,0,1656,0,1656,0,1656,0,1656,0,4192,0,4193,0,4194,0,4195,0,0,0,
0,0,0,0,0,0,0,0,0,0,0,0,0,0,0,0,0,0,0,0,0,0,0,0,0,0,0,0,0,0,0,0,0,0,0,0,0,0,0,0,0,0,0,0,0,0,0,0,0,0,
1656,0,4251,0,4252,0,4253,0,1656,0,1656,0,1656,0,1656,0,1656,0,1656,0,1656,0,1656,0,1656,0,1656,0,1656,0,1656,0,1656,0,1656,0,1656,0,1656,0,1656,0,4257,0,4258,0,4259,0,0,0,
0,0,0,0,0,0,0,0,0,0,0,0,0,0,0,0,0,0,0,0,0,0,0,0,0,0,0,0,0,0,0,0,0,0,0,0,0,0,0,0,0,0,0,0,0,0,0,0,0,0,
1656,0,4315,0,4316,0,1656,0,1656,0,1656,0,1656,0,1656,0,1656,0,1656,0,1656,0,1656,0,1656,0,1656,0,1656,0,1656,0,1656,0,1656,0,1656,0,1656,0,1656,0,1656,0,4322,0,4323,0,0,0,
0,0,0,0,0,0,0,0,0,0,0,0,0,0,0,0,0,0,0,0,0,0,0,0,0,0,0,0,0,0,0,0,0,0,0,0,0,0,0,0,0,0,0,0,0,0,0,0,0,0,
1656,0,4315,0,4316,0,1656,0,1656,0,1656,0,1656,0,1656,0,1656,0,1656,0,1656,0,1656,0,1656,0,1656,0,1656,0,1656,0,1656,0,1656,0,1656,0,1656,0,1656,0,1656,0,4322,0,4323,0,0,0,
0,0,0,0,0,0,0,0,0,0,0,0,0,0,0,0,0,0,0,0,0,0,0,0,0,0,0,0,0,0,0,0,0,0,0,0,0,0,0,0,0,0,0,0,0,0,0,0,0,0,
1656,0,4315,0,4316,0,1656,0,1656,0,1656,0,1656,0,1656,0,1656,0,1656,0,1656,0,1656,0,1656,0,1656,0,1656,0,1656,0,1656,0,1656,0,1656,0,1656,0,1656,0,1656,0,4322,0,4323,0,0,0,
0,0,0,0,0,0,0,0,0,0,0,0,0,0,0,0,0,0,0,0,0,0,0,0,0,0,0,0,0,0,0,0,0,0,0,0,0,0,0,0,0,0,0,0,0,0,0,0,0,0,
1656,0,4315,0,4316,0,1656,0,1656,0,1656,0,1656,0,1656,0,1656,0,1656,0,1656,0,1656,0,1656,0,1656,0,1656,0,1656,0,1656,0,1656,0,1656,0,1656,0,1656,0,1656,0,4322,0,4323,0,0,0,
0,0,0,0,0,0,0,0,0,0,0,0,0,0,0,0,0,0,0,0,0,0,0,0,0,0,0,0,0,0,0,0,0,0,0,0,0,0,0,0,0,0,0,0,0,0,0,0,0,0,
1656,0,4315,0,4316,0,1656,0,1656,0,1656,0,1656,0,1656,0,1656,0,1656,0,1656,0,1656,0,1656,0,1656,0,1656,0,1656,0,1656,0,1656,0,1656,0,1656,0,1656,0,1656,0,4322,0,4323,0,0,0,
0,0,0,0,0,0,0,0,0,0,0,0,0,0,0,0,0,0,0,0,0,0,0,0,0,0,0,0,0,0,0,0,0,0,0,0,0,0,0,0,0,0,0,0,0,0,0,0,0,0,
1656,0,4315,0,4316,0,1656,0,1656,0,1656,0,1656,0,1656,0,1656,0,1656,0,1656,0,1656,0,1656,0,1656,0,1656,0,1656,0,1656,0,1656,0,1656,0,1656,0,1656,0,1656,0,4322,0,4323,0,0,0,
0,0,0,0,0,0,0,0,0,0,0,0,0,0,0,0,0,0,0,0,0,0,0,0,0,0,0,0,0,0,0,0,0,0,0,0,0,0,0,0,0,0,0,0,0,0,0,0,0,0,
1656,0,4315,0,4316,0,1656,0,1656,0,1656,0,1656,0,1656,0,1656,0,1656,0,1656,0,1656,0,1656,0,1656,0,1656,0,1656,0,1656,0,1656,0,1656,0,1656,0,1656,0,1656,0,4322,0,4323,0,0,0,
0,0,0,0,0,0,0,0,0,0,0,0,0,0,0,0,0,0,0,0,0,0,0,0,0,0,0,0,0,0,0,0,0,0,0,0,0,0,0,0,0,0,0,0,0,0,0,0,0,0,
1656,0,4315,0,4316,0,1656,0,1656,0,1656,0,1656,0,1656,0,1656,0,1656,0,1656,0,1656,0,1656,0,1656,0,1656,0,1656,0,1656,0,1656,0,1656,0,1656,0,1656,0,1656,0,4322,0,4323,0,0,0,
0,0,0,0,0,0,0,0,0,0,0,0,0,0,0,0,0,0,0,0,0,0,0,0,0,0,0,0,0,0,0,0,0,0,0,0,0,0,0,0,0,0,0,0,0,0,0,0,0,0,
1656,0,4315,0,4316,0,1656,0,1656,0,1656,0,1656,0,1656,0,1656,0,1656,0,1656,0,1656,0,1656,0,1656,0,1656,0,1656,0,1656,0,1656,0,1656,0,1656,0,1656,0,1656,0,4322,0,4323,0,0,0,
0,0,0,0,0,0,0,0,0,0,0,0,0,0,0,0,0,0,0,0,0,0,0,0,0,0,0,0,0,0,0,0,0,0,0,0,0,0,0,0,0,0,0,0,0,0,0,0,0,0,
1656,0,4315,0,4316,0,1656,0,1656,0,1656,0,1656,0,1656,0,1656,0,1656,0,1656,0,1656,0,1656,0,1656,0,1656,0,1656,0,1656,0,1656,0,1656,0,1656,0,1656,0,1656,0,4322,0,4323,0,0,0,
0,0,0,0,0,0,0,0,0,0,0,0,0,0,0,0,0,0,0,0,0,0,0,0,0,0,0,0,0,0,0,0,0,0,0,0,0,0,0,0,0,0,0,0,0,0,0,0,0,0,
1656,0,4315,0,4316,0,1656,0,1656,0,1656,0,1656,0,1656,0,1656,0,1656,0,1656,0,1656,0,1656,0,1656,0,1656,0,1656,0,1656,0,1656,0,1656,0,1656,0,1656,0,1656,0,4322,0,4323,0,0,0,
0,0,0,0,0,0,0,0,0,0,0,0,0,0,0,0,0,0,0,0,0,0,0,0,0,0,0,0,0,0,0,0,0,0,0,0,0,0,0,0,0,0,0,0,0,0,0,0,0,0,
1656,0,4315,0,4316,0,1656,0,1656,0,1656,0,1656,0,1656,0,1656,0,1656,0,1656,0,1656,0,1656,0,1656,0,1656,0,1656,0,1656,0,1656,0,1656,0,1656,0,1656,0,1656,0,4322,0,4323,0,0,0,
0,0,0,0,0,0,0,0,0,0,0,0,0,0,0,0,0,0,0,0,0,0,0,0,0,0,0,0,0,0,0,0,0,0,0,0,0,0,0,0,0,0,0,0,0,0,0,0,0,0,
1656,0,4315,0,4316,0,1656,0,1656,0,1656,0,1656,0,1656,0,1656,0,1656,0,1656,0,1656,0,1656,0,1656,0,1656,0,1656,0,1656,0,1656,0,1656,0,1656,0,1656,0,1656,0,4322,0,4323,0,0,0,
0,0,0,0,0,0,0,0,0,0,0,0,0,0,0,0,0,0,0,0,0,0,0,0,0,0,0,0,0,0,0,0,0,0,0,0,0,0,0,0,0,0,0,0,0,0,0,0,0,0,
1656,0,4315,0,4316,0,1656,0,1656,0,1656,0,1656,0,1656,0,1656,0,1656,0,1656,0,1656,0,1656,0,1656,0,1656,0,1656,0,1656,0,1656,0,1656,0,1656,0,1656,0,1656,0,4322,0,4323,0,0,0,
0,0,0,0,0,0,0,0,0,0,0,0,0,0,0,0,0,0,0,0,0,0,0,0,0,0,0,0,0,0,0,0,0,0,0,0,0,0,0,0,0,0,0,0,0,0,0,0,0,0,
1656,0,4315,0,4316,0,1656,0,1656,0,1656,0,1656,0,1656,0,1656,0,1656,0,1656,0,1656,0,1656,0,1656,0,1656,0,1656,0,1656,0,1656,0,1656,0,1656,0,1656,0,1656,0,4322,0,4323,0,0,0,
0,0,0,0,0,0,0,0,0,0,0,0,0,0,0,0,0,0,0,0,0,0,0,0,0,0,0,0,0,0,0,0,0,0,0,0,0,0,0,0,0,0,0,0,0,0,0,0,0,0,
1656,0,4315,0,4316,0,1656,0,1656,0,1656,0,1656,0,1656,0,1656,0,1656,0,1656,0,1656,0,1656,0,1656,0,1656,0,1656,0,1656,0,1656,0,1656,0,1656,0,1656,0,1656,0,4322,0,4323,0,0,0,
0,0,0,0,0,0,0,0,0,0,0,0,0,0,0,0,0,0,0,0,0,0,0,0,0,0,0,0,0,0,0,0,0,0,0,0,0,0,0,0,0,0,0,0,0,0,0,0,0,0,
0,0,4379,0,4380,0,4381,0,0,0,0,0,0,0,0,0,0,0,0,0,0,0,0,0,0,0,0,0,0,0,0,0,0,0,0,0,0,0,0,0,0,0,4385,0,4386,0,4387,0,0,0,
0,0,0,0,0,0,0,0,0,0,0,0,0,0,0,0,0,0,0,0,0,0,0,0,0,0,0,0,0,0,0,0,0,0,0,0,0,0,0,0,0,0,0,0,0,0,0,0,0,0,
0,0,4443,0,4444,0,4445,0,4446,0,0,0,0,0,0,0,0,0,0,0,0,0,4389,0,4390,0,4391,0,0,0,0,0,0,0,0,0,0,0,0,0,4448,0,4449,0,4450,0,4451,0,0,0,
0,0,0,0,0,0,0,0,0,0,0,0,0,0,0,0,0,0,0,0,0,0,0,0,0,0,0,0,0,0,0,0,0,0,0,0,0,0,0,0,0,0,0,0,0,0,0,0,0,0,
0,0,4507,0,4508,0,4509,0,4510,0,4511,0,4511,0,4511,0,4511,0,4511,0,4511,0,4453,0,4454,0,4455,0,4511,0,4511,0,4511,0,4511,0,4511,0,4511,0,4512,0,4513,0,4514,0,4515,0,0,0,
0,0,0,0,0,0,0,0,0,0,0,0,0,0,0,0,0,0,0,0,0,0,0,0,0,0,0,0,0,0,0,0,0,0,0,0,0,0,0,0,0,0,0,0,0,0,0,0,0,0,
0,0,0,0,4572,0,4573,0,4574,0,4575,0,4575,0,4575,0,4575,0,4575,0,4575,0,4517,0,4518,0,4519,0,4575,0,4575,0,4575,0,4575,0,4575,0,4575,0,4576,0,4577,0,4578,0,0,0,0,0,
0,0,0,0,0,0,0,0,0,0,0,0,0,0,0,0,0,0,0,0,0,0,0,0,0,0,0,0,0,0,0,0,0,0,0,0,0,0,0,0,0,0,0,0,0,0,0,0,0,0,
0,0,0,0,0,0,0,0,0,0,0,0,0,0,0,0,0,0,0,0,0,0,4581,0,4582,0,4583,0,0,0,0,0,0,0,0,0,0,0,0,0,0,0,0,0,0,0,0,0,0,0,
0,0,0,0,0,0,0,0,0,0,0,0,0,0,0,0,0,0,0,0,0,0,0,0,0,0,0,0,0,0,0,0,0,0,0,0,0,0,0,0,0,0,0,0,0,0,0,0,0,0,
0,0,0,0,0,0,0,0,0,0,0,0,0,0,0,0,0,0,0,0,0,0,0,0,0,0,0,0,0,0,0,0,0,0,0,0,0,0,0,0,0,0,0,0,0,0,0,0,0,0,
0,0,0,0,0,0,0,0,0,0,0,0,0,0,0,0,0,0,0,0,0,0,0,0,0,0,0,0,0,0,0,0,0,0,0,0,0,0,0,0,0,0,0,0,0,0,0,0,0,0
</data>
  </layer>
 </group>
 <objectgroup draworder="index" id="13" name="Lighting" visible="0">
  <object id="39" template="../../../templates/system/lighting/lights/obj_light_small.tx" type="obj_light_small" x="48" y="205"/>
  <object id="40" template="../../../templates/system/lighting/lights/obj_light_small.tx" type="obj_light_small" x="273" y="207"/>
  <object id="41" template="../../../templates/system/lighting/lights/obj_light_xs.tx" type="obj_light_xs" x="244" y="336"/>
  <object id="42" template="../../../templates/system/lighting/lights/obj_light_xs.tx" type="obj_light_xs" x="108" y="336"/>
 </objectgroup>
 <layer id="14" name="FootstepTiles" width="50" height="56" visible="0">
  <properties>
   <property name="maybe_animation_id" value="9b6388374855b54b"/>
   <property name="maybe_tileset_id" value="5fc72aa2902dea7"/>
   <property name="tile_size" type="int" value="16"/>
  </properties>
  <data encoding="csv">
1512,0,1512,0,1512,0,1512,0,1512,0,1512,0,1512,0,1512,0,1512,0,1512,0,1512,0,1512,0,1512,0,1512,0,1512,0,1512,0,1512,0,1512,0,1512,0,1512,0,1512,0,1512,0,1512,0,1512,0,0,0,
0,0,0,0,0,0,0,0,0,0,0,0,0,0,0,0,0,0,0,0,0,0,0,0,0,0,0,0,0,0,0,0,0,0,0,0,0,0,0,0,0,0,0,0,0,0,0,0,0,0,
1512,0,1512,0,1512,0,1512,0,1512,0,1512,0,1512,0,1512,0,1512,0,1512,0,1512,0,1512,0,1512,0,1512,0,1512,0,1512,0,1512,0,1512,0,1512,0,1512,0,1512,0,1512,0,1512,0,1512,0,0,0,
0,0,0,0,0,0,0,0,0,0,0,0,0,0,0,0,0,0,0,0,0,0,0,0,0,0,0,0,0,0,0,0,0,0,0,0,0,0,0,0,0,0,0,0,0,0,0,0,0,0,
1512,0,1512,0,1512,0,1512,0,1512,0,1512,0,1512,0,1512,0,1512,0,1512,0,1512,0,1512,0,1512,0,1512,0,1512,0,1512,0,1512,0,1512,0,1512,0,1512,0,1512,0,1512,0,1512,0,1512,0,0,0,
0,0,0,0,0,0,0,0,0,0,0,0,0,0,0,0,0,0,0,0,0,0,0,0,0,0,0,0,0,0,0,0,0,0,0,0,0,0,0,0,0,0,0,0,0,0,0,0,0,0,
1512,0,1512,0,1512,0,1512,0,1512,0,1512,0,1512,0,1512,0,1512,0,1512,0,1512,0,1512,0,1512,0,1512,0,1512,0,1512,0,1512,0,1512,0,1512,0,1512,0,1512,0,1512,0,1512,0,1512,0,0,0,
0,0,0,0,0,0,0,0,0,0,0,0,0,0,0,0,0,0,0,0,0,0,0,0,0,0,0,0,0,0,0,0,0,0,0,0,0,0,0,0,0,0,0,0,0,0,0,0,0,0,
1512,0,1512,0,1512,0,1512,0,1512,0,1512,0,1512,0,1512,0,1512,0,1512,0,1512,0,1512,0,1512,0,1512,0,1512,0,1512,0,1512,0,1512,0,1512,0,1512,0,1512,0,1512,0,1512,0,1512,0,0,0,
0,0,0,0,0,0,0,0,0,0,0,0,0,0,0,0,0,0,0,0,0,0,0,0,0,0,0,0,0,0,0,0,0,0,0,0,0,0,0,0,0,0,0,0,0,0,0,0,0,0,
1512,0,1512,0,1512,0,1512,0,1512,0,1512,0,1512,0,1512,0,1512,0,1512,0,1514,0,1514,0,1514,0,1514,0,1514,0,1512,0,1512,0,1512,0,1512,0,1512,0,1512,0,1512,0,1512,0,1512,0,0,0,
0,0,0,0,0,0,0,0,0,0,0,0,0,0,0,0,0,0,0,0,0,0,0,0,0,0,0,0,0,0,0,0,0,0,0,0,0,0,0,0,0,0,0,0,0,0,0,0,0,0,
1512,0,1512,0,1512,0,1512,0,1512,0,1512,0,1512,0,1512,0,1512,0,1512,0,1514,0,1514,0,1514,0,1514,0,1514,0,1512,0,1512,0,1512,0,1512,0,1512,0,1512,0,1512,0,1512,0,1512,0,0,0,
0,0,0,0,0,0,0,0,0,0,0,0,0,0,0,0,0,0,0,0,0,0,0,0,0,0,0,0,0,0,0,0,0,0,0,0,0,0,0,0,0,0,0,0,0,0,0,0,0,0,
1512,0,1512,0,1512,0,1512,0,1512,0,1512,0,1512,0,1512,0,1512,0,1512,0,1514,0,1514,0,1514,0,1514,0,1514,0,1512,0,1512,0,1512,0,1512,0,1512,0,1512,0,1512,0,1512,0,1512,0,0,0,
0,0,0,0,0,0,0,0,0,0,0,0,0,0,0,0,0,0,0,0,0,0,0,0,0,0,0,0,0,0,0,0,0,0,0,0,0,0,0,0,0,0,0,0,0,0,0,0,0,0,
1512,0,1512,0,1512,0,1512,0,1514,0,1514,0,1514,0,1514,0,1514,0,1514,0,1514,0,1514,0,1514,0,1514,0,1514,0,1514,0,1514,0,1514,0,1514,0,1514,0,1514,0,1512,0,1512,0,1512,0,0,0,
0,0,0,0,0,0,0,0,0,0,0,0,0,0,0,0,0,0,0,0,0,0,0,0,0,0,0,0,0,0,0,0,0,0,0,0,0,0,0,0,0,0,0,0,0,0,0,0,0,0,
1512,0,1512,0,1512,0,1514,0,1514,0,1514,0,1514,0,1514,0,1514,0,1514,0,1514,0,1514,0,1514,0,1514,0,1514,0,1514,0,1514,0,1514,0,1514,0,1514,0,1514,0,1514,0,1512,0,1512,0,0,0,
0,0,0,0,0,0,0,0,0,0,0,0,0,0,0,0,0,0,0,0,0,0,0,0,0,0,0,0,0,0,0,0,0,0,0,0,0,0,0,0,0,0,0,0,0,0,0,0,0,0,
1512,0,1512,0,1514,0,1514,0,1514,0,1514,0,1514,0,1514,0,1514,0,1514,0,1514,0,1514,0,1514,0,1514,0,1514,0,1514,0,1514,0,1514,0,1514,0,1514,0,1514,0,1514,0,1514,0,1512,0,0,0,
0,0,0,0,0,0,0,0,0,0,0,0,0,0,0,0,0,0,0,0,0,0,0,0,0,0,0,0,0,0,0,0,0,0,0,0,0,0,0,0,0,0,0,0,0,0,0,0,0,0,
1512,0,1512,0,1514,0,1514,0,1514,0,1514,0,1514,0,1514,0,1514,0,1514,0,1514,0,1514,0,1514,0,1514,0,1514,0,1514,0,1514,0,1514,0,1514,0,1514,0,1514,0,1514,0,1514,0,1512,0,0,0,
0,0,0,0,0,0,0,0,0,0,0,0,0,0,0,0,0,0,0,0,0,0,0,0,0,0,0,0,0,0,0,0,0,0,0,0,0,0,0,0,0,0,0,0,0,0,0,0,0,0,
1512,0,1512,0,1514,0,1514,0,1514,0,1514,0,1514,0,1514,0,1514,0,1514,0,1514,0,1514,0,1514,0,1514,0,1514,0,1514,0,1514,0,1514,0,1514,0,1514,0,1514,0,1514,0,1514,0,1512,0,0,0,
0,0,0,0,0,0,0,0,0,0,0,0,0,0,0,0,0,0,0,0,0,0,0,0,0,0,0,0,0,0,0,0,0,0,0,0,0,0,0,0,0,0,0,0,0,0,0,0,0,0,
1512,0,1512,0,1514,0,1514,0,1514,0,1514,0,1514,0,1514,0,1514,0,1514,0,1514,0,1514,0,1514,0,1514,0,1514,0,1514,0,1514,0,1514,0,1514,0,1514,0,1514,0,1514,0,1514,0,1512,0,0,0,
0,0,0,0,0,0,0,0,0,0,0,0,0,0,0,0,0,0,0,0,0,0,0,0,0,0,0,0,0,0,0,0,0,0,0,0,0,0,0,0,0,0,0,0,0,0,0,0,0,0,
1512,0,1512,0,1514,0,1514,0,1514,0,1514,0,1514,0,1514,0,1514,0,1514,0,1514,0,1514,0,1514,0,1514,0,1514,0,1514,0,1514,0,1514,0,1514,0,1514,0,1514,0,1514,0,1514,0,1512,0,0,0,
0,0,0,0,0,0,0,0,0,0,0,0,0,0,0,0,0,0,0,0,0,0,0,0,0,0,0,0,0,0,0,0,0,0,0,0,0,0,0,0,0,0,0,0,0,0,0,0,0,0,
1512,0,1512,0,1514,0,1514,0,1514,0,1514,0,1514,0,1514,0,1514,0,1514,0,1514,0,1514,0,1514,0,1514,0,1514,0,1514,0,1514,0,1514,0,1514,0,1514,0,1514,0,1514,0,1514,0,1512,0,0,0,
0,0,0,0,0,0,0,0,0,0,0,0,0,0,0,0,0,0,0,0,0,0,0,0,0,0,0,0,0,0,0,0,0,0,0,0,0,0,0,0,0,0,0,0,0,0,0,0,0,0,
1512,0,1512,0,1514,0,1514,0,1514,0,1514,0,1514,0,1514,0,1514,0,1514,0,1514,0,1514,0,1514,0,1514,0,1514,0,1514,0,1514,0,1514,0,1514,0,1514,0,1514,0,1514,0,1514,0,1512,0,0,0,
0,0,0,0,0,0,0,0,0,0,0,0,0,0,0,0,0,0,0,0,0,0,0,0,0,0,0,0,0,0,0,0,0,0,0,0,0,0,0,0,0,0,0,0,0,0,0,0,0,0,
1512,0,1512,0,1514,0,1514,0,1514,0,1514,0,1514,0,1514,0,1514,0,1514,0,1514,0,1514,0,1514,0,1514,0,1514,0,1514,0,1514,0,1514,0,1514,0,1514,0,1514,0,1514,0,1514,0,1512,0,0,0,
0,0,0,0,0,0,0,0,0,0,0,0,0,0,0,0,0,0,0,0,0,0,0,0,0,0,0,0,0,0,0,0,0,0,0,0,0,0,0,0,0,0,0,0,0,0,0,0,0,0,
1512,0,1512,0,1514,0,1514,0,1514,0,1514,0,1514,0,1514,0,1514,0,1514,0,1514,0,1514,0,1514,0,1514,0,1514,0,1514,0,1514,0,1514,0,1514,0,1514,0,1514,0,1514,0,1514,0,1512,0,0,0,
0,0,0,0,0,0,0,0,0,0,0,0,0,0,0,0,0,0,0,0,0,0,0,0,0,0,0,0,0,0,0,0,0,0,0,0,0,0,0,0,0,0,0,0,0,0,0,0,0,0,
1512,0,1512,0,1514,0,1514,0,1514,0,1514,0,1514,0,1514,0,1514,0,1514,0,1514,0,1514,0,1514,0,1514,0,1514,0,1514,0,1514,0,1514,0,1514,0,1514,0,1514,0,1514,0,1514,0,1512,0,0,0,
0,0,0,0,0,0,0,0,0,0,0,0,0,0,0,0,0,0,0,0,0,0,0,0,0,0,0,0,0,0,0,0,0,0,0,0,0,0,0,0,0,0,0,0,0,0,0,0,0,0,
1512,0,1512,0,1514,0,1514,0,1514,0,1514,0,1514,0,1514,0,1514,0,1514,0,1514,0,1514,0,1514,0,1514,0,1514,0,1514,0,1514,0,1514,0,1514,0,1514,0,1514,0,1514,0,1514,0,1512,0,0,0,
0,0,0,0,0,0,0,0,0,0,0,0,0,0,0,0,0,0,0,0,0,0,0,0,0,0,0,0,0,0,0,0,0,0,0,0,0,0,0,0,0,0,0,0,0,0,0,0,0,0,
1512,0,1512,0,1514,0,1514,0,1514,0,1514,0,1514,0,1514,0,1514,0,1514,0,1514,0,1514,0,1514,0,1514,0,1514,0,1514,0,1514,0,1514,0,1514,0,1514,0,1514,0,1514,0,1514,0,1512,0,0,0,
0,0,0,0,0,0,0,0,0,0,0,0,0,0,0,0,0,0,0,0,0,0,0,0,0,0,0,0,0,0,0,0,0,0,0,0,0,0,0,0,0,0,0,0,0,0,0,0,0,0,
1512,0,1512,0,1514,0,1514,0,1514,0,1514,0,1514,0,1514,0,1514,0,1514,0,1514,0,1514,0,1514,0,1514,0,1514,0,1514,0,1514,0,1514,0,1514,0,1514,0,1514,0,1514,0,1514,0,1512,0,0,0,
0,0,0,0,0,0,0,0,0,0,0,0,0,0,0,0,0,0,0,0,0,0,0,0,0,0,0,0,0,0,0,0,0,0,0,0,0,0,0,0,0,0,0,0,0,0,0,0,0,0,
1512,0,1512,0,1512,0,1514,0,1514,0,1514,0,1514,0,1514,0,1514,0,1514,0,1514,0,1514,0,1514,0,1514,0,1514,0,1514,0,1514,0,1514,0,1514,0,1514,0,1514,0,1514,0,1512,0,1512,0,0,0,
0,0,0,0,0,0,0,0,0,0,0,0,0,0,0,0,0,0,0,0,0,0,0,0,0,0,0,0,0,0,0,0,0,0,0,0,0,0,0,0,0,0,0,0,0,0,0,0,0,0,
0,0,0,0,0,0,0,0,1514,0,1514,0,1514,0,1514,0,1514,0,1514,0,1514,0,1514,0,1514,0,1514,0,1514,0,1514,0,1514,0,1514,0,1514,0,1514,0,1514,0,0,0,0,0,0,0,0,0,
0,0,0,0,0,0,0,0,0,0,0,0,0,0,0,0,0,0,0,0,0,0,0,0,0,0,0,0,0,0,0,0,0,0,0,0,0,0,0,0,0,0,0,0,0,0,0,0,0,0,
0,0,0,0,0,0,0,0,0,0,0,0,0,0,0,0,0,0,0,0,0,0,0,0,0,0,0,0,0,0,0,0,0,0,0,0,0,0,0,0,0,0,0,0,0,0,0,0,0,0,
0,0,0,0,0,0,0,0,0,0,0,0,0,0,0,0,0,0,0,0,0,0,0,0,0,0,0,0,0,0,0,0,0,0,0,0,0,0,0,0,0,0,0,0,0,0,0,0,0,0,
0,0,0,0,0,0,0,0,0,0,0,0,0,0,0,0,0,0,0,0,0,0,0,0,0,0,0,0,0,0,0,0,0,0,0,0,0,0,0,0,0,0,0,0,0,0,0,0,0,0,
0,0,0,0,0,0,0,0,0,0,0,0,0,0,0,0,0,0,0,0,0,0,0,0,0,0,0,0,0,0,0,0,0,0,0,0,0,0,0,0,0,0,0,0,0,0,0,0,0,0,
0,0,0,0,0,0,0,0,0,0,0,0,0,0,0,0,0,0,0,0,0,0,0,0,0,0,0,0,0,0,0,0,0,0,0,0,0,0,0,0,0,0,0,0,0,0,0,0,0,0,
0,0,0,0,0,0,0,0,0,0,0,0,0,0,0,0,0,0,0,0,0,0,0,0,0,0,0,0,0,0,0,0,0,0,0,0,0,0,0,0,0,0,0,0,0,0,0,0,0,0
</data>
 </layer>
 <layer id="15" name="Tiles_Collision" width="50" height="56" visible="0">
  <properties>
   <property name="maybe_animation_id" value="d5b5e9552171fe70"/>
   <property name="maybe_tileset_id" value="b29026a2ad0be741"/>
   <property name="tile_size" type="int" value="8"/>
  </properties>
  <data encoding="csv">
1508,1508,1508,1508,1508,1508,1508,1508,1508,1508,1508,1508,1508,1508,1508,1508,1508,1508,1508,1508,1508,1508,1508,1508,1508,1508,1508,1508,1508,1508,1508,1508,1508,1508,1508,1508,1508,1508,1508,1508,1508,1508,1508,1508,1508,1508,1508,1508,1508,1508,
1508,1508,1508,1508,1508,1508,1508,1508,1508,1508,1508,1508,1508,1508,1508,1508,1508,1508,1508,1508,1508,1508,1508,1508,1508,1508,1508,1508,1508,1508,1508,1508,1508,1508,1508,1508,1508,1508,1508,1508,1508,1508,1508,1508,1508,1508,1508,1508,1508,1508,
1508,1508,1508,1508,1508,1508,1508,1508,1508,1508,1508,1508,1508,1508,1508,1508,1508,1508,1508,1508,1508,1508,1508,1508,1508,1508,1508,1508,1508,1508,1508,1508,1508,1508,1508,1508,1508,1508,1508,1508,1508,1508,1508,1508,1508,1508,1508,1508,1508,1508,
1508,1508,1508,1508,1508,1508,1508,1508,1508,1508,1508,1508,1508,1508,1508,1508,1508,1508,1508,1508,1508,1508,1508,1508,1508,1508,1508,1508,1508,1508,1508,1508,1508,1508,1508,1508,1508,1508,1508,1508,1508,1508,1508,1508,1508,1508,1508,1508,1508,1508,
1508,1508,1508,1508,1508,1508,1508,1508,1508,1508,1508,1508,1508,1508,1508,1508,1508,1508,1508,1508,1508,1508,1508,1508,1508,1508,1508,1508,1508,1508,1508,1508,1508,1508,1508,1508,1508,1508,1508,1508,1508,1508,1508,1508,1508,1508,1508,1508,1508,1508,
1508,1508,1508,1508,1508,1508,1508,1508,1508,1508,1508,1508,1508,1508,1508,1508,1508,1508,1508,1508,1508,1508,1508,1508,1508,1508,1508,1508,1508,1508,1508,1508,1508,1508,1508,1508,1508,1508,1508,1508,1508,1508,1508,1508,1508,1508,1508,1508,1508,1508,
1508,1508,1508,1508,1508,1508,1508,1508,1508,1508,1508,1508,1508,1508,1508,1508,1508,1508,1508,1508,1508,1508,1508,1508,1508,1508,1508,1508,1508,1508,1508,1508,1508,1508,1508,1508,1508,1508,1508,1508,1508,1508,1508,1508,1508,1508,1508,1508,1508,1508,
1508,1508,1508,1508,1508,1508,1508,1508,1508,1508,1508,1508,1508,1508,1508,1508,1508,1508,1508,1508,1508,1508,1508,1508,1508,1508,1508,1508,1508,1508,1508,1508,1508,1508,1508,1508,1508,1508,1508,1508,1508,1508,1508,1508,1508,1508,1508,1508,1508,1508,
1508,1508,1508,1508,1508,1508,1508,1508,1508,1508,1508,1508,1508,1508,1508,1508,1508,1508,1508,1508,1508,1508,1508,1508,1508,1508,1508,1508,1508,1508,1508,1508,1508,1508,1508,1508,1508,1508,1508,1508,1508,1508,1508,1508,1508,1508,1508,1508,1508,1508,
1508,1508,1508,1508,1508,1508,1508,1508,1508,1508,1508,1508,1508,1508,1508,1508,1508,1508,1508,1508,1508,1508,1508,1508,1508,1508,1508,1508,1508,1508,1508,1508,1508,1508,1508,1508,1508,1508,1508,1508,1508,1508,1508,1508,1508,1508,1508,1508,1508,1508,
1508,1508,1508,1508,1508,1508,1508,1508,1508,1508,1508,1508,1508,1508,1508,1508,1508,1508,1508,1508,1508,1508,1508,1508,1508,1508,1508,1508,1508,1508,1508,1508,1508,1508,1508,1508,1508,1508,1508,1508,1508,1508,1508,1508,1508,1508,1508,1508,1508,1508,
1508,1508,1508,1508,1508,1508,1508,1508,1508,1508,1508,1508,1508,1508,1508,1508,1508,1508,1508,1508,1508,1508,1508,1508,1508,1508,1508,1508,1508,1508,1508,1508,1508,1508,1508,1508,1508,1508,1508,1508,1508,1508,1508,1508,1508,1508,1508,1508,1508,1508,
1508,1508,1508,1508,1508,1508,1508,1508,1508,1508,1508,1508,1508,1508,1508,1508,1508,1508,1508,1508,1508,1508,1508,1508,1508,1508,1508,1508,1508,1508,1508,1508,1508,1508,1508,1508,1508,1508,1508,1508,1508,1508,1508,1508,1508,1508,1508,1508,1508,1508,
1508,1508,1508,1508,1508,1508,1508,1508,1508,1508,1508,1508,1508,1508,1508,1508,1508,1508,1508,1508,1508,1508,1508,1508,1508,1508,1508,1508,1508,1508,1508,1508,1508,1508,1508,1508,1508,1508,1508,1508,1508,1508,1508,1508,1508,1508,1508,1508,1508,1508,
1508,1508,1508,1508,1508,1508,1508,1508,1508,1508,1508,1508,1508,1508,1508,1508,1508,1508,1508,1508,1508,1508,1508,1508,1508,1508,1508,1508,1508,1508,1508,1508,1508,1508,1508,1508,1508,1508,1508,1508,1508,1508,1508,1508,1508,1508,1508,1508,1508,1508,
1508,1508,1508,1508,1508,1508,1508,1508,1508,1508,1508,1508,1508,1508,1508,1508,1508,1508,1508,1508,1508,1508,1508,1508,1508,1508,1508,1508,1508,1508,1508,1508,1508,1508,1508,1508,1508,1508,1508,1508,1508,1508,1508,1508,1508,1508,1508,1508,1508,1508,
1508,1508,1508,1508,1508,1508,1508,1508,1508,1508,1508,1508,1508,1508,1508,1508,1508,1508,1508,1508,1508,1508,1508,1508,1508,1508,1508,1508,1508,1508,1508,1508,1508,1508,1508,1508,1508,1508,1508,1508,1508,1508,1508,1508,1508,1508,1508,1508,1508,1508,
1508,1508,1508,1508,1508,1508,1508,1508,1508,1508,1505,1505,1505,1505,1505,1505,1507,1507,1505,1505,1505,1505,1505,1505,1505,1505,1505,1505,1505,1505,1505,1505,1507,1507,1505,1505,1505,1505,1505,1505,1508,1508,1508,1508,1508,1508,1508,1508,1508,1508,
1508,1508,1508,1508,1508,1508,1508,1508,1508,1505,1505,1505,1505,1505,1505,1505,1507,1507,1505,1505,1505,1505,1505,1505,1505,1505,1505,1505,1505,1505,1505,1505,1507,1507,1505,1505,1507,1507,1505,1505,1505,1508,1508,1508,1508,1508,1508,1508,1508,1508,
1508,1508,1508,1508,1508,1508,1508,1508,1505,1505,1505,1505,1505,1505,1505,1505,1507,1507,1505,1505,1505,1505,1505,1505,1505,1505,1505,1505,1505,1505,1505,1505,1507,1507,1505,1505,1505,1505,1505,1505,1505,1505,1508,1508,1508,1508,1508,1508,1508,1508,
1508,1508,1508,1508,1508,1508,1508,1505,1505,1508,1508,1508,1508,1505,1505,1505,1507,1507,1505,1505,1505,1505,1505,1505,1505,1505,1505,1505,1505,1505,1505,1505,1507,1507,1505,1505,1505,1508,1508,1508,1508,1505,1505,1508,1508,1508,1508,1508,1508,1508,
1508,1508,1508,1508,1508,1508,1505,1505,1505,1508,1508,1508,1508,1505,1505,1505,1507,1507,1505,1505,1505,1505,1505,1508,1508,1508,1508,1505,1505,1505,1505,1505,1507,1507,1505,1505,1505,1508,1508,1508,1508,1505,1505,1505,1508,1508,1508,1508,1508,1508,
1508,1508,1508,1508,1508,1508,1505,1505,1505,1508,1508,1508,1508,1505,1505,1505,1507,1507,1505,1505,1505,1505,1505,1508,1505,1505,1508,1505,1505,1505,1505,1505,1507,1507,1505,1505,1505,1508,1508,1508,1508,1505,1505,1505,1508,1508,1508,1508,1508,1508,
1508,1508,1508,1508,1508,1508,1505,1505,1505,1505,1505,1505,1505,1505,1505,1505,1507,1507,1505,1505,1505,1505,1505,1508,1508,1508,1508,1505,1505,1505,1505,1505,1507,1507,1505,1505,1505,1505,1505,1505,1505,1505,1505,1505,1508,1508,1508,1508,1508,1508,
1508,1508,1508,1508,1508,1508,1505,1505,1505,1505,1505,1505,1505,1505,1505,1505,1507,1507,1505,1505,1505,1505,1505,1505,1505,1505,1505,1505,1505,1505,1505,1505,1507,1507,1505,1505,1505,1505,1505,1508,1508,1508,1505,1505,1508,1508,1508,1508,1508,1508,
1508,1508,1508,1508,1508,1508,1505,1505,1505,1505,1505,1505,1505,1505,1505,1505,1507,1507,1505,1505,1505,1505,1505,1505,1505,1505,1505,1505,1505,1505,1505,1505,1507,1507,1505,1505,1508,1508,1508,1508,1508,1508,1505,1505,1508,1508,1508,1508,1508,1508,
1508,1508,1508,1508,1508,1508,1505,1505,1505,1505,1505,1505,1505,1505,1505,1505,1507,1507,1505,1505,1505,1505,1505,1505,1505,1505,1505,1505,1505,1505,1505,1505,1507,1507,1505,1505,1508,1508,1508,1508,1505,1505,1505,1505,1508,1508,1508,1508,1508,1508,
1508,1508,1508,1508,1508,1508,1505,1505,1505,1505,1505,1505,1505,1505,1505,1505,1507,1507,1505,1505,1505,1505,1505,1505,1505,1505,1505,1505,1505,1505,1505,1505,1507,1507,1505,1505,1508,1508,1505,1505,1505,1505,1505,1505,1508,1508,1508,1508,1508,1508,
1508,1508,1508,1508,1508,1508,1508,1508,1508,1505,1505,1505,1505,1505,1505,1505,1507,1507,1505,1505,1505,1505,1505,1505,1505,1505,1505,1505,1505,1505,1505,1505,1507,1507,1505,1505,1505,1505,1505,1505,1505,1508,1508,1508,1508,1508,1508,1508,1508,1508,
1508,1508,1508,1508,1508,1508,1508,1508,1508,1505,1505,1505,1505,1505,1505,1505,1507,1507,1505,1505,1505,1505,1505,1505,1505,1505,1505,1505,1505,1505,1505,1505,1507,1507,1505,1505,1505,1505,1505,1505,1505,1508,1508,1508,1508,1508,1508,1508,1508,1508,
1508,1508,1508,1508,1508,1508,1505,1505,1505,1505,1505,1505,1505,1505,1505,1505,1507,1507,1505,1505,1505,1505,1505,1505,1505,1505,1505,1505,1505,1505,1505,1505,1507,1507,1505,1505,1505,1505,1505,1505,1505,1505,1505,1505,1508,1508,1508,1508,1508,1508,
1508,1508,1508,1508,1508,1508,1505,1505,1505,1505,1505,1505,1505,1505,1505,1505,1507,1507,1505,1505,1505,1505,1505,1505,1505,1505,1505,1505,1505,1505,1505,1505,1507,1507,1505,1505,1505,1505,1505,1505,1505,1505,1505,1505,1508,1508,1508,1508,1508,1508,
1508,1508,1508,1508,1508,1508,1505,1505,1505,1505,1505,1505,1508,1508,1508,1505,1505,1505,1505,1505,1505,1505,1505,1505,1505,1505,1505,1505,1505,1505,1505,1505,1505,1505,1505,1508,1508,1508,1505,1505,1505,1505,1505,1505,1508,1508,1508,1508,1508,1508,
1508,1508,1508,1508,1508,1508,1505,1505,1505,1505,1505,1505,1508,1508,1508,1505,1505,1505,1505,1505,1505,1505,1505,1505,1505,1505,1505,1505,1505,1505,1505,1505,1505,1505,1505,1508,1508,1508,1505,1505,1505,1505,1505,1505,1508,1508,1508,1508,1508,1508,
1508,1508,1508,1508,1508,1508,1505,1505,1505,1505,1505,1505,1505,1505,1505,1505,1505,1505,1505,1505,1505,1505,1505,1505,1505,1505,1505,1505,1505,1505,1505,1505,1505,1505,1505,1505,1505,1505,1505,1505,1505,1505,1505,1505,1508,1508,1508,1508,1508,1508,
1508,1508,1508,1508,1508,1508,1505,1505,1505,1508,1508,1508,1505,1505,1505,1505,1505,1505,1505,1505,1505,1505,1505,1505,1505,1505,1505,1505,1505,1505,1505,1505,1505,1505,1505,1505,1505,1505,1508,1508,1508,1505,1505,1505,1508,1508,1508,1508,1508,1508,
1508,1508,1508,1508,1508,1508,1505,1505,1505,1508,1508,1508,1505,1505,1505,1505,1505,1505,1505,1505,1505,1505,1505,1508,1508,1508,1508,1505,1505,1505,1505,1505,1505,1505,1505,1505,1505,1505,1508,1508,1508,1505,1505,1505,1508,1508,1508,1508,1508,1508,
1508,1508,1508,1508,1508,1508,1505,1505,1505,1505,1505,1505,1505,1505,1505,1505,1505,1505,1505,1505,1505,1505,1505,1508,1508,1508,1508,1505,1505,1505,1505,1505,1505,1505,1505,1505,1505,1505,1505,1505,1505,1505,1505,1505,1508,1508,1508,1508,1508,1508,
1508,1508,1508,1508,1508,1508,1505,1505,1505,1505,1505,1505,1505,1505,1505,1505,1505,1505,1505,1505,1505,1505,1505,1508,1508,1508,1508,1505,1505,1505,1505,1505,1505,1505,1505,1505,1505,1505,1505,1505,1505,1505,1505,1505,1508,1508,1508,1508,1508,1508,
1508,1508,1508,1508,1508,1508,1505,1505,1505,1505,1505,1505,1505,1505,1505,1505,1505,1505,1505,1505,1505,1505,1505,1505,1505,1505,1505,1505,1505,1505,1505,1505,1505,1505,1505,1505,1505,1505,1505,1505,1505,1505,1505,1505,1508,1508,1508,1508,1508,1508,
1508,1508,1508,1508,1508,1508,1508,1508,1508,1505,1505,1505,1505,1505,1505,1508,1508,1508,1505,1505,1505,1505,1505,1505,1505,1505,1505,1505,1505,1505,1505,1505,1508,1508,1508,1505,1505,1505,1505,1505,1505,1508,1508,1508,1508,1508,1508,1508,1508,1508,
1508,1508,1508,1508,1508,1508,1508,1508,1508,1505,1505,1505,1505,1505,1505,1508,1508,1508,1505,1505,1505,1505,1505,1505,1505,1505,1505,1505,1505,1505,1505,1505,1508,1508,1508,1505,1505,1505,1505,1505,1505,1508,1508,1508,1508,1508,1508,1508,1508,1508,
1508,1508,1508,1508,1508,1508,1505,1505,1505,1505,1505,1505,1505,1505,1505,1505,1505,1505,1505,1505,1505,1505,1505,1505,1505,1505,1505,1505,1505,1505,1505,1505,1505,1505,1505,1505,1505,1505,1505,1505,1505,1505,1505,1505,1508,1508,1508,1508,1508,1508,
1508,1508,1508,1508,1508,1508,1505,1505,1505,1505,1505,1505,1505,1505,1505,1505,1505,1505,1505,1505,1505,1505,1505,1505,1505,1505,1505,1505,1505,1505,1505,1505,1505,1505,1505,1505,1505,1505,1505,1505,1505,1505,1505,1505,1508,1508,1508,1508,1508,1508,
1508,1508,1508,1508,1508,1508,1505,1507,1507,1505,1505,1505,1505,1505,1505,1505,1505,1505,1505,1505,1505,1505,1505,1505,1505,1505,1505,1505,1505,1505,1505,1505,1505,1505,1505,1505,1505,1505,1505,1505,1505,1505,1505,1505,1508,1508,1508,1508,1508,1508,
1508,1508,1508,1508,1508,1508,1505,1505,1505,1505,1505,1505,1505,1505,1505,1505,1505,1505,1505,1505,1505,1505,1505,1505,1505,1505,1505,1505,1505,1505,1505,1505,1505,1505,1505,1505,1505,1505,1505,1505,1505,1505,1505,1505,1508,1508,1508,1508,1508,1508,
1508,1508,1508,1508,1508,1508,1508,1505,1505,1505,1505,1505,1505,1505,1505,1505,1505,1505,1505,1505,1505,1505,1505,1505,1505,1505,1505,1505,1505,1505,1505,1505,1505,1505,1505,1505,1505,1505,1505,1505,1505,1505,1505,1508,1508,1508,1508,1508,1508,1508,
1508,1508,1508,1508,1508,1508,1508,1508,0,1505,1505,1505,1505,1505,1505,1505,1505,1505,1505,1505,1505,1505,1505,1505,1505,1505,1505,1505,1505,1505,1505,1505,1505,1505,1505,1505,1505,1505,1505,1505,1505,0,1508,1508,1508,1508,1508,1508,1508,1508,
1508,1508,1508,1508,1508,1508,1508,1508,1508,1505,1505,1505,1505,1505,1505,1505,1505,1505,1505,1505,1505,1505,1505,1505,1505,1505,1505,1505,1505,1505,1505,1505,1505,1505,1505,1505,1505,1505,1505,1505,1505,1508,1508,1508,1508,1508,1508,1508,1508,1508,
1508,1508,1508,1508,1508,1508,1508,1508,1508,1508,1508,1508,1508,1508,1508,1508,1508,1508,1508,1508,1508,1508,1508,1508,1505,1505,1508,1508,1508,1508,1508,1508,1508,1508,1508,1508,1508,1508,1508,1508,1508,1508,1508,1508,1508,1508,1508,1508,1508,1508,
1508,1508,1508,1508,1508,1508,1508,1508,1508,1508,1508,1508,1508,1508,1508,1508,1508,1508,1508,1508,1508,1508,1508,1508,1505,1505,1508,1508,1508,1508,1508,1508,1508,1508,1508,1508,1508,1508,1508,1508,1508,1508,1508,1508,1508,1508,1508,1508,1508,1508,
1508,1508,1508,1508,1508,1508,1508,1508,1508,1508,1508,1508,1508,1508,1508,1508,1508,1508,1508,1508,1508,1508,1508,1508,1505,1505,1508,1508,1508,1508,1508,1508,1508,1508,1508,1508,1508,1508,1508,1508,1508,1508,1508,1508,1508,1508,1508,1508,1508,1508,
1508,1508,1508,1508,1508,1508,1508,1508,1508,1508,1508,1508,1508,1508,1508,1508,1508,1508,1508,1508,1508,1508,1508,1508,1505,1505,1508,1508,1508,1508,1508,1508,1508,1508,1508,1508,1508,1508,1508,1508,1508,1508,1508,1508,1508,1508,1508,1508,1508,1508,
1508,1508,1508,1508,1508,1508,1508,1508,1508,1508,1508,1508,1508,1508,1508,1508,1508,1508,1508,1508,1508,1508,1508,1508,1505,1505,1508,1508,1508,1508,1508,1508,1508,1508,1508,1508,1508,1508,1508,1508,1508,1508,1508,1508,1508,1508,1508,1508,1508,1508,
1508,1508,1508,1508,1508,1508,1508,1508,1508,1508,1508,1508,1508,1508,1508,1508,1508,1508,1508,1508,1508,1508,1508,1508,1508,1508,1508,1508,1508,1508,1508,1508,1508,1508,1508,1508,1508,1508,1508,1508,1508,1508,1508,1508,1508,1508,1508,1508,1508,1508,
1508,1508,1508,1508,1508,1508,1508,1508,1508,1508,1508,1508,1508,1508,1508,1508,1508,1508,1508,1508,1508,1508,1508,1508,1508,1508,1508,1508,1508,1508,1508,1508,1508,1508,1508,1508,1508,1508,1508,1508,1508,1508,1508,1508,1508,1508,1508,1508,1508,1508
</data>
 </layer>
 <layer id="16" name="Tiles_Collision_CrystalRemoved" width="50" height="56">
  <properties>
   <property name="maybe_animation_id" value="d5b5e9552171fe70"/>
   <property name="maybe_tileset_id" value="b29026a2ad0be741"/>
   <property name="tile_size" type="int" value="8"/>
  </properties>
  <data encoding="csv">
0,0,0,0,0,0,0,0,0,0,0,0,0,0,0,0,0,0,0,0,0,0,0,0,0,0,0,0,0,0,0,0,0,0,0,0,0,0,0,0,0,0,0,0,0,0,0,0,0,0,
0,0,0,0,0,0,0,0,0,0,0,0,0,0,0,0,0,0,0,0,0,0,0,0,0,0,0,0,0,0,0,0,0,0,0,0,0,0,0,0,0,0,0,0,0,0,0,0,0,0,
0,0,0,0,0,0,0,0,0,0,0,0,0,0,0,0,0,0,0,0,0,0,0,0,0,0,0,0,0,0,0,0,0,0,0,0,0,0,0,0,0,0,0,0,0,0,0,0,0,0,
0,0,0,0,0,0,0,0,0,0,0,0,0,0,0,0,0,0,0,0,0,0,0,0,0,0,0,0,0,0,0,0,0,0,0,0,0,0,0,0,0,0,0,0,0,0,0,0,0,0,
0,0,0,0,0,0,0,0,0,0,0,0,0,0,0,0,0,0,0,0,0,0,0,0,0,0,0,0,0,0,0,0,0,0,0,0,0,0,0,0,0,0,0,0,0,0,0,0,0,0,
0,0,0,0,0,0,0,0,0,0,0,0,0,0,0,0,0,0,0,0,0,0,0,0,0,0,0,0,0,0,0,0,0,0,0,0,0,0,0,0,0,0,0,0,0,0,0,0,0,0,
0,0,0,0,0,0,0,0,0,0,0,0,0,0,0,0,0,0,0,0,0,0,0,0,0,0,0,0,0,0,0,0,0,0,0,0,0,0,0,0,0,0,0,0,0,0,0,0,0,0,
0,0,0,0,0,0,0,0,0,0,0,0,0,0,0,0,0,0,0,0,0,0,0,0,0,0,0,0,0,0,0,0,0,0,0,0,0,0,0,0,0,0,0,0,0,0,0,0,0,0,
0,0,0,0,0,0,0,0,0,0,0,0,0,0,0,0,0,0,0,0,0,0,0,0,0,0,0,0,0,0,0,0,0,0,0,0,0,0,0,0,0,0,0,0,0,0,0,0,0,0,
0,0,0,0,0,0,0,0,0,0,0,0,0,0,0,0,0,0,0,0,0,0,0,0,0,0,0,0,0,0,0,0,0,0,0,0,0,0,0,0,0,0,0,0,0,0,0,0,0,0,
0,0,0,0,0,0,0,0,0,0,0,0,0,0,0,0,0,0,0,0,0,0,0,0,0,0,0,0,0,0,0,0,0,0,0,0,0,0,0,0,0,0,0,0,0,0,0,0,0,0,
0,0,0,0,0,0,0,0,0,0,0,0,0,0,0,0,0,0,0,0,0,0,0,0,0,0,0,0,0,0,0,0,0,0,0,0,0,0,0,0,0,0,0,0,0,0,0,0,0,0,
0,0,0,0,0,0,0,0,0,0,0,0,0,0,0,0,0,0,0,0,0,0,0,0,0,0,0,0,0,0,0,0,0,0,0,0,0,0,0,0,0,0,0,0,0,0,0,0,0,0,
0,0,0,0,0,0,0,0,0,0,0,0,0,0,0,0,0,0,0,0,0,0,0,0,0,0,0,0,0,0,0,0,0,0,0,0,0,0,0,0,0,0,0,0,0,0,0,0,0,0,
0,0,0,0,0,0,0,0,0,0,0,0,0,0,0,0,0,0,0,0,0,0,0,0,0,0,0,0,0,0,0,0,0,0,0,0,0,0,0,0,0,0,0,0,0,0,0,0,0,0,
0,0,0,0,0,0,0,0,0,0,0,0,0,0,0,0,0,0,0,0,0,0,0,0,0,0,0,0,0,0,0,0,0,0,0,0,0,0,0,0,0,0,0,0,0,0,0,0,0,0,
0,0,0,0,0,0,0,0,0,0,0,0,0,0,0,0,0,0,0,0,0,0,0,0,0,0,0,0,0,0,0,0,0,0,0,0,0,0,0,0,0,0,0,0,0,0,0,0,0,0,
0,0,0,0,0,0,0,0,0,0,0,0,0,0,0,0,0,0,0,0,0,0,0,0,0,0,0,0,0,0,0,0,0,0,0,0,0,0,0,0,0,0,0,0,0,0,0,0,0,0,
0,0,0,0,0,0,0,0,0,0,0,0,0,0,0,0,0,0,0,0,0,0,0,0,0,0,0,0,0,0,0,0,0,0,0,0,0,0,0,0,0,0,0,0,0,0,0,0,0,0,
0,0,0,0,0,0,0,0,0,0,0,0,0,0,0,0,0,0,0,0,0,0,0,0,0,0,0,0,0,0,0,0,0,0,0,0,0,0,0,0,0,0,0,0,0,0,0,0,0,0,
0,0,0,0,0,0,0,0,0,0,0,0,0,0,0,0,0,0,0,0,0,0,0,0,0,0,0,0,0,0,0,0,0,0,0,0,0,0,0,0,0,0,0,0,0,0,0,0,0,0,
0,0,0,0,0,0,0,0,0,0,0,0,0,0,0,0,0,0,0,0,0,0,0,0,0,0,0,0,0,0,0,0,0,0,0,0,0,0,0,0,0,0,0,0,0,0,0,0,0,0,
0,0,0,0,0,0,0,0,0,0,0,0,0,0,0,0,0,0,0,0,0,0,0,0,0,0,0,0,0,0,0,0,0,0,0,0,0,0,0,0,0,0,0,0,0,0,0,0,0,0,
0,0,0,0,0,0,0,0,0,0,0,0,0,0,0,0,0,0,0,0,0,0,0,0,0,0,0,0,0,0,0,0,0,0,0,0,0,0,0,0,0,0,0,0,0,0,0,0,0,0,
0,0,0,0,0,0,0,0,0,0,0,0,0,0,0,0,0,0,0,0,0,0,0,0,0,0,0,0,0,0,0,0,0,0,0,0,0,0,0,0,0,0,0,0,0,0,0,0,0,0,
0,0,0,0,0,0,0,0,0,0,0,0,0,0,0,0,0,0,0,0,0,0,0,0,0,0,0,0,0,0,0,0,0,0,0,0,0,0,0,0,0,0,0,0,0,0,0,0,0,0,
0,0,0,0,0,0,0,0,0,0,0,0,0,0,0,0,0,0,0,0,0,0,0,0,0,0,0,0,0,0,0,0,0,0,0,0,0,0,0,0,0,0,0,0,0,0,0,0,0,0,
0,0,0,0,0,0,0,0,0,0,0,0,0,0,0,0,0,0,0,0,0,0,0,0,0,0,0,0,0,0,0,0,0,0,0,0,0,0,0,0,0,0,0,0,0,0,0,0,0,0,
0,0,0,0,0,0,0,0,0,0,0,0,0,0,0,0,0,0,0,0,0,0,0,0,0,0,0,0,0,0,0,0,0,0,0,0,0,0,0,0,0,0,0,0,0,0,0,0,0,0,
0,0,0,0,0,0,0,0,0,0,0,0,0,0,0,0,0,0,0,0,0,0,0,0,0,0,0,0,0,0,0,0,0,0,0,0,0,0,0,0,0,0,0,0,0,0,0,0,0,0,
0,0,0,0,0,0,0,0,0,0,0,0,0,0,0,0,0,0,0,0,0,0,0,0,0,0,0,0,0,0,0,0,0,0,0,0,0,0,0,0,0,0,0,0,0,0,0,0,0,0,
0,0,0,0,0,0,0,0,0,0,0,0,0,0,0,0,0,0,0,0,0,0,0,0,0,0,0,0,0,0,0,0,0,0,0,0,0,0,0,0,0,0,0,0,0,0,0,0,0,0,
0,0,0,0,0,0,0,0,0,0,0,0,0,0,0,0,0,0,0,0,0,0,0,0,0,0,0,0,0,0,0,0,0,0,0,0,0,0,0,0,0,0,0,0,0,0,0,0,0,0,
0,0,0,0,0,0,0,0,0,0,0,0,0,0,0,0,0,0,0,0,0,0,0,0,0,0,0,0,0,0,0,0,0,0,0,0,0,0,0,0,0,0,0,0,0,0,0,0,0,0,
0,0,0,0,0,0,0,0,0,0,0,0,0,0,0,0,0,0,0,0,0,0,0,0,0,0,0,0,0,0,0,0,0,0,0,0,0,0,0,0,0,0,0,0,0,0,0,0,0,0,
0,0,0,0,0,0,0,0,0,0,0,0,0,0,0,0,0,0,0,0,0,0,0,0,0,0,0,0,0,0,0,0,0,0,0,0,0,0,0,0,0,0,0,0,0,0,0,0,0,0,
0,0,0,0,0,0,0,0,0,0,0,0,0,0,0,0,0,0,0,0,0,0,0,0,0,0,0,0,0,0,0,0,0,0,0,0,0,0,0,0,0,0,0,0,0,0,0,0,0,0,
0,0,0,0,0,0,0,0,0,0,0,0,0,0,0,0,0,0,0,0,0,0,0,0,0,0,0,0,0,0,0,0,0,0,0,0,0,0,0,0,0,0,0,0,0,0,0,0,0,0,
0,0,0,0,0,0,0,0,0,0,0,0,0,0,0,0,0,0,0,0,0,0,0,0,0,0,0,0,0,0,0,0,0,0,0,0,0,0,0,0,0,0,0,0,0,0,0,0,0,0,
0,0,0,0,0,0,0,0,0,0,0,0,0,0,0,0,0,0,0,0,0,0,0,0,0,0,0,0,0,0,0,0,0,0,0,0,0,0,0,0,0,0,0,0,0,0,0,0,0,0,
0,0,0,0,0,0,0,0,0,0,0,0,0,0,0,0,0,0,0,0,0,0,0,0,0,0,0,0,0,0,0,0,0,0,0,0,0,0,0,0,0,0,0,0,0,0,0,0,0,0,
0,0,0,0,0,0,0,0,0,0,0,0,0,0,0,0,0,0,0,0,0,0,0,0,0,0,0,0,0,0,0,0,0,0,0,0,0,0,0,0,0,0,0,0,0,0,0,0,0,0,
0,0,0,0,0,0,0,0,0,0,0,0,0,0,0,0,0,0,0,0,0,0,0,0,0,0,0,0,0,0,0,0,0,0,0,0,0,0,0,0,0,0,0,0,0,0,0,0,0,0,
0,0,0,0,0,0,0,0,0,0,0,0,0,0,0,0,0,0,0,0,0,0,0,0,0,0,0,0,0,0,0,0,0,0,0,0,0,0,0,0,0,0,0,0,0,0,0,0,0,0,
0,0,0,0,0,0,0,0,0,0,0,0,0,0,0,0,0,0,0,0,0,0,0,0,0,0,0,0,0,0,0,0,0,0,0,0,0,0,0,0,0,0,0,0,0,0,0,0,0,0,
0,0,0,0,0,0,0,0,0,0,0,0,0,0,0,0,0,0,0,0,0,0,0,0,0,0,0,0,0,0,0,0,0,0,0,0,0,0,0,0,0,0,0,0,0,0,0,0,0,0,
0,0,0,0,0,0,0,0,0,0,0,0,0,0,0,0,0,0,0,0,0,0,0,0,0,0,0,0,0,0,0,0,0,0,0,0,0,0,0,0,0,0,0,0,0,0,0,0,0,0,
0,0,0,0,0,0,0,0,0,0,0,0,0,0,0,0,0,0,0,0,0,0,0,0,0,0,0,0,0,0,0,0,0,0,0,0,0,0,0,0,0,0,0,0,0,0,0,0,0,0,
0,0,0,0,0,0,0,0,0,0,0,0,0,0,0,0,0,0,0,0,0,0,0,0,0,0,0,0,0,0,0,0,0,0,0,0,0,0,0,0,0,0,0,0,0,0,0,0,0,0,
0,0,0,0,0,0,0,0,0,0,0,0,0,0,0,0,0,0,0,0,0,0,0,0,0,0,0,0,0,0,0,0,0,0,0,0,0,0,0,0,0,0,0,0,0,0,0,0,0,0,
0,0,0,0,0,0,0,0,0,0,0,0,0,0,0,0,0,0,0,0,0,0,0,0,0,0,0,0,0,0,0,0,0,0,0,0,0,0,0,0,0,0,0,0,0,0,0,0,0,0,
0,0,0,0,0,0,0,0,0,0,0,0,0,0,0,0,0,0,0,0,0,0,0,0,0,0,0,0,0,0,0,0,0,0,0,0,0,0,0,0,0,0,0,0,0,0,0,0,0,0,
0,0,0,0,0,0,0,0,0,0,0,0,0,0,0,0,0,0,0,0,0,0,0,0,0,0,0,0,0,0,0,0,0,0,0,0,0,0,0,0,0,0,0,0,0,0,0,0,0,0,
0,0,0,0,0,0,0,0,0,0,0,0,0,0,0,0,0,0,0,0,0,0,0,0,0,0,0,0,0,0,0,0,0,0,0,0,0,0,0,0,0,0,0,0,0,0,0,0,0,0,
0,0,0,0,0,0,0,0,0,0,0,0,0,0,0,0,0,0,0,0,0,0,0,0,0,0,0,0,0,0,0,0,0,0,0,0,0,0,0,0,0,0,0,0,0,0,0,0,0,0,
0,0,0,0,0,0,0,0,0,0,0,0,0,0,0,0,0,0,0,0,0,0,0,0,0,0,0,0,0,0,0,0,0,0,0,0,0,0,0,0,0,0,0,0,0,0,0,0,0,0
</data>
 </layer>
 <layer id="17" name="Tiles_Rules" width="50" height="56" visible="0">
  <properties>
   <property name="maybe_animation_id" value="f525790c1101b1a1"/>
   <property name="maybe_tileset_id" value="a3b6ca91b299d4f5"/>
   <property name="tile_size" type="int" value="8"/>
  </properties>
  <data encoding="csv">
6014,6014,6014,6014,6014,6014,6014,6014,6014,6014,6014,6014,6014,6014,6014,6014,6014,6014,6014,6014,6014,6014,6014,6014,6014,6014,6014,6014,6014,6014,6014,6014,6014,6014,6014,6014,6014,6014,6014,6014,6014,6014,6014,6014,6014,6014,6014,6014,6014,6014,
6014,6014,6014,6014,6014,6014,6014,6014,6014,6014,6014,6014,6014,6014,6014,6014,6014,6014,6014,6014,6014,6014,6014,6014,6014,6014,6014,6014,6014,6014,6014,6014,6014,6014,6014,6014,6014,6014,6014,6014,6014,6014,6014,6014,6014,6014,6014,6014,6014,6014,
6014,6014,6014,6014,6014,6014,6014,6014,6014,6014,6014,6014,6014,6014,6014,6014,6014,6014,6014,6014,6014,6014,6014,6014,6014,6014,6014,6014,6014,6014,6014,6014,6014,6014,6014,6014,6014,6014,6014,6014,6014,6014,6014,6014,6014,6014,6014,6014,6014,6014,
6014,6014,6014,6014,6014,6014,6014,6014,6014,6014,6014,6014,6014,6014,6014,6014,6014,6014,6014,6014,6014,6014,6014,6014,6014,6014,6014,6014,6014,6014,6014,6014,6014,6014,6014,6014,6014,6014,6014,6014,6014,6014,6014,6014,6014,6014,6014,6014,6014,6014,
6014,6014,6014,6014,6014,6014,6014,6014,6014,6014,6014,6014,6014,6014,6014,6014,6014,6014,6014,6014,6014,6014,6014,6014,6014,6014,6014,6014,6014,6014,6014,6014,6014,6014,6014,6014,6014,6014,6014,6014,6014,6014,6014,6014,6014,6014,6014,6014,6014,6014,
6014,6014,6014,6014,6014,6014,6014,6014,6014,6014,6014,6014,6014,6014,6014,6014,6014,6014,6014,6014,6014,6014,6014,6014,6014,6014,6014,6014,6014,6014,6014,6014,6014,6014,6014,6014,6014,6014,6014,6014,6014,6014,6014,6014,6014,6014,6014,6014,6014,6014,
6014,6014,6014,6014,6014,6014,6014,6014,6014,6014,6014,6014,6014,6014,6014,6014,6014,6014,6014,6014,6014,6014,6014,6014,6014,6014,6014,6014,6014,6014,6014,6014,6014,6014,6014,6014,6014,6014,6014,6014,6014,6014,6014,6014,6014,6014,6014,6014,6014,6014,
6014,6014,6014,6014,6014,6014,6014,6014,6014,6014,6014,6014,6014,6014,6014,6014,6014,6014,6014,6014,6014,6014,6014,6014,6014,6014,6014,6014,6014,6014,6014,6014,6014,6014,6014,6014,6014,6014,6014,6014,6014,6014,6014,6014,6014,6014,6014,6014,6014,6014,
6014,6014,6014,6014,6014,6014,6014,6014,6014,6014,6014,6014,6014,6014,6014,6014,6014,6014,6014,6014,6014,6014,6014,6014,6014,6014,6014,6014,6014,6014,6014,6014,6014,6014,6014,6014,6014,6014,6014,6014,6014,6014,6014,6014,6014,6014,6014,6014,6014,6014,
6014,6014,6014,6014,6014,6014,6014,6014,6014,6014,6014,6014,6014,6014,6014,6014,6014,6014,6014,6014,6014,6014,6014,6014,6014,6014,6014,6014,6014,6014,6014,6014,6014,6014,6014,6014,6014,6014,6014,6014,6014,6014,6014,6014,6014,6014,6014,6014,6014,6014,
6014,6014,6014,6014,6014,6014,6014,6014,6014,6014,6014,6014,6014,6014,6014,6014,6014,6014,6014,6014,6014,6014,6014,6014,6014,6014,6014,6014,6014,6014,6014,6014,6014,6014,6014,6014,6014,6014,6014,6014,6014,6014,6014,6014,6014,6014,6014,6014,6014,6014,
6014,6014,6014,6014,6014,6014,6014,6014,6014,6014,6014,6014,6014,6014,6014,6014,6014,6014,6014,6014,6014,6014,6014,6014,6014,6014,6014,6014,6014,6014,6014,6014,6014,6014,6014,6014,6014,6014,6014,6014,6014,6014,6014,6014,6014,6014,6014,6014,6014,6014,
6014,6014,6014,6014,6014,6014,6014,6014,6014,6014,6014,6014,6014,6014,6014,6014,6014,6014,6014,6014,6014,6014,6014,6014,6014,6014,6014,6014,6014,6014,6014,6014,6014,6014,6014,6014,6014,6014,6014,6014,6014,6014,6014,6014,6014,6014,6014,6014,6014,6014,
6014,6014,6014,6014,6014,6014,6014,6014,6014,6014,6014,6014,6014,6014,6014,6014,6014,6014,6014,6014,6014,6014,6014,6014,6014,6014,6014,6014,6014,6014,6014,6014,6014,6014,6014,6014,6014,6014,6014,6014,6014,6014,6014,6014,6014,6014,6014,6014,6014,6014,
6014,6014,6014,6014,6014,6014,6014,6014,6014,6014,6014,6014,6014,6014,6014,6014,6014,6014,6014,6014,6014,6014,6014,6014,6014,6014,6014,6014,6014,6014,6014,6014,6014,6014,6014,6014,6014,6014,6014,6014,6014,6014,6014,6014,6014,6014,6014,6014,6014,6014,
6014,6014,6014,6014,6014,6014,6014,6014,6014,6014,6014,6014,6014,6014,6014,6014,6014,6014,6014,6014,6014,6014,6014,6014,6014,6014,6014,6014,6014,6014,6014,6014,6014,6014,6014,6014,6014,6014,6014,6014,6014,6014,6014,6014,6014,6014,6014,6014,6014,6014,
6014,6014,6014,6014,6014,6014,6014,6014,6014,6014,6014,6014,6014,6014,6014,6014,6014,6014,6014,6014,6014,6014,6014,6014,6014,6014,6014,6014,6014,6014,6014,6014,6014,6014,6014,6014,6014,6014,6014,6014,6014,6014,6014,6014,6014,6014,6014,6014,6014,6014,
6014,6014,6014,6014,6014,6014,6014,6014,6014,6014,6014,6014,6014,6014,6014,6014,6014,6014,6014,6014,6014,6014,6014,6014,6014,6014,6014,6014,6014,6014,6014,6014,6014,6014,6014,6014,6014,6014,6014,6014,6014,6014,6014,6014,6014,6014,6014,6014,6014,6014,
6014,6014,6014,6014,6014,6014,6014,6014,6014,6014,6014,6014,6014,6014,6014,6014,6014,6014,6014,6014,6014,6014,6014,6014,6014,6014,6014,6014,6014,6014,6014,6014,6014,6014,6014,6014,6014,6014,6014,6014,6014,6014,6014,6014,6014,6014,6014,6014,6014,6014,
6014,6014,6014,6014,6014,6014,6014,6014,6014,6014,6014,6014,6014,6014,6014,6014,6014,6014,6014,6014,6014,6014,6014,6014,6014,6014,6014,6014,6014,6014,6014,6014,6014,6014,6014,6014,6014,6014,6014,6014,6014,6014,6014,6014,6014,6014,6014,6014,6014,6014,
6014,6014,6014,6014,6014,6014,6014,6014,6014,6014,6014,6014,6014,6014,6014,6014,6014,6014,6014,6014,6014,6014,6014,6014,6014,6014,6014,6014,6014,6014,6014,6014,6014,6014,6014,6014,6014,6014,6014,6014,6014,6014,6014,6014,6014,6014,6014,6014,6014,6014,
6014,6014,6014,6014,6014,6014,6014,6014,6014,6014,6014,6014,6014,6014,6014,6014,6014,6014,6014,6014,6014,6014,6014,6014,6014,6014,6014,6014,6014,6014,6014,6014,6014,6014,6014,6014,6014,6014,6014,6014,6014,6014,6014,6014,6014,6014,6014,6014,6014,6014,
6014,6014,6014,6014,6014,6014,6014,6014,6014,6014,6014,6014,6014,6014,6014,6014,6014,6014,6014,6014,6014,6014,6014,6014,6014,6014,6014,6014,6014,6014,6014,6014,6014,6014,6014,6014,6014,6014,6014,6014,6014,6014,6014,6014,6014,6014,6014,6014,6014,6014,
6014,6014,6014,6014,6014,6014,6014,6014,6014,6014,6014,6014,6014,6014,6014,6014,6014,6014,6014,6014,6014,6014,6014,6014,6014,6014,6014,6014,6014,6014,6014,6014,6014,6014,6014,6014,6014,6014,6014,6014,6014,6014,6014,6014,6014,6014,6014,6014,6014,6014,
6014,6014,6014,6014,6014,6014,6014,6014,6014,6014,6014,6014,6014,6014,6014,6014,6014,6014,6014,6014,6014,6014,6014,6014,6014,6014,6014,6014,6014,6014,6014,6014,6014,6014,6014,6014,6014,6014,6014,6014,6014,6014,6014,6014,6014,6014,6014,6014,6014,6014,
6014,6014,6014,6014,6014,6014,6014,6014,6014,6014,6014,6014,6014,6014,6014,6014,6014,6014,6014,6014,6014,6014,6014,6014,6014,6014,6014,6014,6014,6014,6014,6014,6014,6014,6014,6014,6014,6014,6014,6014,6014,6014,6014,6014,6014,6014,6014,6014,6014,6014,
6014,6014,6014,6014,6014,6014,6014,6014,6014,6014,6014,6014,6014,6014,6014,6014,6014,6014,6014,6014,6014,6014,6014,6014,6014,6014,6014,6014,6014,6014,6014,6014,6014,6014,6014,6014,6014,6014,6014,6014,6014,6014,6014,6014,6014,6014,6014,6014,6014,6014,
6014,6014,6014,6014,6014,6014,6014,6014,6014,6014,6014,6014,6014,6014,6014,6014,6014,6014,6014,6014,6014,6014,6014,6014,6014,6014,6014,6014,6014,6014,6014,6014,6014,6014,6014,6014,6014,6014,6014,6014,6014,6014,6014,6014,6014,6014,6014,6014,6014,6014,
6014,6014,6014,6014,6014,6014,6014,6014,6014,6014,6014,6014,6014,6014,6014,6014,6014,6014,6014,6014,6014,6014,6014,6014,6014,6014,6014,6014,6014,6014,6014,6014,6014,6014,6014,6014,6014,6014,6014,6014,6014,6014,6014,6014,6014,6014,6014,6014,6014,6014,
6014,6014,6014,6014,6014,6014,6014,6014,6014,6014,6014,6014,6014,6014,6014,6014,6014,6014,6014,6014,6014,6014,6014,6014,6014,6014,6014,6014,6014,6014,6014,6014,6014,6014,6014,6014,6014,6014,6014,6014,6014,6014,6014,6014,6014,6014,6014,6014,6014,6014,
6014,6014,6014,6014,6014,6014,6014,6014,6014,6014,6014,6014,6014,6014,6014,6014,6014,6014,6014,6014,6014,6014,6014,6014,6014,6014,6014,6014,6014,6014,6014,6014,6014,6014,6014,6014,6014,6014,6014,6014,6014,6014,6014,6014,6014,6014,6014,6014,6014,6014,
6014,6014,6014,6014,6014,6014,6014,6014,6014,6014,6014,6014,6014,6014,6014,6014,6014,6014,6014,6014,6014,6014,6014,6014,6014,6014,6014,6014,6014,6014,6014,6014,6014,6014,6014,6014,6014,6014,6014,6014,6014,6014,6014,6014,6014,6014,6014,6014,6014,6014,
6014,6014,6014,6014,6014,6014,6014,6014,6014,6014,6014,6014,6014,6014,6014,6014,6014,6014,6014,6014,6014,6014,6014,6014,6014,6014,6014,6014,6014,6014,6014,6014,6014,6014,6014,6014,6014,6014,6014,6014,6014,6014,6014,6014,6014,6014,6014,6014,6014,6014,
6014,6014,6014,6014,6014,6014,6014,6014,6014,6014,6014,6014,6014,6014,6014,6014,6014,6014,6014,6014,6014,6014,6014,6014,6014,6014,6014,6014,6014,6014,6014,6014,6014,6014,6014,6014,6014,6014,6014,6014,6014,6014,6014,6014,6014,6014,6014,6014,6014,6014,
6014,6014,6014,6014,6014,6014,6014,6014,6014,6014,6014,6014,6014,6014,6014,6014,6014,6014,6014,6014,6014,6014,6014,6014,6014,6014,6014,6014,6014,6014,6014,6014,6014,6014,6014,6014,6014,6014,6014,6014,6014,6014,6014,6014,6014,6014,6014,6014,6014,6014,
6014,6014,6014,6014,6014,6014,6014,6014,6014,6014,6014,6014,6014,6014,6014,6014,6014,6014,6014,6014,6014,6014,6014,6014,6014,6014,6014,6014,6014,6014,6014,6014,6014,6014,6014,6014,6014,6014,6014,6014,6014,6014,6014,6014,6014,6014,6014,6014,6014,6014,
6014,6014,6014,6014,6014,6014,6014,6014,6014,6014,6014,6014,6014,6014,6014,6014,6014,6014,6014,6014,6014,6014,6014,6014,6014,6014,6014,6014,6014,6014,6014,6014,6014,6014,6014,6014,6014,6014,6014,6014,6014,6014,6014,6014,6014,6014,6014,6014,6014,6014,
6014,6014,6014,6014,6014,6014,6014,6014,6014,6014,6014,6014,6014,6014,6014,6014,6014,6014,6014,6014,6014,6014,6014,6014,6014,6014,6014,6014,6014,6014,6014,6014,6014,6014,6014,6014,6014,6014,6014,6014,6014,6014,6014,6014,6014,6014,6014,6014,6014,6014,
6014,6014,6014,6014,6014,6014,6014,6014,6014,6014,6014,6014,6014,6014,6014,6014,6014,6014,6014,6014,6014,6014,6014,6014,6014,6014,6014,6014,6014,6014,6014,6014,6014,6014,6014,6014,6014,6014,6014,6014,6014,6014,6014,6014,6014,6014,6014,6014,6014,6014,
6014,6014,6014,6014,6014,6014,6014,6014,6014,6014,6014,6014,6014,6014,6014,6014,6014,6014,6014,6014,6014,6014,6014,6014,6014,6014,6014,6014,6014,6014,6014,6014,6014,6014,6014,6014,6014,6014,6014,6014,6014,6014,6014,6014,6014,6014,6014,6014,6014,6014,
6014,6014,6014,6014,6014,6014,6014,6014,6014,6014,6014,6014,6014,6014,6014,6014,6014,6014,6014,6014,6014,6014,6014,6014,6014,6014,6014,6014,6014,6014,6014,6014,6014,6014,6014,6014,6014,6014,6014,6014,6014,6014,6014,6014,6014,6014,6014,6014,6014,6014,
6014,6014,6014,6014,6014,6014,6014,6014,6014,6014,6014,6014,6014,6014,6014,6014,6014,6014,6014,6014,6014,6014,6014,6014,6014,6014,6014,6014,6014,6014,6014,6014,6014,6014,6014,6014,6014,6014,6014,6014,6014,6014,6014,6014,6014,6014,6014,6014,6014,6014,
6014,6014,6014,6014,6014,6014,6014,6014,6014,6014,6014,6014,6014,6014,6014,6014,6014,6014,6014,6014,6014,6014,6014,6014,6014,6014,6014,6014,6014,6014,6014,6014,6014,6014,6014,6014,6014,6014,6014,6014,6014,6014,6014,6014,6014,6014,6014,6014,6014,6014,
6014,6014,6014,6014,6014,6014,6014,6014,6014,6014,6014,6014,6014,6014,6014,6014,6014,6014,6014,6014,6014,6014,6014,6014,6014,6014,6014,6014,6014,6014,6014,6014,6014,6014,6014,6014,6014,6014,6014,6014,6014,6014,6014,6014,6014,6014,6014,6014,6014,6014,
6014,6014,6014,6014,6014,6014,6014,6014,6014,6014,6014,6014,6014,6014,6014,6014,6014,6014,6014,6014,6014,6014,6014,6014,6014,6014,6014,6014,6014,6014,6014,6014,6014,6014,6014,6014,6014,6014,6014,6014,6014,6014,6014,6014,6014,6014,6014,6014,6014,6014,
6014,6014,6014,6014,6014,6014,6014,6014,6014,6014,6014,6014,6014,6014,6014,6014,6014,6014,6014,6014,6014,6014,6014,6014,6014,6014,6014,6014,6014,6014,6014,6014,6014,6014,6014,6014,6014,6014,6014,6014,6014,6014,6014,6014,6014,6014,6014,6014,6014,6014,
6014,6014,6014,6014,6014,6014,6014,6014,6014,6014,6014,6014,6014,6014,6014,6014,6014,6014,6014,6014,6014,6014,6014,6014,6014,6014,6014,6014,6014,6014,6014,6014,6014,6014,6014,6014,6014,6014,6014,6014,6014,6014,6014,6014,6014,6014,6014,6014,6014,6014,
6014,6014,6014,6014,6014,6014,6014,6014,6014,6014,6014,6014,6014,6014,6014,6014,6014,6014,6014,6014,6014,6014,6014,6014,6014,6014,6014,6014,6014,6014,6014,6014,6014,6014,6014,6014,6014,6014,6014,6014,6014,6014,6014,6014,6014,6014,6014,6014,6014,6014,
6014,6014,6014,6014,6014,6014,6014,6014,6014,6014,6014,6014,6014,6014,6014,6014,6014,6014,6014,6014,6014,6014,6014,6014,6014,6014,6014,6014,6014,6014,6014,6014,6014,6014,6014,6014,6014,6014,6014,6014,6014,6014,6014,6014,6014,6014,6014,6014,6014,6014,
0,0,0,0,0,0,0,0,0,0,0,0,0,0,0,0,0,0,0,0,0,0,0,0,0,0,0,0,0,0,0,0,0,0,0,0,0,0,0,0,0,0,0,0,0,0,0,0,0,0,
0,0,0,0,0,0,0,0,0,0,0,0,0,0,0,0,0,0,0,0,0,0,0,0,0,0,0,0,0,0,0,0,0,0,0,0,0,0,0,0,0,0,0,0,0,0,0,0,0,0,
0,0,0,0,0,0,0,0,0,0,0,0,0,0,0,0,0,0,0,0,0,0,0,0,0,0,0,0,0,0,0,0,0,0,0,0,0,0,0,0,0,0,0,0,0,0,0,0,0,0,
0,0,0,0,0,0,0,0,0,0,0,0,0,0,0,0,0,0,0,0,0,0,0,0,0,0,0,0,0,0,0,0,0,0,0,0,0,0,0,0,0,0,0,0,0,0,0,0,0,0,
0,0,0,0,0,0,0,0,0,0,0,0,0,0,0,0,0,0,0,0,0,0,0,0,0,0,0,0,0,0,0,0,0,0,0,0,0,0,0,0,0,0,0,0,0,0,0,0,0,0,
0,0,0,0,0,0,0,0,0,0,0,0,0,0,0,0,0,0,0,0,0,0,0,0,0,0,0,0,0,0,0,0,0,0,0,0,0,0,0,0,0,0,0,0,0,0,0,0,0,0,
0,0,0,0,0,0,0,0,0,0,0,0,0,0,0,0,0,0,0,0,0,0,0,0,0,0,0,0,0,0,0,0,0,0,0,0,0,0,0,0,0,0,0,0,0,0,0,0,0,0
</data>
 </layer>
 <layer id="18" name="Pathfinding" width="50" height="56">
  <properties>
   <property name="maybe_animation_id" value="6d2460f008fb99d4"/>
   <property name="maybe_tileset_id" value="264fe6c9523400a1"/>
   <property name="tile_size" type="int" value="8"/>
  </properties>
  <data encoding="csv">
0,6008,6008,6008,6008,6008,6008,6008,6008,6008,6008,6008,6008,6008,6008,6008,6008,6008,6008,6008,6008,6008,6008,6008,6008,6008,6008,6008,6008,6008,6008,6008,6008,6008,6008,6008,6008,6008,6008,6008,6008,6008,6008,6008,6008,6008,6008,0,0,0,
0,6008,6008,6008,6008,6008,6008,6008,6008,6008,6008,6008,6008,6008,6008,6008,6008,6008,6008,6008,6008,6008,6008,6008,6008,6008,6008,6008,6008,6008,6008,6008,6008,6008,6008,6008,6008,6008,6008,6008,6008,6008,6008,6008,6008,6008,6008,0,0,0,
0,6008,6008,6008,6008,6008,6008,6008,6008,6008,6008,6008,6008,6008,6008,6008,6008,6008,6008,6008,6008,6008,6008,6008,6008,6008,6008,6008,6008,6008,6008,6008,6008,6008,6008,6008,6008,6008,6008,6008,6008,6008,6008,6008,6008,6008,6008,0,0,0,
0,6008,6008,6008,6008,6008,6008,6008,6008,6008,6008,6008,6008,6008,6008,6008,6008,6008,6008,6008,6008,6008,6008,6008,6008,6008,6008,6008,6008,6008,6008,6008,6008,6008,6008,6008,6008,6008,6008,6008,6008,6008,6008,6008,6008,6008,6008,0,0,0,
0,6008,6008,6008,6008,6008,6008,6008,6008,6008,6008,6008,6008,6008,6008,6008,6008,6008,6008,6008,6008,6008,6008,6008,6008,6008,6008,6008,6008,6008,6008,6008,6008,6008,6008,6008,6008,6008,6008,6008,6008,6008,6008,6008,6008,6008,6008,0,0,0,
0,6008,6008,6008,6008,6008,6008,6008,6008,6008,6008,6008,6008,6008,6008,6008,6008,6008,6008,6008,6008,6008,6008,6008,6008,6008,6008,6008,6008,6008,6008,6008,6008,6008,6008,6008,6008,6008,6008,6008,6008,6008,6008,6008,6008,6008,6008,0,0,0,
0,6008,6008,6008,6008,6008,6008,6008,6008,6008,6008,6008,6008,6008,6008,6008,6008,6008,6008,6008,6008,6008,6008,6008,6008,6008,6008,6008,6008,6008,6008,6008,6008,6008,6008,6008,6008,6008,6008,6008,6008,6008,6008,6008,6008,6008,6008,0,0,0,
0,6008,6008,6008,6008,6008,6008,6008,6008,6008,6008,6008,6008,6008,6008,6008,6008,6008,6008,6008,6008,6008,6008,6008,6008,6008,6008,6008,6008,6008,6008,6008,6008,6008,6008,6008,6008,6008,6008,6008,6008,6008,6008,6008,6008,6008,6008,0,0,0,
0,6008,6008,6008,6008,6008,6008,6008,6008,6008,6008,6008,6008,6008,6008,6008,6008,6008,6008,6008,6008,6008,6008,6008,6008,6008,6008,6008,6008,6008,6008,6008,6008,6008,6008,6008,6008,6008,6008,6008,6008,6008,6008,6008,6008,6008,6008,0,0,0,
0,6008,6008,6008,6008,6008,6008,6008,6008,6008,6008,6008,6008,6008,6008,6008,6008,6008,6008,6008,6008,6008,6008,6008,6008,6008,6008,6008,6008,6008,6008,6008,6008,6008,6008,6008,6008,6008,6008,6008,6008,6008,6008,6008,6008,6008,6008,0,0,0,
0,6008,6008,6008,6008,6008,6008,6008,6008,6008,6008,6008,6008,6008,6008,6008,6008,6008,6008,6008,6008,6008,6008,6008,6008,6008,6008,6008,6008,6008,6008,6008,6008,6008,6008,6008,6008,6008,6008,6008,6008,6008,6008,6008,6008,6008,6008,0,0,0,
0,6008,6008,6008,6008,6008,6008,6008,6008,6008,6008,6008,6008,6008,6008,6008,6008,6008,6008,6008,6008,6008,6008,6008,6008,6008,6008,6008,6008,6008,6008,6008,6008,6008,6008,6008,6008,6008,6008,6008,6008,6008,6008,6008,6008,6008,6008,0,0,0,
0,6008,6008,6008,6008,6008,6008,6008,6008,6008,6008,6008,6008,6008,6008,6008,6008,6008,6008,6008,6008,6008,6008,6008,6008,6008,6008,6008,6008,6008,6008,6008,6008,6008,6008,6008,6008,6008,6008,6008,6008,6008,6008,6008,6008,6008,6008,0,0,0,
0,6008,6008,6008,6008,6008,6008,6008,6008,6008,6008,6008,6008,6008,6008,6008,6008,6008,6008,6008,6008,6008,6008,6008,6008,6008,6008,6008,6008,6008,6008,6008,6008,6008,6008,6008,6008,6008,6008,6008,6008,6008,6008,6008,6008,6008,6008,0,0,0,
0,6008,6008,6008,6008,6008,6008,6008,6008,6008,6008,6008,6008,6008,6008,6008,6008,6008,6008,6008,6008,6008,6008,6008,6008,6008,6008,6008,6008,6008,6008,6008,6008,6008,6008,6008,6008,6008,6008,6008,6008,6008,6008,6008,6008,6008,6008,0,0,0,
0,6008,6008,6008,6008,6008,6008,6008,6008,6008,6008,6008,6008,6008,6008,6008,6008,6008,6008,6008,6008,6008,6008,6008,6008,6008,6008,6008,6008,6008,6008,6008,6008,6008,6008,6008,6008,6008,6008,6008,6008,6008,6008,6008,6008,6008,6008,0,0,0,
0,6008,6008,6008,6008,6008,6008,6008,6008,6008,6008,6008,6008,6008,6008,6008,6008,6008,6008,6008,6008,6008,6008,6008,6008,6008,6008,6008,6008,6008,6008,6008,6008,6008,6008,6008,6008,6008,6008,6008,6008,6008,6008,6008,6008,6008,6008,0,0,0,
0,6008,6008,6008,6008,6008,6008,6008,6008,6008,6008,6008,6008,6008,6008,6008,6008,6008,6008,6008,6008,6008,6008,6008,6008,6008,6008,6008,6008,6008,6008,6008,6008,6008,6008,6008,6008,6008,6008,6008,6008,6008,6008,6008,6008,6008,6008,0,0,0,
0,6008,6008,6008,6008,6008,6008,6008,6008,6008,6008,6008,6008,6008,6008,6008,6008,6008,6008,6008,6008,6008,6008,6008,6008,6008,6008,6008,6008,6008,6008,6008,6008,6008,6008,6008,6008,6008,6008,6008,6008,6008,6008,6008,6008,6008,6008,0,0,0,
0,6008,6008,6008,6008,6008,6008,6008,6008,6008,6008,6008,6008,6008,6008,6008,6008,6008,6008,6008,6008,6008,6008,6008,6008,6008,6008,6008,6008,6008,6008,6008,6008,6008,6008,6008,6008,6008,6008,6008,6008,6008,6008,6008,6008,6008,6008,0,0,0,
0,6008,6008,6008,6008,6008,6008,6008,6008,6008,6008,6008,6008,6008,6008,6008,6008,6008,6008,6008,6008,6008,6008,6008,6008,6008,6008,6008,6008,6008,6008,6008,6008,6008,6008,6008,6008,6008,6008,6008,6008,6008,6008,6008,6008,6008,6008,0,0,0,
0,6008,6008,6008,6008,6008,6008,6008,6008,6008,6008,6008,6008,6008,6008,6008,6008,6008,6008,6008,6008,6008,6008,6008,6008,6008,6008,6008,6008,6008,6008,6008,6008,6008,6008,6008,6008,6008,6008,6008,6008,6008,6008,6008,6008,6008,6008,0,0,0,
0,6008,6008,6008,6008,6008,6008,6008,6008,6008,6008,6008,6008,6008,6008,6008,6008,6008,6008,6008,6008,6008,6008,6008,6008,6008,6008,6008,6008,6008,6008,6008,6008,6008,6008,6008,6008,6008,6008,6008,6008,6008,6008,6008,6008,6008,6008,0,0,0,
0,6008,6008,6008,6008,6008,6008,6008,6008,6008,6008,6008,6008,6008,6008,6008,6008,6008,6008,6008,6008,6008,6008,6008,6008,6008,6008,6008,6008,6008,6008,6008,6008,6008,6008,6008,6008,6008,6008,6008,6008,6008,6008,6008,6008,6008,6008,0,0,0,
0,6008,6008,6008,6008,6008,6008,6008,6008,6008,6008,6008,6008,6008,6008,6008,6008,6008,6008,6008,6008,6008,6008,6008,6008,6008,6008,6008,6008,6008,6008,6008,6008,6008,6008,6008,6008,6008,6008,6008,6008,6008,6008,6008,6008,6008,6008,0,0,0,
0,6008,6008,6008,6008,6008,6008,6008,6008,6008,6008,6008,6008,6008,6008,6008,6008,6008,6008,6008,6008,6008,6008,6008,6008,6008,6008,6008,6008,6008,6008,6008,6008,6008,6008,6008,6008,6008,6008,6008,6008,6008,6008,6008,6008,6008,6008,0,0,0,
0,6008,6008,6008,6008,6008,6008,6008,6008,6008,6008,6008,6008,6008,6008,6008,6008,6008,6008,6008,6008,6008,6008,6008,6008,6008,6008,6008,6008,6008,6008,6008,6008,6008,6008,6008,6008,6008,6008,6008,6008,6008,6008,6008,6008,6008,6008,0,0,0,
0,6008,6008,6008,6008,6008,6008,6008,6008,6008,6008,6008,6008,6008,6008,6008,6008,6008,6008,6008,6008,6008,6008,6008,6008,6008,6008,6008,6008,6008,6008,6008,6008,6008,6008,6008,6008,6008,6008,6008,6008,6008,6008,6008,6008,6008,6008,0,0,0,
0,6008,6008,6008,6008,6008,6008,6008,6008,6008,6008,6008,6008,6008,6008,6008,6008,6008,6008,6008,6008,6008,6008,6008,6008,6008,6008,6008,6008,6008,6008,6008,6008,6008,6008,6008,6008,6008,6008,6008,6008,6008,6008,6008,6008,6008,6008,0,0,0,
0,6008,6008,6008,6008,6008,6008,6008,6008,6008,6008,6008,6008,6008,6008,6008,6008,6008,6008,6008,6008,6008,6008,6008,6008,6008,6008,6008,6008,6008,6008,6008,6008,6008,6008,6008,6008,6008,6008,6008,6008,6008,6008,6008,6008,6008,6008,0,0,0,
0,6008,6008,6008,6008,6008,6008,6008,6008,6008,6008,6008,6008,6008,6008,6008,6008,6008,6008,6008,6008,6008,6008,6008,6008,6008,6008,6008,6008,6008,6008,6008,6008,6008,6008,6008,6008,6008,6008,6008,6008,6008,6008,6008,6008,6008,6008,0,0,0,
0,6008,6008,6008,6008,6008,6008,6008,6008,6008,6008,6008,6008,6008,6008,6008,6008,6008,6008,6008,6008,6008,6008,6008,6008,6008,6008,6008,6008,6008,6008,6008,6008,6008,6008,6008,6008,6008,6008,6008,6008,6008,6008,6008,6008,6008,6008,0,0,0,
0,6008,6008,6008,6008,6008,6008,6008,6008,6008,6008,6008,6008,6008,6008,6008,6008,6008,6008,6008,6008,6008,6008,6008,6008,6008,6008,6008,6008,6008,6008,6008,6008,6008,6008,6008,6008,6008,6008,6008,6008,6008,6008,6008,6008,6008,6008,0,0,0,
0,6008,6008,6008,6008,6008,6008,6008,6008,6008,6008,6008,6008,6008,6008,6008,6008,6008,6008,6008,6008,6008,6008,6008,6008,6008,6008,6008,6008,6008,6008,6008,6008,6008,6008,6008,6008,6008,6008,6008,6008,6008,6008,6008,6008,6008,6008,0,0,0,
0,6008,6008,6008,6008,6008,6008,6008,6008,6008,6008,6008,6008,6008,6008,6008,6008,6008,6008,6008,6008,6008,6008,6008,6008,6008,6008,6008,6008,6008,6008,6008,6008,6008,6008,6008,6008,6008,6008,6008,6008,6008,6008,6008,6008,6008,6008,0,0,0,
0,6008,6008,6008,6008,6008,6008,6008,6008,6008,6008,6008,6008,6008,6008,6008,6008,6008,6008,6008,6008,6008,6008,6008,6008,6008,6008,6008,6008,6008,6008,6008,6008,6008,6008,6008,6008,6008,6008,6008,6008,6008,6008,6008,6008,6008,6008,0,0,0,
0,6008,6008,6008,6008,6008,6008,6008,6008,6008,6008,6008,6008,6008,6008,6008,6008,6008,6008,6008,6008,6008,6008,6008,6008,6008,6008,6008,6008,6008,6008,6008,6008,6008,6008,6008,6008,6008,6008,6008,6008,6008,6008,6008,6008,6008,6008,0,0,0,
0,6008,6008,6008,6008,6008,6008,6008,6008,6008,6008,6008,6008,6008,6008,6008,6008,6008,6008,6008,6008,6008,6008,6008,6008,6008,6008,6008,6008,6008,6008,6008,6008,6008,6008,6008,6008,6008,6008,6008,6008,6008,6008,6008,6008,6008,6008,0,0,0,
0,6008,6008,6008,6008,6008,6008,6008,6008,6008,6008,6008,6008,6008,6008,6008,6008,6008,6008,6008,6008,6008,6008,6008,6008,6008,6008,6008,6008,6008,6008,6008,6008,6008,6008,6008,6008,6008,6008,6008,6008,6008,6008,6008,6008,6008,6008,0,0,0,
0,6008,6008,6008,6008,6008,6008,6008,6008,6008,6008,6008,6008,6008,6008,6008,6008,6008,6008,6008,6008,6008,6008,6008,6008,6008,6008,6008,6008,6008,6008,6008,6008,6008,6008,6008,6008,6008,6008,6008,6008,6008,6008,6008,6008,6008,6008,0,0,0,
0,6008,6008,6008,6008,6008,6008,6008,6008,6008,6008,6008,6008,6008,6008,6008,6008,6008,6008,6008,6008,6008,6008,6008,6008,6008,6008,6008,6008,6008,6008,6008,6008,6008,6008,6008,6008,6008,6008,6008,6008,6008,6008,6008,6008,6008,6008,0,0,0,
0,6008,6008,6008,6008,6008,6008,6008,6008,6008,6008,6008,6008,6008,6008,6008,6008,6008,6008,6008,6008,6008,6008,6008,6008,6008,6008,6008,6008,6008,6008,6008,6008,6008,6008,6008,6008,6008,6008,6008,6008,6008,6008,6008,6008,6008,6008,0,0,0,
0,6008,6008,6008,6008,6008,6008,6008,6008,6008,6008,6008,6008,6008,6008,6008,6008,6008,6008,6008,6008,6008,6008,6008,6008,6008,6008,6008,6008,6008,6008,6008,6008,6008,6008,6008,6008,6008,6008,6008,6008,6008,6008,6008,6008,6008,6008,0,0,0,
0,6008,6008,6008,6008,6008,6008,6008,6008,6008,6008,6008,6008,6008,6008,6008,6008,6008,6008,6008,6008,6008,6008,6008,6008,6008,6008,6008,6008,6008,6008,6008,6008,6008,6008,6008,6008,6008,6008,6008,6008,6008,6008,6008,6008,6008,6008,0,0,0,
0,6008,6008,6008,6008,6008,6008,6008,6008,6008,6008,6008,6008,6008,6008,6008,6008,6008,6008,6008,6008,6008,6008,6008,6008,6008,6008,6008,6008,6008,6008,6008,6008,6008,6008,6008,6008,6008,6008,6008,6008,6008,6008,6008,6008,6008,6008,0,0,0,
0,6008,6008,6008,6008,6008,6008,6008,6008,6008,6008,6008,6008,6008,6008,6008,6008,6008,6008,6008,6008,6008,6008,6008,6008,6008,6008,6008,6008,6008,6008,6008,6008,6008,6008,6008,6008,6008,6008,6008,6008,6008,6008,6008,6008,6008,6008,0,0,0,
0,6008,6008,6008,6008,6008,6008,6008,6008,6008,6008,6008,6008,6008,6008,6008,6008,6008,6008,6008,6008,6008,6008,6008,6008,6008,6008,6008,6008,6008,6008,6008,6008,6008,6008,6008,6008,6008,6008,6008,6008,6008,6008,6008,6008,6008,6008,0,0,0,
0,0,0,0,0,0,0,0,0,0,0,0,0,0,0,0,0,0,0,0,0,0,0,0,0,0,0,0,0,0,0,0,0,0,0,0,0,0,0,0,0,0,0,0,0,0,0,0,0,0,
0,0,0,0,0,0,0,0,0,0,0,0,0,0,0,0,0,0,0,0,0,0,0,0,0,0,0,0,0,0,0,0,0,0,0,0,0,0,0,0,0,0,0,0,0,0,0,0,0,0,
0,0,0,0,0,0,0,0,0,0,0,0,0,0,0,0,0,0,0,0,0,0,0,0,0,0,0,0,0,0,0,0,0,0,0,0,0,0,0,0,0,0,0,0,0,0,0,0,0,0,
0,0,0,0,0,0,0,0,0,0,0,0,0,0,0,0,0,0,0,0,0,0,0,0,0,0,0,0,0,0,0,0,0,0,0,0,0,0,0,0,0,0,0,0,0,0,0,0,0,0,
0,0,0,0,0,0,0,0,0,0,0,0,0,0,0,0,0,0,0,0,0,0,0,0,0,0,0,0,0,0,0,0,0,0,0,0,0,0,0,0,0,0,0,0,0,0,0,0,0,0,
0,0,0,0,0,0,0,0,0,0,0,0,0,0,0,0,0,0,0,0,0,0,0,0,0,0,0,0,0,0,0,0,0,0,0,0,0,0,0,0,0,0,0,0,0,0,0,0,0,0,
0,0,0,0,0,0,0,0,0,0,0,0,0,0,0,0,0,0,0,0,0,0,0,0,0,0,0,0,0,0,0,0,0,0,0,0,0,0,0,0,0,0,0,0,0,0,0,0,0,0,
0,0,0,0,0,0,0,0,0,0,0,0,0,0,0,0,0,0,0,0,0,0,0,0,0,0,0,0,0,0,0,0,0,0,0,0,0,0,0,0,0,0,0,0,0,0,0,0,0,0,
0,0,0,0,0,0,0,0,0,0,0,0,0,0,0,0,0,0,0,0,0,0,0,0,0,0,0,0,0,0,0,0,0,0,0,0,0,0,0,0,0,0,0,0,0,0,0,0,0,0
</data>
 </layer>
 <objectgroup draworder="index" id="19" name="Meta">
  <object id="43" template="../../../templates/obj_roomtransition.tx" type="obj_roomtransition" x="192" y="432" width="16" height="32">
   <properties>
    <property name="player_direction" type="int" value="270"/>
   </properties>
  </object>
 </objectgroup>
 <objectgroup draworder="index" id="20" name="TrellisPoints" visible="0">
  <object id="44" template="../../../templates/meta/obj_trellis_point_default.tx" name="crystal" type="obj_trellis_point_default" x="188" y="195"/>
  <object id="45" template="../../../templates/meta/obj_trellis_point_default.tx" name="ari_look" type="obj_trellis_point_default" x="188" y="221">
   <properties>
    <property name="direction" type="int" propertytype="Cardinal" value="1"/>
   </properties>
  </object>
  <object id="46" template="../../../templates/meta/obj_trellis_point_default.tx" name="ari_spawn" type="obj_trellis_point_default" x="188" y="397">
   <properties>
    <property name="direction" type="int" propertytype="Cardinal" value="1"/>
   </properties>
  </object>
 </objectgroup>
 <objectgroup draworder="index" id="21" name="TrellisPoints_Dragon_Tablet_Pt_1" visible="0">
  <object id="47" template="../../../templates/meta/obj_trellis_point_default.tx" name="dt1_ari_start" type="obj_trellis_point_default" x="188" y="351"/>
  <object id="48" template="../../../templates/meta/obj_trellis_point_default.tx" name="dt1_ari_entrance" type="obj_trellis_point_default" x="188" y="419"/>
  <object id="49" template="../../../templates/meta/obj_trellis_point_camera.tx" name="dt1_camera_1" type="obj_trellis_point_camera" x="188" y="433"/>
  <object id="50" template="../../../templates/meta/obj_trellis_point_camera.tx" name="dt1_camera_2" type="obj_trellis_point_camera" x="188" y="339"/>
  <object id="51" template="../../../templates/meta/obj_trellis_point_default.tx" name="dt1_ari_forward" type="obj_trellis_point_default" x="188" y="231"/>
  <object id="52" template="../../../templates/meta/obj_trellis_point_camera.tx" name="dt1_camera_3" type="obj_trellis_point_camera" x="188" y="251"/>
  <object id="53" template="../../../templates/meta/obj_trellis_point_camera.tx" name="dt1_camera_4" type="obj_trellis_point_camera" x="188" y="209"/>
  <object id="54" template="../../../templates/meta/obj_trellis_point_camera.tx" name="dt1_camera_5" type="obj_trellis_point_camera" x="188" y="149"/>
 </objectgroup>
 <objectgroup draworder="index" id="22" name="TrellisPoints_Dragon_Tablet_Pt_2" visible="0">
  <object id="55" template="../../../templates/meta/obj_trellis_point_default.tx" name="dt2_ari_entrance" type="obj_trellis_point_default" x="188" y="233"/>
  <object id="56" template="../../../templates/meta/obj_trellis_point_camera.tx" name="dt2_camera_1" type="obj_trellis_point_camera" x="188" y="223"/>
  <object id="57" template="../../../templates/meta/obj_trellis_point_default.tx" name="dt2_ari_start" type="obj_trellis_point_default" x="188" y="209"/>
  <object id="58" template="../../../templates/meta/obj_trellis_point_camera.tx" name="dt2_camera_2" type="obj_trellis_point_camera" x="188" y="175"/>
 </objectgroup>
 <objectgroup draworder="index" id="23" name="TrellisPoints_Dragon_Tablet_Pt_4" visible="0">
  <object id="59" template="../../../templates/meta/obj_trellis_point_default.tx" name="dt4_ari_entrance" type="obj_trellis_point_default" x="188" y="273"/>
  <object id="60" template="../../../templates/meta/obj_trellis_point_default.tx" name="dt4_chamber_exit" type="obj_trellis_point_default" x="188" y="151"/>
  <object id="61" template="../../../templates/meta/obj_trellis_point_camera.tx" name="dt4_camera_1" type="obj_trellis_point_camera" x="188" y="217"/>
  <object id="62" template="../../../templates/meta/obj_trellis_point_camera.tx" name="dt4_camera_2" type="obj_trellis_point_camera" x="188" y="137"/>
  <object id="63" template="../../../templates/meta/obj_trellis_point_default.tx" name="dt4_ari_chamber_magic" type="obj_trellis_point_default" x="188" y="191"/>
  <object id="64" template="../../../templates/meta/obj_trellis_point_default.tx" name="dt4_seridia_chamber_magic" type="obj_trellis_point_default" x="166" y="171"/>
  <object id="65" template="../../../templates/meta/obj_trellis_point_default.tx" name="dt4_caldarus_chamber_magic" type="obj_trellis_point_default" x="210" y="171"/>
  <object id="66" template="../../../templates/meta/obj_trellis_point_camera.tx" name="dt4_camera_chamber_1" type="obj_trellis_point_camera" x="188" y="103"/>
  <object id="67" template="../../../templates/meta/obj_trellis_point_camera.tx" name="dt4_camera_chamber_2" type="obj_trellis_point_camera" x="188" y="145"/>
  <object id="68" template="../../../templates/meta/obj_trellis_point_camera.tx" name="dt4_camera_chamber_3" type="obj_trellis_point_camera" x="188" y="167"/>
  <object id="69" template="../../../templates/meta/obj_trellis_point_camera.tx" name="dt4_camera_chamber_4" type="obj_trellis_point_camera" x="166" y="193"/>
  <object id="70" template="../../../templates/meta/obj_trellis_point_camera.tx" name="dt4_camera_chamber_5" type="obj_trellis_point_camera" x="166" y="157"/>
  <object id="71" template="../../../templates/meta/obj_trellis_point_default.tx" name="dt4_ari_chamber_chat" type="obj_trellis_point_default" x="176" y="179"/>
  <object id="72" template="../../../templates/meta/obj_trellis_point_default.tx" name="dt4_caldarus_chamber_chat" type="obj_trellis_point_default" x="200" y="179"/>
  <object id="73" template="../../../templates/meta/obj_trellis_point_camera.tx" name="dt4_camera_chamber_6" type="obj_trellis_point_camera" x="188" y="173"/>
  <object id="74" template="../../../templates/meta/obj_trellis_point_default.tx" name="dt4_ari_chamber_exit" type="obj_trellis_point_default" x="176" y="259"/>
  <object id="75" template="../../../templates/meta/obj_trellis_point_default.tx" name="dt4_caldarus_chamber_exit" type="obj_trellis_point_default" x="198" y="259"/>
  <object id="76" template="../../../templates/meta/obj_trellis_point_camera.tx" name="dt4_camera_chamber_7" type="obj_trellis_point_camera" x="188" y="273"/>
  <object id="77" template="../../../templates/meta/obj_trellis_point_default.tx" name="dt4_chamber_exit_extra" type="obj_trellis_point_default" x="188" y="219"/>
  <object id="78" template="../../../templates/meta/obj_trellis_point_camera.tx" name="dt4_seridia_poof_chamber" type="obj_trellis_point_camera" x="166" y="171"/>
  <object id="79" template="../../../templates/meta/obj_trellis_point_default.tx" name="dt4_chamber_exit_extra_2" type="obj_trellis_point_default" x="188" y="181"/>
 </objectgroup>
 <objectgroup id="25" name="TrellisPoints_Seridia_10h">
  <object id="80" template="../../../templates/meta/obj_trellis_point_default.tx" name="s10h_ari_entrance" type="obj_trellis_point_default" x="202" y="190"/>
  <object id="81" template="../../../templates/meta/obj_trellis_point_default.tx" name="s10h_seridia_entrance" type="obj_trellis_point_default" x="174" y="190"/>
  <object id="82" template="../../../templates/meta/obj_trellis_point_camera.tx" name="s10h_camera_1" type="obj_trellis_point_camera" x="188" y="220"/>
  <object id="83" template="../../../templates/meta/obj_trellis_point_camera.tx" name="s10h_camera_2" type="obj_trellis_point_camera" x="188" y="186"/>
  <object id="84" template="../../../templates/meta/obj_trellis_point_camera.tx" name="s10h_camera_3" type="obj_trellis_point_camera" x="188" y="140"/>
  <object id="85" template="../../../templates/meta/obj_trellis_point_camera.tx" name="s10h_camera_4" type="obj_trellis_point_camera" x="180" y="226"/>
  <object id="86" template="../../../templates/meta/obj_trellis_point_camera.tx" name="s10h_camera_5" type="obj_trellis_point_camera" x="196" y="186"/>
  <object id="87" template="../../../templates/meta/obj_trellis_point_default.tx" name="s10h_seridia_kiss" type="obj_trellis_point_default" x="179" y="190"/>
  <object id="88" template="../../../templates/meta/obj_trellis_point_default.tx" name="s10h_ari_kiss" type="obj_trellis_point_default" x="197" y="190"/>
  <object id="89" template="../../../templates/meta/obj_trellis_point_default.tx" name="s10h_seridia_south" type="obj_trellis_point_default" x="174" y="220"/>
  <object id="90" template="../../../templates/meta/obj_trellis_point_camera.tx" name="s10h_camera_6" type="obj_trellis_point_camera" x="180" y="186"/>
 </objectgroup>
</map>
