<?xml version="1.0" encoding="UTF-8"?>
<map version="1.10" tiledversion="1.11.2" class="DungeonSpecial" orientation="orthogonal" renderorder="right-down" width="50" height="56" tilewidth="8" tileheight="8" infinite="0" backgroundcolor="#000000" nextlayerid="20" nextobjectid="41">
 <tileset firstgid="1" source="../../../__gm_import.tsx"/>
 <tileset firstgid="1504" source="../../../tile_sets/__META/tile_collision_info.tsx"/>
 <tileset firstgid="1511" source="../../../tile_sets/tile_footsteps.tsx"/>
 <tileset firstgid="1655" source="../../../tile_sets/_GENERIC/tile_main_interiors.tsx"/>
 <tileset firstgid="5751" source="../../../tile_sets/_GENERIC/tile_main_interiors_shadows.tsx"/>
 <tileset firstgid="6007" source="../../../tile_sets/__META/tile_pathfinding.tsx"/>
 <tileset firstgid="6013" source="../../../tile_sets/tile_priority_objects.tsx"/>
 <tileset firstgid="6181" source="../../../tile_sets/__META/tile_rules.tsx"/>
 <group id="1" name="Level_0">
  <objectgroup draworder="index" id="2" name="Level_0_FloorSprites">
   <object id="1" type="asset" gid="758" x="48" y="400" width="304" height="328"/>
   <object id="2" type="asset" gid="781" x="248" y="360" width="64" height="64"/>
  </objectgroup>
  <layer id="3" name="Level_0_Shadows" width="50" height="56">
   <properties>
    <property name="maybe_animation_id" value="babd09ade2b55c05"/>
    <property name="maybe_tileset_id" value="339411f6ba88c8f0"/>
    <property name="tile_size" type="int" value="16"/>
   </properties>
   <data encoding="csv">
5751,0,5751,0,5751,0,5751,0,5751,0,5751,0,5751,0,5751,0,5751,0,5751,0,5751,0,5751,0,5751,0,5751,0,5751,0,5751,0,5751,0,5751,0,5751,0,5751,0,5751,0,5751,0,5751,0,5751,0,5751,0,
0,0,0,0,0,0,0,0,0,0,0,0,0,0,0,0,0,0,0,0,0,0,0,0,0,0,0,0,0,0,0,0,0,0,0,0,0,0,0,0,0,0,0,0,0,0,0,0,0,0,
5751,0,5751,0,5751,0,5751,0,5751,0,5751,0,5751,0,5751,0,5751,0,5751,0,5751,0,5751,0,5751,0,5751,0,5751,0,5751,0,5751,0,5751,0,5751,0,5751,0,5751,0,5751,0,5751,0,5751,0,5751,0,
0,0,0,0,0,0,0,0,0,0,0,0,0,0,0,0,0,0,0,0,0,0,0,0,0,0,0,0,0,0,0,0,0,0,0,0,0,0,0,0,0,0,0,0,0,0,0,0,0,0,
5751,0,5751,0,5751,0,5751,0,5751,0,5751,0,5751,0,5751,0,5751,0,5751,0,5751,0,5751,0,5751,0,5751,0,5751,0,5751,0,5751,0,5751,0,5751,0,5751,0,5751,0,5751,0,5751,0,5751,0,5751,0,
0,0,0,0,0,0,0,0,0,0,0,0,0,0,0,0,0,0,0,0,0,0,0,0,0,0,0,0,0,0,0,0,0,0,0,0,0,0,0,0,0,0,0,0,0,0,0,0,0,0,
5751,0,5751,0,5751,0,5751,0,5751,0,5751,0,5751,0,5751,0,5751,0,5751,0,5751,0,5751,0,5751,0,5751,0,5751,0,5751,0,5751,0,5751,0,5751,0,5751,0,5751,0,5751,0,5751,0,5751,0,5751,0,
0,0,0,0,0,0,0,0,0,0,0,0,0,0,0,0,0,0,0,0,0,0,0,0,0,0,0,0,0,0,0,0,0,0,0,0,0,0,0,0,0,0,0,0,0,0,0,0,0,0,
5751,0,5751,0,5751,0,5751,0,5751,0,5751,0,5751,0,5751,0,5751,0,5751,0,5751,0,5751,0,5751,0,5751,0,5751,0,5751,0,5751,0,5751,0,5751,0,5751,0,5751,0,5751,0,5751,0,5751,0,5751,0,
0,0,0,0,0,0,0,0,0,0,0,0,0,0,0,0,0,0,0,0,0,0,0,0,0,0,0,0,0,0,0,0,0,0,0,0,0,0,0,0,0,0,0,0,0,0,0,0,0,0,
5751,0,5751,0,5751,0,5751,0,5751,0,5751,0,5751,0,5751,0,5751,0,5751,0,5751,0,5751,0,5751,0,5751,0,5751,0,5751,0,5751,0,5751,0,5751,0,5751,0,5751,0,5751,0,5751,0,5751,0,5751,0,
0,0,0,0,0,0,0,0,0,0,0,0,0,0,0,0,0,0,0,0,0,0,0,0,0,0,0,0,0,0,0,0,0,0,0,0,0,0,0,0,0,0,0,0,0,0,0,0,0,0,
5751,0,5751,0,5751,0,5751,0,5751,0,5751,0,5751,0,5751,0,5751,0,5751,0,5751,0,5751,0,5751,0,5751,0,5751,0,5751,0,5751,0,5751,0,5751,0,5751,0,5751,0,5751,0,5751,0,5751,0,5751,0,
0,0,0,0,0,0,0,0,0,0,0,0,0,0,0,0,0,0,0,0,0,0,0,0,0,0,0,0,0,0,0,0,0,0,0,0,0,0,0,0,0,0,0,0,0,0,0,0,0,0,
5751,0,5751,0,5751,0,5751,0,5751,0,5751,0,5751,0,5751,0,5751,0,5751,0,5751,0,5751,0,5751,0,5751,0,5751,0,5751,0,5751,0,5751,0,5751,0,5751,0,5751,0,5751,0,5751,0,5751,0,5751,0,
0,0,0,0,0,0,0,0,0,0,0,0,0,0,0,0,0,0,0,0,0,0,0,0,0,0,0,0,0,0,0,0,0,0,0,0,0,0,0,0,0,0,0,0,0,0,0,0,0,0,
5751,0,5751,0,5751,0,5751,0,5783,0,5857,0,5857,0,5857,0,5820,0,5751,0,5751,0,5751,0,5751,0,5751,0,5751,0,5751,0,2147489468,0,5857,0,5857,0,5857,0,5751,0,5751,0,5751,0,5751,0,5751,0,
0,0,0,0,0,0,0,0,0,0,0,0,0,0,0,0,0,0,0,0,0,0,0,0,0,0,0,0,0,0,0,0,0,0,0,0,0,0,0,0,0,0,0,0,0,0,0,0,0,0,
5751,0,5751,0,5751,0,5815,0,5857,0,5876,0,5844,0,5889,0,5751,0,5751,0,5751,0,5751,0,5751,0,5751,0,5751,0,5751,0,5814,0,5889,0,5889,0,5875,0,5857,0,5751,0,5751,0,5751,0,5751,0,
0,0,0,0,0,0,0,0,0,0,0,0,0,0,0,0,0,0,0,0,0,0,0,0,0,0,0,0,0,0,0,0,0,0,0,0,0,0,0,0,0,0,0,0,0,0,0,0,0,0,
5751,0,5751,0,5752,0,5857,0,5876,0,5877,0,5751,0,5751,0,5751,0,5751,0,5751,0,5751,0,5751,0,5751,0,5751,0,5751,0,5814,0,5751,0,5751,0,5751,0,5875,0,5857,0,5751,0,5751,0,5751,0,
0,0,0,0,0,0,0,0,0,0,0,0,0,0,0,0,0,0,0,0,0,0,0,0,0,0,0,0,0,0,0,0,0,0,0,0,0,0,0,0,0,0,0,0,0,0,0,0,0,0,
5751,0,5751,0,5752,0,5857,0,5858,0,5751,0,5751,0,5751,0,5751,0,5751,0,5751,0,5751,0,5751,0,5751,0,5751,0,5751,0,5814,0,5751,0,5751,0,5751,0,5751,0,5751,0,5751,0,5751,0,5751,0,
0,0,0,0,0,0,0,0,0,0,0,0,0,0,0,0,0,0,0,0,0,0,0,0,0,0,0,0,0,0,0,0,0,0,0,0,0,0,0,0,0,0,0,0,0,0,0,0,0,0,
5751,0,5751,0,5752,0,5857,0,5858,0,5751,0,5751,0,5751,0,5751,0,5751,0,5751,0,5751,0,5751,0,5751,0,5751,0,5751,0,5814,0,5751,0,5751,0,5751,0,5751,0,5751,0,5751,0,5751,0,5751,0,
0,0,0,0,0,0,0,0,0,0,0,0,0,0,0,0,0,0,0,0,0,0,0,0,0,0,0,0,0,0,0,0,0,0,0,0,0,0,0,0,0,0,0,0,0,0,0,0,0,0,
5751,0,5751,0,5752,0,5857,0,5858,0,5751,0,5751,0,5751,0,5751,0,5751,0,5751,0,5751,0,5751,0,5751,0,5751,0,5751,0,5814,0,5751,0,5751,0,5751,0,5751,0,5751,0,5751,0,5751,0,5751,0,
0,0,0,0,0,0,0,0,0,0,0,0,0,0,0,0,0,0,0,0,0,0,0,0,0,0,0,0,0,0,0,0,0,0,0,0,0,0,0,0,0,0,0,0,0,0,0,0,0,0,
5751,0,5751,0,5752,0,5857,0,5858,0,5751,0,5751,0,5751,0,5751,0,5751,0,5751,0,5751,0,5751,0,5751,0,5751,0,5751,0,5814,0,5751,0,5751,0,5751,0,5751,0,5751,0,5751,0,5751,0,5751,0,
0,0,0,0,0,0,0,0,0,0,0,0,0,0,0,0,0,0,0,0,0,0,0,0,0,0,0,0,0,0,0,0,0,0,0,0,0,0,0,0,0,0,0,0,0,0,0,0,0,0,
5751,0,5751,0,5752,0,5857,0,5858,0,5751,0,5751,0,5751,0,5751,0,5751,0,5751,0,5751,0,5751,0,5751,0,5751,0,5751,0,5814,0,5751,0,5751,0,5751,0,5751,0,5751,0,5751,0,5751,0,5751,0,
0,0,0,0,0,0,0,0,0,0,0,0,0,0,0,0,0,0,0,0,0,0,0,0,0,0,0,0,0,0,0,0,0,0,0,0,0,0,0,0,0,0,0,0,0,0,0,0,0,0,
5751,0,5751,0,5752,0,5857,0,5858,0,5751,0,5751,0,5751,0,5828,0,5829,0,5829,0,5829,0,5829,0,5829,0,5829,0,5829,0,5830,0,5751,0,5751,0,5751,0,5751,0,5751,0,5751,0,5751,0,5751,0,
0,0,0,0,0,0,0,0,0,0,0,0,0,0,0,0,0,0,0,0,0,0,0,0,0,0,0,0,0,0,0,0,0,0,0,0,0,0,0,0,0,0,0,0,0,0,0,0,0,0,
5751,0,5751,0,5752,0,5857,0,5858,0,5751,0,5751,0,5751,0,5751,0,5751,0,5751,0,5751,0,5751,0,5751,0,5751,0,5751,0,5751,0,5751,0,5751,0,5751,0,5751,0,5751,0,5751,0,5751,0,5751,0,
0,0,0,0,0,0,0,0,0,0,0,0,0,0,0,0,0,0,0,0,0,0,0,0,0,0,0,0,0,0,0,0,0,0,0,0,0,0,0,0,0,0,0,0,0,0,0,0,0,0,
5751,0,5751,0,5752,0,5857,0,5858,0,5751,0,5751,0,5751,0,5751,0,5751,0,5751,0,5751,0,5751,0,5751,0,5751,0,5751,0,5751,0,5751,0,5751,0,5751,0,5751,0,5751,0,5751,0,5751,0,5751,0,
0,0,0,0,0,0,0,0,0,0,0,0,0,0,0,0,0,0,0,0,0,0,0,0,0,0,0,0,0,0,0,0,0,0,0,0,0,0,0,0,0,0,0,0,0,0,0,0,0,0,
5751,0,5751,0,5752,0,5857,0,5858,0,5751,0,5751,0,5751,0,5751,0,5751,0,5751,0,5751,0,5751,0,5751,0,5751,0,5751,0,5751,0,5751,0,5751,0,5751,0,5751,0,5751,0,5751,0,5751,0,5751,0,
0,0,0,0,0,0,0,0,0,0,0,0,0,0,0,0,0,0,0,0,0,0,0,0,0,0,0,0,0,0,0,0,0,0,0,0,0,0,0,0,0,0,0,0,0,0,0,0,0,0,
5751,0,5751,0,5752,0,5857,0,5858,0,5751,0,5751,0,5751,0,5751,0,5751,0,5751,0,5751,0,5751,0,5751,0,5751,0,5751,0,5751,0,5751,0,5751,0,5751,0,5751,0,5751,0,5751,0,5751,0,5751,0,
0,0,0,0,0,0,0,0,0,0,0,0,0,0,0,0,0,0,0,0,0,0,0,0,0,0,0,0,0,0,0,0,0,0,0,0,0,0,0,0,0,0,0,0,0,0,0,0,0,0,
5751,0,5751,0,5752,0,5857,0,5858,0,5751,0,5751,0,5751,0,5751,0,5751,0,5751,0,5751,0,5751,0,5751,0,5751,0,5751,0,5751,0,5751,0,5751,0,5751,0,5751,0,5751,0,5751,0,5751,0,5751,0,
0,0,0,0,0,0,0,0,0,0,0,0,0,0,0,0,0,0,0,0,0,0,0,0,0,0,0,0,0,0,0,0,0,0,0,0,0,0,0,0,0,0,0,0,0,0,0,0,0,0,
5751,0,5751,0,5752,0,5752,0,5751,0,5751,0,5751,0,5751,0,5751,0,5751,0,5751,0,5751,0,5751,0,5751,0,5751,0,5751,0,5751,0,5751,0,5751,0,5751,0,5751,0,5751,0,5751,0,5751,0,5751,0,
0,0,0,0,0,0,0,0,0,0,0,0,0,0,0,0,0,0,0,0,0,0,0,0,0,0,0,0,0,0,0,0,0,0,0,0,0,0,0,0,0,0,0,0,0,0,0,0,0,0,
5751,0,5751,0,5752,0,5752,0,5751,0,5751,0,5751,0,5751,0,5751,0,5751,0,5751,0,5751,0,5751,0,5751,0,5751,0,5751,0,5751,0,5751,0,5751,0,5751,0,5751,0,5751,0,5751,0,5751,0,5751,0,
0,0,0,0,0,0,0,0,0,0,0,0,0,0,0,0,0,0,0,0,0,0,0,0,0,0,0,0,0,0,0,0,0,0,0,0,0,0,0,0,0,0,0,0,0,0,0,0,0,0,
0,0,0,0,0,0,0,0,0,0,0,0,0,0,0,0,0,0,0,0,0,0,0,0,0,0,0,0,0,0,0,0,0,0,0,0,0,0,0,0,0,0,0,0,0,0,0,0,0,0,
0,0,0,0,0,0,0,0,0,0,0,0,0,0,0,0,0,0,0,0,0,0,0,0,0,0,0,0,0,0,0,0,0,0,0,0,0,0,0,0,0,0,0,0,0,0,0,0,0,0,
0,0,0,0,0,0,0,0,0,0,0,0,0,0,0,0,0,0,0,0,0,0,0,0,0,0,0,0,0,0,0,0,0,0,0,0,0,0,0,0,0,0,0,0,0,0,0,0,0,0,
0,0,0,0,0,0,0,0,0,0,0,0,0,0,0,0,0,0,0,0,0,0,0,0,0,0,0,0,0,0,0,0,0,0,0,0,0,0,0,0,0,0,0,0,0,0,0,0,0,0,
0,0,0,0,0,0,0,0,0,0,0,0,0,0,0,0,0,0,0,0,0,0,0,0,0,0,0,0,0,0,0,0,0,0,0,0,0,0,0,0,0,0,0,0,0,0,0,0,0,0,
0,0,0,0,0,0,0,0,0,0,0,0,0,0,0,0,0,0,0,0,0,0,0,0,0,0,0,0,0,0,0,0,0,0,0,0,0,0,0,0,0,0,0,0,0,0,0,0,0,0,
0,0,0,0,0,0,0,0,0,0,0,0,0,0,0,0,0,0,0,0,0,0,0,0,0,0,0,0,0,0,0,0,0,0,0,0,0,0,0,0,0,0,0,0,0,0,0,0,0,0,
0,0,0,0,0,0,0,0,0,0,0,0,0,0,0,0,0,0,0,0,0,0,0,0,0,0,0,0,0,0,0,0,0,0,0,0,0,0,0,0,0,0,0,0,0,0,0,0,0,0
</data>
  </layer>
  <layer id="4" name="Level_0_Walls" width="50" height="56">
   <properties>
    <property name="maybe_animation_id" value="75ea443e6634d96"/>
    <property name="maybe_tileset_id" value="d8b504e9a8480fbe"/>
    <property name="tile_size" type="int" value="16"/>
   </properties>
   <data encoding="csv">
1655,0,1655,0,1655,0,1655,0,1655,0,1655,0,1655,0,1655,0,1655,0,1655,0,1655,0,1655,0,1655,0,1655,0,1655,0,1655,0,1655,0,1655,0,1655,0,1655,0,1655,0,1655,0,0,0,0,0,0,0,
0,0,0,0,0,0,0,0,0,0,0,0,0,0,0,0,0,0,0,0,0,0,0,0,0,0,0,0,0,0,0,0,0,0,0,0,0,0,0,0,0,0,0,0,0,0,0,0,0,0,
1655,0,1655,0,1655,0,1655,0,1655,0,1655,0,1655,0,1655,0,1655,0,1655,0,1655,0,1655,0,1655,0,1655,0,1655,0,1655,0,1655,0,1655,0,1655,0,1655,0,1655,0,1655,0,0,0,0,0,0,0,
0,0,0,0,0,0,0,0,0,0,0,0,0,0,0,0,0,0,0,0,0,0,0,0,0,0,0,0,0,0,0,0,0,0,0,0,0,0,0,0,0,0,0,0,0,0,0,0,0,0,
1655,0,1655,0,1655,0,1655,0,1655,0,1655,0,1655,0,1655,0,1655,0,1655,0,1655,0,1655,0,1655,0,1655,0,1655,0,1655,0,1655,0,1655,0,1655,0,1655,0,1655,0,1655,0,1655,0,0,0,0,0,
0,0,0,0,0,0,0,0,0,0,0,0,0,0,0,0,0,0,0,0,0,0,0,0,0,0,0,0,0,0,0,0,0,0,0,0,0,0,0,0,0,0,0,0,0,0,0,0,0,0,
1655,0,1655,0,1655,0,1655,0,1655,0,1696,0,1697,0,1697,0,1697,0,1697,0,1697,0,1655,0,1655,0,1655,0,1697,0,1697,0,1697,0,1697,0,1698,0,2147485344,0,1655,0,1655,0,1655,0,0,0,0,0,
0,0,0,0,0,0,0,0,0,0,0,0,0,0,0,0,0,0,0,0,0,0,0,0,0,0,0,0,0,0,0,0,0,0,0,0,0,0,0,0,0,0,0,0,0,0,0,0,0,0,
1655,0,1655,0,1655,0,1655,0,1696,0,1760,0,1761,0,1761,0,1761,0,1761,0,1761,0,1655,0,1655,0,1655,0,1761,0,1761,0,1761,0,1761,0,1762,0,2147485408,0,2147485344,0,1655,0,1655,0,0,0,0,0,
0,0,0,0,0,0,0,0,0,0,0,0,0,0,0,0,0,0,0,0,0,0,0,0,0,0,0,0,0,0,0,0,0,0,0,0,0,0,0,0,0,0,0,0,0,0,0,0,0,0,
1655,0,1655,0,1655,0,1759,0,1760,0,1824,0,1825,0,1825,0,1825,0,1825,0,1825,0,1655,0,1655,0,1655,0,1825,0,1825,0,1825,0,1825,0,1826,0,2147485472,0,2147485408,0,2147485407,0,1655,0,0,0,0,0,
0,0,0,0,0,0,0,0,0,0,0,0,0,0,0,0,0,0,0,0,0,0,0,0,0,0,0,0,0,0,0,0,0,0,0,0,0,0,0,0,0,0,0,0,0,0,0,0,0,0,
1655,0,1655,0,1655,0,1823,0,1824,0,1888,0,1889,0,1889,0,1889,0,1889,0,1889,0,1655,0,1655,0,1655,0,1889,0,1889,0,1889,0,1889,0,1890,0,2147485536,0,2147485472,0,2147485471,0,1655,0,0,0,0,0,
0,0,0,0,0,0,0,0,0,0,0,0,0,0,0,0,0,0,0,0,0,0,0,0,0,0,0,0,0,0,0,0,0,0,0,0,0,0,0,0,0,0,0,0,0,0,0,0,0,0,
1655,0,1655,0,1655,0,1887,0,1888,0,1952,0,1953,0,1953,0,1953,0,1953,0,1953,0,1655,0,1655,0,1655,0,1953,0,1953,0,1953,0,1953,0,1954,0,2147485600,0,2147485536,0,2147485535,0,1655,0,0,0,0,0,
0,0,0,0,0,0,0,0,0,0,0,0,0,0,0,0,0,0,0,0,0,0,0,0,0,0,0,0,0,0,0,0,0,0,0,0,0,0,0,0,0,0,0,0,0,0,0,0,0,0,
1655,0,1655,0,1655,0,1951,0,1952,0,2016,0,2017,0,2017,0,2081,0,2082,0,2082,0,1655,0,1655,0,1655,0,2082,0,2082,0,2083,0,2017,0,2018,0,2147485664,0,2147485600,0,2147485599,0,1655,0,0,0,0,0,
0,0,0,0,0,0,0,0,0,0,0,0,0,0,0,0,0,0,0,0,0,0,0,0,0,0,0,0,0,0,0,0,0,0,0,0,0,0,0,0,0,0,0,0,0,0,0,0,0,0,
1655,0,1655,0,1655,0,2015,0,2016,0,2080,0,1655,0,1655,0,1655,0,1655,0,1655,0,1655,0,1655,0,1655,0,1655,0,1655,0,1655,0,1655,0,1655,0,2147485728,0,2147485664,0,2147485663,0,1655,0,0,0,0,0,
0,0,0,0,0,0,0,0,0,0,0,0,0,0,0,0,0,0,0,0,0,0,0,0,0,0,0,0,0,0,0,0,0,0,0,0,0,0,0,0,0,0,0,0,0,0,0,0,0,0,
1655,0,1655,0,1655,0,2079,0,2080,0,1655,0,1655,0,1655,0,1655,0,1655,0,1655,0,1655,0,1655,0,1655,0,1655,0,1655,0,1655,0,1655,0,1655,0,1655,0,2147485728,0,2147485727,0,1655,0,0,0,0,0,
0,0,0,0,0,0,0,0,0,0,0,0,0,0,0,0,0,0,0,0,0,0,0,0,0,0,0,0,0,0,0,0,0,0,0,0,0,0,0,0,0,0,0,0,0,0,0,0,0,0,
1655,0,1655,0,1655,0,1655,0,1655,0,1655,0,1655,0,1655,0,1655,0,1655,0,1655,0,1655,0,1655,0,1655,0,1655,0,1655,0,1655,0,1655,0,1655,0,1655,0,1655,0,1655,0,1655,0,0,0,0,0,
0,0,0,0,0,0,0,0,0,0,0,0,0,0,0,0,0,0,0,0,0,0,0,0,0,0,0,0,0,0,0,0,0,0,0,0,0,0,0,0,0,0,0,0,0,0,0,0,0,0,
1655,0,1655,0,1655,0,1655,0,1655,0,1655,0,1655,0,1655,0,1655,0,1655,0,1655,0,1655,0,1655,0,1655,0,1655,0,1655,0,1655,0,1655,0,1655,0,1655,0,1655,0,1655,0,1655,0,0,0,0,0,
0,0,0,0,0,0,0,0,0,0,0,0,0,0,0,0,0,0,0,0,0,0,0,0,0,0,0,0,0,0,0,0,0,0,0,0,0,0,0,0,0,0,0,0,0,0,0,0,0,0,
1655,0,1655,0,1655,0,1655,0,1655,0,1655,0,1655,0,1655,0,1655,0,1655,0,1655,0,1655,0,1655,0,1655,0,1655,0,1655,0,1655,0,1655,0,1655,0,1655,0,1655,0,1655,0,1655,0,0,0,0,0,
0,0,0,0,0,0,0,0,0,0,0,0,0,0,0,0,0,0,0,0,0,0,0,0,0,0,0,0,0,0,0,0,0,0,0,0,0,0,0,0,0,0,0,0,0,0,0,0,0,0,
1655,0,1655,0,1655,0,1655,0,1655,0,1655,0,1655,0,1655,0,1655,0,1655,0,1655,0,1655,0,1655,0,1655,0,1655,0,1655,0,1655,0,1655,0,1655,0,1655,0,1655,0,1655,0,1655,0,0,0,0,0,
0,0,0,0,0,0,0,0,0,0,0,0,0,0,0,0,0,0,0,0,0,0,0,0,0,0,0,0,0,0,0,0,0,0,0,0,0,0,0,0,0,0,0,0,0,0,0,0,0,0,
1655,0,1655,0,1655,0,1655,0,1655,0,1655,0,1655,0,1655,0,1655,0,1655,0,1655,0,1655,0,1655,0,1655,0,1655,0,1655,0,1655,0,1655,0,1655,0,1655,0,1655,0,1655,0,1655,0,0,0,0,0,
0,0,0,0,0,0,0,0,0,0,0,0,0,0,0,0,0,0,0,0,0,0,0,0,0,0,0,0,0,0,0,0,0,0,0,0,0,0,0,0,0,0,0,0,0,0,0,0,0,0,
1655,0,1655,0,1655,0,1655,0,1655,0,1655,0,1655,0,1655,0,1655,0,1655,0,1655,0,1655,0,1655,0,1655,0,1655,0,1655,0,1655,0,1655,0,1655,0,1655,0,1655,0,1655,0,1655,0,0,0,0,0,
0,0,0,0,0,0,0,0,0,0,0,0,0,0,0,0,0,0,0,0,0,0,0,0,0,0,0,0,0,0,0,0,0,0,0,0,0,0,0,0,0,0,0,0,0,0,0,0,0,0,
1655,0,1655,0,1655,0,1655,0,1655,0,1655,0,1655,0,1655,0,1655,0,1655,0,1655,0,1655,0,1655,0,1655,0,1655,0,1655,0,1655,0,1655,0,1655,0,1655,0,1655,0,1655,0,1655,0,0,0,0,0,
0,0,0,0,0,0,0,0,0,0,0,0,0,0,0,0,0,0,0,0,0,0,0,0,0,0,0,0,0,0,0,0,0,0,0,0,0,0,0,0,0,0,0,0,0,0,0,0,0,0,
1655,0,1655,0,1655,0,1655,0,1655,0,1655,0,1655,0,1655,0,1655,0,1655,0,1655,0,1655,0,1655,0,1655,0,1655,0,1655,0,1655,0,1655,0,1655,0,1655,0,1655,0,1655,0,1655,0,0,0,0,0,
0,0,0,0,0,0,0,0,0,0,0,0,0,0,0,0,0,0,0,0,0,0,0,0,0,0,0,0,0,0,0,0,0,0,0,0,0,0,0,0,0,0,0,0,0,0,0,0,0,0,
1655,0,1655,0,1655,0,1655,0,1655,0,1655,0,1655,0,1655,0,1655,0,1655,0,1655,0,1655,0,1655,0,1655,0,1655,0,1655,0,1655,0,1655,0,1655,0,1655,0,1655,0,1655,0,1655,0,0,0,0,0,
0,0,0,0,0,0,0,0,0,0,0,0,0,0,0,0,0,0,0,0,0,0,0,0,0,0,0,0,0,0,0,0,0,0,0,0,0,0,0,0,0,0,0,0,0,0,0,0,0,0,
1655,0,1655,0,1655,0,1655,0,1655,0,1655,0,1655,0,1655,0,1655,0,1655,0,1655,0,1655,0,1655,0,1655,0,1655,0,1655,0,1655,0,1655,0,1655,0,1655,0,1655,0,1655,0,1655,0,0,0,0,0,
0,0,0,0,0,0,0,0,0,0,0,0,0,0,0,0,0,0,0,0,0,0,0,0,0,0,0,0,0,0,0,0,0,0,0,0,0,0,0,0,0,0,0,0,0,0,0,0,0,0,
1655,0,1655,0,1655,0,1655,0,1655,0,1655,0,1655,0,1655,0,1655,0,1655,0,1655,0,1655,0,1655,0,1655,0,1655,0,1655,0,1655,0,1655,0,1655,0,1655,0,1655,0,1655,0,1655,0,0,0,0,0,
0,0,0,0,0,0,0,0,0,0,0,0,0,0,0,0,0,0,0,0,0,0,0,0,0,0,0,0,0,0,0,0,0,0,0,0,0,0,0,0,0,0,0,0,0,0,0,0,0,0,
0,0,0,0,0,0,0,0,0,0,0,0,0,0,0,0,0,0,0,0,0,0,0,0,0,0,0,0,0,0,0,0,0,0,0,0,0,0,0,0,0,0,0,0,0,0,0,0,0,0,
0,0,0,0,0,0,0,0,0,0,0,0,0,0,0,0,0,0,0,0,0,0,0,0,0,0,0,0,0,0,0,0,0,0,0,0,0,0,0,0,0,0,0,0,0,0,0,0,0,0,
0,0,0,0,0,0,0,0,0,0,0,0,0,0,0,0,0,0,0,0,0,0,0,0,0,0,0,0,0,0,0,0,0,0,0,0,0,0,0,0,0,0,0,0,0,0,0,0,0,0,
0,0,0,0,0,0,0,0,0,0,0,0,0,0,0,0,0,0,0,0,0,0,0,0,0,0,0,0,0,0,0,0,0,0,0,0,0,0,0,0,0,0,0,0,0,0,0,0,0,0,
1655,0,0,0,0,0,0,0,0,0,0,0,0,0,0,0,0,0,0,0,0,0,0,0,0,0,0,0,0,0,0,0,0,0,0,0,0,0,0,0,0,0,0,0,0,0,0,0,0,0,
0,0,0,0,0,0,0,0,0,0,0,0,0,0,0,0,0,0,0,0,0,0,0,0,0,0,0,0,0,0,0,0,0,0,0,0,0,0,0,0,0,0,0,0,0,0,0,0,0,0,
0,0,0,0,0,0,0,0,0,0,0,0,0,0,0,0,0,0,0,0,0,0,0,0,0,0,0,0,0,0,0,0,0,0,0,0,0,0,0,0,0,0,0,0,0,0,0,0,0,0,
0,0,0,0,0,0,0,0,0,0,0,0,0,0,0,0,0,0,0,0,0,0,0,0,0,0,0,0,0,0,0,0,0,0,0,0,0,0,0,0,0,0,0,0,0,0,0,0,0,0,
0,0,0,0,0,0,0,0,0,0,0,0,0,0,0,0,0,0,0,0,0,0,0,0,0,0,0,0,0,0,0,0,0,0,0,0,0,0,0,0,0,0,0,0,0,0,0,0,0,0,
0,0,0,0,0,0,0,0,0,0,0,0,0,0,0,0,0,0,0,0,0,0,0,0,0,0,0,0,0,0,0,0,0,0,0,0,0,0,0,0,0,0,0,0,0,0,0,0,0,0,
0,0,0,0,0,0,0,0,0,0,0,0,0,0,0,0,0,0,0,0,0,0,0,0,0,0,0,0,0,0,0,0,0,0,0,0,0,0,0,0,0,0,0,0,0,0,0,0,0,0,
0,0,0,0,0,0,0,0,0,0,0,0,0,0,0,0,0,0,0,0,0,0,0,0,0,0,0,0,0,0,0,0,0,0,0,0,0,0,0,0,0,0,0,0,0,0,0,0,0,0
</data>
  </layer>
  <objectgroup draworder="index" id="5" name="Level_0_Assets">
   <object id="3" type="asset" gid="458" x="168" y="114" width="64" height="48"/>
   <object id="4" type="asset" gid="1002" x="168" y="136" width="64" height="64"/>
   <object id="5" type="asset" gid="1268" x="158" y="152" width="24" height="104"/>
   <object id="6" type="asset" gid="1268" x="219" y="152" width="24" height="104"/>
   <object id="7" type="asset" gid="1201" x="64" y="215" width="24" height="80"/>
   <object id="8" type="asset" gid="1280" x="313" y="215" width="24" height="72"/>
   <object id="9" type="asset" gid="1286" x="104" y="152" width="64" height="64"/>
   <object id="10" type="asset" gid="1038" x="232" y="152" width="64" height="64"/>
   <object id="11" type="asset" gid="1015" x="176" y="144" width="48" height="72"/>
  </objectgroup>
 </group>
 <group id="6" name="Level_1">
  <layer id="7" name="Level_1_BlackArea" width="50" height="56">
   <properties>
    <property name="maybe_animation_id" value="75ea443e6634d96"/>
    <property name="maybe_tileset_id" value="d8b504e9a8480fbe"/>
    <property name="tile_size" type="int" value="16"/>
   </properties>
   <data encoding="csv">
4318,0,4318,0,4318,0,4318,0,4318,0,4318,0,4318,0,4318,0,4318,0,4318,0,4318,0,4318,0,4318,0,4318,0,4318,0,4318,0,4318,0,4318,0,4318,0,4318,0,4318,0,4318,0,4318,0,4318,0,4318,0,
0,0,0,0,0,0,0,0,0,0,0,0,0,0,0,0,0,0,0,0,0,0,0,0,0,0,0,0,0,0,0,0,0,0,0,0,0,0,0,0,0,0,0,0,0,0,0,0,0,0,
4318,0,4318,0,4318,0,4318,0,4318,0,4318,0,4318,0,4318,0,4318,0,4318,0,4318,0,4318,0,4318,0,4318,0,4318,0,4318,0,4318,0,4318,0,4318,0,4318,0,1793,0,1793,0,1793,0,4318,0,4318,0,
0,0,0,0,0,0,0,0,0,0,0,0,0,0,0,0,0,0,0,0,0,0,0,0,0,0,0,0,0,0,0,0,0,0,0,0,0,0,0,0,0,0,0,0,0,0,0,0,0,0,
4318,0,4318,0,4318,0,4318,0,1793,0,1793,0,1655,0,1655,0,1655,0,1655,0,1655,0,1655,0,1655,0,1655,0,1655,0,1655,0,1655,0,1655,0,1655,0,1793,0,1793,0,1793,0,1793,0,4318,0,4318,0,
0,0,0,0,0,0,0,0,0,0,0,0,0,0,0,0,0,0,0,0,0,0,0,0,0,0,0,0,0,0,0,0,0,0,0,0,0,0,0,0,0,0,0,0,0,0,0,0,0,0,
4318,0,4318,0,4318,0,1793,0,1793,0,1655,0,1655,0,1655,0,1655,0,1655,0,1655,0,1655,0,1655,0,1655,0,1655,0,1655,0,1655,0,1655,0,1655,0,1655,0,1793,0,1793,0,1793,0,4318,0,4318,0,
0,0,0,0,0,0,0,0,0,0,0,0,0,0,0,0,0,0,0,0,0,0,0,0,0,0,0,0,0,0,0,0,0,0,0,0,0,0,0,0,0,0,0,0,0,0,0,0,0,0,
4318,0,4318,0,1793,0,1793,0,1655,0,1655,0,1655,0,1655,0,1655,0,1655,0,1655,0,1655,0,1655,0,1655,0,1655,0,1655,0,1655,0,1655,0,1655,0,1655,0,1655,0,1793,0,1793,0,1793,0,1793,0,
0,0,0,0,0,0,0,0,0,0,0,0,0,0,0,0,0,0,0,0,0,0,0,0,0,0,0,0,0,0,0,0,0,0,0,0,0,0,0,0,0,0,0,0,0,0,0,0,0,0,
1793,0,1793,0,1793,0,1655,0,1655,0,1655,0,1655,0,1655,0,1655,0,1655,0,1655,0,1655,0,1655,0,1655,0,1655,0,1655,0,1655,0,1655,0,1655,0,1655,0,1655,0,1655,0,1793,0,1793,0,1793,0,
0,0,0,0,0,0,0,0,0,0,0,0,0,0,0,0,0,0,0,0,0,0,0,0,0,0,0,0,0,0,0,0,0,0,0,0,0,0,0,0,0,0,0,0,0,0,0,0,0,0,
1793,0,1793,0,1655,0,1655,0,1655,0,1655,0,1655,0,1655,0,1655,0,1655,0,1655,0,1655,0,1655,0,1655,0,1655,0,1655,0,1655,0,1655,0,1655,0,1655,0,1655,0,1655,0,1793,0,1793,0,1793,0,
0,0,0,0,0,0,0,0,0,0,0,0,0,0,0,0,0,0,0,0,0,0,0,0,0,0,0,0,0,0,0,0,0,0,0,0,0,0,0,0,0,0,0,0,0,0,0,0,0,0,
1793,0,1793,0,1655,0,1655,0,1655,0,1655,0,1655,0,1655,0,1655,0,1655,0,1655,0,1655,0,1655,0,1655,0,1655,0,1655,0,1655,0,1655,0,1655,0,1655,0,1655,0,1655,0,1793,0,1793,0,1793,0,
0,0,0,0,0,0,0,0,0,0,0,0,0,0,0,0,0,0,0,0,0,0,0,0,0,0,0,0,0,0,0,0,0,0,0,0,0,0,0,0,0,0,0,0,0,0,0,0,0,0,
1793,0,1793,0,1655,0,1655,0,1655,0,1655,0,1655,0,1655,0,1655,0,1655,0,1655,0,1655,0,1655,0,1655,0,1655,0,1655,0,1655,0,1655,0,1655,0,1655,0,1655,0,1655,0,1793,0,1793,0,1793,0,
0,0,0,0,0,0,0,0,0,0,0,0,0,0,0,0,0,0,0,0,0,0,0,0,0,0,0,0,0,0,0,0,0,0,0,0,0,0,0,0,0,0,0,0,0,0,0,0,0,0,
1793,0,1793,0,1655,0,1655,0,1655,0,1655,0,1655,0,1655,0,1655,0,1655,0,1655,0,1655,0,1655,0,1655,0,1655,0,1655,0,1655,0,1655,0,1655,0,1655,0,1655,0,1655,0,1793,0,1793,0,1793,0,
0,0,0,0,0,0,0,0,0,0,0,0,0,0,0,0,0,0,0,0,0,0,0,0,0,0,0,0,0,0,0,0,0,0,0,0,0,0,0,0,0,0,0,0,0,0,0,0,0,0,
1793,0,1793,0,1655,0,1655,0,1655,0,1655,0,1655,0,1655,0,1655,0,1655,0,1655,0,1655,0,1655,0,1655,0,1655,0,1655,0,1655,0,1655,0,1655,0,1655,0,1655,0,1655,0,1793,0,1793,0,1793,0,
0,0,0,0,0,0,0,0,0,0,0,0,0,0,0,0,0,0,0,0,0,0,0,0,0,0,0,0,0,0,0,0,0,0,0,0,0,0,0,0,0,0,0,0,0,0,0,0,0,0,
1793,0,1793,0,1655,0,1655,0,1655,0,1655,0,1655,0,1655,0,1655,0,1655,0,1655,0,1655,0,1655,0,1655,0,1655,0,1655,0,1655,0,1655,0,1655,0,1655,0,1655,0,1655,0,1793,0,1793,0,1793,0,
0,0,0,0,0,0,0,0,0,0,0,0,0,0,0,0,0,0,0,0,0,0,0,0,0,0,0,0,0,0,0,0,0,0,0,0,0,0,0,0,0,0,0,0,0,0,0,0,0,0,
1793,0,1793,0,1655,0,1655,0,1655,0,1655,0,1655,0,1655,0,1655,0,1655,0,1655,0,1655,0,1655,0,1655,0,1655,0,1655,0,1655,0,1655,0,1655,0,1655,0,1655,0,1655,0,1793,0,1793,0,1793,0,
0,0,0,0,0,0,0,0,0,0,0,0,0,0,0,0,0,0,0,0,0,0,0,0,0,0,0,0,0,0,0,0,0,0,0,0,0,0,0,0,0,0,0,0,0,0,0,0,0,0,
1793,0,1793,0,1655,0,1655,0,1655,0,1655,0,1655,0,1655,0,1655,0,1655,0,1655,0,1655,0,1655,0,1655,0,1655,0,1655,0,1655,0,1655,0,1655,0,1655,0,1655,0,1655,0,1793,0,1793,0,1793,0,
0,0,0,0,0,0,0,0,0,0,0,0,0,0,0,0,0,0,0,0,0,0,0,0,0,0,0,0,0,0,0,0,0,0,0,0,0,0,0,0,0,0,0,0,0,0,0,0,0,0,
1793,0,1793,0,1655,0,1655,0,1655,0,1655,0,1655,0,1655,0,1655,0,1655,0,1655,0,1655,0,1655,0,1655,0,1655,0,1655,0,1655,0,1655,0,1655,0,1655,0,1655,0,1655,0,1793,0,1793,0,1793,0,
0,0,0,0,0,0,0,0,0,0,0,0,0,0,0,0,0,0,0,0,0,0,0,0,0,0,0,0,0,0,0,0,0,0,0,0,0,0,0,0,0,0,0,0,0,0,0,0,0,0,
1793,0,1793,0,1655,0,1655,0,1655,0,1655,0,1655,0,1655,0,1655,0,1655,0,1655,0,1655,0,1655,0,1655,0,1655,0,1655,0,1655,0,1655,0,1655,0,1655,0,1655,0,1655,0,1793,0,1793,0,1793,0,
0,0,0,0,0,0,0,0,0,0,0,0,0,0,0,0,0,0,0,0,0,0,0,0,0,0,0,0,0,0,0,0,0,0,0,0,0,0,0,0,0,0,0,0,0,0,0,0,0,0,
1793,0,1793,0,1655,0,1655,0,1655,0,1655,0,1655,0,1655,0,1655,0,1655,0,1655,0,1655,0,1655,0,1655,0,1655,0,1655,0,1655,0,1655,0,1655,0,1655,0,1655,0,1655,0,1793,0,1793,0,1793,0,
0,0,0,0,0,0,0,0,0,0,0,0,0,0,0,0,0,0,0,0,0,0,0,0,0,0,0,0,0,0,0,0,0,0,0,0,0,0,0,0,0,0,0,0,0,0,0,0,0,0,
1793,0,1793,0,1655,0,1655,0,1655,0,1655,0,1655,0,1655,0,1655,0,1655,0,1655,0,1655,0,1655,0,1655,0,1655,0,1655,0,1655,0,1655,0,1655,0,1655,0,1655,0,1655,0,1793,0,1793,0,1793,0,
0,0,0,0,0,0,0,0,0,0,0,0,0,0,0,0,0,0,0,0,0,0,0,0,0,0,0,0,0,0,0,0,0,0,0,0,0,0,0,0,0,0,0,0,0,0,0,0,0,0,
1793,0,1793,0,1655,0,1655,0,1655,0,1655,0,1655,0,1655,0,1655,0,1655,0,1655,0,1655,0,1655,0,1655,0,1655,0,1655,0,1655,0,1655,0,1655,0,1655,0,1655,0,1655,0,1793,0,1793,0,1793,0,
0,0,0,0,0,0,0,0,0,0,0,0,0,0,0,0,0,0,0,0,0,0,0,0,0,0,0,0,0,0,0,0,0,0,0,0,0,0,0,0,0,0,0,0,0,0,0,0,0,0,
1793,0,1793,0,1655,0,1655,0,1655,0,1655,0,1655,0,1655,0,1655,0,1655,0,1655,0,1655,0,1655,0,1655,0,1655,0,1655,0,1655,0,1655,0,1655,0,1655,0,1655,0,1655,0,1793,0,1793,0,1793,0,
0,0,0,0,0,0,0,0,0,0,0,0,0,0,0,0,0,0,0,0,0,0,0,0,0,0,0,0,0,0,0,0,0,0,0,0,0,0,0,0,0,0,0,0,0,0,0,0,0,0,
1793,0,1793,0,1655,0,1655,0,1655,0,1655,0,1655,0,1655,0,1655,0,1655,0,1655,0,1655,0,1655,0,1655,0,1655,0,1655,0,1655,0,1655,0,1655,0,1655,0,1655,0,1655,0,1793,0,1793,0,1793,0,
0,0,0,0,0,0,0,0,0,0,0,0,0,0,0,0,0,0,0,0,0,0,0,0,0,0,0,0,0,0,0,0,0,0,0,0,0,0,0,0,0,0,0,0,0,0,0,0,0,0,
1793,0,1793,0,1655,0,1655,0,1655,0,1655,0,1655,0,1655,0,1655,0,1655,0,1655,0,1655,0,1655,0,1655,0,1655,0,1655,0,1655,0,1655,0,1655,0,1655,0,1655,0,1655,0,1793,0,1793,0,1793,0,
0,0,0,0,0,0,0,0,0,0,0,0,0,0,0,0,0,0,0,0,0,0,0,0,0,0,0,0,0,0,0,0,0,0,0,0,0,0,0,0,0,0,0,0,0,0,0,0,0,0,
1793,0,1793,0,1793,0,0,0,0,0,0,0,0,0,0,0,0,0,0,0,0,0,0,0,0,0,0,0,0,0,0,0,0,0,0,0,0,0,0,0,0,0,0,0,1793,0,1793,0,1793,0,
0,0,0,0,0,0,0,0,0,0,0,0,0,0,0,0,0,0,0,0,0,0,0,0,0,0,0,0,0,0,0,0,0,0,0,0,0,0,0,0,0,0,0,0,0,0,0,0,0,0,
1793,0,1793,0,1793,0,1793,0,0,0,0,0,0,0,0,0,0,0,0,0,0,0,0,0,0,0,0,0,0,0,0,0,0,0,0,0,0,0,0,0,0,0,1793,0,1793,0,1793,0,1793,0,
0,0,0,0,0,0,0,0,0,0,0,0,0,0,0,0,0,0,0,0,0,0,0,0,0,0,0,0,0,0,0,0,0,0,0,0,0,0,0,0,0,0,0,0,0,0,0,0,0,0,
1793,0,1793,0,1793,0,1793,0,1793,0,0,0,0,0,0,0,0,0,0,0,0,0,0,0,0,0,0,0,0,0,0,0,0,0,0,0,0,0,0,0,1793,0,1793,0,1793,0,1793,0,1793,0,
0,0,0,0,0,0,0,0,0,0,0,0,0,0,0,0,0,0,0,0,0,0,0,0,0,0,0,0,0,0,0,0,0,0,0,0,0,0,0,0,0,0,0,0,0,0,0,0,0,0,
1793,0,1793,0,1793,0,1793,0,1793,0,1793,0,0,0,0,0,0,0,0,0,0,0,0,0,0,0,0,0,0,0,0,0,0,0,0,0,0,0,1793,0,1793,0,1793,0,1793,0,1793,0,1793,0,
0,0,0,0,0,0,0,0,0,0,0,0,0,0,0,0,0,0,0,0,0,0,0,0,0,0,0,0,0,0,0,0,0,0,0,0,0,0,0,0,0,0,0,0,0,0,0,0,0,0,
1793,0,1793,0,1793,0,1793,0,1793,0,1793,0,4318,0,4318,0,4318,0,4318,0,4318,0,4318,0,4318,0,4318,0,4318,0,4318,0,4318,0,4318,0,4318,0,1793,0,1793,0,1793,0,1793,0,4318,0,4318,0,
0,0,0,0,0,0,0,0,0,0,0,0,0,0,0,0,0,0,0,0,0,0,0,0,0,0,0,0,0,0,0,0,0,0,0,0,0,0,0,0,0,0,0,0,0,0,0,0,0,0,
1793,0,1793,0,1793,0,1793,0,1793,0,1793,0,4318,0,4318,0,4318,0,4318,0,4318,0,4318,0,4318,0,4318,0,4318,0,4318,0,4318,0,4318,0,4318,0,1793,0,1793,0,1793,0,1793,0,4318,0,4318,0,
0,0,0,0,0,0,0,0,0,0,0,0,0,0,0,0,0,0,0,0,0,0,0,0,0,0,0,0,0,0,0,0,0,0,0,0,0,0,0,0,0,0,0,0,0,0,0,0,0,0
</data>
  </layer>
  <layer id="8" name="Level_1_Ceiling" width="50" height="56">
   <properties>
    <property name="maybe_animation_id" value="75ea443e6634d96"/>
    <property name="maybe_tileset_id" value="d8b504e9a8480fbe"/>
    <property name="tile_size" type="int" value="16"/>
   </properties>
   <data encoding="csv">
1655,0,1655,0,1655,0,1655,0,1655,0,1655,0,1655,0,1655,0,1655,0,1655,0,1655,0,1655,0,1655,0,1655,0,1655,0,1655,0,1655,0,1655,0,1655,0,1655,0,1655,0,1655,0,1655,0,1655,0,1655,0,
0,0,0,0,0,0,0,0,0,0,0,0,0,0,0,0,0,0,0,0,0,0,0,0,0,0,0,0,0,0,0,0,0,0,0,0,0,0,0,0,0,0,0,0,0,0,0,0,0,0,
1655,0,1655,0,1655,0,1655,0,1655,0,1655,0,1655,0,1655,0,1655,0,1655,0,1714,0,1715,0,1716,0,1717,0,1718,0,1655,0,1655,0,1655,0,1655,0,1655,0,1655,0,1655,0,1655,0,1655,0,1655,0,
0,0,0,0,0,0,0,0,0,0,0,0,0,0,0,0,0,0,0,0,0,0,0,0,0,0,0,0,0,0,0,0,0,0,0,0,0,0,0,0,0,0,0,0,0,0,0,0,0,0,
1655,0,1655,0,1655,0,1655,0,1701,0,1702,0,1703,0,1703,0,1703,0,1703,0,1778,0,1779,0,1780,0,1781,0,1782,0,1703,0,1703,0,1703,0,1703,0,2147485350,0,2147485349,0,1655,0,1655,0,1655,0,1655,0,
0,0,0,0,0,0,0,0,0,0,0,0,0,0,0,0,0,0,0,0,0,0,0,0,0,0,0,0,0,0,0,0,0,0,0,0,0,0,0,0,0,0,0,0,0,0,0,0,0,0,
1655,0,1655,0,1655,0,1764,0,1765,0,1766,0,1767,0,1767,0,1767,0,1767,0,1842,0,1843,0,1844,0,1845,0,1846,0,1767,0,1767,0,1767,0,1767,0,2147485414,0,2147485413,0,2147485349,0,1655,0,1655,0,1655,0,
0,0,0,0,0,0,0,0,0,0,0,0,0,0,0,0,0,0,0,0,0,0,0,0,0,0,0,0,0,0,0,0,0,0,0,0,0,0,0,0,0,0,0,0,0,0,0,0,0,0,
1655,0,1655,0,1827,0,1828,0,1829,0,1830,0,1831,0,1831,0,1831,0,1831,0,1655,0,1907,0,1908,0,1909,0,1655,0,1831,0,1831,0,1831,0,1831,0,2147485478,0,2147485477,0,2147485476,0,2147485475,0,1655,0,1655,0,
0,0,0,0,0,0,0,0,0,0,0,0,0,0,0,0,0,0,0,0,0,0,0,0,0,0,0,0,0,0,0,0,0,0,0,0,0,0,0,0,0,0,0,0,0,0,0,0,0,0,
1655,0,1655,0,1891,0,1892,0,1893,0,1655,0,1655,0,1655,0,1655,0,1655,0,1655,0,1655,0,1655,0,1655,0,1655,0,1655,0,1655,0,1655,0,1655,0,1655,0,2147485541,0,2147485540,0,2147485539,0,1655,0,1655,0,
0,0,0,0,0,0,0,0,0,0,0,0,0,0,0,0,0,0,0,0,0,0,0,0,0,0,0,0,0,0,0,0,0,0,0,0,0,0,0,0,0,0,0,0,0,0,0,0,0,0,
1655,0,1655,0,1955,0,1956,0,1655,0,1655,0,1655,0,1655,0,1655,0,1655,0,1655,0,1655,0,1655,0,1655,0,1655,0,1655,0,1655,0,1655,0,1655,0,1655,0,1655,0,2147485604,0,2147485603,0,1655,0,1655,0,
0,0,0,0,0,0,0,0,0,0,0,0,0,0,0,0,0,0,0,0,0,0,0,0,0,0,0,0,0,0,0,0,0,0,0,0,0,0,0,0,0,0,0,0,0,0,0,0,0,0,
1655,0,1655,0,1955,0,1956,0,1655,0,1655,0,1655,0,1655,0,1655,0,1655,0,1655,0,1655,0,1655,0,1655,0,1655,0,1655,0,1655,0,1655,0,1655,0,1655,0,1655,0,2147485604,0,2147485603,0,1655,0,1655,0,
0,0,0,0,0,0,0,0,0,0,0,0,0,0,0,0,0,0,0,0,0,0,0,0,0,0,0,0,0,0,0,0,0,0,0,0,0,0,0,0,0,0,0,0,0,0,0,0,0,0,
1655,0,1655,0,1955,0,1956,0,1655,0,1655,0,1655,0,1655,0,1655,0,1655,0,1655,0,1655,0,1655,0,1655,0,1655,0,1655,0,1655,0,1655,0,1655,0,1655,0,1655,0,2147485604,0,2147485603,0,1655,0,1655,0,
0,0,0,0,0,0,0,0,0,0,0,0,0,0,0,0,0,0,0,0,0,0,0,0,0,0,0,0,0,0,0,0,0,0,0,0,0,0,0,0,0,0,0,0,0,0,0,0,0,0,
1655,0,1655,0,1955,0,1956,0,1655,0,1655,0,1655,0,1655,0,1655,0,1655,0,1655,0,1655,0,1655,0,1655,0,1655,0,1655,0,1655,0,1655,0,1655,0,1655,0,1655,0,2147485604,0,2147485603,0,1655,0,1655,0,
0,0,0,0,0,0,0,0,0,0,0,0,0,0,0,0,0,0,0,0,0,0,0,0,0,0,0,0,0,0,0,0,0,0,0,0,0,0,0,0,0,0,0,0,0,0,0,0,0,0,
1655,0,1655,0,1955,0,1956,0,1655,0,1655,0,1655,0,1655,0,1655,0,1655,0,1655,0,1655,0,1655,0,1655,0,1655,0,1655,0,1655,0,1655,0,1655,0,1655,0,1655,0,2147485604,0,2147485603,0,1655,0,1655,0,
0,0,0,0,0,0,0,0,0,0,0,0,0,0,0,0,0,0,0,0,0,0,0,0,0,0,0,0,0,0,0,0,0,0,0,0,0,0,0,0,0,0,0,0,0,0,0,0,0,0,
1655,0,1655,0,1955,0,1956,0,1655,0,1655,0,1655,0,1655,0,1655,0,1655,0,1655,0,1655,0,1655,0,1655,0,1655,0,1655,0,1655,0,1655,0,1655,0,1655,0,1655,0,2147485604,0,2147485603,0,1655,0,1655,0,
0,0,0,0,0,0,0,0,0,0,0,0,0,0,0,0,0,0,0,0,0,0,0,0,0,0,0,0,0,0,0,0,0,0,0,0,0,0,0,0,0,0,0,0,0,0,0,0,0,0,
1655,0,1655,0,1955,0,1956,0,1655,0,1655,0,1655,0,1655,0,1655,0,1655,0,1655,0,1655,0,1655,0,1655,0,1655,0,1655,0,1655,0,1655,0,1655,0,1655,0,1655,0,2147485604,0,2147485603,0,1655,0,1655,0,
0,0,0,0,0,0,0,0,0,0,0,0,0,0,0,0,0,0,0,0,0,0,0,0,0,0,0,0,0,0,0,0,0,0,0,0,0,0,0,0,0,0,0,0,0,0,0,0,0,0,
1655,0,1655,0,1955,0,1956,0,1655,0,1655,0,1655,0,1655,0,1655,0,1655,0,1655,0,1655,0,1655,0,1655,0,1655,0,1655,0,1655,0,1655,0,1655,0,1655,0,1655,0,2147485604,0,2147485603,0,1655,0,1655,0,
0,0,0,0,0,0,0,0,0,0,0,0,0,0,0,0,0,0,0,0,0,0,0,0,0,0,0,0,0,0,0,0,0,0,0,0,0,0,0,0,0,0,0,0,0,0,0,0,0,0,
1655,0,1655,0,1955,0,1956,0,1655,0,1655,0,1655,0,1655,0,1655,0,1655,0,1655,0,1655,0,1655,0,1655,0,1655,0,1655,0,1655,0,1655,0,1655,0,1655,0,1655,0,2147485604,0,2147485603,0,1655,0,1655,0,
0,0,0,0,0,0,0,0,0,0,0,0,0,0,0,0,0,0,0,0,0,0,0,0,0,0,0,0,0,0,0,0,0,0,0,0,0,0,0,0,0,0,0,0,0,0,0,0,0,0,
1655,0,1655,0,1955,0,1956,0,1655,0,1655,0,1655,0,1655,0,1655,0,1655,0,1655,0,1655,0,1655,0,1655,0,1655,0,1655,0,1655,0,1655,0,1655,0,1655,0,1655,0,2147485604,0,2147485603,0,1655,0,1655,0,
0,0,0,0,0,0,0,0,0,0,0,0,0,0,0,0,0,0,0,0,0,0,0,0,0,0,0,0,0,0,0,0,0,0,0,0,0,0,0,0,0,0,0,0,0,0,0,0,0,0,
1655,0,1655,0,1955,0,1956,0,1655,0,1655,0,1655,0,1655,0,1655,0,1655,0,1655,0,1655,0,1655,0,1655,0,1655,0,1655,0,1655,0,1655,0,1655,0,1655,0,1655,0,2147485604,0,2147485603,0,1655,0,1655,0,
0,0,0,0,0,0,0,0,0,0,0,0,0,0,0,0,0,0,0,0,0,0,0,0,0,0,0,0,0,0,0,0,0,0,0,0,0,0,0,0,0,0,0,0,0,0,0,0,0,0,
1655,0,1655,0,1955,0,1956,0,1655,0,1655,0,1655,0,1655,0,1655,0,1655,0,1655,0,1655,0,1655,0,1655,0,1655,0,1655,0,1655,0,1655,0,1655,0,1655,0,1655,0,2147485604,0,2147485603,0,1655,0,1655,0,
0,0,0,0,0,0,0,0,0,0,0,0,0,0,0,0,0,0,0,0,0,0,0,0,0,0,0,0,0,0,0,0,0,0,0,0,0,0,0,0,0,0,0,0,0,0,0,0,0,0,
1655,0,1655,0,1955,0,1956,0,1655,0,1655,0,1655,0,1655,0,1655,0,1655,0,1655,0,1655,0,1655,0,1655,0,1655,0,1655,0,1655,0,1655,0,1655,0,1655,0,1655,0,2147485604,0,2147485603,0,1655,0,1655,0,
0,0,0,0,0,0,0,0,0,0,0,0,0,0,0,0,0,0,0,0,0,0,0,0,0,0,0,0,0,0,0,0,0,0,0,0,0,0,0,0,0,0,0,0,0,0,0,0,0,0,
1655,0,1655,0,1955,0,1956,0,1655,0,1655,0,1655,0,1655,0,1655,0,1655,0,1655,0,1655,0,1655,0,1655,0,1655,0,1655,0,1655,0,1655,0,1655,0,1655,0,1655,0,2147485604,0,2147485603,0,1655,0,1655,0,
0,0,0,0,0,0,0,0,0,0,0,0,0,0,0,0,0,0,0,0,0,0,0,0,0,0,0,0,0,0,0,0,0,0,0,0,0,0,0,0,0,0,0,0,0,0,0,0,0,0,
1655,0,1655,0,1955,0,1956,0,1655,0,1655,0,1655,0,1655,0,1655,0,1655,0,1655,0,1655,0,1655,0,1655,0,1655,0,1655,0,1655,0,1655,0,1655,0,1655,0,1655,0,2147485604,0,2147485603,0,1655,0,1655,0,
0,0,0,0,0,0,0,0,0,0,0,0,0,0,0,0,0,0,0,0,0,0,0,0,0,0,0,0,0,0,0,0,0,0,0,0,0,0,0,0,0,0,0,0,0,0,0,0,0,0,
1655,0,1655,0,1704,0,1705,0,1706,0,1655,0,1655,0,1655,0,1655,0,1655,0,1655,0,1655,0,1655,0,1655,0,1655,0,1655,0,1655,0,1655,0,1655,0,1655,0,2147485354,0,2147485353,0,2147485352,0,1655,0,1655,0,
0,0,0,0,0,0,0,0,0,0,0,0,0,0,0,0,0,0,0,0,0,0,0,0,0,0,0,0,0,0,0,0,0,0,0,0,0,0,0,0,0,0,0,0,0,0,0,0,0,0,
1655,0,1655,0,1768,0,1769,0,1770,0,1706,0,1655,0,1655,0,1655,0,1655,0,1655,0,1655,0,1655,0,1655,0,1655,0,1655,0,1655,0,1655,0,1655,0,2147485354,0,2147485418,0,2147485417,0,2147485416,0,1655,0,1655,0,
0,0,0,0,0,0,0,0,0,0,0,0,0,0,0,0,0,0,0,0,0,0,0,0,0,0,0,0,0,0,0,0,0,0,0,0,0,0,0,0,0,0,0,0,0,0,0,0,0,0,
1655,0,1655,0,1832,0,1833,0,1834,0,1770,0,1771,0,1655,0,1655,0,1655,0,1709,0,1710,0,1711,0,1712,0,1713,0,1655,0,1655,0,1655,0,2147485419,0,2147485418,0,2147485482,0,2147485481,0,2147485480,0,1655,0,1655,0,
0,0,0,0,0,0,0,0,0,0,0,0,0,0,0,0,0,0,0,0,0,0,0,0,0,0,0,0,0,0,0,0,0,0,0,0,0,0,0,0,0,0,0,0,0,0,0,0,0,0,
1655,0,1655,0,1655,0,1832,0,1833,0,1834,0,1835,0,1836,0,1836,0,1836,0,1773,0,1774,0,1775,0,1776,0,1777,0,1836,0,1836,0,1836,0,2147485483,0,2147485482,0,2147485481,0,2147485480,0,1655,0,1655,0,1655,0,
0,0,0,0,0,0,0,0,0,0,0,0,0,0,0,0,0,0,0,0,0,0,0,0,0,0,0,0,0,0,0,0,0,0,0,0,0,0,0,0,0,0,0,0,0,0,0,0,0,0,
1655,0,1655,0,1655,0,1655,0,1897,0,1898,0,1899,0,1900,0,1900,0,1900,0,1837,0,1838,0,1839,0,1840,0,1841,0,1900,0,1900,0,1900,0,2147485547,0,2147485546,0,2147485545,0,1655,0,1655,0,1655,0,1655,0,
0,0,0,0,0,0,0,0,0,0,0,0,0,0,0,0,0,0,0,0,0,0,0,0,0,0,0,0,0,0,0,0,0,0,0,0,0,0,0,0,0,0,0,0,0,0,0,0,0,0,
1655,0,1655,0,1655,0,1655,0,1655,0,1655,0,1655,0,1655,0,1655,0,1655,0,1655,0,1902,0,1903,0,1904,0,1905,0,1655,0,1655,0,1655,0,1655,0,1655,0,1655,0,1655,0,1655,0,1655,0,1655,0,
0,0,0,0,0,0,0,0,0,0,0,0,0,0,0,0,0,0,0,0,0,0,0,0,0,0,0,0,0,0,0,0,0,0,0,0,0,0,0,0,0,0,0,0,0,0,0,0,0,0,
1655,0,1655,0,1655,0,1655,0,1655,0,1655,0,1655,0,1655,0,1655,0,1655,0,1655,0,1655,0,1655,0,1655,0,1655,0,1655,0,1655,0,1655,0,1655,0,1655,0,1655,0,1655,0,1655,0,1655,0,1655,0,
0,0,0,0,0,0,0,0,0,0,0,0,0,0,0,0,0,0,0,0,0,0,0,0,0,0,0,0,0,0,0,0,0,0,0,0,0,0,0,0,0,0,0,0,0,0,0,0,0,0
</data>
  </layer>
 </group>
 <layer id="9" name="PriorityObjects" width="50" height="56">
  <properties>
   <property name="maybe_animation_id" value="c17a3f663f237941"/>
   <property name="maybe_tileset_id" value="6517ec72c0df75c4"/>
   <property name="tile_size" type="int" value="16"/>
  </properties>
  <data encoding="csv">
0,0,0,0,0,0,0,0,0,0,0,0,0,0,0,0,0,0,0,0,0,0,0,0,0,0,0,0,0,0,0,0,0,0,0,0,0,0,0,0,0,0,0,0,0,0,0,0,0,0,
0,0,0,0,0,0,0,0,0,0,0,0,0,0,0,0,0,0,0,0,0,0,0,0,0,0,0,0,0,0,0,0,0,0,0,0,0,0,0,0,0,0,0,0,0,0,0,0,0,0,
0,0,0,0,0,0,0,0,0,0,0,0,0,0,0,0,0,0,0,0,0,0,0,0,0,0,0,0,0,0,0,0,0,0,0,0,0,0,0,0,0,0,0,0,0,0,0,0,0,0,
0,0,0,0,0,0,0,0,0,0,0,0,0,0,0,0,0,0,0,0,0,0,0,0,0,0,0,0,0,0,0,0,0,0,0,0,0,0,0,0,0,0,0,0,0,0,0,0,0,0,
0,0,0,0,0,0,0,0,0,0,0,0,0,0,0,0,0,0,0,0,0,0,0,0,0,0,0,0,0,0,0,0,0,0,0,0,0,0,0,0,0,0,0,0,0,0,0,0,0,0,
0,0,0,0,0,0,0,0,0,0,0,0,0,0,0,0,0,0,0,0,0,0,0,0,0,0,0,0,0,0,0,0,0,0,0,0,0,0,0,0,0,0,0,0,0,0,0,0,0,0,
0,0,0,0,0,0,0,0,0,0,0,0,0,0,0,0,0,0,0,0,0,0,0,0,0,0,0,0,0,0,0,0,0,0,0,0,0,0,0,0,0,0,0,0,0,0,0,0,0,0,
0,0,0,0,0,0,0,0,0,0,0,0,0,0,0,0,0,0,0,0,0,0,0,0,0,0,0,0,0,0,0,0,0,0,0,0,0,0,0,0,0,0,0,0,0,0,0,0,0,0,
0,0,0,0,0,0,0,0,0,0,0,0,0,0,0,0,0,0,0,0,0,0,6013,0,0,0,0,0,0,0,0,0,0,0,0,0,0,0,0,0,0,0,0,0,0,0,0,0,0,0,
0,0,0,0,0,0,0,0,0,0,0,0,0,0,0,0,0,0,0,0,0,0,0,0,0,0,0,0,0,0,0,0,0,0,0,0,0,0,0,0,0,0,0,0,0,0,0,0,0,0,
0,0,0,0,0,0,0,0,0,0,0,0,0,0,0,0,0,0,0,0,0,0,6038,0,0,0,0,0,0,0,0,0,0,0,0,0,0,0,0,0,0,0,0,0,0,0,0,0,0,0,
0,0,0,0,0,0,0,0,0,0,0,0,0,0,0,0,0,0,0,0,0,0,0,0,0,0,0,0,0,0,0,0,0,0,0,0,0,0,0,0,0,0,0,0,0,0,0,0,0,0,
0,0,0,0,0,0,0,0,0,0,0,0,0,0,0,0,0,0,0,0,0,0,0,0,0,0,0,0,0,0,0,0,0,0,0,0,0,0,0,0,0,0,0,0,0,0,0,0,0,0,
0,0,0,0,0,0,0,0,0,0,0,0,0,0,0,0,0,0,0,0,0,0,0,0,0,0,0,0,0,0,0,0,0,0,0,0,0,0,0,0,0,0,0,0,0,0,0,0,0,0,
0,0,0,0,0,0,0,0,0,0,0,0,0,0,0,0,0,0,0,0,0,0,0,0,0,0,0,0,0,0,0,0,0,0,0,0,0,0,0,0,0,0,0,0,0,0,0,0,0,0,
0,0,0,0,0,0,0,0,0,0,0,0,0,0,0,0,0,0,0,0,0,0,0,0,0,0,0,0,0,0,0,0,0,0,0,0,0,0,0,0,0,0,0,0,0,0,0,0,0,0,
0,0,0,0,0,0,0,0,0,0,0,0,0,0,0,0,0,0,0,0,0,0,0,0,0,0,0,0,0,0,0,0,0,0,0,0,0,0,0,0,0,0,0,0,0,0,0,0,0,0,
0,0,0,0,0,0,0,0,0,0,0,0,0,0,0,0,0,0,0,0,0,0,0,0,0,0,0,0,0,0,0,0,0,0,0,0,0,0,0,0,0,0,0,0,0,0,0,0,0,0,
0,0,0,0,0,0,0,0,0,0,0,0,0,0,0,0,0,0,0,0,0,0,0,0,0,0,0,0,0,0,0,0,0,0,0,0,0,0,0,0,0,0,0,0,0,0,0,0,0,0,
0,0,0,0,0,0,0,0,0,0,0,0,0,0,0,0,0,0,0,0,0,0,0,0,0,0,0,0,0,0,0,0,0,0,0,0,0,0,0,0,0,0,0,0,0,0,0,0,0,0,
0,0,0,0,0,0,0,0,0,0,0,0,0,0,0,0,0,0,0,0,0,0,0,0,0,0,0,0,0,0,0,0,0,0,0,0,0,0,0,0,0,0,0,0,0,0,0,0,0,0,
0,0,0,0,0,0,0,0,0,0,0,0,0,0,0,0,0,0,0,0,0,0,0,0,0,0,0,0,0,0,0,0,0,0,0,0,0,0,0,0,0,0,0,0,0,0,0,0,0,0,
0,0,0,0,0,0,0,0,0,0,0,0,0,0,0,0,0,0,0,0,0,0,0,0,0,0,0,0,0,0,0,0,0,0,0,0,0,0,0,0,0,0,0,0,0,0,0,0,0,0,
0,0,0,0,0,0,0,0,0,0,0,0,0,0,0,0,0,0,0,0,0,0,0,0,0,0,0,0,0,0,0,0,0,0,0,0,0,0,0,0,0,0,0,0,0,0,0,0,0,0,
0,0,0,0,0,0,0,0,0,0,0,0,0,0,0,0,0,0,0,0,0,0,0,0,0,0,0,0,0,0,0,0,0,0,0,0,0,0,0,0,0,0,0,0,0,0,0,0,0,0,
0,0,0,0,0,0,0,0,0,0,0,0,0,0,0,0,0,0,0,0,0,0,0,0,0,0,0,0,0,0,0,0,0,0,0,0,0,0,0,0,0,0,0,0,0,0,0,0,0,0,
0,0,0,0,0,0,0,0,0,0,0,0,0,0,0,0,0,0,0,0,0,0,0,0,0,0,0,0,0,0,0,0,0,0,0,0,0,0,0,0,0,0,0,0,0,0,0,0,0,0,
0,0,0,0,0,0,0,0,0,0,0,0,0,0,0,0,0,0,0,0,0,0,0,0,0,0,0,0,0,0,0,0,0,0,0,0,0,0,0,0,0,0,0,0,0,0,0,0,0,0,
0,0,0,0,0,0,0,0,0,0,0,0,0,0,0,0,0,0,0,0,0,0,0,0,0,0,0,0,0,0,0,0,0,0,0,0,0,0,0,0,0,0,0,0,0,0,0,0,0,0,
0,0,0,0,0,0,0,0,0,0,0,0,0,0,0,0,0,0,0,0,0,0,0,0,0,0,0,0,0,0,0,0,0,0,0,0,0,0,0,0,0,0,0,0,0,0,0,0,0,0,
0,0,0,0,0,0,0,0,0,0,0,0,0,0,0,0,0,0,0,0,0,0,0,0,0,0,0,0,0,0,0,0,0,0,0,0,0,0,0,0,0,0,0,0,0,0,0,0,0,0,
0,0,0,0,0,0,0,0,0,0,0,0,0,0,0,0,0,0,0,0,0,0,0,0,0,0,0,0,0,0,0,0,0,0,0,0,0,0,0,0,0,0,0,0,0,0,0,0,0,0,
0,0,0,0,0,0,0,0,0,0,0,0,0,0,0,0,0,0,0,0,0,0,0,0,0,0,0,0,0,0,0,0,0,0,0,0,0,0,0,0,0,0,0,0,0,0,0,0,0,0,
0,0,0,0,0,0,0,0,0,0,0,0,0,0,0,0,0,0,0,0,0,0,0,0,0,0,0,0,0,0,0,0,0,0,0,0,0,0,0,0,0,0,0,0,0,0,0,0,0,0,
0,0,0,0,0,0,0,0,0,0,0,0,0,0,0,0,0,0,0,0,0,0,0,0,0,0,0,0,0,0,0,0,0,0,0,0,0,0,0,0,0,0,0,0,0,0,0,0,0,0,
0,0,0,0,0,0,0,0,0,0,0,0,0,0,0,0,0,0,0,0,0,0,0,0,0,0,0,0,0,0,0,0,0,0,0,0,0,0,0,0,0,0,0,0,0,0,0,0,0,0,
0,0,0,0,0,0,0,0,0,0,0,0,0,0,0,0,0,0,0,0,0,0,0,0,0,0,0,0,0,0,0,0,0,0,0,0,0,0,0,0,0,0,0,0,0,0,0,0,0,0,
0,0,0,0,0,0,0,0,0,0,0,0,0,0,0,0,0,0,0,0,0,0,0,0,0,0,0,0,0,0,0,0,0,0,0,0,0,0,0,0,0,0,0,0,0,0,0,0,0,0,
0,0,0,0,0,0,0,0,0,0,0,0,0,0,0,0,0,0,0,0,0,0,0,0,0,0,0,0,0,0,0,0,0,0,0,0,0,0,0,0,0,0,0,0,0,0,0,0,0,0,
0,0,0,0,0,0,0,0,0,0,0,0,0,0,0,0,0,0,0,0,0,0,0,0,0,0,0,0,0,0,0,0,0,0,0,0,0,0,0,0,0,0,0,0,0,0,0,0,0,0,
0,0,0,0,0,0,0,0,0,0,0,0,0,0,0,0,0,0,0,0,0,0,0,0,0,0,0,0,0,0,0,0,0,0,6042,0,0,0,0,0,0,0,0,0,0,0,0,0,0,0,
0,0,0,0,0,0,0,0,0,0,0,0,0,0,0,0,0,0,0,0,0,0,0,0,0,0,0,0,0,0,0,0,0,0,0,0,0,0,0,0,0,0,0,0,0,0,0,0,0,0,
0,0,0,0,0,0,0,0,0,0,0,0,0,0,0,0,0,0,0,0,0,0,0,0,0,0,0,0,0,0,0,0,0,0,0,0,0,0,0,0,0,0,0,0,0,0,0,0,0,0,
0,0,0,0,0,0,0,0,0,0,0,0,0,0,0,0,0,0,0,0,0,0,0,0,0,0,0,0,0,0,0,0,0,0,0,0,0,0,0,0,0,0,0,0,0,0,0,0,0,0,
0,0,0,0,0,0,0,0,0,0,0,0,0,0,0,0,0,0,0,0,0,0,0,0,0,0,0,0,0,0,0,0,0,0,0,0,0,0,0,0,0,0,0,0,0,0,0,0,0,0,
0,0,0,0,0,0,0,0,0,0,0,0,0,0,0,0,0,0,0,0,0,0,0,0,0,0,0,0,0,0,0,0,0,0,0,0,0,0,0,0,0,0,0,0,0,0,0,0,0,0,
0,0,0,0,0,0,0,0,0,0,0,0,0,0,0,0,0,0,0,0,0,0,0,0,0,0,0,0,0,0,0,0,0,0,0,0,0,0,0,0,0,0,0,0,0,0,0,0,0,0,
0,0,0,0,0,0,0,0,0,0,0,0,0,0,0,0,0,0,0,0,0,0,0,0,0,0,0,0,0,0,0,0,0,0,0,0,0,0,0,0,0,0,0,0,0,0,0,0,0,0,
0,0,0,0,0,0,0,0,0,0,0,0,0,0,0,0,0,0,0,0,0,0,0,0,0,0,0,0,0,0,0,0,0,0,0,0,0,0,0,0,0,0,0,0,0,0,0,0,0,0,
0,0,0,0,0,0,0,0,0,0,0,0,0,0,0,0,0,0,0,0,0,0,0,0,0,0,0,0,0,0,0,0,0,0,0,0,0,0,0,0,0,0,0,0,0,0,0,0,0,0,
0,0,0,0,0,0,0,0,0,0,0,0,0,0,0,0,0,0,0,0,0,0,0,0,0,0,0,0,0,0,0,0,0,0,0,0,0,0,0,0,0,0,0,0,0,0,0,0,0,0,
0,0,0,0,0,0,0,0,0,0,0,0,0,0,0,0,0,0,0,0,0,0,0,0,0,0,0,0,0,0,0,0,0,0,0,0,0,0,0,0,0,0,0,0,0,0,0,0,0,0,
0,0,0,0,0,0,0,0,0,0,0,0,0,0,0,0,0,0,0,0,0,0,0,0,0,0,0,0,0,0,0,0,0,0,0,0,0,0,0,0,0,0,0,0,0,0,0,0,0,0,
0,0,0,0,0,0,0,0,0,0,0,0,0,0,0,0,0,0,0,0,0,0,0,0,0,0,0,0,0,0,0,0,0,0,0,0,0,0,0,0,0,0,0,0,0,0,0,0,0,0,
0,0,0,0,0,0,0,0,0,0,0,0,0,0,0,0,0,0,0,0,0,0,0,0,0,0,0,0,0,0,0,0,0,0,0,0,0,0,0,0,0,0,0,0,0,0,0,0,0,0,
0,0,0,0,0,0,0,0,0,0,0,0,0,0,0,0,0,0,0,0,0,0,0,0,0,0,0,0,0,0,0,0,0,0,0,0,0,0,0,0,0,0,0,0,0,0,0,0,0,0
</data>
 </layer>
 <objectgroup draworder="index" id="10" name="Instances">
  <object id="12" template="../../../templates/dungeon/obj_dungeon_elevator.tx" type="obj_dungeon_elevator" x="112" y="344"/>
  <object id="13" template="../../../templates/obj_seal_tablet.tx" type="obj_seal_tablet" x="184" y="208">
   <properties>
    <property name="seal_id" type="int" propertytype="Seal" value="6"/>
   </properties>
  </object>
  <object id="14" template="../../../templates/obj_seal_altar.tx" type="obj_seal_altar" x="72" y="269">
   <properties>
    <property name="item_id" value="ore_ruby"/>
   </properties>
  </object>
  <object id="15" template="../../../templates/obj_seal_altar.tx" type="obj_seal_altar" x="96" y="245">
   <properties>
    <property name="item_id" value="stone_loach"/>
    <property name="sin_wave_offset" type="int" value="1"/>
   </properties>
  </object>
  <object id="16" template="../../../templates/obj_seal_altar.tx" type="obj_seal_altar" x="280" y="245">
   <properties>
    <property name="item_id" value="lantern_moth"/>
    <property name="sin_wave_offset" type="int" value="1"/>
   </properties>
  </object>
  <object id="17" template="../../../templates/obj_seal_altar.tx" type="obj_seal_altar" x="304" y="269">
   <properties>
    <property name="item_id" value="upper_mines_mushroom"/>
   </properties>
  </object>
 </objectgroup>
 <objectgroup draworder="index" id="11" name="Lighting" visible="0">
  <object id="18" template="../../../templates/system/lighting/lights/obj_light_small.tx" type="obj_light_small" x="285" y="224"/>
  <object id="19" template="../../../templates/system/lighting/lights/obj_light_small.tx" type="obj_light_small" x="35" y="224"/>
  <object id="20" template="../../../templates/system/lighting/lights/obj_light_med.tx" type="obj_light_med" x="152" y="152"/>
  <object id="21" template="../../../templates/system/lighting/lights/obj_light_small.tx" type="obj_light_small" x="129" y="160"/>
  <object id="22" template="../../../templates/system/lighting/lights/obj_light_small.tx" type="obj_light_small" x="191" y="160"/>
 </objectgroup>
 <layer id="12" name="FootstepTiles" width="50" height="56" visible="0">
  <properties>
   <property name="maybe_animation_id" value="9b6388374855b54b"/>
   <property name="maybe_tileset_id" value="5fc72aa2902dea7"/>
   <property name="tile_size" type="int" value="16"/>
  </properties>
  <data encoding="csv">
1511,0,1511,0,1511,0,1511,0,1511,0,1511,0,1511,0,1511,0,1511,0,1511,0,1511,0,1511,0,1511,0,1511,0,1511,0,1511,0,1511,0,1511,0,1511,0,1511,0,1511,0,1511,0,1511,0,1511,0,0,0,
0,0,0,0,0,0,0,0,0,0,0,0,0,0,0,0,0,0,0,0,0,0,0,0,0,0,0,0,0,0,0,0,0,0,0,0,0,0,0,0,0,0,0,0,0,0,0,0,0,0,
1511,0,1511,0,1511,0,1511,0,1511,0,1511,0,1511,0,1511,0,1511,0,1511,0,1511,0,1511,0,1511,0,1511,0,1511,0,1511,0,1511,0,1511,0,1511,0,1511,0,1511,0,1511,0,1511,0,1511,0,0,0,
0,0,0,0,0,0,0,0,0,0,0,0,0,0,0,0,0,0,0,0,0,0,0,0,0,0,0,0,0,0,0,0,0,0,0,0,0,0,0,0,0,0,0,0,0,0,0,0,0,0,
1511,0,1511,0,1511,0,1511,0,1511,0,1511,0,1511,0,1511,0,1511,0,1511,0,1513,0,1513,0,1513,0,1513,0,1513,0,1511,0,1511,0,1511,0,1511,0,1511,0,1511,0,1511,0,1511,0,1511,0,0,0,
0,0,0,0,0,0,0,0,0,0,0,0,0,0,0,0,0,0,0,0,0,0,0,0,0,0,0,0,0,0,0,0,0,0,0,0,0,0,0,0,0,0,0,0,0,0,0,0,0,0,
1511,0,1511,0,1511,0,1511,0,1511,0,1511,0,1511,0,1511,0,1511,0,1511,0,1513,0,1513,0,1513,0,1513,0,1513,0,1511,0,1511,0,1511,0,1511,0,1511,0,1511,0,1511,0,1511,0,1511,0,0,0,
0,0,0,0,0,0,0,0,0,0,0,0,0,0,0,0,0,0,0,0,0,0,0,0,0,0,0,0,0,0,0,0,0,0,0,0,0,0,0,0,0,0,0,0,0,0,0,0,0,0,
1511,0,1511,0,1511,0,1511,0,1511,0,1511,0,1511,0,1511,0,1511,0,1511,0,1513,0,1513,0,1513,0,1513,0,1513,0,1511,0,1511,0,1511,0,1511,0,1511,0,1511,0,1511,0,1511,0,1511,0,0,0,
0,0,0,0,0,0,0,0,0,0,0,0,0,0,0,0,0,0,0,0,0,0,0,0,0,0,0,0,0,0,0,0,0,0,0,0,0,0,0,0,0,0,0,0,0,0,0,0,0,0,
1511,0,1511,0,1511,0,1511,0,1511,0,1511,0,1511,0,1511,0,1511,0,1511,0,1513,0,1513,0,1513,0,1513,0,1513,0,1511,0,1511,0,1511,0,1511,0,1511,0,1511,0,1511,0,1511,0,1511,0,0,0,
0,0,0,0,0,0,0,0,0,0,0,0,0,0,0,0,0,0,0,0,0,0,0,0,0,0,0,0,0,0,0,0,0,0,0,0,0,0,0,0,0,0,0,0,0,0,0,0,0,0,
1511,0,1511,0,1511,0,1511,0,1511,0,1511,0,1511,0,1511,0,1511,0,1511,0,1513,0,1513,0,1513,0,1513,0,1513,0,1511,0,1511,0,1511,0,1511,0,1511,0,1511,0,1511,0,1511,0,1511,0,0,0,
0,0,0,0,0,0,0,0,0,0,0,0,0,0,0,0,0,0,0,0,0,0,0,0,0,0,0,0,0,0,0,0,0,0,0,0,0,0,0,0,0,0,0,0,0,0,0,0,0,0,
1511,0,1511,0,1511,0,1511,0,1511,0,1511,0,1511,0,1511,0,1511,0,1511,0,1513,0,1513,0,1513,0,1513,0,1513,0,1511,0,1511,0,1511,0,1511,0,1511,0,1511,0,1511,0,1511,0,1511,0,0,0,
0,0,0,0,0,0,0,0,0,0,0,0,0,0,0,0,0,0,0,0,0,0,0,0,0,0,0,0,0,0,0,0,0,0,0,0,0,0,0,0,0,0,0,0,0,0,0,0,0,0,
1511,0,1511,0,1511,0,1511,0,1511,0,1511,0,1511,0,1511,0,1511,0,1513,0,1513,0,1513,0,1513,0,1513,0,1513,0,1513,0,1511,0,1511,0,1511,0,1511,0,1511,0,1511,0,1511,0,1511,0,0,0,
0,0,0,0,0,0,0,0,0,0,0,0,0,0,0,0,0,0,0,0,0,0,0,0,0,0,0,0,0,0,0,0,0,0,0,0,0,0,0,0,0,0,0,0,0,0,0,0,0,0,
1511,0,1511,0,1511,0,1511,0,1511,0,1518,0,1513,0,1513,0,1513,0,1513,0,1513,0,1513,0,1513,0,1513,0,1513,0,1513,0,1513,0,1513,0,1513,0,1518,0,1511,0,1511,0,1511,0,1511,0,0,0,
0,0,0,0,0,0,0,0,0,0,0,0,0,0,0,0,0,0,0,0,0,0,0,0,0,0,0,0,0,0,0,0,0,0,0,0,0,0,0,0,0,0,0,0,0,0,0,0,0,0,
1511,0,1511,0,1511,0,1511,0,1518,0,1518,0,1518,0,1513,0,1513,0,1513,0,1513,0,1513,0,1513,0,1513,0,1513,0,1513,0,1513,0,1513,0,1518,0,1518,0,1518,0,1511,0,1511,0,1511,0,0,0,
0,0,0,0,0,0,0,0,0,0,0,0,0,0,0,0,0,0,0,0,0,0,0,0,0,0,0,0,0,0,0,0,0,0,0,0,0,0,0,0,0,0,0,0,0,0,0,0,0,0,
1511,0,1511,0,1511,0,1511,0,1518,0,1518,0,1518,0,1513,0,1513,0,1513,0,1513,0,1513,0,1513,0,1513,0,1513,0,1513,0,1513,0,1513,0,1518,0,1518,0,1518,0,1511,0,1511,0,1511,0,0,0,
0,0,0,0,0,0,0,0,0,0,0,0,0,0,0,0,0,0,0,0,0,0,0,0,0,0,0,0,0,0,0,0,0,0,0,0,0,0,0,0,0,0,0,0,0,0,0,0,0,0,
1511,0,1511,0,1511,0,1511,0,1518,0,1518,0,1513,0,1513,0,1513,0,1513,0,1513,0,1513,0,1513,0,1513,0,1513,0,1513,0,1513,0,1513,0,1513,0,1518,0,1518,0,1511,0,1511,0,1511,0,0,0,
0,0,0,0,0,0,0,0,0,0,0,0,0,0,0,0,0,0,0,0,0,0,0,0,0,0,0,0,0,0,0,0,0,0,0,0,0,0,0,0,0,0,0,0,0,0,0,0,0,0,
1511,0,1511,0,1511,0,1511,0,1518,0,1513,0,1513,0,1513,0,1513,0,1513,0,1513,0,1513,0,1513,0,1513,0,1513,0,1513,0,1513,0,1513,0,1513,0,1513,0,1518,0,1511,0,1511,0,1511,0,0,0,
0,0,0,0,0,0,0,0,0,0,0,0,0,0,0,0,0,0,0,0,0,0,0,0,0,0,0,0,0,0,0,0,0,0,0,0,0,0,0,0,0,0,0,0,0,0,0,0,0,0,
1511,0,1511,0,1511,0,1511,0,1513,0,1513,0,1513,0,1513,0,1513,0,1513,0,1513,0,1513,0,1513,0,1513,0,1513,0,1513,0,1513,0,1513,0,1513,0,1513,0,1513,0,1511,0,1511,0,1511,0,0,0,
0,0,0,0,0,0,0,0,0,0,0,0,0,0,0,0,0,0,0,0,0,0,0,0,0,0,0,0,0,0,0,0,0,0,0,0,0,0,0,0,0,0,0,0,0,0,0,0,0,0,
1511,0,1511,0,1511,0,1511,0,1513,0,1513,0,1513,0,1513,0,1518,0,1513,0,1513,0,1513,0,1513,0,1513,0,1513,0,1513,0,1518,0,1513,0,1513,0,1513,0,1513,0,1511,0,1511,0,1511,0,0,0,
0,0,0,0,0,0,0,0,0,0,0,0,0,0,0,0,0,0,0,0,0,0,0,0,0,0,0,0,0,0,0,0,0,0,0,0,0,0,0,0,0,0,0,0,0,0,0,0,0,0,
1511,0,1511,0,1511,0,1511,0,1513,0,1513,0,1513,0,1518,0,1518,0,1518,0,1518,0,1513,0,1513,0,1513,0,1518,0,1518,0,1518,0,1518,0,1513,0,1513,0,1513,0,1511,0,1511,0,1511,0,0,0,
0,0,0,0,0,0,0,0,0,0,0,0,0,0,0,0,0,0,0,0,0,0,0,0,0,0,0,0,0,0,0,0,0,0,0,0,0,0,0,0,0,0,0,0,0,0,0,0,0,0,
1511,0,1511,0,1511,0,1511,0,1513,0,1513,0,1518,0,1518,0,1518,0,1518,0,1518,0,1513,0,1513,0,1513,0,1518,0,1518,0,1518,0,1518,0,1518,0,1513,0,1513,0,1511,0,1511,0,1511,0,0,0,
0,0,0,0,0,0,0,0,0,0,0,0,0,0,0,0,0,0,0,0,0,0,0,0,0,0,0,0,0,0,0,0,0,0,0,0,0,0,0,0,0,0,0,0,0,0,0,0,0,0,
1511,0,1511,0,1511,0,1511,0,1513,0,1518,0,1518,0,1518,0,1518,0,1518,0,1518,0,1513,0,1513,0,1513,0,1518,0,1518,0,1518,0,1518,0,1518,0,1518,0,1513,0,1511,0,1511,0,1511,0,0,0,
0,0,0,0,0,0,0,0,0,0,0,0,0,0,0,0,0,0,0,0,0,0,0,0,0,0,0,0,0,0,0,0,0,0,0,0,0,0,0,0,0,0,0,0,0,0,0,0,0,0,
1511,0,1511,0,1511,0,1511,0,1518,0,1518,0,1518,0,1518,0,1518,0,1518,0,1518,0,1513,0,1513,0,1513,0,1518,0,1518,0,1518,0,1518,0,1518,0,1518,0,1518,0,1511,0,1511,0,1511,0,0,0,
0,0,0,0,0,0,0,0,0,0,0,0,0,0,0,0,0,0,0,0,0,0,0,0,0,0,0,0,0,0,0,0,0,0,0,0,0,0,0,0,0,0,0,0,0,0,0,0,0,0,
1511,0,1511,0,1511,0,1511,0,1518,0,1518,0,1518,0,1518,0,1518,0,1518,0,1518,0,1513,0,1513,0,1513,0,1518,0,1518,0,1518,0,1518,0,1518,0,1518,0,1518,0,1511,0,1511,0,1511,0,0,0,
0,0,0,0,0,0,0,0,0,0,0,0,0,0,0,0,0,0,0,0,0,0,0,0,0,0,0,0,0,0,0,0,0,0,0,0,0,0,0,0,0,0,0,0,0,0,0,0,0,0,
1511,0,1511,0,1511,0,1511,0,1518,0,1518,0,1518,0,1518,0,1518,0,1518,0,1518,0,1513,0,1513,0,1513,0,1518,0,1518,0,1518,0,1518,0,1518,0,1518,0,1518,0,1511,0,1511,0,1511,0,0,0,
0,0,0,0,0,0,0,0,0,0,0,0,0,0,0,0,0,0,0,0,0,0,0,0,0,0,0,0,0,0,0,0,0,0,0,0,0,0,0,0,0,0,0,0,0,0,0,0,0,0,
1511,0,1511,0,1511,0,1511,0,1518,0,1518,0,1518,0,1518,0,1518,0,1518,0,1518,0,1513,0,1513,0,1513,0,1518,0,1518,0,1518,0,1518,0,1518,0,1518,0,1511,0,1511,0,1511,0,1511,0,0,0,
0,0,0,0,0,0,0,0,0,0,0,0,0,0,0,0,0,0,0,0,0,0,0,0,0,0,0,0,0,0,0,0,0,0,0,0,0,0,0,0,0,0,0,0,0,0,0,0,0,0,
1511,0,1511,0,1511,0,1511,0,1511,0,1518,0,1518,0,1518,0,1518,0,1518,0,1518,0,1513,0,1513,0,1513,0,1518,0,1518,0,1518,0,1518,0,1518,0,1511,0,1511,0,1511,0,1511,0,1511,0,0,0,
0,0,0,0,0,0,0,0,0,0,0,0,0,0,0,0,0,0,0,0,0,0,0,0,0,0,0,0,0,0,0,0,0,0,0,0,0,0,0,0,0,0,0,0,0,0,0,0,0,0,
0,0,1511,0,1511,0,1511,0,1511,0,1511,0,1511,0,1518,0,1518,0,1518,0,1518,0,1513,0,1513,0,1513,0,1518,0,1518,0,1518,0,1518,0,1511,0,1511,0,1511,0,1511,0,1511,0,1511,0,0,0,
0,0,0,0,0,0,0,0,0,0,0,0,0,0,0,0,0,0,0,0,0,0,0,0,0,0,0,0,0,0,0,0,0,0,0,0,0,0,0,0,0,0,0,0,0,0,0,0,0,0,
0,0,1511,0,1511,0,1511,0,1511,0,1511,0,1511,0,1511,0,1511,0,1511,0,1511,0,1513,0,1513,0,1513,0,1511,0,1511,0,1511,0,1511,0,1511,0,1511,0,1511,0,1511,0,1511,0,1511,0,0,0,
0,0,0,0,0,0,0,0,0,0,0,0,0,0,0,0,0,0,0,0,0,0,0,0,0,0,0,0,0,0,0,0,0,0,0,0,0,0,0,0,0,0,0,0,0,0,0,0,0,0,
0,0,0,0,0,0,0,0,0,0,0,0,0,0,0,0,0,0,0,0,0,0,1513,0,1513,0,1513,0,0,0,0,0,1511,0,1511,0,1511,0,1511,0,1511,0,1511,0,1511,0,1511,0,0,0,
0,0,0,0,0,0,0,0,0,0,0,0,0,0,0,0,0,0,0,0,0,0,0,0,0,0,0,0,0,0,0,0,0,0,0,0,0,0,0,0,0,0,0,0,0,0,0,0,0,0,
0,0,0,0,0,0,0,0,0,0,0,0,0,0,0,0,0,0,0,0,0,0,0,0,0,0,0,0,0,0,0,0,1511,0,1511,0,1511,0,1511,0,1511,0,1511,0,1511,0,1511,0,0,0,
0,0,0,0,0,0,0,0,0,0,0,0,0,0,0,0,0,0,0,0,0,0,0,0,0,0,0,0,0,0,0,0,0,0,0,0,0,0,0,0,0,0,0,0,0,0,0,0,0,0
</data>
 </layer>
 <layer id="13" name="Tiles_Collision" width="50" height="56" visible="0">
  <properties>
   <property name="maybe_animation_id" value="d5b5e9552171fe70"/>
   <property name="maybe_tileset_id" value="b29026a2ad0be741"/>
   <property name="tile_size" type="int" value="8"/>
  </properties>
  <data encoding="csv">
1507,1507,1507,1507,1507,1507,1507,1507,1507,1507,1507,1507,1507,1507,1507,1507,1507,1507,1507,1507,1507,1507,1507,1507,1507,1507,1507,1507,1507,1507,1507,1507,1507,1507,1507,1507,1507,1507,1507,1507,1507,1507,1507,1507,1507,1507,1507,1507,1507,1507,
1507,1507,1507,1507,1507,1507,1507,1507,1507,1507,1507,1507,1507,1507,1507,1507,1507,1507,1507,1507,1507,1507,1507,1507,1507,1507,1507,1507,1507,1507,1507,1507,1507,1507,1507,1507,1507,1507,1507,1507,1507,1507,1507,1507,1507,1507,1507,1507,1507,1507,
1507,1507,1507,1507,1507,1507,1507,1507,1507,1507,1507,1507,1507,1507,1507,1507,1507,1507,1507,1507,1507,1507,1507,1507,1507,1507,1507,1507,1507,1507,1507,1507,1507,1507,1507,1507,1507,1507,1507,1507,1507,1507,1507,1507,1507,1507,1507,1507,1507,1507,
1507,1507,1507,1507,1507,1507,1507,1507,1507,1507,1507,1507,1507,1507,1507,1507,1507,1507,1507,1507,1507,1507,1507,1507,1507,1507,1507,1507,1507,1507,1507,1507,1507,1507,1507,1507,1507,1507,1507,1507,1507,1507,1507,1507,1507,1507,1507,1507,1507,1507,
1507,1507,1507,1507,1507,1507,1507,1507,1507,1507,1507,1507,1507,1507,1507,1507,1507,1507,1507,1507,1507,1507,1507,1507,1507,1507,1507,1507,1507,1507,1507,1507,1507,1507,1507,1507,1507,1507,1507,1507,1507,1507,1507,1507,1507,1507,1507,1507,1507,1507,
1507,1507,1507,1507,1507,1507,1507,1507,1507,1507,1507,1507,1507,1507,1507,1507,1507,1507,1507,1507,1507,1507,1507,1507,1507,1507,1507,1507,1507,1507,1507,1507,1507,1507,1507,1507,1507,1507,1507,1507,1507,1507,1507,1507,1507,1507,1507,1507,1507,1507,
1507,1507,1507,1507,1507,1507,1507,1507,1507,1507,1507,1507,1507,1507,1507,1507,1507,1507,1507,1507,1507,1507,1507,1507,1507,1507,1507,1507,1507,1507,1507,1507,1507,1507,1507,1507,1507,1507,1507,1507,1507,1507,1507,1507,1507,1507,1507,1507,1507,1507,
1507,1507,1507,1507,1507,1507,1507,1507,1507,1507,1507,1507,1507,1507,1507,1507,1507,1507,1507,1507,1507,1507,1507,1507,1507,1507,1507,1507,1507,1507,1507,1507,1507,1507,1507,1507,1507,1507,1507,1507,1507,1507,1507,1507,1507,1507,1507,1507,1507,1507,
1507,1507,1507,1507,1507,1507,1507,1507,1507,1507,1507,1507,1507,1507,1507,1507,1507,1507,1507,1507,1507,1507,1507,1507,1507,1507,1507,1507,1507,1507,1507,1507,1507,1507,1507,1507,1507,1507,1507,1507,1507,1507,1507,1507,1507,1507,1507,1507,1507,1507,
1507,1507,1507,1507,1507,1507,1507,1507,1507,1507,1507,1507,1507,1507,1507,1507,1507,1507,1507,1507,1507,1507,1504,1504,1504,1504,1504,1504,1507,1507,1507,1507,1507,1507,1507,1507,1507,1507,1507,1507,1507,1507,1507,1507,1507,1507,1507,1507,1507,1507,
1507,1507,1507,1507,1507,1507,1507,1507,1507,1507,1507,1507,1507,1507,1507,1507,1507,1507,1507,1507,1507,1507,1504,1504,1504,1504,1504,1504,1507,1507,1507,1507,1507,1507,1507,1507,1507,1507,1507,1507,1507,1507,1507,1507,1507,1507,1507,1507,1507,1507,
1507,1507,1507,1507,1507,1507,1507,1507,1507,1507,1507,1507,1507,1507,1507,1507,1507,1507,1507,1507,1507,1507,1504,1504,1504,1504,1504,1504,1507,1507,1507,1507,1507,1507,1507,1507,1507,1507,1507,1507,1507,1507,1507,1507,1507,1507,1507,1507,1507,1507,
1507,1507,1507,1507,1507,1507,1507,1507,1507,1507,1507,1507,1507,1507,1507,1507,1507,1507,1507,1507,1507,1507,1504,1504,1504,1504,1504,1504,1507,1507,1507,1507,1507,1507,1507,1507,1507,1507,1507,1507,1507,1507,1507,1507,1507,1507,1507,1507,1507,1507,
1507,1507,1507,1507,1507,1507,1507,1507,1507,1507,1507,1507,1507,1507,1507,1507,1507,1507,1507,1507,1507,1507,1504,1504,1504,1504,1504,1504,1507,1507,1507,1507,1507,1507,1507,1507,1507,1507,1507,1507,1507,1507,1507,1507,1507,1507,1507,1507,1507,1507,
1507,1507,1507,1507,1507,1507,1507,1507,1507,1507,1507,1507,1507,1507,1507,1507,1507,1507,1507,1507,1507,1507,1504,1504,1504,1504,1504,1504,1507,1507,1507,1507,1507,1507,1507,1507,1507,1507,1507,1507,1507,1507,1507,1507,1507,1507,1507,1507,1507,1507,
1507,1507,1507,1507,1507,1507,1507,1507,1507,1507,1507,1507,1507,1507,1507,1507,1507,1507,1507,1507,1507,1507,1504,1504,1504,1504,1504,1504,1507,1507,1507,1507,1507,1507,1507,1507,1507,1507,1507,1507,1507,1507,1507,1507,1507,1507,1507,1507,1507,1507,
1507,1507,1507,1507,1507,1507,1507,1507,1507,1507,1507,1507,1507,1507,1507,1507,1507,1507,1507,1507,1507,1507,1504,1504,1504,1504,1504,1504,1507,1507,1507,1507,1507,1507,1507,1507,1507,1507,1507,1507,1507,1507,1507,1507,1507,1507,1507,1507,1507,1507,
1507,1507,1507,1507,1507,1507,1507,1507,1507,1507,1507,1507,1507,1507,1507,1507,1507,1507,1507,1507,1507,1507,1504,1504,1504,1504,1504,1504,1507,1507,1507,1507,1507,1507,1507,1507,1507,1507,1507,1507,1507,1507,1507,1507,1507,1507,1507,1507,1507,1507,
1507,1507,1507,1507,1507,1507,1507,1507,1507,1507,1507,1507,1504,1504,1507,1507,1507,1507,1504,1504,1504,1504,1504,1504,1504,1504,1504,1504,1504,1504,1504,1504,1507,1507,1507,1507,1504,1504,1507,1507,1507,1507,1507,1507,1507,1507,1507,1507,1507,1507,
1507,1507,1507,1507,1507,1507,1507,1507,1507,1507,1507,1504,1504,1504,1504,1504,1504,1506,1504,1504,1504,1504,1504,1504,1504,1504,1504,1504,1504,1504,1504,1504,1506,1504,1504,1504,1504,1504,1504,1507,1507,1507,1507,1507,1507,1507,1507,1507,1507,1507,
1507,1507,1507,1507,1507,1507,1507,1507,1507,1507,1504,1504,1504,1504,1504,1504,1504,1506,1504,1504,1504,1504,1504,1504,1504,1504,1504,1504,1504,1504,1504,1504,1506,1504,1504,1504,1504,1504,1504,1504,1507,1507,1507,1507,1507,1507,1507,1507,1507,1507,
1507,1507,1507,1507,1507,1507,1507,1507,1507,1504,1504,1504,1504,1504,1504,1504,1504,1506,1504,1504,1504,1504,1504,1504,1504,1504,1504,1504,1504,1504,1504,1504,1506,1504,1504,1504,1504,1504,1504,1504,1504,1507,1507,1507,1507,1507,1507,1507,1507,1507,
1507,1507,1507,1507,1507,1507,1507,1507,1504,1504,1504,1504,1504,1504,1504,1504,1504,1506,1504,1504,1504,1504,1504,1504,1504,1504,1504,1504,1504,1504,1504,1504,1506,1504,1504,1504,1504,1504,1504,1504,1504,1504,1507,1507,1507,1507,1507,1507,1507,1507,
1507,1507,1507,1507,1507,1507,1507,1507,1504,1504,1504,1504,1504,1504,1504,1504,1504,1506,1504,1504,1504,1504,1504,1507,1507,1507,1507,1504,1504,1504,1504,1504,1506,1504,1504,1504,1504,1504,1504,1504,1504,1504,1507,1507,1507,1507,1507,1507,1507,1507,
1507,1507,1507,1507,1507,1507,1507,1507,1507,1507,1507,1504,1504,1504,1504,1504,1504,1506,1504,1504,1504,1504,1504,1507,1507,1507,1507,1504,1504,1504,1504,1504,1506,1504,1504,1504,1504,1504,1504,1507,1507,1507,1507,1507,1507,1507,1507,1507,1507,1507,
1507,1507,1507,1507,1507,1507,1507,1507,1507,1507,1507,1504,1504,1504,1504,1504,1504,1506,1504,1504,1504,1504,1504,1504,1504,1504,1504,1504,1504,1504,1504,1504,1506,1504,1504,1504,1504,1504,1504,1507,1507,1507,1507,1507,1507,1507,1507,1507,1507,1507,
1507,1507,1507,1507,1507,1507,1507,1507,1504,1504,1504,1504,1504,1504,1504,1504,1504,1506,1504,1504,1504,1504,1504,1504,1504,1504,1504,1504,1504,1504,1504,1504,1506,1504,1504,1504,1504,1504,1504,1504,1504,1504,1507,1507,1507,1507,1507,1507,1507,1507,
1507,1507,1507,1507,1507,1507,1507,1507,1504,1504,1504,1504,1504,1504,1504,1504,1504,1506,1504,1504,1504,1504,1504,1504,1504,1504,1504,1504,1504,1504,1504,1504,1506,1504,1504,1504,1504,1504,1504,1504,1504,1504,1507,1507,1507,1507,1507,1507,1507,1507,
1507,1507,1507,1507,1507,1507,1507,1507,1504,1504,1504,1504,1507,1507,1507,1504,1504,1506,1504,1504,1504,1504,1504,1504,1504,1504,1504,1504,1504,1504,1504,1504,1506,1504,1504,1507,1507,1507,1504,1504,1504,1504,1507,1507,1507,1507,1507,1507,1507,1507,
1507,1507,1507,1507,1507,1507,1507,1507,1504,1504,1504,1504,1507,1507,1507,1504,1504,1506,1504,1504,1504,1504,1504,1504,1504,1504,1504,1504,1504,1504,1504,1504,1506,1504,1504,1507,1507,1507,1504,1504,1504,1504,1507,1507,1507,1507,1507,1507,1507,1507,
1507,1507,1507,1507,1507,1507,1507,1507,1504,1504,1504,1504,1504,1504,1504,1504,1504,1506,1504,1504,1504,1504,1504,1504,1504,1504,1504,1504,1504,1504,1504,1504,1506,1504,1504,1504,1504,1504,1504,1504,1504,1504,1507,1507,1507,1507,1507,1507,1507,1507,
1507,1507,1507,1507,1507,1507,1507,1507,1504,1507,1507,1507,1504,1504,1504,1504,1504,1506,1504,1504,1504,1504,1504,1504,1504,1504,1504,1504,1504,1504,1504,1504,1506,1504,1504,1504,1504,1504,1507,1507,1507,1504,1507,1507,1507,1507,1507,1507,1507,1507,
1507,1507,1507,1507,1507,1507,1507,1507,1504,1507,1507,1507,1504,1504,1504,1504,1504,1504,1504,1504,1504,1504,1504,1504,1504,1504,1504,1504,1504,1504,1504,1504,1504,1504,1504,1504,1504,1504,1507,1507,1507,1504,1507,1507,1507,1507,1507,1507,1507,1507,
1507,1507,1507,1507,1507,1507,1507,1507,1504,1504,1504,1504,1504,1504,1504,1504,1504,1504,1504,1504,1504,1504,1504,1504,1504,1504,1504,1504,1504,1504,1504,1504,1504,1504,1504,1504,1504,1504,1504,1504,1504,1504,1507,1507,1507,1507,1507,1507,1507,1507,
1507,1507,1507,1507,1507,1507,1507,1507,1504,1504,1504,1504,1504,1504,1504,1504,1504,1504,1504,1504,1504,1504,1504,1504,1504,1504,1504,1504,1504,1504,1504,1504,1504,1504,1504,1504,1504,1504,1504,1504,1504,1504,1507,1507,1507,1507,1507,1507,1507,1507,
1507,1507,1507,1507,1507,1507,1507,1507,1504,1504,1504,1504,1504,1504,1504,1504,1504,1504,1504,1504,1504,1504,1504,1504,1504,1504,1504,1504,1504,1504,1504,1504,1504,1504,1504,1504,1504,1504,1504,1504,1504,1504,1507,1507,1507,1507,1507,1507,1507,1507,
1507,1507,1507,1507,1507,1507,1507,1507,1504,1504,1504,1504,1504,1504,1504,1504,1504,1504,1504,1504,1504,1504,1504,1504,1504,1504,1504,1504,1504,1504,1504,1504,1504,1504,1504,1504,1504,1504,1504,1504,1504,1504,1507,1507,1507,1507,1507,1507,1507,1507,
1507,1507,1507,1507,1507,1507,1507,1507,1504,1504,1504,1504,1504,1504,1504,1504,1504,1504,1504,1504,1504,1504,1504,1504,1504,1504,1504,1504,1504,1504,1504,1504,1504,1504,1504,1504,1504,1504,1504,1504,1504,1504,1507,1507,1507,1507,1507,1507,1507,1507,
1507,1507,1507,1507,1507,1507,1507,1507,1504,1504,1504,1504,1504,1504,1504,1504,1504,1504,1504,1504,1504,1504,1504,1504,1504,1504,1504,1504,1504,1504,1504,1504,1504,1504,1504,1504,1504,1504,1504,1504,1504,1504,1507,1507,1507,1507,1507,1507,1507,1507,
1507,1507,1507,1507,1507,1507,1507,1507,1504,1504,1504,1504,1504,1504,1504,1504,1504,1504,1504,1504,1504,1504,1504,1504,1504,1504,1504,1504,1504,1504,1504,1504,1504,1504,1504,1504,1504,1504,1504,1504,1504,1504,1507,1507,1507,1507,1507,1507,1507,1507,
1507,1507,1507,1507,1507,1507,1507,1507,1504,1504,1504,1504,1504,1504,1504,1504,1504,1504,1504,1504,1504,1504,1504,1504,1504,1504,1504,1504,1504,1504,1504,1504,1504,1504,1504,1504,1504,1504,1504,1504,1504,1504,1507,1507,1507,1507,1507,1507,1507,1507,
1507,1507,1507,1507,1507,1507,1507,1507,1504,1504,1504,1504,1504,1504,1504,1504,1504,1504,1504,1504,1504,1504,1504,1504,1504,1504,1504,1504,1504,1504,1504,1504,1504,1504,1504,1504,1504,1504,1504,1504,1504,1504,1507,1507,1507,1507,1507,1507,1507,1507,
1507,1507,1507,1507,1507,1507,1507,1507,1504,1504,1504,1504,1504,1504,1504,1504,1504,1504,1504,1504,1504,1504,1504,1504,1504,1504,1504,1504,1504,1504,1504,1504,1504,1504,1504,1504,1504,1504,1504,1504,1504,1504,1507,1507,1507,1507,1507,1507,1507,1507,
1507,1507,1507,1507,1507,1507,1507,1507,1504,1504,1504,1504,1504,1504,1504,1504,1504,1504,1504,1504,1504,1504,1504,1504,1504,1504,1504,1504,1504,1504,1504,1504,1504,1504,1504,1504,1504,1504,1504,1504,1504,1504,1507,1507,1507,1507,1507,1507,1507,1507,
1507,1507,1507,1507,1507,1507,1507,1507,1504,1504,1504,1504,1504,1504,1504,1504,1504,1504,1504,1504,1504,1504,1504,1504,1504,1504,1504,1504,1504,1504,1504,1504,1504,1504,1504,1504,1504,1504,1504,1504,1504,1504,1507,1507,1507,1507,1507,1507,1507,1507,
1507,1507,1507,1507,1507,1507,1507,1507,1507,1504,1504,1504,1504,1504,1504,1504,1504,1504,1504,1504,1504,1504,1504,1504,1504,1504,1504,1504,1504,1504,1504,1504,1504,1504,1504,1504,1504,1504,1504,1504,1504,1507,1507,1507,1507,1507,1507,1507,1507,1507,
1507,1507,1507,1507,1507,1507,1507,1507,1507,1507,1504,1504,1504,1504,1504,1504,1504,1504,1504,1504,1504,1504,1504,1504,1504,1504,1504,1504,1504,1504,1504,1504,1504,1504,1504,1504,1504,1504,1504,1504,1507,1507,1507,1507,1507,1507,1507,1507,1507,1507,
1507,1507,1507,1507,1507,1507,1507,1507,1507,1507,1507,1504,1504,1504,1504,1504,1504,1504,1504,1504,1504,1504,1504,1504,1504,1504,1504,1504,1504,1504,1504,1504,1504,1504,1504,1504,1504,1504,1504,1507,1507,1507,1507,1507,1507,1507,1507,1507,1507,1507,
1507,1507,1507,1507,1507,1507,1507,1507,1507,1507,1507,1507,1504,1504,1504,1504,1504,1504,1504,1504,1504,1504,1504,1504,1504,1504,1504,1504,1504,1504,1504,1504,1504,1504,1504,1504,1504,1504,1507,1507,1507,1507,1507,1507,1507,1507,1507,1507,1507,1507,
1507,1507,1507,1507,1507,1507,1507,1507,1507,1507,1507,1507,1507,1507,1507,1507,1507,1507,1507,1507,1507,1507,1504,1504,1504,1504,1504,1504,1507,1507,1507,1507,1507,1507,1507,1507,1507,1507,1507,1507,1507,1507,1507,1507,1507,1507,1507,1507,1507,1507,
1507,1507,1507,1507,1507,1507,1507,1507,1507,1507,1507,1507,1507,1507,1507,1507,1507,1507,1507,1507,1507,1507,1504,1504,1504,1504,1504,1504,1507,1507,1507,1507,1507,1507,1507,1507,1507,1507,1507,1507,1507,1507,1507,1507,1507,1507,1507,1507,1507,1507,
1507,1507,1507,1507,1507,1507,1507,1507,1507,1507,1507,1507,1507,1507,1507,1507,1507,1507,1507,1507,1507,1507,1504,1504,1504,1504,1504,1504,1507,1507,1507,1507,1507,1507,1507,1507,1507,1507,1507,1507,1507,1507,1507,1507,1507,1507,1507,1507,1507,1507,
1507,1507,1507,1507,1507,1507,1507,1507,1507,1507,1507,1507,1507,1507,1507,1507,1507,1507,1507,1507,1507,1507,1504,1504,1504,1504,1504,1504,1507,1507,1507,1507,1507,1507,1507,1507,1507,1507,1507,1507,1507,1507,1507,1507,1507,1507,1507,1507,1507,1507,
1507,1507,1507,1507,1507,1507,1507,1507,1507,1507,1507,1507,1507,1507,1507,1507,1507,1507,1507,1507,1507,1507,1504,1504,1504,1504,1504,1504,1507,1507,1507,1507,1507,1507,1507,1507,1507,1507,1507,1507,1507,1507,1507,1507,1507,1507,1507,1507,1507,1507,
1507,1507,1507,1507,1507,1507,1507,1507,1507,1507,1507,1507,1507,1507,1507,1507,1507,1507,1507,1507,1507,1507,1504,1504,1504,1504,1504,1504,1507,1507,1507,1507,1507,1507,1507,1507,1507,1507,1507,1507,1507,1507,1507,1507,1507,1507,1507,1507,1507,1507,
1507,1507,1507,1507,1507,1507,1507,1507,1507,1507,1507,1507,1507,1507,1507,1507,1507,1507,1507,1507,1507,1507,1507,1507,1507,1507,1507,1507,1507,1507,1507,1507,1507,1507,1507,1507,1507,1507,1507,1507,1507,1507,1507,1507,1507,1507,1507,1507,1507,1507
</data>
 </layer>
 <layer id="14" name="Tiles_Rules" width="50" height="56" visible="0">
  <properties>
   <property name="maybe_animation_id" value="f525790c1101b1a1"/>
   <property name="maybe_tileset_id" value="a3b6ca91b299d4f5"/>
   <property name="tile_size" type="int" value="8"/>
  </properties>
  <data encoding="csv">
6181,6181,6181,6181,6181,6181,6181,6181,6181,6181,6181,6181,6181,6181,6181,6181,6181,6181,6181,6181,6181,6181,6181,6181,6181,6181,6181,6181,6181,6181,6181,6181,6181,6181,6181,6181,6181,6181,6181,6181,6181,6181,6181,6181,6181,6181,6181,6181,6181,6181,
6181,6181,6181,6181,6181,6181,6181,6181,6181,6181,6181,6181,6181,6181,6181,6181,6181,6181,6181,6181,6181,6181,6181,6181,6181,6181,6181,6181,6181,6181,6181,6181,6181,6181,6181,6181,6181,6181,6181,6181,6181,6181,6181,6181,6181,6181,6181,6181,6181,6181,
6181,6181,6181,6181,6181,6181,6181,6181,6181,6181,6181,6181,6181,6181,6181,6181,6181,6181,6181,6181,6181,6181,6181,6181,6181,6181,6181,6181,6181,6181,6181,6181,6181,6181,6181,6181,6181,6181,6181,6181,6181,6181,6181,6181,6181,6181,6181,6181,6181,6181,
6181,6181,6181,6181,6181,6181,6181,6181,6181,6181,6181,6181,6181,6181,6181,6181,6181,6181,6181,6181,6181,6181,6181,6181,6181,6181,6181,6181,6181,6181,6181,6181,6181,6181,6181,6181,6181,6181,6181,6181,6181,6181,6181,6181,6181,6181,6181,6181,6181,6181,
6181,6181,6181,6181,6181,6181,6181,6181,6181,6181,6181,6181,6181,6181,6181,6181,6181,6181,6181,6181,6181,6181,6181,6181,6181,6181,6181,6181,6181,6181,6181,6181,6181,6181,6181,6181,6181,6181,6181,6181,6181,6181,6181,6181,6181,6181,6181,6181,6181,6181,
6181,6181,6181,6181,6181,6181,6181,6181,6181,6181,6181,6181,6181,6181,6181,6181,6181,6181,6181,6181,6181,6181,6181,6181,6181,6181,6181,6181,6181,6181,6181,6181,6181,6181,6181,6181,6181,6181,6181,6181,6181,6181,6181,6181,6181,6181,6181,6181,6181,6181,
6181,6181,6181,6181,6181,6181,6181,6181,6181,6181,6181,6181,6181,6181,6181,6181,6181,6181,6181,6181,6181,6181,6181,6181,6181,6181,6181,6181,6181,6181,6181,6181,6181,6181,6181,6181,6181,6181,6181,6181,6181,6181,6181,6181,6181,6181,6181,6181,6181,6181,
6181,6181,6181,6181,6181,6181,6181,6181,6181,6181,6181,6181,6181,6181,6181,6181,6181,6181,6181,6181,6181,6181,6181,6181,6181,6181,6181,6181,6181,6181,6181,6181,6181,6181,6181,6181,6181,6181,6181,6181,6181,6181,6181,6181,6181,6181,6181,6181,6181,6181,
6181,6181,6181,6181,6181,6181,6181,6181,6181,6181,6181,6181,6181,6181,6181,6181,6181,6181,6181,6181,6181,6181,6181,6181,6181,6181,6181,6181,6181,6181,6181,6181,6181,6181,6181,6181,6181,6181,6181,6181,6181,6181,6181,6181,6181,6181,6181,6181,6181,6181,
6181,6181,6181,6181,6181,6181,6181,6181,6181,6181,6181,6181,6181,6181,6181,6181,6181,6181,6181,6181,6181,6181,6181,6181,6181,6181,6181,6181,6181,6181,6181,6181,6181,6181,6181,6181,6181,6181,6181,6181,6181,6181,6181,6181,6181,6181,6181,6181,6181,6181,
6181,6181,6181,6181,6181,6181,6181,6181,6181,6181,6181,6181,6181,6181,6181,6181,6181,6181,6181,6181,6181,6181,6181,6181,6181,6181,6181,6181,6181,6181,6181,6181,6181,6181,6181,6181,6181,6181,6181,6181,6181,6181,6181,6181,6181,6181,6181,6181,6181,6181,
6181,6181,6181,6181,6181,6181,6181,6181,6181,6181,6181,6181,6181,6181,6181,6181,6181,6181,6181,6181,6181,6181,6181,6181,6181,6181,6181,6181,6181,6181,6181,6181,6181,6181,6181,6181,6181,6181,6181,6181,6181,6181,6181,6181,6181,6181,6181,6181,6181,6181,
6181,6181,6181,6181,6181,6181,6181,6181,6181,6181,6181,6181,6181,6181,6181,6181,6181,6181,6181,6181,6181,6181,6181,6181,6181,6181,6181,6181,6181,6181,6181,6181,6181,6181,6181,6181,6181,6181,6181,6181,6181,6181,6181,6181,6181,6181,6181,6181,6181,6181,
6181,6181,6181,6181,6181,6181,6181,6181,6181,6181,6181,6181,6181,6181,6181,6181,6181,6181,6181,6181,6181,6181,6181,6181,6181,6181,6181,6181,6181,6181,6181,6181,6181,6181,6181,6181,6181,6181,6181,6181,6181,6181,6181,6181,6181,6181,6181,6181,6181,6181,
6181,6181,6181,6181,6181,6181,6181,6181,6181,6181,6181,6181,6181,6181,6181,6181,6181,6181,6181,6181,6181,6181,6181,6181,6181,6181,6181,6181,6181,6181,6181,6181,6181,6181,6181,6181,6181,6181,6181,6181,6181,6181,6181,6181,6181,6181,6181,6181,6181,6181,
6181,6181,6181,6181,6181,6181,6181,6181,6181,6181,6181,6181,6181,6181,6181,6181,6181,6181,6181,6181,6181,6181,6181,6181,6181,6181,6181,6181,6181,6181,6181,6181,6181,6181,6181,6181,6181,6181,6181,6181,6181,6181,6181,6181,6181,6181,6181,6181,6181,6181,
6181,6181,6181,6181,6181,6181,6181,6181,6181,6181,6181,6181,6181,6181,6181,6181,6181,6181,6181,6181,6181,6181,6181,6181,6181,6181,6181,6181,6181,6181,6181,6181,6181,6181,6181,6181,6181,6181,6181,6181,6181,6181,6181,6181,6181,6181,6181,6181,6181,6181,
6181,6181,6181,6181,6181,6181,6181,6181,6181,6181,6181,6181,6181,6181,6181,6181,6181,6181,6181,6181,6181,6181,6181,6181,6181,6181,6181,6181,6181,6181,6181,6181,6181,6181,6181,6181,6181,6181,6181,6181,6181,6181,6181,6181,6181,6181,6181,6181,6181,6181,
6181,6181,6181,6181,6181,6181,6181,6181,6181,6181,6181,6181,6181,6181,6181,6181,6181,6181,6181,6181,6181,6181,6181,6181,6181,6181,6181,6181,6181,6181,6181,6181,6181,6181,6181,6181,6181,6181,6181,6181,6181,6181,6181,6181,6181,6181,6181,6181,6181,6181,
6181,6181,6181,6181,6181,6181,6181,6181,6181,6181,6181,6181,6181,6181,6181,6181,6181,6181,6181,6181,6181,6181,6181,6181,6181,6181,6181,6181,6181,6181,6181,6181,6181,6181,6181,6181,6181,6181,6181,6181,6181,6181,6181,6181,6181,6181,6181,6181,6181,6181,
6181,6181,6181,6181,6181,6181,6181,6181,6181,6181,6181,6181,6181,6181,6181,6181,6181,6181,6181,6181,6181,6181,6181,6181,6181,6181,6181,6181,6181,6181,6181,6181,6181,6181,6181,6181,6181,6181,6181,6181,6181,6181,6181,6181,6181,6181,6181,6181,6181,6181,
6181,6181,6181,6181,6181,6181,6181,6181,6181,6181,6181,6181,6181,6181,6181,6181,6181,6181,6181,6181,6181,6181,6181,6181,6181,6181,6181,6181,6181,6181,6181,6181,6181,6181,6181,6181,6181,6181,6181,6181,6181,6181,6181,6181,6181,6181,6181,6181,6181,6181,
6181,6181,6181,6181,6181,6181,6181,6181,6181,6181,6181,6181,6181,6181,6181,6181,6181,6181,6181,6181,6181,6181,6181,6181,6181,6181,6181,6181,6181,6181,6181,6181,6181,6181,6181,6181,6181,6181,6181,6181,6181,6181,6181,6181,6181,6181,6181,6181,6181,6181,
6181,6181,6181,6181,6181,6181,6181,6181,6181,6181,6181,6181,6181,6181,6181,6181,6181,6181,6181,6181,6181,6181,6181,6181,6181,6181,6181,6181,6181,6181,6181,6181,6181,6181,6181,6181,6181,6181,6181,6181,6181,6181,6181,6181,6181,6181,6181,6181,6181,6181,
6181,6181,6181,6181,6181,6181,6181,6181,6181,6181,6181,6181,6181,6181,6181,6181,6181,6181,6181,6181,6181,6181,6181,6181,6181,6181,6181,6181,6181,6181,6181,6181,6181,6181,6181,6181,6181,6181,6181,6181,6181,6181,6181,6181,6181,6181,6181,6181,6181,6181,
6181,6181,6181,6181,6181,6181,6181,6181,6181,6181,6181,6181,6181,6181,6181,6181,6181,6181,6181,6181,6181,6181,6181,6181,6181,6181,6181,6181,6181,6181,6181,6181,6181,6181,6181,6181,6181,6181,6181,6181,6181,6181,6181,6181,6181,6181,6181,6181,6181,6181,
6181,6181,6181,6181,6181,6181,6181,6181,6181,6181,6181,6181,6181,6181,6181,6181,6181,6181,6181,6181,6181,6181,6181,6181,6181,6181,6181,6181,6181,6181,6181,6181,6181,6181,6181,6181,6181,6181,6181,6181,6181,6181,6181,6181,6181,6181,6181,6181,6181,6181,
6181,6181,6181,6181,6181,6181,6181,6181,6181,6181,6181,6181,6181,6181,6181,6181,6181,6181,6181,6181,6181,6181,6181,6181,6181,6181,6181,6181,6181,6181,6181,6181,6181,6181,6181,6181,6181,6181,6181,6181,6181,6181,6181,6181,6181,6181,6181,6181,6181,6181,
6181,6181,6181,6181,6181,6181,6181,6181,6181,6181,6181,6181,6181,6181,6181,6181,6181,6181,6181,6181,6181,6181,6181,6181,6181,6181,6181,6181,6181,6181,6181,6181,6181,6181,6181,6181,6181,6181,6181,6181,6181,6181,6181,6181,6181,6181,6181,6181,6181,6181,
6181,6181,6181,6181,6181,6181,6181,6181,6181,6181,6181,6181,6181,6181,6181,6181,6181,6181,6181,6181,6181,6181,6181,6181,6181,6181,6181,6181,6181,6181,6181,6181,6181,6181,6181,6181,6181,6181,6181,6181,6181,6181,6181,6181,6181,6181,6181,6181,6181,6181,
6181,6181,6181,6181,6181,6181,6181,6181,6181,6181,6181,6181,6181,6181,6181,6181,6181,6181,6181,6181,6181,6181,6181,6181,6181,6181,6181,6181,6181,6181,6181,6181,6181,6181,6181,6181,6181,6181,6181,6181,6181,6181,6181,6181,6181,6181,6181,6181,6181,6181,
6181,6181,6181,6181,6181,6181,6181,6181,6181,6181,6181,6181,6181,6181,6181,6181,6181,6181,6181,6181,6181,6181,6181,6181,6181,6181,6181,6181,6181,6181,6181,6181,6181,6181,6181,6181,6181,6181,6181,6181,6181,6181,6181,6181,6181,6181,6181,6181,6181,6181,
6181,6181,6181,6181,6181,6181,6181,6181,6181,6181,6181,6181,6181,6181,6181,6181,6181,6181,6181,6181,6181,6181,6181,6181,6181,6181,6181,6181,6181,6181,6181,6181,6181,6181,6181,6181,6181,6181,6181,6181,6181,6181,6181,6181,6181,6181,6181,6181,6181,6181,
6181,6181,6181,6181,6181,6181,6181,6181,6181,6181,6181,6181,6181,6181,6181,6181,6181,6181,6181,6181,6181,6181,6181,6181,6181,6181,6181,6181,6181,6181,6181,6181,6181,6181,6181,6181,6181,6181,6181,6181,6181,6181,6181,6181,6181,6181,6181,6181,6181,6181,
6181,6181,6181,6181,6181,6181,6181,6181,6181,6181,6181,6181,6181,6181,6181,6181,6181,6181,6181,6181,6181,6181,6181,6181,6181,6181,6181,6181,6181,6181,6181,6181,6181,6181,6181,6181,6181,6181,6181,6181,6181,6181,6181,6181,6181,6181,6181,6181,6181,6181,
6181,6181,6181,6181,6181,6181,6181,6181,6181,6181,6181,6181,6181,6181,6181,6181,6181,6181,6181,6181,6181,6181,6181,6181,6181,6181,6181,6181,6181,6181,6181,6181,6181,6181,6181,6181,6181,6181,6181,6181,6181,6181,6181,6181,6181,6181,6181,6181,6181,6181,
6181,6181,6181,6181,6181,6181,6181,6181,6181,6181,6181,6181,6181,6181,6181,6181,6181,6181,6181,6181,6181,6181,6181,6181,6181,6181,6181,6181,6181,6181,6181,6181,6181,6181,6181,6181,6181,6181,6181,6181,6181,6181,6181,6181,6181,6181,6181,6181,6181,6181,
6181,6181,6181,6181,6181,6181,6181,6181,6181,6181,6181,6181,6181,6181,6181,6181,6181,6181,6181,6181,6181,6181,6181,6181,6181,6181,6181,6181,6181,6181,6181,6181,6181,6181,6181,6181,6181,6181,6181,6181,6181,6181,6181,6181,6181,6181,6181,6181,6181,6181,
6181,6181,6181,6181,6181,6181,6181,6181,6181,6181,6181,6181,6181,6181,6181,6181,6181,6181,6181,6181,6181,6181,6181,6181,6181,6181,6181,6181,6181,6181,6181,6181,6181,6181,6181,6181,6181,6181,6181,6181,6181,6181,6181,6181,6181,6181,6181,6181,6181,6181,
6181,6181,6181,6181,6181,6181,6181,6181,6181,6181,6181,6181,6181,6181,6181,6181,6181,6181,6181,6181,6181,6181,6181,6181,6181,6181,6181,6181,6181,6181,6181,6181,6181,6181,6181,6181,6181,6181,6181,6181,6181,6181,6181,6181,6181,6181,6181,6181,6181,6181,
6181,6181,6181,6181,6181,6181,6181,6181,6181,6181,6181,6181,6181,6181,6181,6181,6181,6181,6181,6181,6181,6181,6181,6181,6181,6181,6181,6181,6181,6181,6181,6181,6181,6181,6181,6181,6181,6181,6181,6181,6181,6181,6181,6181,6181,6181,6181,6181,6181,6181,
6181,6181,6181,6181,6181,6181,6181,6181,6181,6181,6181,6181,6181,6181,6181,6181,6181,6181,6181,6181,6181,6181,6181,6181,6181,6181,6181,6181,6181,6181,6181,6181,6181,6181,6181,6181,6181,6181,6181,6181,6181,6181,6181,6181,6181,6181,6181,6181,6181,6181,
6181,6181,6181,6181,6181,6181,6181,6181,6181,6181,6181,6181,6181,6181,6181,6181,6181,6181,6181,6181,6181,6181,6181,6181,6181,6181,6181,6181,6181,6181,6181,6181,6181,6181,6181,6181,6181,6181,6181,6181,6181,6181,6181,6181,6181,6181,6181,6181,6181,6181,
6181,6181,6181,6181,6181,6181,6181,6181,6181,6181,6181,6181,6181,6181,6181,6181,6181,6181,6181,6181,6181,6181,6181,6181,6181,6181,6181,6181,6181,6181,6181,6181,6181,6181,6181,6181,6181,6181,6181,6181,6181,6181,6181,6181,6181,6181,6181,6181,6181,6181,
6181,6181,6181,6181,6181,6181,6181,6181,6181,6181,6181,6181,6181,6181,6181,6181,6181,6181,6181,6181,6181,6181,6181,6181,6181,6181,6181,6181,6181,6181,6181,6181,6181,6181,6181,6181,6181,6181,6181,6181,6181,6181,6181,6181,6181,6181,6181,6181,6181,6181,
6181,6181,6181,6181,6181,6181,6181,6181,6181,6181,6181,6181,6181,6181,6181,6181,6181,6181,6181,6181,6181,6181,6181,6181,6181,6181,6181,6181,6181,6181,6181,6181,6181,6181,6181,6181,6181,6181,6181,6181,6181,6181,6181,6181,6181,6181,6181,6181,6181,6181,
6181,6181,6181,6181,6181,6181,6181,6181,6181,6181,6181,6181,6181,6181,6181,6181,6181,6181,6181,6181,6181,6181,6181,6181,6181,6181,6181,6181,6181,6181,6181,6181,6181,6181,6181,6181,6181,6181,6181,6181,6181,6181,6181,6181,6181,6181,6181,6181,6181,6181,
6181,6181,6181,6181,6181,6181,6181,6181,6181,6181,6181,6181,6181,6181,6181,6181,6181,6181,6181,6181,6181,6181,6181,6181,6181,6181,6181,6181,6181,6181,6181,6181,6181,6181,6181,6181,6181,6181,6181,6181,6181,6181,6181,6181,6181,6181,6181,6181,6181,6181,
6181,6181,6181,6181,6181,6181,6181,6181,6181,6181,6181,6181,6181,6181,6181,6181,6181,6181,6181,6181,6181,6181,6181,6181,6181,6181,6181,6181,6181,6181,6181,6181,6181,6181,6181,6181,6181,6181,6181,6181,6181,6181,6181,6181,6181,6181,6181,6181,6181,6181,
0,0,0,0,0,0,0,0,0,0,0,0,0,0,0,0,0,0,0,0,0,0,0,0,0,0,0,0,0,0,0,0,0,0,0,0,0,0,0,0,0,0,0,0,0,0,0,0,0,0,
0,0,0,0,0,0,0,0,0,0,0,0,0,0,0,0,0,0,0,0,0,0,0,0,0,0,0,0,0,0,0,0,0,0,0,0,0,0,0,0,0,0,0,0,0,0,0,0,0,0,
0,0,0,0,0,0,0,0,0,0,0,0,0,0,0,0,0,0,0,0,0,0,0,0,0,0,0,0,0,0,0,0,0,0,0,0,0,0,0,0,0,0,0,0,0,0,0,0,0,0,
0,0,0,0,0,0,0,0,0,0,0,0,0,0,0,0,0,0,0,0,0,0,0,0,0,0,0,0,0,0,0,0,0,0,0,0,0,0,0,0,0,0,0,0,0,0,0,0,0,0,
0,0,0,0,0,0,0,0,0,0,0,0,0,0,0,0,0,0,0,0,0,0,0,0,0,0,0,0,0,0,0,0,0,0,0,0,0,0,0,0,0,0,0,0,0,0,0,0,0,0,
0,0,0,0,0,0,0,0,0,0,0,0,0,0,0,0,0,0,0,0,0,0,0,0,0,0,0,0,0,0,0,0,0,0,0,0,0,0,0,0,0,0,0,0,0,0,0,0,0,0,
0,0,0,0,0,0,0,0,0,0,0,0,0,0,0,0,0,0,0,0,0,0,0,0,0,0,0,0,0,0,0,0,0,0,0,0,0,0,0,0,0,0,0,0,0,0,0,0,0,0
</data>
 </layer>
 <layer id="15" name="Pathfinding" width="50" height="56">
  <properties>
   <property name="maybe_animation_id" value="6d2460f008fb99d4"/>
   <property name="maybe_tileset_id" value="264fe6c9523400a1"/>
   <property name="tile_size" type="int" value="8"/>
  </properties>
  <data encoding="csv">
0,6007,6007,6007,6007,6007,6007,6007,6007,6007,6007,6007,6007,6007,6007,6007,6007,6007,6007,6007,6007,6007,6007,6007,6007,6007,6007,6007,6007,6007,6007,6007,6007,6007,6007,6007,6007,6007,6007,6007,6007,6007,6007,6007,6007,6007,6007,0,0,0,
0,6007,6007,6007,6007,6007,6007,6007,6007,6007,6007,6007,6007,6007,6007,6007,6007,6007,6007,6007,6007,6007,6007,6007,6007,6007,6007,6007,6007,6007,6007,6007,6007,6007,6007,6007,6007,6007,6007,6007,6007,6007,6007,6007,6007,6007,6007,0,0,0,
0,6007,6007,6007,6007,6007,6007,6007,6007,6007,6007,6007,6007,6007,6007,6007,6007,6007,6007,6007,6007,6007,6007,6007,6007,6007,6007,6007,6007,6007,6007,6007,6007,6007,6007,6007,6007,6007,6007,6007,6007,6007,6007,6007,6007,6007,6007,0,0,0,
0,6007,6007,6007,6007,6007,6007,6007,6007,6007,6007,6007,6007,6007,6007,6007,6007,6007,6007,6007,6007,6007,6007,6007,6007,6007,6007,6007,6007,6007,6007,6007,6007,6007,6007,6007,6007,6007,6007,6007,6007,6007,6007,6007,6007,6007,6007,0,0,0,
0,6007,6007,6007,6007,6007,6007,6007,6007,6007,6007,6007,6007,6007,6007,6007,6007,6007,6007,6007,6007,6007,6007,6007,6007,6007,6007,6007,6007,6007,6007,6007,6007,6007,6007,6007,6007,6007,6007,6007,6007,6007,6007,6007,6007,6007,6007,0,0,0,
0,6007,6007,6007,6007,6007,6007,6007,6007,6007,6007,6007,6007,6007,6007,6007,6007,6007,6007,6007,6007,6007,6007,6007,6007,6007,6007,6007,6007,6007,6007,6007,6007,6007,6007,6007,6007,6007,6007,6007,6007,6007,6007,6007,6007,6007,6007,0,0,0,
0,6007,6007,6007,6007,6007,6007,6007,6007,6007,6007,6007,6007,6007,6007,6007,6007,6007,6007,6007,6007,6007,6007,6007,6007,6007,6007,6007,6007,6007,6007,6007,6007,6007,6007,6007,6007,6007,6007,6007,6007,6007,6007,6007,6007,6007,6007,0,0,0,
0,6007,6007,6007,6007,6007,6007,6007,6007,6007,6007,6007,6007,6007,6007,6007,6007,6007,6007,6007,6007,6007,6007,6007,6007,6007,6007,6007,6007,6007,6007,6007,6007,6007,6007,6007,6007,6007,6007,6007,6007,6007,6007,6007,6007,6007,6007,0,0,0,
0,6007,6007,6007,6007,6007,6007,6007,6007,6007,6007,6007,6007,6007,6007,6007,6007,6007,6007,6007,6007,6007,6007,6007,6007,6007,6007,6007,6007,6007,6007,6007,6007,6007,6007,6007,6007,6007,6007,6007,6007,6007,6007,6007,6007,6007,6007,0,0,0,
0,6007,6007,6007,6007,6007,6007,6007,6007,6007,6007,6007,6007,6007,6007,6007,6007,6007,6007,6007,6007,6007,6007,6007,6007,6007,6007,6007,6007,6007,6007,6007,6007,6007,6007,6007,6007,6007,6007,6007,6007,6007,6007,6007,6007,6007,6007,0,0,0,
0,6007,6007,6007,6007,6007,6007,6007,6007,6007,6007,6007,6007,6007,6007,6007,6007,6007,6007,6007,6007,6007,6007,6007,6007,6007,6007,6007,6007,6007,6007,6007,6007,6007,6007,6007,6007,6007,6007,6007,6007,6007,6007,6007,6007,6007,6007,0,0,0,
0,6007,6007,6007,6007,6007,6007,6007,6007,6007,6007,6007,6007,6007,6007,6007,6007,6007,6007,6007,6007,6007,6007,6007,6007,6007,6007,6007,6007,6007,6007,6007,6007,6007,6007,6007,6007,6007,6007,6007,6007,6007,6007,6007,6007,6007,6007,0,0,0,
0,6007,6007,6007,6007,6007,6007,6007,6007,6007,6007,6007,6007,6007,6007,6007,6007,6007,6007,6007,6007,6007,6007,6007,6007,6007,6007,6007,6007,6007,6007,6007,6007,6007,6007,6007,6007,6007,6007,6007,6007,6007,6007,6007,6007,6007,6007,0,0,0,
0,6007,6007,6007,6007,6007,6007,6007,6007,6007,6007,6007,6007,6007,6007,6007,6007,6007,6007,6007,6007,6007,6007,6007,6007,6007,6007,6007,6007,6007,6007,6007,6007,6007,6007,6007,6007,6007,6007,6007,6007,6007,6007,6007,6007,6007,6007,0,0,0,
0,6007,6007,6007,6007,6007,6007,6007,6007,6007,6007,6007,6007,6007,6007,6007,6007,6007,6007,6007,6007,6007,6007,6007,6007,6007,6007,6007,6007,6007,6007,6007,6007,6007,6007,6007,6007,6007,6007,6007,6007,6007,6007,6007,6007,6007,6007,0,0,0,
0,6007,6007,6007,6007,6007,6007,6007,6007,6007,6007,6007,6007,6007,6007,6007,6007,6007,6007,6007,6007,6007,6007,6007,6007,6007,6007,6007,6007,6007,6007,6007,6007,6007,6007,6007,6007,6007,6007,6007,6007,6007,6007,6007,6007,6007,6007,0,0,0,
0,6007,6007,6007,6007,6007,6007,6007,6007,6007,6007,6007,6007,6007,6007,6007,6007,6007,6007,6007,6007,6007,6007,6007,6007,6007,6007,6007,6007,6007,6007,6007,6007,6007,6007,6007,6007,6007,6007,6007,6007,6007,6007,6007,6007,6007,6007,0,0,0,
0,6007,6007,6007,6007,6007,6007,6007,6007,6007,6007,6007,6007,6007,6007,6007,6007,6007,6007,6007,6007,6007,6007,6007,6007,6007,6007,6007,6007,6007,6007,6007,6007,6007,6007,6007,6007,6007,6007,6007,6007,6007,6007,6007,6007,6007,6007,0,0,0,
0,6007,6007,6007,6007,6007,6007,6007,6007,6007,6007,6007,6007,6007,6007,6007,6007,6007,6007,6007,6007,6007,6007,6007,6007,6007,6007,6007,6007,6007,6007,6007,6007,6007,6007,6007,6007,6007,6007,6007,6007,6007,6007,6007,6007,6007,6007,0,0,0,
0,6007,6007,6007,6007,6007,6007,6007,6007,6007,6007,6007,6007,6007,6007,6007,6007,6007,6007,6007,6007,6007,6007,6007,6007,6007,6007,6007,6007,6007,6007,6007,6007,6007,6007,6007,6007,6007,6007,6007,6007,6007,6007,6007,6007,6007,6007,0,0,0,
0,6007,6007,6007,6007,6007,6007,6007,6007,6007,6007,6007,6007,6007,6007,6007,6007,6007,6007,6007,6007,6007,6007,6007,6007,6007,6007,6007,6007,6007,6007,6007,6007,6007,6007,6007,6007,6007,6007,6007,6007,6007,6007,6007,6007,6007,6007,0,0,0,
0,6007,6007,6007,6007,6007,6007,6007,6007,6007,6007,6007,6007,6007,6007,6007,6007,6007,6007,6007,6007,6007,6007,6007,6007,6007,6007,6007,6007,6007,6007,6007,6007,6007,6007,6007,6007,6007,6007,6007,6007,6007,6007,6007,6007,6007,6007,0,0,0,
0,6007,6007,6007,6007,6007,6007,6007,6007,6007,6007,6007,6007,6007,6007,6007,6007,6007,6007,6007,6007,6007,6007,6007,6007,6007,6007,6007,6007,6007,6007,6007,6007,6007,6007,6007,6007,6007,6007,6007,6007,6007,6007,6007,6007,6007,6007,0,0,0,
0,6007,6007,6007,6007,6007,6007,6007,6007,6007,6007,6007,6007,6007,6007,6007,6007,6007,6007,6007,6007,6007,6007,6007,6007,6007,6007,6007,6007,6007,6007,6007,6007,6007,6007,6007,6007,6007,6007,6007,6007,6007,6007,6007,6007,6007,6007,0,0,0,
0,6007,6007,6007,6007,6007,6007,6007,6007,6007,6007,6007,6007,6007,6007,6007,6007,6007,6007,6007,6007,6007,6007,6007,6007,6007,6007,6007,6007,6007,6007,6007,6007,6007,6007,6007,6007,6007,6007,6007,6007,6007,6007,6007,6007,6007,6007,0,0,0,
0,6007,6007,6007,6007,6007,6007,6007,6007,6007,6007,6007,6007,6007,6007,6007,6007,6007,6007,6007,6007,6007,6007,6007,6007,6007,6007,6007,6007,6007,6007,6007,6007,6007,6007,6007,6007,6007,6007,6007,6007,6007,6007,6007,6007,6007,6007,0,0,0,
0,6007,6007,6007,6007,6007,6007,6007,6007,6007,6007,6007,6007,6007,6007,6007,6007,6007,6007,6007,6007,6007,6007,6007,6007,6007,6007,6007,6007,6007,6007,6007,6007,6007,6007,6007,6007,6007,6007,6007,6007,6007,6007,6007,6007,6007,6007,0,0,0,
0,6007,6007,6007,6007,6007,6007,6007,6007,6007,6007,6007,6007,6007,6007,6007,6007,6007,6007,6007,6007,6007,6007,6007,6007,6007,6007,6007,6007,6007,6007,6007,6007,6007,6007,6007,6007,6007,6007,6007,6007,6007,6007,6007,6007,6007,6007,0,0,0,
0,6007,6007,6007,6007,6007,6007,6007,6007,6007,6007,6007,6007,6007,6007,6007,6007,6007,6007,6007,6007,6007,6007,6007,6007,6007,6007,6007,6007,6007,6007,6007,6007,6007,6007,6007,6007,6007,6007,6007,6007,6007,6007,6007,6007,6007,6007,0,0,0,
0,6007,6007,6007,6007,6007,6007,6007,6007,6007,6007,6007,6007,6007,6007,6007,6007,6007,6007,6007,6007,6007,6007,6007,6007,6007,6007,6007,6007,6007,6007,6007,6007,6007,6007,6007,6007,6007,6007,6007,6007,6007,6007,6007,6007,6007,6007,0,0,0,
0,6007,6007,6007,6007,6007,6007,6007,6007,6007,6007,6007,6007,6007,6007,6007,6007,6007,6007,6007,6007,6007,6007,6007,6007,6007,6007,6007,6007,6007,6007,6007,6007,6007,6007,6007,6007,6007,6007,6007,6007,6007,6007,6007,6007,6007,6007,0,0,0,
0,6007,6007,6007,6007,6007,6007,6007,6007,6007,6007,6007,6007,6007,6007,6007,6007,6007,6007,6007,6007,6007,6007,6007,6007,6007,6007,6007,6007,6007,6007,6007,6007,6007,6007,6007,6007,6007,6007,6007,6007,6007,6007,6007,6007,6007,6007,0,0,0,
0,6007,6007,6007,6007,6007,6007,6007,6007,6007,6007,6007,6007,6007,6007,6007,6007,6007,6007,6007,6007,6007,6007,6007,6007,6007,6007,6007,6007,6007,6007,6007,6007,6007,6007,6007,6007,6007,6007,6007,6007,6007,6007,6007,6007,6007,6007,0,0,0,
0,6007,6007,6007,6007,6007,6007,6007,6007,6007,6007,6007,6007,6007,6007,6007,6007,6007,6007,6007,6007,6007,6007,6007,6007,6007,6007,6007,6007,6007,6007,6007,6007,6007,6007,6007,6007,6007,6007,6007,6007,6007,6007,6007,6007,6007,6007,0,0,0,
0,6007,6007,6007,6007,6007,6007,6007,6007,6007,6007,6007,6007,6007,6007,6007,6007,6007,6007,6007,6007,6007,6007,6007,6007,6007,6007,6007,6007,6007,6007,6007,6007,6007,6007,6007,6007,6007,6007,6007,6007,6007,6007,6007,6007,6007,6007,0,0,0,
0,6007,6007,6007,6007,6007,6007,6007,6007,6007,6007,6007,6007,6007,6007,6007,6007,6007,6007,6007,6007,6007,6007,6007,6007,6007,6007,6007,6007,6007,6007,6007,6007,6007,6007,6007,6007,6007,6007,6007,6007,6007,6007,6007,6007,6007,6007,0,0,0,
0,6007,6007,6007,6007,6007,6007,6007,6007,6007,6007,6007,6007,6007,6007,6007,6007,6007,6007,6007,6007,6007,6007,6007,6007,6007,6007,6007,6007,6007,6007,6007,6007,6007,6007,6007,6007,6007,6007,6007,6007,6007,6007,6007,6007,6007,6007,0,0,0,
0,6007,6007,6007,6007,6007,6007,6007,6007,6007,6007,6007,6007,6007,6007,6007,6007,6007,6007,6007,6007,6007,6007,6007,6007,6007,6007,6007,6007,6007,6007,6007,6007,6007,6007,6007,6007,6007,6007,6007,6007,6007,6007,6007,6007,6007,6007,0,0,0,
0,6007,6007,6007,6007,6007,6007,6007,6007,6007,6007,6007,6007,6007,6007,6007,6007,6007,6007,6007,6007,6007,6007,6007,6007,6007,6007,6007,6007,6007,6007,6007,6007,6007,6007,6007,6007,6007,6007,6007,6007,6007,6007,6007,6007,6007,6007,0,0,0,
0,6007,6007,6007,6007,6007,6007,6007,6007,6007,6007,6007,6007,6007,6007,6007,6007,6007,6007,6007,6007,6007,6007,6007,6007,6007,6007,6007,6007,6007,6007,6007,6007,6007,6007,6007,6007,6007,6007,6007,6007,6007,6007,6007,6007,6007,6007,0,0,0,
0,6007,6007,6007,6007,6007,6007,6007,6007,6007,6007,6007,6007,6007,6007,6007,6007,6007,6007,6007,6007,6007,6007,6007,6007,6007,6007,6007,6007,6007,6007,6007,6007,6007,6007,6007,6007,6007,6007,6007,6007,6007,6007,6007,6007,6007,6007,0,0,0,
0,6007,6007,6007,6007,6007,6007,6007,6007,6007,6007,6007,6007,6007,6007,6007,6007,6007,6007,6007,6007,6007,6007,6007,6007,6007,6007,6007,6007,6007,6007,6007,6007,6007,6007,6007,6007,6007,6007,6007,6007,6007,6007,6007,6007,6007,6007,0,0,0,
0,6007,6007,6007,6007,6007,6007,6007,6007,6007,6007,6007,6007,6007,6007,6007,6007,6007,6007,6007,6007,6007,6007,6007,6007,6007,6007,6007,6007,6007,6007,6007,6007,6007,6007,6007,6007,6007,6007,6007,6007,6007,6007,6007,6007,6007,6007,0,0,0,
0,6007,6007,6007,6007,6007,6007,6007,6007,6007,6007,6007,6007,6007,6007,6007,6007,6007,6007,6007,6007,6007,6007,6007,6007,6007,6007,6007,6007,6007,6007,6007,6007,6007,6007,6007,6007,6007,6007,6007,6007,6007,6007,6007,6007,6007,6007,0,0,0,
0,6007,6007,6007,6007,6007,6007,6007,6007,6007,6007,6007,6007,6007,6007,6007,6007,6007,6007,6007,6007,6007,6007,6007,6007,6007,6007,6007,6007,6007,6007,6007,6007,6007,6007,6007,6007,6007,6007,6007,6007,6007,6007,6007,6007,6007,6007,0,0,0,
0,6007,6007,6007,6007,6007,6007,6007,6007,6007,6007,6007,6007,6007,6007,6007,6007,6007,6007,6007,6007,6007,6007,6007,6007,6007,6007,6007,6007,6007,6007,6007,6007,6007,6007,6007,6007,6007,6007,6007,6007,6007,6007,6007,6007,6007,6007,0,0,0,
0,6007,6007,6007,6007,6007,6007,6007,6007,6007,6007,6007,6007,6007,6007,6007,6007,6007,6007,6007,6007,6007,6007,6007,6007,6007,6007,6007,6007,6007,6007,6007,6007,6007,6007,6007,6007,6007,6007,6007,6007,6007,6007,6007,6007,6007,6007,0,0,0,
0,0,0,0,0,0,0,0,0,0,0,0,0,0,0,0,0,0,0,0,0,0,0,0,0,0,0,0,0,0,0,0,0,0,0,0,0,0,0,0,0,0,0,0,0,0,0,0,0,0,
0,0,0,0,0,0,0,0,0,0,0,0,0,0,0,0,0,0,0,0,0,0,0,0,0,0,0,0,0,0,0,0,0,0,0,0,0,0,0,0,0,0,0,0,0,0,0,0,0,0,
0,0,0,0,0,0,0,0,0,0,0,0,0,0,0,0,0,0,0,0,0,0,0,0,0,0,0,0,0,0,0,0,0,0,0,0,0,0,0,0,0,0,0,0,0,0,0,0,0,0,
0,0,0,0,0,0,0,0,0,0,0,0,0,0,0,0,0,0,0,0,0,0,0,0,0,0,0,0,0,0,0,0,0,0,0,0,0,0,0,0,0,0,0,0,0,0,0,0,0,0,
0,0,0,0,0,0,0,0,0,0,0,0,0,0,0,0,0,0,0,0,0,0,0,0,0,0,0,0,0,0,0,0,0,0,0,0,0,0,0,0,0,0,0,0,0,0,0,0,0,0,
0,0,0,0,0,0,0,0,0,0,0,0,0,0,0,0,0,0,0,0,0,0,0,0,0,0,0,0,0,0,0,0,0,0,0,0,0,0,0,0,0,0,0,0,0,0,0,0,0,0,
0,0,0,0,0,0,0,0,0,0,0,0,0,0,0,0,0,0,0,0,0,0,0,0,0,0,0,0,0,0,0,0,0,0,0,0,0,0,0,0,0,0,0,0,0,0,0,0,0,0,
0,0,0,0,0,0,0,0,0,0,0,0,0,0,0,0,0,0,0,0,0,0,0,0,0,0,0,0,0,0,0,0,0,0,0,0,0,0,0,0,0,0,0,0,0,0,0,0,0,0,
0,0,0,0,0,0,0,0,0,0,0,0,0,0,0,0,0,0,0,0,0,0,0,0,0,0,0,0,0,0,0,0,0,0,0,0,0,0,0,0,0,0,0,0,0,0,0,0,0,0
</data>
 </layer>
 <objectgroup draworder="index" id="16" name="Meta" visible="0">
  <object id="23" template="../../../templates/obj_roomtransition.tx" type="obj_roomtransition" x="176" y="120" width="48" height="32">
   <properties>
    <property name="player_direction" type="int" value="90"/>
   </properties>
  </object>
  <object id="24" template="../../../templates/obj_roomtransition.tx" type="obj_roomtransition" x="176" y="424" width="48" height="32">
   <properties>
    <property name="player_direction" type="int" value="270"/>
   </properties>
  </object>
  <object id="25" template="../../../templates/meta/obj_sound_emitter.tx" type="obj_sound_emitter" x="72" y="184" width="8" height="16">
   <properties>
    <property name="sound_asset" value="SoundEffects/Environment/FirePlace"/>
   </properties>
  </object>
  <object id="26" template="../../../templates/meta/obj_sound_emitter.tx" type="obj_sound_emitter" x="320" y="184" width="8" height="16">
   <properties>
    <property name="sound_asset" value="SoundEffects/Environment/FirePlace"/>
   </properties>
  </object>
  <object id="27" template="../../../templates/meta/obj_sound_emitter.tx" type="obj_sound_emitter" x="224" y="112" width="16" height="8">
   <properties>
    <property name="sound_asset" value="SoundEffects/Environment/FirePlace"/>
   </properties>
  </object>
  <object id="28" template="../../../templates/meta/obj_sound_emitter.tx" type="obj_sound_emitter" x="160" y="112" width="16" height="8">
   <properties>
    <property name="sound_asset" value="SoundEffects/Environment/FirePlace"/>
   </properties>
  </object>
 </objectgroup>
 <objectgroup draworder="index" id="17" name="TrellisPoints_Water_Seal">
  <object id="29" template="../../../templates/meta/obj_trellis_point_default.tx" name="ws_ari_entrance" type="obj_trellis_point_default" x="188" y="421"/>
  <object id="30" template="../../../templates/meta/obj_trellis_point_default.tx" name="ws_ari_start" type="obj_trellis_point_default" x="188" y="335"/>
  <object id="31" template="../../../templates/meta/obj_trellis_point_default.tx" name="ws_ari_tablet" type="obj_trellis_point_default" x="188" y="219"/>
  <object id="32" template="../../../templates/meta/obj_trellis_point_default.tx" name="ws_ari_back" type="obj_trellis_point_default" x="188" y="235"/>
  <object id="33" template="../../../templates/meta/obj_trellis_point_camera.tx" name="ws_camera_seal" type="obj_trellis_point_camera" x="188" y="143"/>
  <object id="34" template="../../../templates/meta/obj_trellis_point_camera.tx" name="ws_camera_3" type="obj_trellis_point_camera" x="188" y="203"/>
  <object id="35" template="../../../templates/meta/obj_trellis_point_camera.tx" name="ws_camera_2" type="obj_trellis_point_camera" x="188" y="311"/>
  <object id="36" template="../../../templates/meta/obj_trellis_point_camera.tx" name="ws_camera_1" type="obj_trellis_point_camera" x="188" y="393"/>
  <object id="37" template="../../../templates/meta/obj_trellis_point_camera.tx" name="ws_camera_priestess" type="obj_trellis_point_camera" x="188" y="173"/>
  <object id="38" template="../../../templates/meta/obj_trellis_point_default.tx" name="ws_priestess" type="obj_trellis_point_default" x="188" y="153"/>
 </objectgroup>
 <objectgroup draworder="index" id="18" name="TrellisPoints">
  <object id="39" template="../../../templates/meta/obj_trellis_point_default.tx" name="ari_look" type="obj_trellis_point_default" x="188" y="221">
   <properties>
    <property name="direction" type="int" propertytype="Cardinal" value="1"/>
   </properties>
  </object>
  <object id="40" template="../../../templates/meta/obj_trellis_point_default.tx" name="ari_spawn" type="obj_trellis_point_default" x="188" y="397">
   <properties>
    <property name="direction" type="int" propertytype="Cardinal" value="1"/>
   </properties>
  </object>
 </objectgroup>
</map>
